%
(1001)
(Bottom of workpiece)
(T4 D=0.25 CR=0 - ZMIN=-0.36 - flat end mill)
N10 G90
N15 G28 G91 Z0
N20 G90

(2D Contour2)
N25 M9
N30 T4 M6
N35 S1000 M3
N40 M9
N45 G0 X0.4 Y-1.525
N50 Z0.6
N55 Z0.2
N60 G1 Z0.1644 F40
N65 Z-0.1
N70 X0.4003 Z-0.1039
N75 X0.4012 Z-0.1077
N80 X0.4027 Z-0.1113
N85 X0.4048 Z-0.1147
N90 X0.4073 Z-0.1177
N95 X0.4103 Z-0.1202
N100 X0.4137 Z-0.1223
N105 X0.4173 Z-0.1238
N110 X0.4211 Z-0.1247
N115 X0.425 Z-0.125
N120 X0.45
N125 G3 X0.475 Y-1.5 J0.025
N130 G1 Y-1.001
N135 G2 X0.4751 Y-0.9966 I0.125
N140 G1 X0.4763 Y-0.9611
N145 G2 X0.477 Y-0.9522 I0.1249 J-0.0044
N150 G1 X0.4807 Y-0.9169
N155 G2 X0.482 Y-0.9082 I0.1243 J-0.0133
N160 G1 X0.4882 Y-0.8733
N165 G2 X0.4901 Y-0.8647 I0.123 J-0.022
N170 G1 X0.4988 Y-0.8303
N175 G2 X0.5012 Y-0.8221 I0.1212 J-0.0307
N180 G1 X0.5114 Y-0.7908
N185 G2 X0.5143 Y-0.783 I0.1188 J-0.0389
N190 G1 X0.5266 Y-0.7524
N195 G2 X0.5299 Y-0.7449 I0.116 J-0.0467
N200 G1 X0.5442 Y-0.7152
N205 G2 X0.548 Y-0.7079 I0.1126 J-0.0542
N210 G1 X0.5642 Y-0.6792
N215 G2 X0.5683 Y-0.6725 I0.1088 J-0.0615
N220 G1 X0.5848 Y-0.6472
N225 G2 X0.5891 Y-0.641 I0.1047 J-0.0682
N230 G1 X0.607 Y-0.6168
N235 G2 X0.6117 Y-0.6108 I0.1004 J-0.0744
N240 G1 X0.6311 Y-0.5877
N245 G2 X0.6361 Y-0.582 I0.0958 J-0.0803
N250 G1 X0.657 Y-0.5601
N255 G2 X0.6623 Y-0.5548 I0.0907 J-0.086
N260 G1 X0.6841 Y-0.5344
N265 G2 X0.6897 Y-0.5295 I0.0854 J-0.0913
N270 G1 X0.7126 Y-0.5105
N275 G2 X0.7184 Y-0.5059 I0.0798 J-0.0962
N280 G1 X0.7424 Y-0.4883
N285 G2 X0.7485 Y-0.4841 I0.074 J-0.1008
N290 G1 X0.7735 Y-0.4679
N295 G2 X0.7801 Y-0.4639 I0.0679 J-0.105
N300 G1 X0.8081 Y-0.4482
N305 G2 X0.8151 Y-0.4445 I0.0612 J-0.109
N310 G1 X0.8441 Y-0.4306
N315 G2 X0.8514 Y-0.4274 I0.0541 J-0.1127
N320 G1 X0.8812 Y-0.4153
N325 G2 X0.8888 Y-0.4126 I0.0468 J-0.1159
N330 G1 X0.9193 Y-0.4025
N335 G2 X0.9274 Y-0.4001 I0.0393 J-0.1187
N340 G1 X0.9622 Y-0.3911
N345 G2 X0.971 Y-0.3892 I0.0311 J-0.1211
N350 G1 X1.0064 Y-0.3828
N355 G2 X1.0153 Y-0.3815 I0.0223 J-0.123
N360 G1 X1.051 Y-0.3776
N365 G2 X1.06 Y-0.377 I0.0134 J-0.1243
N370 G1 X1.0959 Y-0.3757
N375 G2 X1.1004 Y-0.3756 I0.0045 J-0.1249
N380 G1 X2.0984
N385 G2 X2.1028 Y-0.3757 J-0.125
N390 G1 X2.1383 Y-0.377
N395 G2 X2.1472 Y-0.3776 I-0.0044 J-0.1249
N400 G1 X2.1824 Y-0.3814
N405 G2 X2.1912 Y-0.3826 I-0.0133 J-0.1243
N410 G1 X2.2261 Y-0.3889
N415 G2 X2.2347 Y-0.3907 I-0.022 J-0.123
N420 G1 X2.2691 Y-0.3994
N425 G2 X2.2773 Y-0.4018 I-0.0307 J-0.1212
N430 G1 X2.3086 Y-0.4121
N435 G2 X2.3163 Y-0.4149 I-0.0389 J-0.1188
N440 G1 X2.347 Y-0.4272
N445 G2 X2.3545 Y-0.4306 I-0.0466 J-0.116
N450 G1 X2.3842 Y-0.4448
N455 G2 X2.3915 Y-0.4487 I-0.0542 J-0.1126
N460 G1 X2.4202 Y-0.4648
N465 G2 X2.4269 Y-0.4689 I-0.0615 J-0.1088
N470 G1 X2.4522 Y-0.4854
N475 G2 X2.4584 Y-0.4897 I-0.0682 J-0.1047
N480 G1 X2.4826 Y-0.5077
N485 G2 X2.4885 Y-0.5123 I-0.0744 J-0.1004
N490 G1 X2.5117 Y-0.5318
N495 G2 X2.5173 Y-0.5368 I-0.0803 J-0.0958
N500 G1 X2.5393 Y-0.5576
N505 G2 X2.5446 Y-0.5629 I-0.086 J-0.0907
N510 G1 X2.565 Y-0.5847
N515 G2 X2.5699 Y-0.5903 I-0.0913 J-0.0854
N520 G1 X2.5889 Y-0.6132
N525 G2 X2.5935 Y-0.6191 I-0.0962 J-0.0798
N530 G1 X2.6111 Y-0.643
N535 G2 X2.6153 Y-0.6492 I-0.1008 J-0.074
N540 G1 X2.6315 Y-0.6741
N545 G2 X2.6354 Y-0.6807 I-0.105 J-0.0679
N550 G1 X2.6511 Y-0.7087
N555 G2 X2.6549 Y-0.7158 I-0.109 J-0.0612
N560 G1 X2.6688 Y-0.7447
N565 G2 X2.672 Y-0.752 I-0.1127 J-0.0541
N570 G1 X2.684 Y-0.7819
N575 G2 X2.6868 Y-0.7894 I-0.1159 J-0.0468
N580 G1 X2.6969 Y-0.8199
N585 G2 X2.6993 Y-0.8281 I-0.1187 J-0.0393
N590 G1 X2.7082 Y-0.8629
N595 G2 X2.7101 Y-0.8716 I-0.1211 J-0.0311
N600 G1 X2.7166 Y-0.907
N605 G2 X2.7179 Y-0.9159 I-0.123 J-0.0223
N610 G1 X2.7217 Y-0.9516
N615 G2 X2.7224 Y-0.9606 I-0.1243 J-0.0134
N620 G1 X2.7237 Y-0.9965
N625 G2 Y-1.001 I-0.1249 J-0.0045
N630 G1 Y-1.999
N635 G2 Y-2.0034 I-0.125
N640 G1 X2.7224 Y-2.0389
N645 G2 X2.7218 Y-2.0478 I-0.1249 J0.0044
N650 G1 X2.718 Y-2.0831
N655 G2 X2.7167 Y-2.0918 I-0.1243 J0.0133
N660 G1 X2.7105 Y-2.1267
N665 G2 X2.7086 Y-2.1353 I-0.123 J0.022
N670 G1 X2.6999 Y-2.1697
N675 G2 X2.6975 Y-2.1779 I-0.1212 J0.0307
N680 G1 X2.6873 Y-2.2092
N685 G2 X2.6845 Y-2.217 I-0.1188 J0.0389
N690 G1 X2.6721 Y-2.2476
N695 G2 X2.6688 Y-2.2551 I-0.116 J0.0466
N700 G1 X2.6545 Y-2.2849
N705 G2 X2.6507 Y-2.2921 I-0.1126 J0.0542
N710 G1 X2.6345 Y-2.3208
N715 G2 X2.6304 Y-2.3275 I-0.1088 J0.0615
N720 G1 X2.614 Y-2.3528
N725 G2 X2.6097 Y-2.359 I-0.1047 J0.0682
N730 G1 X2.5917 Y-2.3833
N735 G2 X2.587 Y-2.3892 I-0.1004 J0.0744
N740 G1 X2.5676 Y-2.4123
N745 G2 X2.5626 Y-2.418 I-0.0958 J0.0803
N750 G1 X2.5418 Y-2.4399
N755 G2 X2.5364 Y-2.4452 I-0.0907 J0.086
N760 G1 X2.5147 Y-2.4656
N765 G2 X2.5091 Y-2.4705 I-0.0854 J0.0913
N770 G1 X2.4862 Y-2.4896
N775 G2 X2.4803 Y-2.4941 I-0.0798 J0.0962
N780 G1 X2.4563 Y-2.5117
N785 G2 X2.4502 Y-2.5159 I-0.074 J0.1008
N790 G1 X2.4252 Y-2.5321
N795 G2 X2.4186 Y-2.5361 I-0.0679 J0.105
N800 G1 X2.3907 Y-2.5518
N805 G2 X2.3836 Y-2.5555 I-0.0612 J0.109
N810 G1 X2.3547 Y-2.5694
N815 G2 X2.3473 Y-2.5726 I-0.0541 J0.1127
N820 G1 X2.3175 Y-2.5847
N825 G2 X2.31 Y-2.5874 I-0.0468 J0.1159
N830 G1 X2.2795 Y-2.5975
N835 G2 X2.2713 Y-2.5999 I-0.0393 J0.1187
N840 G1 X2.2365 Y-2.6089
N845 G2 X2.2277 Y-2.6108 I-0.0311 J0.1211
N850 G1 X2.1924 Y-2.6172
N855 G2 X2.1835 Y-2.6185 I-0.0223 J0.123
N860 G1 X2.1477 Y-2.6224
N865 G2 X2.1388 Y-2.623 I-0.0134 J0.1243
N870 G1 X2.1029 Y-2.6243
N875 G2 X2.0984 Y-2.6244 I-0.0045 J0.1249
N880 G1 X1.1004
N885 G2 X1.0959 Y-2.6243 J0.125
N890 G1 X1.0604 Y-2.623
N895 G2 X1.0516 Y-2.6224 I0.0044 J0.1249
N900 G1 X1.0163 Y-2.6186
N905 G2 X1.0075 Y-2.6174 I0.0133 J0.1243
N910 G1 X0.9727 Y-2.6111
N915 G2 X0.964 Y-2.6093 I0.022 J0.123
N920 G1 X0.9297 Y-2.6006
N925 G2 X0.9215 Y-2.5982 I0.0307 J0.1212
N930 G1 X0.8902 Y-2.5879
N935 G2 X0.8824 Y-2.5851 I0.0389 J0.1188
N940 G1 X0.8518 Y-2.5728
N945 G2 X0.8442 Y-2.5694 I0.0466 J0.116
N950 G1 X0.8145 Y-2.5552
N955 G2 X0.8072 Y-2.5513 I0.0542 J0.1126
N960 G1 X0.7786 Y-2.5352
N965 G2 X0.7718 Y-2.5311 I0.0615 J0.1088
N970 G1 X0.7466 Y-2.5146
N975 G2 X0.7404 Y-2.5103 I0.0682 J0.1047
N980 G1 X0.7161 Y-2.4923
N985 G2 X0.7102 Y-2.4877 I0.0744 J0.1004
N990 G1 X0.6871 Y-2.4683
N995 G2 X0.6814 Y-2.4632 I0.0803 J0.0958
N1000 G1 X0.6594 Y-2.4424
N1005 G2 X0.6541 Y-2.4371 I0.086 J0.0907
N1010 G1 X0.6338 Y-2.4153
N1015 G2 X0.6288 Y-2.4097 I0.0913 J0.0854
N1020 G1 X0.6098 Y-2.3868
N1025 G2 X0.6052 Y-2.3809 I0.0962 J0.0798
N1030 G1 X0.5876 Y-2.357
N1035 G2 X0.5834 Y-2.3508 I0.1008 J0.074
N1040 G1 X0.5673 Y-2.3259
N1045 G2 X0.5633 Y-2.3193 I0.105 J0.0679
N1050 G1 X0.5476 Y-2.2913
N1055 G2 X0.5439 Y-2.2842 I0.109 J0.0612
N1060 G1 X0.53 Y-2.2553
N1065 G2 X0.5267 Y-2.2479 I0.1127 J0.0541
N1070 G1 X0.5147 Y-2.2181
N1075 G2 X0.5119 Y-2.2106 I0.1159 J0.0468
N1080 G1 X0.5018 Y-2.1801
N1085 G2 X0.4995 Y-2.1719 I0.1187 J0.0393
N1090 G1 X0.4905 Y-2.1371
N1095 G2 X0.4886 Y-2.1283 I0.1211 J0.0311
N1100 G1 X0.4822 Y-2.093
N1105 G2 X0.4809 Y-2.0841 I0.123 J0.0223
N1110 G1 X0.477 Y-2.0484
N1115 G2 X0.4764 Y-2.0394 I0.1243 J0.0135
N1120 G1 X0.4751 Y-2.0035
N1125 G2 X0.475 Y-1.999 I0.1249 J0.0045
N1130 G1 Y-1.5
N1135 G3 X0.45 Y-1.475 I-0.025
N1140 G1 X0.425
N1145 X0.4211 Z-0.1247
N1150 X0.4173 Z-0.1238
N1155 X0.4137 Z-0.1223
N1160 X0.4103 Z-0.1202
N1165 X0.4073 Z-0.1177
N1170 X0.4048 Z-0.1147
N1175 X0.4027 Z-0.1113
N1180 X0.4012 Z-0.1077
N1185 X0.4003 Z-0.1039
N1190 X0.4 Z-0.1
N1195 Y-1.525
N1200 Z-0.225
N1205 X0.4002 Z-0.2284
N1210 X0.4009 Z-0.2318
N1215 X0.4021 Z-0.235
N1220 X0.425
N1225 X0.45
N1230 G3 X0.475 Y-1.5 J0.025
N1235 G1 Y-1.375
N1240 Y-1.36 Z-0.25
N1245 Y-1.001
N1250 G2 X0.4751 Y-0.9966 I0.125
N1255 G1 X0.4763 Y-0.9611
N1260 G2 X0.477 Y-0.9522 I0.1249 J-0.0044
N1265 G1 X0.4807 Y-0.9169
N1270 G2 X0.482 Y-0.9082 I0.1243 J-0.0133
N1275 G1 X0.4882 Y-0.8733
N1280 G2 X0.4901 Y-0.8647 I0.123 J-0.022
N1285 G1 X0.4988 Y-0.8303
N1290 G2 X0.5012 Y-0.8221 I0.1212 J-0.0307
N1295 G1 X0.5114 Y-0.7908
N1300 G2 X0.5143 Y-0.783 I0.1188 J-0.0389
N1305 G1 X0.5266 Y-0.7524
N1310 G2 X0.5299 Y-0.7449 I0.116 J-0.0467
N1315 G1 X0.5442 Y-0.7152
N1320 G2 X0.548 Y-0.7079 I0.1126 J-0.0542
N1325 G1 X0.5642 Y-0.6792
N1330 G2 X0.5683 Y-0.6725 I0.1088 J-0.0615
N1335 G1 X0.5848 Y-0.6472
N1340 G2 X0.5891 Y-0.641 I0.1047 J-0.0682
N1345 G1 X0.607 Y-0.6168
N1350 G2 X0.6117 Y-0.6108 I0.1004 J-0.0744
N1355 G1 X0.6311 Y-0.5877
N1360 G2 X0.6361 Y-0.582 I0.0958 J-0.0803
N1365 G1 X0.657 Y-0.5601
N1370 G2 X0.6623 Y-0.5548 I0.0907 J-0.086
N1375 G1 X0.6841 Y-0.5344
N1380 G2 X0.6897 Y-0.5295 I0.0854 J-0.0913
N1385 G1 X0.7126 Y-0.5105
N1390 G2 X0.7184 Y-0.5059 I0.0798 J-0.0962
N1395 G1 X0.7424 Y-0.4883
N1400 G2 X0.7485 Y-0.4841 I0.074 J-0.1008
N1405 G1 X0.7735 Y-0.4679
N1410 G2 X0.7801 Y-0.4639 I0.0679 J-0.105
N1415 G1 X0.8081 Y-0.4482
N1420 G2 X0.8151 Y-0.4445 I0.0612 J-0.109
N1425 G1 X0.8441 Y-0.4306
N1430 G2 X0.8514 Y-0.4274 I0.0541 J-0.1127
N1435 G1 X0.8812 Y-0.4153
N1440 G2 X0.8888 Y-0.4126 I0.0468 J-0.1159
N1445 G1 X0.9193 Y-0.4025
N1450 G2 X0.9274 Y-0.4001 I0.0393 J-0.1187
N1455 G1 X0.9622 Y-0.3911
N1460 G2 X0.971 Y-0.3892 I0.0311 J-0.1211
N1465 G1 X1.0064 Y-0.3828
N1470 G2 X1.0153 Y-0.3815 I0.0223 J-0.123
N1475 G1 X1.051 Y-0.3776
N1480 G2 X1.06 Y-0.377 I0.0134 J-0.1243
N1485 G1 X1.0959 Y-0.3757
N1490 G2 X1.1004 Y-0.3756 I0.0045 J-0.1249
N1495 G1 X1.4594
N1500 X1.4744 Z-0.235
N1505 X1.7244
N1510 X1.7394 Z-0.25
N1515 X2.0984
N1520 G2 X2.1028 Y-0.3757 J-0.125
N1525 G1 X2.1383 Y-0.377
N1530 G2 X2.1472 Y-0.3776 I-0.0044 J-0.1249
N1535 G1 X2.1824 Y-0.3814
N1540 G2 X2.1912 Y-0.3826 I-0.0133 J-0.1243
N1545 G1 X2.2261 Y-0.3889
N1550 G2 X2.2347 Y-0.3907 I-0.022 J-0.123
N1555 G1 X2.2691 Y-0.3994
N1560 G2 X2.2773 Y-0.4018 I-0.0307 J-0.1212
N1565 G1 X2.3086 Y-0.4121
N1570 G2 X2.3163 Y-0.4149 I-0.0389 J-0.1188
N1575 G1 X2.347 Y-0.4272
N1580 G2 X2.3545 Y-0.4306 I-0.0466 J-0.116
N1585 G1 X2.3842 Y-0.4448
N1590 G2 X2.3915 Y-0.4487 I-0.0542 J-0.1126
N1595 G1 X2.4202 Y-0.4648
N1600 G2 X2.4269 Y-0.4689 I-0.0615 J-0.1088
N1605 G1 X2.4522 Y-0.4854
N1610 G2 X2.4584 Y-0.4897 I-0.0682 J-0.1047
N1615 G1 X2.4826 Y-0.5077
N1620 G2 X2.4885 Y-0.5123 I-0.0744 J-0.1004
N1625 G1 X2.5117 Y-0.5318
N1630 G2 X2.5173 Y-0.5368 I-0.0803 J-0.0958
N1635 G1 X2.5393 Y-0.5576
N1640 G2 X2.5446 Y-0.5629 I-0.086 J-0.0907
N1645 G1 X2.565 Y-0.5847
N1650 G2 X2.5699 Y-0.5903 I-0.0913 J-0.0854
N1655 G1 X2.5889 Y-0.6132
N1660 G2 X2.5935 Y-0.6191 I-0.0962 J-0.0798
N1665 G1 X2.6111 Y-0.643
N1670 G2 X2.6153 Y-0.6492 I-0.1008 J-0.074
N1675 G1 X2.6315 Y-0.6741
N1680 G2 X2.6354 Y-0.6807 I-0.105 J-0.0679
N1685 G1 X2.6511 Y-0.7087
N1690 G2 X2.6549 Y-0.7158 I-0.109 J-0.0612
N1695 G1 X2.6688 Y-0.7447
N1700 G2 X2.672 Y-0.752 I-0.1127 J-0.0541
N1705 G1 X2.684 Y-0.7819
N1710 G2 X2.6868 Y-0.7894 I-0.1159 J-0.0468
N1715 G1 X2.6969 Y-0.8199
N1720 G2 X2.6993 Y-0.8281 I-0.1187 J-0.0393
N1725 G1 X2.7082 Y-0.8629
N1730 G2 X2.7101 Y-0.8716 I-0.1211 J-0.0311
N1735 G1 X2.7166 Y-0.907
N1740 G2 X2.7179 Y-0.9159 I-0.123 J-0.0223
N1745 G1 X2.7217 Y-0.9516
N1750 G2 X2.7224 Y-0.9606 I-0.1243 J-0.0134
N1755 G1 X2.7237 Y-0.9965
N1760 G2 Y-1.001 I-0.1249 J-0.0045
N1765 G1 Y-1.36
N1770 Y-1.375 Z-0.235
N1775 Y-1.625
N1780 Y-1.64 Z-0.25
N1785 Y-1.999
N1790 G2 Y-2.0034 I-0.125
N1795 G1 X2.7224 Y-2.0389
N1800 G2 X2.7218 Y-2.0478 I-0.1249 J0.0044
N1805 G1 X2.718 Y-2.0831
N1810 G2 X2.7167 Y-2.0918 I-0.1243 J0.0133
N1815 G1 X2.7105 Y-2.1267
N1820 G2 X2.7086 Y-2.1353 I-0.123 J0.022
N1825 G1 X2.6999 Y-2.1697
N1830 G2 X2.6975 Y-2.1779 I-0.1212 J0.0307
N1835 G1 X2.6873 Y-2.2092
N1840 G2 X2.6845 Y-2.217 I-0.1188 J0.0389
N1845 G1 X2.6721 Y-2.2476
N1850 G2 X2.6688 Y-2.2551 I-0.116 J0.0466
N1855 G1 X2.6545 Y-2.2849
N1860 G2 X2.6507 Y-2.2921 I-0.1126 J0.0542
N1865 G1 X2.6345 Y-2.3208
N1870 G2 X2.6304 Y-2.3275 I-0.1088 J0.0615
N1875 G1 X2.614 Y-2.3528
N1880 G2 X2.6097 Y-2.359 I-0.1047 J0.0682
N1885 G1 X2.5917 Y-2.3833
N1890 G2 X2.587 Y-2.3892 I-0.1004 J0.0744
N1895 G1 X2.5676 Y-2.4123
N1900 G2 X2.5626 Y-2.418 I-0.0958 J0.0803
N1905 G1 X2.5418 Y-2.4399
N1910 G2 X2.5364 Y-2.4452 I-0.0907 J0.086
N1915 G1 X2.5147 Y-2.4656
N1920 G2 X2.5091 Y-2.4705 I-0.0854 J0.0913
N1925 G1 X2.4862 Y-2.4896
N1930 G2 X2.4803 Y-2.4941 I-0.0798 J0.0962
N1935 G1 X2.4563 Y-2.5117
N1940 G2 X2.4502 Y-2.5159 I-0.074 J0.1008
N1945 G1 X2.4252 Y-2.5321
N1950 G2 X2.4186 Y-2.5361 I-0.0679 J0.105
N1955 G1 X2.3907 Y-2.5518
N1960 G2 X2.3836 Y-2.5555 I-0.0612 J0.109
N1965 G1 X2.3547 Y-2.5694
N1970 G2 X2.3473 Y-2.5726 I-0.0541 J0.1127
N1975 G1 X2.3175 Y-2.5847
N1980 G2 X2.31 Y-2.5874 I-0.0468 J0.1159
N1985 G1 X2.2795 Y-2.5975
N1990 G2 X2.2713 Y-2.5999 I-0.0393 J0.1187
N1995 G1 X2.2365 Y-2.6089
N2000 G2 X2.2277 Y-2.6108 I-0.0311 J0.1211
N2005 G1 X2.1924 Y-2.6172
N2010 G2 X2.1835 Y-2.6185 I-0.0223 J0.123
N2015 G1 X2.1477 Y-2.6224
N2020 G2 X2.1388 Y-2.623 I-0.0134 J0.1243
N2025 G1 X2.1029 Y-2.6243
N2030 G2 X2.0984 Y-2.6244 I-0.0045 J0.1249
N2035 G1 X1.7394
N2040 X1.7244 Z-0.235
N2045 X1.4744
N2050 X1.4594 Z-0.25
N2055 X1.1004
N2060 G2 X1.0959 Y-2.6243 J0.125
N2065 G1 X1.0604 Y-2.623
N2070 G2 X1.0516 Y-2.6224 I0.0044 J0.1249
N2075 G1 X1.0163 Y-2.6186
N2080 G2 X1.0075 Y-2.6174 I0.0133 J0.1243
N2085 G1 X0.9727 Y-2.6111
N2090 G2 X0.964 Y-2.6093 I0.022 J0.123
N2095 G1 X0.9297 Y-2.6006
N2100 G2 X0.9215 Y-2.5982 I0.0307 J0.1212
N2105 G1 X0.8902 Y-2.5879
N2110 G2 X0.8824 Y-2.5851 I0.0389 J0.1188
N2115 G1 X0.8518 Y-2.5728
N2120 G2 X0.8442 Y-2.5694 I0.0466 J0.116
N2125 G1 X0.8145 Y-2.5552
N2130 G2 X0.8072 Y-2.5513 I0.0542 J0.1126
N2135 G1 X0.7786 Y-2.5352
N2140 G2 X0.7718 Y-2.5311 I0.0615 J0.1088
N2145 G1 X0.7466 Y-2.5146
N2150 G2 X0.7404 Y-2.5103 I0.0682 J0.1047
N2155 G1 X0.7161 Y-2.4923
N2160 G2 X0.7102 Y-2.4877 I0.0744 J0.1004
N2165 G1 X0.6871 Y-2.4683
N2170 G2 X0.6814 Y-2.4632 I0.0803 J0.0958
N2175 G1 X0.6594 Y-2.4424
N2180 G2 X0.6541 Y-2.4371 I0.086 J0.0907
N2185 G1 X0.6338 Y-2.4153
N2190 G2 X0.6288 Y-2.4097 I0.0913 J0.0854
N2195 G1 X0.6098 Y-2.3868
N2200 G2 X0.6052 Y-2.3809 I0.0962 J0.0798
N2205 G1 X0.5876 Y-2.357
N2210 G2 X0.5834 Y-2.3508 I0.1008 J0.074
N2215 G1 X0.5673 Y-2.3259
N2220 G2 X0.5633 Y-2.3193 I0.105 J0.0679
N2225 G1 X0.5476 Y-2.2913
N2230 G2 X0.5439 Y-2.2842 I0.109 J0.0612
N2235 G1 X0.53 Y-2.2553
N2240 G2 X0.5267 Y-2.2479 I0.1127 J0.0541
N2245 G1 X0.5147 Y-2.2181
N2250 G2 X0.5119 Y-2.2106 I0.1159 J0.0468
N2255 G1 X0.5018 Y-2.1801
N2260 G2 X0.4995 Y-2.1719 I0.1187 J0.0393
N2265 G1 X0.4905 Y-2.1371
N2270 G2 X0.4886 Y-2.1283 I0.1211 J0.0311
N2275 G1 X0.4822 Y-2.093
N2280 G2 X0.4809 Y-2.0841 I0.123 J0.0223
N2285 G1 X0.477 Y-2.0484
N2290 G2 X0.4764 Y-2.0394 I0.1243 J0.0135
N2295 G1 X0.4751 Y-2.0035
N2300 G2 X0.475 Y-1.999 I0.1249 J0.0045
N2305 G1 Y-1.64
N2310 Y-1.625 Z-0.235
N2315 Y-1.5
N2320 G3 X0.45 Y-1.475 I-0.025
N2325 G1 X0.425
N2330 X0.4021
N2335 X0.4009 Z-0.2318
N2340 X0.4002 Z-0.2284
N2345 X0.4 Z-0.225
N2350 Y-1.525
N2355 Z-0.235
N2360 X0.425
N2365 X0.45
N2370 G3 X0.475 Y-1.5 J0.025
N2375 G1 Y-1.375
N2380 Y-1.25 Z-0.36
N2385 Y-1.001
N2390 G2 X0.4751 Y-0.9966 I0.125
N2395 G1 X0.4763 Y-0.9611
N2400 G2 X0.477 Y-0.9522 I0.1249 J-0.0044
N2405 G1 X0.4807 Y-0.9169
N2410 G2 X0.482 Y-0.9082 I0.1243 J-0.0133
N2415 G1 X0.4882 Y-0.8733
N2420 G2 X0.4901 Y-0.8647 I0.123 J-0.022
N2425 G1 X0.4988 Y-0.8303
N2430 G2 X0.5012 Y-0.8221 I0.1212 J-0.0307
N2435 G1 X0.5114 Y-0.7908
N2440 G2 X0.5143 Y-0.783 I0.1188 J-0.0389
N2445 G1 X0.5266 Y-0.7524
N2450 G2 X0.5299 Y-0.7449 I0.116 J-0.0467
N2455 G1 X0.5442 Y-0.7152
N2460 G2 X0.548 Y-0.7079 I0.1126 J-0.0542
N2465 G1 X0.5642 Y-0.6792
N2470 G2 X0.5683 Y-0.6725 I0.1088 J-0.0615
N2475 G1 X0.5848 Y-0.6472
N2480 G2 X0.5891 Y-0.641 I0.1047 J-0.0682
N2485 G1 X0.607 Y-0.6168
N2490 G2 X0.6117 Y-0.6108 I0.1004 J-0.0744
N2495 G1 X0.6311 Y-0.5877
N2500 G2 X0.6361 Y-0.582 I0.0958 J-0.0803
N2505 G1 X0.657 Y-0.5601
N2510 G2 X0.6623 Y-0.5548 I0.0907 J-0.086
N2515 G1 X0.6841 Y-0.5344
N2520 G2 X0.6897 Y-0.5295 I0.0854 J-0.0913
N2525 G1 X0.7126 Y-0.5105
N2530 G2 X0.7184 Y-0.5059 I0.0798 J-0.0962
N2535 G1 X0.7424 Y-0.4883
N2540 G2 X0.7485 Y-0.4841 I0.074 J-0.1008
N2545 G1 X0.7735 Y-0.4679
N2550 G2 X0.7801 Y-0.4639 I0.0679 J-0.105
N2555 G1 X0.8081 Y-0.4482
N2560 G2 X0.8151 Y-0.4445 I0.0612 J-0.109
N2565 G1 X0.8441 Y-0.4306
N2570 G2 X0.8514 Y-0.4274 I0.0541 J-0.1127
N2575 G1 X0.8812 Y-0.4153
N2580 G2 X0.8888 Y-0.4126 I0.0468 J-0.1159
N2585 G1 X0.9193 Y-0.4025
N2590 G2 X0.9274 Y-0.4001 I0.0393 J-0.1187
N2595 G1 X0.9622 Y-0.3911
N2600 G2 X0.971 Y-0.3892 I0.0311 J-0.1211
N2605 G1 X1.0064 Y-0.3828
N2610 G2 X1.0153 Y-0.3815 I0.0223 J-0.123
N2615 G1 X1.051 Y-0.3776
N2620 G2 X1.06 Y-0.377 I0.0134 J-0.1243
N2625 G1 X1.0959 Y-0.3757
N2630 G2 X1.1004 Y-0.3756 I0.0045 J-0.1249
N2635 G1 X1.3494
N2640 X1.4744 Z-0.235
N2645 X1.7244
N2650 X1.8494 Z-0.36
N2655 X2.0984
N2660 G2 X2.1028 Y-0.3757 J-0.125
N2665 G1 X2.1383 Y-0.377
N2670 G2 X2.1472 Y-0.3776 I-0.0044 J-0.1249
N2675 G1 X2.1824 Y-0.3814
N2680 G2 X2.1912 Y-0.3826 I-0.0133 J-0.1243
N2685 G1 X2.2261 Y-0.3889
N2690 G2 X2.2347 Y-0.3907 I-0.022 J-0.123
N2695 G1 X2.2691 Y-0.3994
N2700 G2 X2.2773 Y-0.4018 I-0.0307 J-0.1212
N2705 G1 X2.3086 Y-0.4121
N2710 G2 X2.3163 Y-0.4149 I-0.0389 J-0.1188
N2715 G1 X2.347 Y-0.4272
N2720 G2 X2.3545 Y-0.4306 I-0.0466 J-0.116
N2725 G1 X2.3842 Y-0.4448
N2730 G2 X2.3915 Y-0.4487 I-0.0542 J-0.1126
N2735 G1 X2.4202 Y-0.4648
N2740 G2 X2.4269 Y-0.4689 I-0.0615 J-0.1088
N2745 G1 X2.4522 Y-0.4854
N2750 G2 X2.4584 Y-0.4897 I-0.0682 J-0.1047
N2755 G1 X2.4826 Y-0.5077
N2760 G2 X2.4885 Y-0.5123 I-0.0744 J-0.1004
N2765 G1 X2.5117 Y-0.5318
N2770 G2 X2.5173 Y-0.5368 I-0.0803 J-0.0958
N2775 G1 X2.5393 Y-0.5576
N2780 G2 X2.5446 Y-0.5629 I-0.086 J-0.0907
N2785 G1 X2.565 Y-0.5847
N2790 G2 X2.5699 Y-0.5903 I-0.0913 J-0.0854
N2795 G1 X2.5889 Y-0.6132
N2800 G2 X2.5935 Y-0.6191 I-0.0962 J-0.0798
N2805 G1 X2.6111 Y-0.643
N2810 G2 X2.6153 Y-0.6492 I-0.1008 J-0.074
N2815 G1 X2.6315 Y-0.6741
N2820 G2 X2.6354 Y-0.6807 I-0.105 J-0.0679
N2825 G1 X2.6511 Y-0.7087
N2830 G2 X2.6549 Y-0.7158 I-0.109 J-0.0612
N2835 G1 X2.6688 Y-0.7447
N2840 G2 X2.672 Y-0.752 I-0.1127 J-0.0541
N2845 G1 X2.684 Y-0.7819
N2850 G2 X2.6868 Y-0.7894 I-0.1159 J-0.0468
N2855 G1 X2.6969 Y-0.8199
N2860 G2 X2.6993 Y-0.8281 I-0.1187 J-0.0393
N2865 G1 X2.7082 Y-0.8629
N2870 G2 X2.7101 Y-0.8716 I-0.1211 J-0.0311
N2875 G1 X2.7166 Y-0.907
N2880 G2 X2.7179 Y-0.9159 I-0.123 J-0.0223
N2885 G1 X2.7217 Y-0.9516
N2890 G2 X2.7224 Y-0.9606 I-0.1243 J-0.0134
N2895 G1 X2.7237 Y-0.9965
N2900 G2 Y-1.001 I-0.1249 J-0.0045
N2905 G1 Y-1.25
N2910 Y-1.375 Z-0.235
N2915 Y-1.625
N2920 Y-1.75 Z-0.36
N2925 Y-1.999
N2930 G2 Y-2.0034 I-0.125
N2935 G1 X2.7224 Y-2.0389
N2940 G2 X2.7218 Y-2.0478 I-0.1249 J0.0044
N2945 G1 X2.718 Y-2.0831
N2950 G2 X2.7167 Y-2.0918 I-0.1243 J0.0133
N2955 G1 X2.7105 Y-2.1267
N2960 G2 X2.7086 Y-2.1353 I-0.123 J0.022
N2965 G1 X2.6999 Y-2.1697
N2970 G2 X2.6975 Y-2.1779 I-0.1212 J0.0307
N2975 G1 X2.6873 Y-2.2092
N2980 G2 X2.6845 Y-2.217 I-0.1188 J0.0389
N2985 G1 X2.6721 Y-2.2476
N2990 G2 X2.6688 Y-2.2551 I-0.116 J0.0466
N2995 G1 X2.6545 Y-2.2849
N3000 G2 X2.6507 Y-2.2921 I-0.1126 J0.0542
N3005 G1 X2.6345 Y-2.3208
N3010 G2 X2.6304 Y-2.3275 I-0.1088 J0.0615
N3015 G1 X2.614 Y-2.3528
N3020 G2 X2.6097 Y-2.359 I-0.1047 J0.0682
N3025 G1 X2.5917 Y-2.3833
N3030 G2 X2.587 Y-2.3892 I-0.1004 J0.0744
N3035 G1 X2.5676 Y-2.4123
N3040 G2 X2.5626 Y-2.418 I-0.0958 J0.0803
N3045 G1 X2.5418 Y-2.4399
N3050 G2 X2.5364 Y-2.4452 I-0.0907 J0.086
N3055 G1 X2.5147 Y-2.4656
N3060 G2 X2.5091 Y-2.4705 I-0.0854 J0.0913
N3065 G1 X2.4862 Y-2.4896
N3070 G2 X2.4803 Y-2.4941 I-0.0798 J0.0962
N3075 G1 X2.4563 Y-2.5117
N3080 G2 X2.4502 Y-2.5159 I-0.074 J0.1008
N3085 G1 X2.4252 Y-2.5321
N3090 G2 X2.4186 Y-2.5361 I-0.0679 J0.105
N3095 G1 X2.3907 Y-2.5518
N3100 G2 X2.3836 Y-2.5555 I-0.0612 J0.109
N3105 G1 X2.3547 Y-2.5694
N3110 G2 X2.3473 Y-2.5726 I-0.0541 J0.1127
N3115 G1 X2.3175 Y-2.5847
N3120 G2 X2.31 Y-2.5874 I-0.0468 J0.1159
N3125 G1 X2.2795 Y-2.5975
N3130 G2 X2.2713 Y-2.5999 I-0.0393 J0.1187
N3135 G1 X2.2365 Y-2.6089
N3140 G2 X2.2277 Y-2.6108 I-0.0311 J0.1211
N3145 G1 X2.1924 Y-2.6172
N3150 G2 X2.1835 Y-2.6185 I-0.0223 J0.123
N3155 G1 X2.1477 Y-2.6224
N3160 G2 X2.1388 Y-2.623 I-0.0134 J0.1243
N3165 G1 X2.1029 Y-2.6243
N3170 G2 X2.0984 Y-2.6244 I-0.0045 J0.1249
N3175 G1 X1.8494
N3180 X1.7244 Z-0.235
N3185 X1.4744
N3190 X1.3494 Z-0.36
N3195 X1.1004
N3200 G2 X1.0959 Y-2.6243 J0.125
N3205 G1 X1.0604 Y-2.623
N3210 G2 X1.0516 Y-2.6224 I0.0044 J0.1249
N3215 G1 X1.0163 Y-2.6186
N3220 G2 X1.0075 Y-2.6174 I0.0133 J0.1243
N3225 G1 X0.9727 Y-2.6111
N3230 G2 X0.964 Y-2.6093 I0.022 J0.123
N3235 G1 X0.9297 Y-2.6006
N3240 G2 X0.9215 Y-2.5982 I0.0307 J0.1212
N3245 G1 X0.8902 Y-2.5879
N3250 G2 X0.8824 Y-2.5851 I0.0389 J0.1188
N3255 G1 X0.8518 Y-2.5728
N3260 G2 X0.8442 Y-2.5694 I0.0466 J0.116
N3265 G1 X0.8145 Y-2.5552
N3270 G2 X0.8072 Y-2.5513 I0.0542 J0.1126
N3275 G1 X0.7786 Y-2.5352
N3280 G2 X0.7718 Y-2.5311 I0.0615 J0.1088
N3285 G1 X0.7466 Y-2.5146
N3290 G2 X0.7404 Y-2.5103 I0.0682 J0.1047
N3295 G1 X0.7161 Y-2.4923
N3300 G2 X0.7102 Y-2.4877 I0.0744 J0.1004
N3305 G1 X0.6871 Y-2.4683
N3310 G2 X0.6814 Y-2.4632 I0.0803 J0.0958
N3315 G1 X0.6594 Y-2.4424
N3320 G2 X0.6541 Y-2.4371 I0.086 J0.0907
N3325 G1 X0.6338 Y-2.4153
N3330 G2 X0.6288 Y-2.4097 I0.0913 J0.0854
N3335 G1 X0.6098 Y-2.3868
N3340 G2 X0.6052 Y-2.3809 I0.0962 J0.0798
N3345 G1 X0.5876 Y-2.357
N3350 G2 X0.5834 Y-2.3508 I0.1008 J0.074
N3355 G1 X0.5673 Y-2.3259
N3360 G2 X0.5633 Y-2.3193 I0.105 J0.0679
N3365 G1 X0.5476 Y-2.2913
N3370 G2 X0.5439 Y-2.2842 I0.109 J0.0612
N3375 G1 X0.53 Y-2.2553
N3380 G2 X0.5267 Y-2.2479 I0.1127 J0.0541
N3385 G1 X0.5147 Y-2.2181
N3390 G2 X0.5119 Y-2.2106 I0.1159 J0.0468
N3395 G1 X0.5018 Y-2.1801
N3400 G2 X0.4995 Y-2.1719 I0.1187 J0.0393
N3405 G1 X0.4905 Y-2.1371
N3410 G2 X0.4886 Y-2.1283 I0.1211 J0.0311
N3415 G1 X0.4822 Y-2.093
N3420 G2 X0.4809 Y-2.0841 I0.123 J0.0223
N3425 G1 X0.477 Y-2.0484
N3430 G2 X0.4764 Y-2.0394 I0.1243 J0.0135
N3435 G1 X0.4751 Y-2.0035
N3440 G2 X0.475 Y-1.999 I0.1249 J0.0045
N3445 G1 Y-1.75
N3450 Y-1.625 Z-0.235
N3455 Y-1.5
N3460 G3 X0.45 Y-1.475 I-0.025
N3465 G1 X0.4
N3470 G0 Z0.6

(Contour2)
N3475 M9
N3480 X0.6253 Y-2.0736
N3485 Z0.6
N3490 Z0.075
N3495 G3 X0.6233 Y-2.3111 Z0.062 I-0.001 J-0.1187 F40
N3500 X0.6253 Y-2.0736 Z0.0489 I0.001 J0.1187
N3505 X0.6233 Y-2.3111 Z0.0359 I-0.001 J-0.1187
N3510 X0.6253 Y-2.0736 Z0.0229 I0.001 J0.1187
N3515 X0.6233 Y-2.3111 Z0.0099 I-0.001 J-0.1187
N3520 X0.6253 Y-2.0736 Z-0.0032 I0.001 J0.1187
N3525 X0.6233 Y-2.3111 Z-0.0162 I-0.001 J-0.1187
N3530 X0.7426 Y-2.1822 Z-0.0231 I0.001 J0.1187
N3535 X0.6031 Y-2.0755 Z-0.03 I-0.1183 J-0.0102
N3540 G1 X0.4831 Y-2.0973
N3545 X0.4875 Y-2.1219
N3550 X0.489 Y-2.1299
N3555 X0.4908 Y-2.1379
N3560 X0.499 Y-2.1698
N3565 X0.5012 Y-2.1778
N3570 X0.5038 Y-2.1857
N3575 X0.5117 Y-2.2097
N3580 X0.5146 Y-2.2176
N3585 X0.5149 Y-2.2185
N3590 X0.5243 Y-2.2416
N3595 X0.5275 Y-2.2495
N3600 X0.5309 Y-2.2569
N3605 X0.5427 Y-2.2814
N3610 X0.5466 Y-2.2894
N3615 X0.5468 Y-2.2898
N3620 X0.5511 Y-2.2974
N3625 X0.5628 Y-2.3182
N3630 X0.5646 Y-2.3213
N3635 X0.5696 Y-2.3293
N3640 X0.5799 Y-2.3452
N3645 X0.5851 Y-2.3532
N3650 X0.5867 Y-2.3555
N3655 X0.5908 Y-2.3612
N3660 X0.6027 Y-2.3773
N3665 X0.6085 Y-2.3851
N3670 X0.6106 Y-2.3876
N3675 X0.6284 Y-2.409
N3680 X0.6346 Y-2.416
N3685 X0.6505 Y-2.433
N3690 X0.658 Y-2.4409
N3695 X0.6585 Y-2.4413
N3700 X0.6664 Y-2.4489
N3705 X0.6748 Y-2.4568
N3710 X0.6824 Y-2.464
N3715 X0.6833 Y-2.4648
N3720 X0.6904 Y-2.4709
N3725 X0.7063 Y-2.4843
N3730 X0.7117 Y-2.4887
N3735 X0.7143 Y-2.4908
N3740 X0.7223 Y-2.4968
N3745 X0.7382 Y-2.5086
N3750 X0.7438 Y-2.5127
N3755 X0.7462 Y-2.5142
N3760 X0.756 Y-2.5206
N3765 X0.7701 Y-2.5298
N3770 X0.7781 Y-2.5348
N3775 X0.7813 Y-2.5366
N3780 X0.802 Y-2.5483
N3785 X0.8096 Y-2.5525
N3790 X0.81 Y-2.5527
N3795 X0.8179 Y-2.5567
N3800 X0.8424 Y-2.5685
N3805 X0.8498 Y-2.5719
N3810 X0.8578 Y-2.5751
N3815 X0.8817 Y-2.5847
N3820 X0.8897 Y-2.5877
N3825 X0.8977 Y-2.5903
N3830 X0.9216 Y-2.5981
N3835 X0.9293 Y-2.6004
N3840 X0.9296
N3845 X0.9615 Y-2.6085
N3850 X0.9694 Y-2.6104
N3855 X0.9774 Y-2.6119
N3860 X1.0022 Y-2.6163
N3865 X1.0093 Y-2.6176
N3870 X1.0173 Y-2.6186
N3875 X1.0492 Y-2.622
N3880 X1.0572 Y-2.6228
N3885 X1.0651 Y-2.6231
N3890 X1.0891 Y-2.6239
N3895 X1.097 Y-2.6242
N3900 X1.105 Y-2.6243
N3905 X2.0937
N3910 X2.1017 Y-2.6242
N3915 X2.1097 Y-2.6239
N3920 X2.1336 Y-2.6231
N3925 X2.1416 Y-2.6228
N3930 X2.1496 Y-2.6221
N3935 X2.1814 Y-2.6186
N3940 X2.1894 Y-2.6176
N3945 X2.1967 Y-2.6163
N3950 X2.2213 Y-2.6118
N3955 X2.2293 Y-2.6104
N3960 X2.2373 Y-2.6086
N3965 X2.2692 Y-2.6004
N3970 X2.2771 Y-2.5982
N3975 X2.2851 Y-2.5955
N3980 X2.309 Y-2.5876
N3985 X2.317 Y-2.5848
N3990 X2.3178 Y-2.5844
N3995 X2.3409 Y-2.5751
N4000 X2.3489 Y-2.5719
N4005 X2.3563 Y-2.5685
N4010 X2.3808 Y-2.5567
N4015 X2.3888 Y-2.5527
N4020 X2.3891 Y-2.5525
N4025 X2.3967 Y-2.5483
N4030 X2.4175 Y-2.5366
N4035 X2.4207 Y-2.5348
N4040 X2.4286 Y-2.5298
N4045 X2.4446 Y-2.5195
N4050 X2.4526 Y-2.5143
N4055 X2.4549 Y-2.5127
N4060 X2.4605 Y-2.5085
N4065 X2.4766 Y-2.4967
N4070 X2.4844 Y-2.4908
N4075 X2.487 Y-2.4887
N4080 X2.5084 Y-2.471
N4085 X2.5154 Y-2.4648
N4090 X2.5324 Y-2.4489
N4095 X2.5403 Y-2.4414
N4100 X2.5407 Y-2.4409
N4105 X2.5483 Y-2.4329
N4110 X2.5562 Y-2.4245
N4115 X2.5634 Y-2.417
N4120 X2.5642 Y-2.4161
N4125 X2.5703 Y-2.409
N4130 X2.5836 Y-2.3931
N4135 X2.5881 Y-2.3877
N4140 X2.5902 Y-2.3851
N4145 X2.5961 Y-2.3772
N4150 X2.6079 Y-2.3612
N4155 X2.612 Y-2.3555
N4160 X2.6136 Y-2.3532
N4165 X2.6188 Y-2.3452
N4170 X2.6292 Y-2.3293
N4175 X2.6341 Y-2.3213
N4180 X2.6359 Y-2.3181
N4185 X2.6476 Y-2.2974
N4190 X2.6519 Y-2.2898
N4195 X2.6521 Y-2.2894
N4200 X2.6561 Y-2.2814
N4205 X2.6678 Y-2.2569
N4210 X2.6712 Y-2.2495
N4215 X2.6745 Y-2.2416
N4220 X2.6841 Y-2.2176
N4225 X2.687 Y-2.2097
N4230 X2.6896 Y-2.2017
N4235 X2.6975 Y-2.1778
N4240 X2.6997 Y-2.17
N4245 X2.6998 Y-2.1698
N4250 X2.7079 Y-2.1379
N4255 X2.7098 Y-2.1299
N4260 X2.7112 Y-2.1219
N4265 X2.7157 Y-2.0972
N4270 X2.7169 Y-2.0901
N4275 X2.718 Y-2.0821
N4280 X2.7214 Y-2.0502
N4285 X2.7221 Y-2.0422
N4290 X2.7225 Y-2.0342
N4295 X2.7233 Y-2.0103
N4300 X2.7236 Y-2.0023
N4305 Y-1.9944
N4310 Y-1.0056
N4315 Y-0.9977
N4320 X2.7233 Y-0.9897
N4325 X2.7224 Y-0.9658
N4330 X2.7221 Y-0.9578
N4335 X2.7214 Y-0.9498
N4340 X2.718 Y-0.9179
N4345 X2.717 Y-0.9099
N4350 X2.7157 Y-0.9027
N4355 X2.7112 Y-0.8781
N4360 X2.7097 Y-0.8701
N4365 X2.7079 Y-0.8621
N4370 X2.6997 Y-0.8302
N4375 X2.6975 Y-0.8222
N4380 X2.6949 Y-0.8143
N4385 X2.687 Y-0.7903
N4390 X2.6841 Y-0.7824
N4395 X2.6838 Y-0.7815
N4400 X2.6745 Y-0.7584
N4405 X2.6712 Y-0.7505
N4410 X2.6678 Y-0.7431
N4415 X2.6561 Y-0.7186
N4420 X2.6521 Y-0.7106
N4425 X2.6519 Y-0.7102
N4430 X2.6476 Y-0.7026
N4435 X2.6359 Y-0.6818
N4440 X2.6342 Y-0.6787
N4445 X2.6291 Y-0.6707
N4450 X2.6188 Y-0.6548
N4455 X2.6136 Y-0.6468
N4460 X2.612 Y-0.6445
N4465 X2.6079 Y-0.6388
N4470 X2.5961 Y-0.6227
N4475 X2.5902 Y-0.6149
N4480 X2.5881 Y-0.6124
N4485 X2.5704 Y-0.591
N4490 X2.5642 Y-0.584
N4495 X2.5482 Y-0.567
N4500 X2.5407 Y-0.5591
N4505 X2.5403 Y-0.5587
N4510 X2.5323 Y-0.5511
N4515 X2.5239 Y-0.5432
N4520 X2.5163 Y-0.536
N4525 X2.5155 Y-0.5352
N4530 X2.5084 Y-0.5291
N4535 X2.4924 Y-0.5157
N4540 X2.4871 Y-0.5113
N4545 X2.4844 Y-0.5092
N4550 X2.4765 Y-0.5033
N4555 X2.4605 Y-0.4914
N4560 X2.4549 Y-0.4873
N4565 X2.4526 Y-0.4858
N4570 X2.4427 Y-0.4794
N4575 X2.4286 Y-0.4702
N4580 X2.4207 Y-0.4652
N4585 X2.4174 Y-0.4634
N4590 X2.3967 Y-0.4517
N4595 X2.3892 Y-0.4475
N4600 X2.3888 Y-0.4473
N4605 X2.3808 Y-0.4433
N4610 X2.3563 Y-0.4315
N4615 X2.3489 Y-0.4281
N4620 X2.3409 Y-0.4249
N4625 X2.317 Y-0.4153
N4630 X2.309 Y-0.4123
N4635 X2.3011 Y-0.4097
N4640 X2.2771 Y-0.4019
N4645 X2.2694 Y-0.3996
N4650 X2.2692
N4655 X2.2373 Y-0.3915
N4660 X2.2293 Y-0.3896
N4665 X2.2213 Y-0.3881
N4670 X2.1965 Y-0.3837
N4675 X2.1894 Y-0.3824
N4680 X2.1814 Y-0.3814
N4685 X2.1496 Y-0.378
N4690 X2.1416 Y-0.3772
N4695 X2.1336 Y-0.3769
N4700 X2.1097 Y-0.3761
N4705 X2.1017 Y-0.3758
N4710 X2.0937 Y-0.3757
N4715 X1.105
N4720 X1.097 Y-0.3758
N4725 X1.0891 Y-0.3761
N4730 X1.0651 Y-0.3769
N4735 X1.0572 Y-0.3772
N4740 X1.0492 Y-0.3779
N4745 X1.0173 Y-0.3814
N4750 X1.0093 Y-0.3824
N4755 X1.0021 Y-0.3837
N4760 X0.9774 Y-0.3882
N4765 X0.9694 Y-0.3896
N4770 X0.9615 Y-0.3914
N4775 X0.9296 Y-0.3996
N4780 X0.9216 Y-0.4018
N4785 X0.9136 Y-0.4045
N4790 X0.8897 Y-0.4124
N4795 X0.8817 Y-0.4152
N4800 X0.8809 Y-0.4156
N4805 X0.8578 Y-0.4249
N4810 X0.8498 Y-0.4281
N4815 X0.8424 Y-0.4315
N4820 X0.8179 Y-0.4433
N4825 X0.81 Y-0.4473
N4830 X0.8096 Y-0.4475
N4835 X0.802 Y-0.4517
N4840 X0.7812 Y-0.4634
N4845 X0.7781 Y-0.4652
N4850 X0.7701 Y-0.4702
N4855 X0.7542 Y-0.4805
N4860 X0.7462 Y-0.4857
N4865 X0.7439 Y-0.4873
N4870 X0.7382 Y-0.4915
N4875 X0.7221 Y-0.5033
N4880 X0.7143 Y-0.5092
N4885 X0.7117 Y-0.5113
N4890 X0.6904 Y-0.529
N4895 X0.6834 Y-0.5352
N4900 X0.6663 Y-0.5511
N4905 X0.6585 Y-0.5586
N4910 X0.658 Y-0.5591
N4915 X0.6505 Y-0.5671
N4920 X0.6425 Y-0.5755
N4925 X0.6354 Y-0.583
N4930 X0.6346 Y-0.5839
N4935 X0.6285 Y-0.591
N4940 X0.6151 Y-0.6069
N4945 X0.6106 Y-0.6123
N4950 X0.6085 Y-0.6149
N4955 X0.6027 Y-0.6228
N4960 X0.5908 Y-0.6388
N4965 X0.5867 Y-0.6445
N4970 X0.5851 Y-0.6468
N4975 X0.5787 Y-0.6566
N4980 X0.5695 Y-0.6707
N4985 X0.5646 Y-0.6787
N4990 X0.5628 Y-0.6819
N4995 X0.5511 Y-0.7026
N5000 X0.5468 Y-0.7102
N5005 X0.5466 Y-0.7106
N5010 X0.5427 Y-0.7186
N5015 X0.5309 Y-0.7431
N5020 X0.5275 Y-0.7505
N5025 X0.5243 Y-0.7584
N5030 X0.5146 Y-0.7824
N5035 X0.5117 Y-0.7903
N5040 X0.5091 Y-0.7983
N5045 X0.5013 Y-0.8222
N5050 X0.499 Y-0.83
N5055 X0.4989 Y-0.8302
N5060 X0.4909 Y-0.8621
N5065 X0.489 Y-0.8701
N5070 X0.4875 Y-0.8781
N5075 X0.4831 Y-0.9028
N5080 X0.4818 Y-0.9099
N5085 X0.4807 Y-0.9179
N5090 X0.4773 Y-0.9498
N5095 X0.4766 Y-0.9578
N5100 X0.4763 Y-0.9658
N5105 X0.4754 Y-0.9897
N5110 X0.4751 Y-0.9977
N5115 Y-1.0056
N5120 Y-1.9944
N5125 Y-2.0023
N5130 X0.4754 Y-2.0103
N5135 X0.4763 Y-2.0342
N5140 X0.4766 Y-2.0422
N5145 X0.4773 Y-2.0502
N5150 X0.4808 Y-2.0821
N5155 X0.4818 Y-2.0901
N5160 X0.4831 Y-2.0973
N5165 X0.5429 Y-2.2925
N5170 G3 X0.4846 Y-2.0976 Z-0.0412 I-0.0292 J0.0975
N5175 X0.5429 Y-2.2925 Z-0.0523 I0.0292 J-0.0975
N5180 X0.4846 Y-2.0976 Z-0.0635 I-0.0292 J0.0975
N5185 X0.5429 Y-2.2925 Z-0.0746 I0.0292 J-0.0975
N5190 X0.4846 Y-2.0976 Z-0.0858 I-0.0292 J0.0975
N5195 X0.5429 Y-2.2925 Z-0.0969 I0.0292 J-0.0975
N5200 X0.4846 Y-2.0976 Z-0.1081 I-0.0292 J0.0975
N5205 X0.5429 Y-2.2925 Z-0.1192 I0.0292 J-0.0975
N5210 X0.4955 Y-2.095 Z-0.13 I-0.0292 J0.0975
N5215 G1 X0.4831 Y-2.0973
N5220 X0.4875 Y-2.1219
N5225 X0.489 Y-2.1299
N5230 X0.4908 Y-2.1379
N5235 X0.499 Y-2.1698
N5240 X0.5012 Y-2.1778
N5245 X0.5038 Y-2.1857
N5250 X0.5117 Y-2.2097
N5255 X0.5146 Y-2.2176
N5260 X0.5149 Y-2.2185
N5265 X0.5243 Y-2.2416
N5270 X0.5275 Y-2.2495
N5275 X0.5309 Y-2.2569
N5280 X0.5427 Y-2.2814
N5285 X0.5466 Y-2.2894
N5290 X0.5468 Y-2.2898
N5295 X0.5511 Y-2.2974
N5300 X0.5628 Y-2.3182
N5305 X0.5646 Y-2.3213
N5310 X0.5696 Y-2.3293
N5315 X0.5799 Y-2.3452
N5320 X0.5851 Y-2.3532
N5325 X0.5867 Y-2.3555
N5330 X0.5908 Y-2.3612
N5335 X0.6027 Y-2.3773
N5340 X0.6085 Y-2.3851
N5345 X0.6106 Y-2.3876
N5350 X0.6284 Y-2.409
N5355 X0.6346 Y-2.416
N5360 X0.6505 Y-2.433
N5365 X0.658 Y-2.4409
N5370 X0.6585 Y-2.4413
N5375 X0.6664 Y-2.4489
N5380 X0.6748 Y-2.4568
N5385 X0.6824 Y-2.464
N5390 X0.6833 Y-2.4648
N5395 X0.6904 Y-2.4709
N5400 X0.7063 Y-2.4843
N5405 X0.7117 Y-2.4887
N5410 X0.7143 Y-2.4908
N5415 X0.7223 Y-2.4968
N5420 X0.7382 Y-2.5086
N5425 X0.7438 Y-2.5127
N5430 X0.7462 Y-2.5142
N5435 X0.756 Y-2.5206
N5440 X0.7701 Y-2.5298
N5445 X0.7781 Y-2.5348
N5450 X0.7813 Y-2.5366
N5455 X0.802 Y-2.5483
N5460 X0.8096 Y-2.5525
N5465 X0.81 Y-2.5527
N5470 X0.8179 Y-2.5567
N5475 X0.8424 Y-2.5685
N5480 X0.8498 Y-2.5719
N5485 X0.8578 Y-2.5751
N5490 X0.8817 Y-2.5847
N5495 X0.8897 Y-2.5877
N5500 X0.8977 Y-2.5903
N5505 X0.9216 Y-2.5981
N5510 X0.9293 Y-2.6004
N5515 X0.9296
N5520 X0.9615 Y-2.6085
N5525 X0.9694 Y-2.6104
N5530 X0.9774 Y-2.6119
N5535 X1.0022 Y-2.6163
N5540 X1.0093 Y-2.6176
N5545 X1.0173 Y-2.6186
N5550 X1.0492 Y-2.622
N5555 X1.0572 Y-2.6228
N5560 X1.0651 Y-2.6231
N5565 X1.0891 Y-2.6239
N5570 X1.097 Y-2.6242
N5575 X1.105 Y-2.6243
N5580 X2.0937
N5585 X2.1017 Y-2.6242
N5590 X2.1097 Y-2.6239
N5595 X2.1336 Y-2.6231
N5600 X2.1416 Y-2.6228
N5605 X2.1496 Y-2.6221
N5610 X2.1814 Y-2.6186
N5615 X2.1894 Y-2.6176
N5620 X2.1967 Y-2.6163
N5625 X2.2213 Y-2.6118
N5630 X2.2293 Y-2.6104
N5635 X2.2373 Y-2.6086
N5640 X2.2692 Y-2.6004
N5645 X2.2771 Y-2.5982
N5650 X2.2851 Y-2.5955
N5655 X2.309 Y-2.5876
N5660 X2.317 Y-2.5848
N5665 X2.3178 Y-2.5844
N5670 X2.3409 Y-2.5751
N5675 X2.3489 Y-2.5719
N5680 X2.3563 Y-2.5685
N5685 X2.3808 Y-2.5567
N5690 X2.3888 Y-2.5527
N5695 X2.3891 Y-2.5525
N5700 X2.3967 Y-2.5483
N5705 X2.4175 Y-2.5366
N5710 X2.4207 Y-2.5348
N5715 X2.4286 Y-2.5298
N5720 X2.4446 Y-2.5195
N5725 X2.4526 Y-2.5143
N5730 X2.4549 Y-2.5127
N5735 X2.4605 Y-2.5085
N5740 X2.4766 Y-2.4967
N5745 X2.4844 Y-2.4908
N5750 X2.487 Y-2.4887
N5755 X2.5084 Y-2.471
N5760 X2.5154 Y-2.4648
N5765 X2.5324 Y-2.4489
N5770 X2.5403 Y-2.4414
N5775 X2.5407 Y-2.4409
N5780 X2.5483 Y-2.4329
N5785 X2.5562 Y-2.4245
N5790 X2.5634 Y-2.417
N5795 X2.5642 Y-2.4161
N5800 X2.5703 Y-2.409
N5805 X2.5836 Y-2.3931
N5810 X2.5881 Y-2.3877
N5815 X2.5902 Y-2.3851
N5820 X2.5961 Y-2.3772
N5825 X2.6079 Y-2.3612
N5830 X2.612 Y-2.3555
N5835 X2.6136 Y-2.3532
N5840 X2.6188 Y-2.3452
N5845 X2.6292 Y-2.3293
N5850 X2.6341 Y-2.3213
N5855 X2.6359 Y-2.3181
N5860 X2.6476 Y-2.2974
N5865 X2.6519 Y-2.2898
N5870 X2.6521 Y-2.2894
N5875 X2.6561 Y-2.2814
N5880 X2.6678 Y-2.2569
N5885 X2.6712 Y-2.2495
N5890 X2.6745 Y-2.2416
N5895 X2.6841 Y-2.2176
N5900 X2.687 Y-2.2097
N5905 X2.6896 Y-2.2017
N5910 X2.6975 Y-2.1778
N5915 X2.6997 Y-2.17
N5920 X2.6998 Y-2.1698
N5925 X2.7079 Y-2.1379
N5930 X2.7098 Y-2.1299
N5935 X2.7112 Y-2.1219
N5940 X2.7157 Y-2.0972
N5945 X2.7169 Y-2.0901
N5950 X2.718 Y-2.0821
N5955 X2.7214 Y-2.0502
N5960 X2.7221 Y-2.0422
N5965 X2.7225 Y-2.0342
N5970 X2.7233 Y-2.0103
N5975 X2.7236 Y-2.0023
N5980 Y-1.9944
N5985 Y-1.0056
N5990 Y-0.9977
N5995 X2.7233 Y-0.9897
N6000 X2.7224 Y-0.9658
N6005 X2.7221 Y-0.9578
N6010 X2.7214 Y-0.9498
N6015 X2.718 Y-0.9179
N6020 X2.717 Y-0.9099
N6025 X2.7157 Y-0.9027
N6030 X2.7112 Y-0.8781
N6035 X2.7097 Y-0.8701
N6040 X2.7079 Y-0.8621
N6045 X2.6997 Y-0.8302
N6050 X2.6975 Y-0.8222
N6055 X2.6949 Y-0.8143
N6060 X2.687 Y-0.7903
N6065 X2.6841 Y-0.7824
N6070 X2.6838 Y-0.7815
N6075 X2.6745 Y-0.7584
N6080 X2.6712 Y-0.7505
N6085 X2.6678 Y-0.7431
N6090 X2.6561 Y-0.7186
N6095 X2.6521 Y-0.7106
N6100 X2.6519 Y-0.7102
N6105 X2.6476 Y-0.7026
N6110 X2.6359 Y-0.6818
N6115 X2.6342 Y-0.6787
N6120 X2.6291 Y-0.6707
N6125 X2.6188 Y-0.6548
N6130 X2.6136 Y-0.6468
N6135 X2.612 Y-0.6445
N6140 X2.6079 Y-0.6388
N6145 X2.5961 Y-0.6227
N6150 X2.5902 Y-0.6149
N6155 X2.5881 Y-0.6124
N6160 X2.5704 Y-0.591
N6165 X2.5642 Y-0.584
N6170 X2.5482 Y-0.567
N6175 X2.5407 Y-0.5591
N6180 X2.5403 Y-0.5587
N6185 X2.5323 Y-0.5511
N6190 X2.5239 Y-0.5432
N6195 X2.5163 Y-0.536
N6200 X2.5155 Y-0.5352
N6205 X2.5084 Y-0.5291
N6210 X2.4924 Y-0.5157
N6215 X2.4871 Y-0.5113
N6220 X2.4844 Y-0.5092
N6225 X2.4765 Y-0.5033
N6230 X2.4605 Y-0.4914
N6235 X2.4549 Y-0.4873
N6240 X2.4526 Y-0.4858
N6245 X2.4427 Y-0.4794
N6250 X2.4286 Y-0.4702
N6255 X2.4207 Y-0.4652
N6260 X2.4174 Y-0.4634
N6265 X2.3967 Y-0.4517
N6270 X2.3892 Y-0.4475
N6275 X2.3888 Y-0.4473
N6280 X2.3808 Y-0.4433
N6285 X2.3563 Y-0.4315
N6290 X2.3489 Y-0.4281
N6295 X2.3409 Y-0.4249
N6300 X2.317 Y-0.4153
N6305 X2.309 Y-0.4123
N6310 X2.3011 Y-0.4097
N6315 X2.2771 Y-0.4019
N6320 X2.2694 Y-0.3996
N6325 X2.2692
N6330 X2.2373 Y-0.3915
N6335 X2.2293 Y-0.3896
N6340 X2.2213 Y-0.3881
N6345 X2.1965 Y-0.3837
N6350 X2.1894 Y-0.3824
N6355 X2.1814 Y-0.3814
N6360 X2.1496 Y-0.378
N6365 X2.1416 Y-0.3772
N6370 X2.1336 Y-0.3769
N6375 X2.1097 Y-0.3761
N6380 X2.1017 Y-0.3758
N6385 X2.0937 Y-0.3757
N6390 X1.105
N6395 X1.097 Y-0.3758
N6400 X1.0891 Y-0.3761
N6405 X1.0651 Y-0.3769
N6410 X1.0572 Y-0.3772
N6415 X1.0492 Y-0.3779
N6420 X1.0173 Y-0.3814
N6425 X1.0093 Y-0.3824
N6430 X1.0021 Y-0.3837
N6435 X0.9774 Y-0.3882
N6440 X0.9694 Y-0.3896
N6445 X0.9615 Y-0.3914
N6450 X0.9296 Y-0.3996
N6455 X0.9216 Y-0.4018
N6460 X0.9136 Y-0.4045
N6465 X0.8897 Y-0.4124
N6470 X0.8817 Y-0.4152
N6475 X0.8809 Y-0.4156
N6480 X0.8578 Y-0.4249
N6485 X0.8498 Y-0.4281
N6490 X0.8424 Y-0.4315
N6495 X0.8179 Y-0.4433
N6500 X0.81 Y-0.4473
N6505 X0.8096 Y-0.4475
N6510 X0.802 Y-0.4517
N6515 X0.7812 Y-0.4634
N6520 X0.7781 Y-0.4652
N6525 X0.7701 Y-0.4702
N6530 X0.7542 Y-0.4805
N6535 X0.7462 Y-0.4857
N6540 X0.7439 Y-0.4873
N6545 X0.7382 Y-0.4915
N6550 X0.7221 Y-0.5033
N6555 X0.7143 Y-0.5092
N6560 X0.7117 Y-0.5113
N6565 X0.6904 Y-0.529
N6570 X0.6834 Y-0.5352
N6575 X0.6663 Y-0.5511
N6580 X0.6585 Y-0.5586
N6585 X0.658 Y-0.5591
N6590 X0.6505 Y-0.5671
N6595 X0.6425 Y-0.5755
N6600 X0.6354 Y-0.583
N6605 X0.6346 Y-0.5839
N6610 X0.6285 Y-0.591
N6615 X0.6151 Y-0.6069
N6620 X0.6106 Y-0.6123
N6625 X0.6085 Y-0.6149
N6630 X0.6027 Y-0.6228
N6635 X0.5908 Y-0.6388
N6640 X0.5867 Y-0.6445
N6645 X0.5851 Y-0.6468
N6650 X0.5787 Y-0.6566
N6655 X0.5695 Y-0.6707
N6660 X0.5646 Y-0.6787
N6665 X0.5628 Y-0.6819
N6670 X0.5511 Y-0.7026
N6675 X0.5468 Y-0.7102
N6680 X0.5466 Y-0.7106
N6685 X0.5427 Y-0.7186
N6690 X0.5309 Y-0.7431
N6695 X0.5275 Y-0.7505
N6700 X0.5243 Y-0.7584
N6705 X0.5146 Y-0.7824
N6710 X0.5117 Y-0.7903
N6715 X0.5091 Y-0.7983
N6720 X0.5013 Y-0.8222
N6725 X0.499 Y-0.83
N6730 X0.4989 Y-0.8302
N6735 X0.4909 Y-0.8621
N6740 X0.489 Y-0.8701
N6745 X0.4875 Y-0.8781
N6750 X0.4831 Y-0.9028
N6755 X0.4818 Y-0.9099
N6760 X0.4807 Y-0.9179
N6765 X0.4773 Y-0.9498
N6770 X0.4766 Y-0.9578
N6775 X0.4763 Y-0.9658
N6780 X0.4754 Y-0.9897
N6785 X0.4751 Y-0.9977
N6790 Y-1.0056
N6795 Y-1.9944
N6800 Y-2.0023
N6805 X0.4754 Y-2.0103
N6810 X0.4763 Y-2.0342
N6815 X0.4766 Y-2.0422
N6820 X0.4773 Y-2.0502
N6825 X0.4808 Y-2.0821
N6830 X0.4818 Y-2.0901
N6835 X0.4831 Y-2.0973
N6840 G0 Z0.075
N6845 X0.5721 Y-2.0783
N6850 G3 X0.5822 Y-1.841 Z0.062 I0.0051 J0.1186 F40
N6855 X0.5721 Y-2.0783 Z0.0489 I-0.0051 J-0.1186
N6860 X0.5822 Y-1.841 Z0.0359 I0.0051 J0.1186
N6865 X0.5721 Y-2.0783 Z0.0229 I-0.0051 J-0.1186
N6870 X0.5822 Y-1.841 Z0.0099 I0.0051 J0.1186
N6875 X0.5721 Y-2.0783 Z-0.0032 I-0.0051 J-0.1186
N6880 X0.5822 Y-1.841 Z-0.0162 I0.0051 J0.1186
N6885 X0.4586 Y-1.9657 Z-0.0231 I-0.0051 J-0.1186
N6890 X0.5943 Y-2.0771 Z-0.03 I0.1186 J0.0061
N6895 G1 X0.7242 Y-2.0582
N6900 X0.7231 Y-2.0502
N6905 X0.7223 Y-2.0441
N6910 X0.7221 Y-2.0422
N6915 X0.7212 Y-2.0342
N6920 X0.7206 Y-2.0263
N6925 X0.7201 Y-2.0183
N6930 X0.7198 Y-2.0103
N6935 X0.7197 Y-2.0023
N6940 Y-1.9944
N6945 X0.7196 Y-1.5399
N6950 Y-1.5319
N6955 Y-1.5
N6960 Y-1.4681
N6965 Y-1.4601
N6970 X0.7197 Y-1.0056
N6975 Y-0.9977
N6980 X0.7198 Y-0.9897
N6985 X0.7201 Y-0.9817
N6990 X0.7206 Y-0.9737
N6995 X0.7212 Y-0.9658
N7000 X0.7221 Y-0.9578
N7005 X0.7223 Y-0.9559
N7010 X0.7231 Y-0.9498
N7015 X0.7242 Y-0.9418
N7020 X0.7256 Y-0.9339
N7025 X0.7271 Y-0.9259
N7030 X0.7288 Y-0.9179
N7035 X0.7302 Y-0.9116
N7040 X0.7306 Y-0.9099
N7045 X0.7327 Y-0.902
N7050 X0.7349 Y-0.894
N7055 X0.7374 Y-0.886
N7060 X0.7382 Y-0.8834
N7065 X0.74 Y-0.8781
N7070 X0.7428 Y-0.8701
N7075 X0.7458 Y-0.8621
N7080 X0.7462 Y-0.8612
N7085 X0.749 Y-0.8541
N7090 X0.7525 Y-0.8462
N7095 X0.7542 Y-0.8425
N7100 X0.7561 Y-0.8382
N7105 X0.76 Y-0.8302
N7110 X0.7621 Y-0.8261
N7115 X0.7641 Y-0.8222
N7120 X0.7685 Y-0.8143
N7125 X0.7701 Y-0.8115
N7130 X0.7731 Y-0.8063
N7135 X0.778 Y-0.7983
N7140 X0.7781 Y-0.7982
N7145 X0.7832 Y-0.7903
N7150 X0.7861 Y-0.7861
N7155 X0.7886 Y-0.7824
N7160 X0.794 Y-0.7748
N7165 X0.7943 Y-0.7744
N7170 X0.8004 Y-0.7664
N7175 X0.802 Y-0.7644
N7180 X0.8068 Y-0.7584
N7185 X0.81 Y-0.7547
N7190 X0.8136 Y-0.7505
N7195 X0.8179 Y-0.7456
N7200 X0.8208 Y-0.7425
N7205 X0.8259 Y-0.737
N7210 X0.8284 Y-0.7345
N7215 X0.8339 Y-0.729
N7220 X0.8364 Y-0.7266
N7225 X0.8419 Y-0.7214
N7230 X0.845 Y-0.7186
N7235 X0.8498 Y-0.7142
N7240 X0.8541 Y-0.7106
N7245 X0.8578 Y-0.7075
N7250 X0.8638 Y-0.7026
N7255 X0.8658 Y-0.701
N7260 X0.8738 Y-0.695
N7265 X0.8742 Y-0.6947
N7270 X0.8817 Y-0.6892
N7275 X0.8854 Y-0.6867
N7280 X0.8897 Y-0.6838
N7285 X0.8976 Y-0.6787
N7290 X0.8977 Y-0.6786
N7295 X0.9057 Y-0.6738
N7300 X0.9108 Y-0.6707
N7305 X0.9136 Y-0.6691
N7310 X0.9216 Y-0.6648
N7315 X0.9255 Y-0.6628
N7320 X0.9296 Y-0.6607
N7325 X0.9376 Y-0.6568
N7330 X0.9419 Y-0.6548
N7335 X0.9455 Y-0.6531
N7340 X0.9535 Y-0.6497
N7345 X0.9606 Y-0.6468
N7350 X0.9615 Y-0.6465
N7355 X0.9694 Y-0.6434
N7360 X0.9774 Y-0.6406
N7365 X0.9827 Y-0.6388
N7370 X0.9854 Y-0.638
N7375 X0.9934 Y-0.6356
N7380 X1.0013 Y-0.6333
N7385 X1.0093 Y-0.6313
N7390 X1.011 Y-0.6309
N7395 X1.0173 Y-0.6294
N7400 X1.0253 Y-0.6277
N7405 X1.0332 Y-0.6262
N7410 X1.0412 Y-0.6249
N7415 X1.0492 Y-0.6237
N7420 X1.0553 Y-0.6229
N7425 X1.0572 Y-0.6227
N7430 X1.0651 Y-0.6219
N7435 X1.0731 Y-0.6212
N7440 X1.0811 Y-0.6207
N7445 X1.0891 Y-0.6204
N7450 X1.097 Y-0.6203
N7455 X1.105 Y-0.6204
N7460 X1.5595 Y-0.6202
N7465 X1.5675
N7470 X1.5994
N7475 X1.6313
N7480 X1.6392
N7485 X2.0937 Y-0.6204
N7490 X2.1017 Y-0.6203
N7495 X2.1097 Y-0.6204
N7500 X2.1177 Y-0.6207
N7505 X2.1256 Y-0.6212
N7510 X2.1336 Y-0.6219
N7515 X2.1416 Y-0.6227
N7520 X2.1434 Y-0.6229
N7525 X2.1496 Y-0.6237
N7530 X2.1575 Y-0.6249
N7535 X2.1655 Y-0.6262
N7540 X2.1735 Y-0.6277
N7545 X2.1814 Y-0.6294
N7550 X2.1878 Y-0.6309
N7555 X2.1894 Y-0.6313
N7560 X2.1974 Y-0.6333
N7565 X2.2054 Y-0.6356
N7570 X2.2133 Y-0.638
N7575 X2.216 Y-0.6388
N7580 X2.2213 Y-0.6406
N7585 X2.2293 Y-0.6434
N7590 X2.2373 Y-0.6465
N7595 X2.2382 Y-0.6468
N7600 X2.2452 Y-0.6497
N7605 X2.2532 Y-0.6531
N7610 X2.2569 Y-0.6548
N7615 X2.2612 Y-0.6568
N7620 X2.2692 Y-0.6607
N7625 X2.2732 Y-0.6628
N7630 X2.2771 Y-0.6648
N7635 X2.2851 Y-0.6691
N7640 X2.2879 Y-0.6707
N7645 X2.2931 Y-0.6738
N7650 X2.3011 Y-0.6786
N7655 X2.3012 Y-0.6787
N7660 X2.309 Y-0.6838
N7665 X2.3133 Y-0.6867
N7670 X2.317 Y-0.6892
N7675 X2.3245 Y-0.6947
N7680 X2.325 Y-0.695
N7685 X2.3329 Y-0.701
N7690 X2.3349 Y-0.7026
N7695 X2.3409 Y-0.7075
N7700 X2.3447 Y-0.7106
N7705 X2.3489 Y-0.7142
N7710 X2.3538 Y-0.7186
N7715 X2.3569 Y-0.7214
N7720 X2.3623 Y-0.7266
N7725 X2.3648 Y-0.729
N7730 X2.3704 Y-0.7345
N7735 X2.3728 Y-0.737
N7740 X2.3779 Y-0.7425
N7745 X2.3808 Y-0.7456
N7750 X2.3851 Y-0.7505
N7755 X2.3888 Y-0.7547
N7760 X2.3919 Y-0.7584
N7765 X2.3967 Y-0.7644
N7770 X2.3983 Y-0.7664
N7775 X2.4044 Y-0.7744
N7780 X2.4047 Y-0.7748
N7785 X2.4101 Y-0.7824
N7790 X2.4127 Y-0.7861
N7795 X2.4156 Y-0.7903
N7800 X2.4207 Y-0.7982
N7805 Y-0.7983
N7810 X2.4256 Y-0.8063
N7815 X2.4286 Y-0.8115
N7820 X2.4302 Y-0.8143
N7825 X2.4346 Y-0.8222
N7830 X2.4366 Y-0.8261
N7835 X2.4387 Y-0.8302
N7840 X2.4426 Y-0.8382
N7845 X2.4446 Y-0.8425
N7850 X2.4463 Y-0.8462
N7855 X2.4497 Y-0.8541
N7860 X2.4526 Y-0.8612
N7865 X2.4529 Y-0.8621
N7870 X2.4559 Y-0.8701
N7875 X2.4587 Y-0.8781
N7880 X2.4605 Y-0.8834
N7885 X2.4614 Y-0.886
N7890 X2.4638 Y-0.894
N7895 X2.466 Y-0.902
N7900 X2.4681 Y-0.9099
N7905 X2.4685 Y-0.9116
N7910 X2.47 Y-0.9179
N7915 X2.4717 Y-0.9259
N7920 X2.4732 Y-0.9339
N7925 X2.4745 Y-0.9418
N7930 X2.4757 Y-0.9498
N7935 X2.4765 Y-0.9559
N7940 X2.4767 Y-0.9578
N7945 X2.4775 Y-0.9658
N7950 X2.4782 Y-0.9737
N7955 X2.4787 Y-0.9817
N7960 X2.479 Y-0.9897
N7965 X2.4791 Y-0.9977
N7970 X2.479 Y-1.0056
N7975 X2.4792 Y-1.4601
N7980 Y-1.4681
N7985 Y-1.5
N7990 Y-1.5319
N7995 Y-1.5399
N8000 X2.479 Y-1.9944
N8005 X2.4791 Y-2.0023
N8010 X2.479 Y-2.0103
N8015 X2.4787 Y-2.0183
N8020 X2.4782 Y-2.0263
N8025 X2.4775 Y-2.0342
N8030 X2.4767 Y-2.0422
N8035 X2.4765 Y-2.0441
N8040 X2.4757 Y-2.0502
N8045 X2.4745 Y-2.0582
N8050 X2.4732 Y-2.0661
N8055 X2.4717 Y-2.0741
N8060 X2.47 Y-2.0821
N8065 X2.4685 Y-2.0884
N8070 X2.4681 Y-2.0901
N8075 X2.466 Y-2.098
N8080 X2.4638 Y-2.106
N8085 X2.4614 Y-2.114
N8090 X2.4605 Y-2.1166
N8095 X2.4587 Y-2.1219
N8100 X2.4559 Y-2.1299
N8105 X2.4529 Y-2.1379
N8110 X2.4526 Y-2.1388
N8115 X2.4497 Y-2.1459
N8120 X2.4463 Y-2.1538
N8125 X2.4446 Y-2.1575
N8130 X2.4426 Y-2.1618
N8135 X2.4387 Y-2.1698
N8140 X2.4366 Y-2.1739
N8145 X2.4346 Y-2.1778
N8150 X2.4302 Y-2.1857
N8155 X2.4286 Y-2.1885
N8160 X2.4256 Y-2.1937
N8165 X2.4207 Y-2.2017
N8170 Y-2.2018
N8175 X2.4156 Y-2.2097
N8180 X2.4127 Y-2.2139
N8185 X2.4101 Y-2.2176
N8190 X2.4047 Y-2.2252
N8195 X2.4044 Y-2.2256
N8200 X2.3983 Y-2.2336
N8205 X2.3967 Y-2.2356
N8210 X2.3919 Y-2.2416
N8215 X2.3888 Y-2.2453
N8220 X2.3851 Y-2.2495
N8225 X2.3808 Y-2.2544
N8230 X2.3779 Y-2.2575
N8235 X2.3728 Y-2.263
N8240 X2.3704 Y-2.2655
N8245 X2.3648 Y-2.271
N8250 X2.3623 Y-2.2734
N8255 X2.3569 Y-2.2786
N8260 X2.3538 Y-2.2814
N8265 X2.3489 Y-2.2858
N8270 X2.3447 Y-2.2894
N8275 X2.3409 Y-2.2925
N8280 X2.3349 Y-2.2974
N8285 X2.3329 Y-2.299
N8290 X2.325 Y-2.305
N8295 X2.3245 Y-2.3053
N8300 X2.317 Y-2.3108
N8305 X2.3133 Y-2.3133
N8310 X2.309 Y-2.3162
N8315 X2.3012 Y-2.3213
N8320 X2.3011 Y-2.3214
N8325 X2.2931 Y-2.3262
N8330 X2.2879 Y-2.3293
N8335 X2.2851 Y-2.3309
N8340 X2.2771 Y-2.3352
N8345 X2.2732 Y-2.3372
N8350 X2.2692 Y-2.3393
N8355 X2.2612 Y-2.3432
N8360 X2.2569 Y-2.3452
N8365 X2.2532 Y-2.3469
N8370 X2.2452 Y-2.3503
N8375 X2.2382 Y-2.3532
N8380 X2.2373 Y-2.3535
N8385 X2.2293 Y-2.3566
N8390 X2.2213 Y-2.3594
N8395 X2.216 Y-2.3612
N8400 X2.2133 Y-2.362
N8405 X2.2054 Y-2.3644
N8410 X2.1974 Y-2.3667
N8415 X2.1894 Y-2.3687
N8420 X2.1878 Y-2.3691
N8425 X2.1814 Y-2.3706
N8430 X2.1735 Y-2.3723
N8435 X2.1655 Y-2.3738
N8440 X2.1575 Y-2.3751
N8445 X2.1496 Y-2.3763
N8450 X2.1434 Y-2.3771
N8455 X2.1416 Y-2.3773
N8460 X2.1336 Y-2.3781
N8465 X2.1256 Y-2.3788
N8470 X2.1177 Y-2.3793
N8475 X2.1097 Y-2.3796
N8480 X2.1017 Y-2.3797
N8485 X2.0937 Y-2.3796
N8490 X1.6392 Y-2.3798
N8495 X1.6313
N8500 X1.5994
N8505 X1.5675
N8510 X1.5595
N8515 X1.105 Y-2.3796
N8520 X1.097 Y-2.3797
N8525 X1.0891 Y-2.3796
N8530 X1.0811 Y-2.3793
N8535 X1.0731 Y-2.3788
N8540 X1.0651 Y-2.3781
N8545 X1.0572 Y-2.3773
N8550 X1.0553 Y-2.3771
N8555 X1.0492 Y-2.3763
N8560 X1.0412 Y-2.3751
N8565 X1.0332 Y-2.3738
N8570 X1.0253 Y-2.3723
N8575 X1.0173 Y-2.3706
N8580 X1.011 Y-2.3691
N8585 X1.0093 Y-2.3687
N8590 X1.0013 Y-2.3667
N8595 X0.9934 Y-2.3644
N8600 X0.9854 Y-2.362
N8605 X0.9827 Y-2.3612
N8610 X0.9774 Y-2.3594
N8615 X0.9694 Y-2.3566
N8620 X0.9615 Y-2.3535
N8625 X0.9606 Y-2.3532
N8630 X0.9535 Y-2.3503
N8635 X0.9455 Y-2.3469
N8640 X0.9419 Y-2.3452
N8645 X0.9376 Y-2.3432
N8650 X0.9296 Y-2.3393
N8655 X0.9255 Y-2.3372
N8660 X0.9216 Y-2.3352
N8665 X0.9136 Y-2.3309
N8670 X0.9108 Y-2.3293
N8675 X0.9057 Y-2.3262
N8680 X0.8977 Y-2.3214
N8685 X0.8976 Y-2.3213
N8690 X0.8897 Y-2.3162
N8695 X0.8854 Y-2.3133
N8700 X0.8817 Y-2.3108
N8705 X0.8742 Y-2.3053
N8710 X0.8738 Y-2.305
N8715 X0.8658 Y-2.299
N8720 X0.8638 Y-2.2974
N8725 X0.8578 Y-2.2925
N8730 X0.8541 Y-2.2894
N8735 X0.8498 Y-2.2858
N8740 X0.845 Y-2.2814
N8745 X0.8419 Y-2.2786
N8750 X0.8364 Y-2.2734
N8755 X0.8339 Y-2.271
N8760 X0.8284 Y-2.2655
N8765 X0.8259 Y-2.263
N8770 X0.8208 Y-2.2575
N8775 X0.8179 Y-2.2544
N8780 X0.8136 Y-2.2495
N8785 X0.81 Y-2.2453
N8790 X0.8068 Y-2.2416
N8795 X0.802 Y-2.2356
N8800 X0.8004 Y-2.2336
N8805 X0.7943 Y-2.2256
N8810 X0.794 Y-2.2252
N8815 X0.7886 Y-2.2176
N8820 X0.7861 Y-2.2139
N8825 X0.7832 Y-2.2097
N8830 X0.7781 Y-2.2018
N8835 X0.778 Y-2.2017
N8840 X0.7731 Y-2.1937
N8845 X0.7701 Y-2.1885
N8850 X0.7685 Y-2.1857
N8855 X0.7641 Y-2.1778
N8860 X0.7621 Y-2.1739
N8865 X0.76 Y-2.1698
N8870 X0.7561 Y-2.1618
N8875 X0.7542 Y-2.1575
N8880 X0.7525 Y-2.1538
N8885 X0.749 Y-2.1459
N8890 X0.7462 Y-2.1388
N8895 X0.7458 Y-2.1379
N8900 X0.7428 Y-2.1299
N8905 X0.74 Y-2.1219
N8910 X0.7382 Y-2.1166
N8915 X0.7374 Y-2.114
N8920 X0.7349 Y-2.106
N8925 X0.7327 Y-2.098
N8930 X0.7306 Y-2.0901
N8935 X0.7302 Y-2.0884
N8940 X0.7288 Y-2.0821
N8945 X0.7271 Y-2.0741
N8950 X0.7256 Y-2.0661
N8955 X0.7242 Y-2.0582
N8960 X0.5089 Y-2.0895
N8965 G3 X0.5291 Y-1.9618 Z-0.0371 I0.0101 J0.0639
N8970 X0.5089 Y-2.0895 Z-0.0442 I-0.0101 J-0.0639
N8975 X0.5291 Y-1.9618 Z-0.0513 I0.0101 J0.0639
N8980 X0.5089 Y-2.0895 Z-0.0584 I-0.0101 J-0.0639
N8985 X0.5291 Y-1.9618 Z-0.0655 I0.0101 J0.0639
N8990 X0.5089 Y-2.0895 Z-0.0726 I-0.0101 J-0.0639
N8995 X0.5291 Y-1.9618 Z-0.0796 I0.0101 J0.0639
N9000 X0.5089 Y-2.0895 Z-0.0867 I-0.0101 J-0.0639
N9005 X0.5291 Y-1.9618 Z-0.0938 I0.0101 J0.0639
N9010 X0.5089 Y-2.0895 Z-0.1009 I-0.0101 J-0.0639
N9015 X0.5291 Y-1.9618 Z-0.108 I0.0101 J0.0639
N9020 X0.5089 Y-2.0895 Z-0.1151 I-0.0101 J-0.0639
N9025 X0.5291 Y-1.9618 Z-0.1222 I0.0101 J0.0639
N9030 X0.5089 Y-2.0895 Z-0.1293 I-0.0101 J-0.0639
N9035 X0.5293 Z-0.13 I0.0101 J0.0639
N9040 G1 X0.6005 Y-2.078
N9045 X0.5998 Y-2.0741
N9050 X0.5987 Y-2.0661
N9055 X0.5977 Y-2.0582
N9060 X0.5968 Y-2.0502
N9065 X0.5961 Y-2.0422
N9070 X0.5955 Y-2.0342
N9075 X0.595 Y-2.0263
N9080 X0.5947 Y-2.0199
N9085 X0.5946 Y-2.0183
N9090 X0.5944 Y-2.0103
N9095 X0.5943 Y-2.0023
N9100 Y-1.9944
N9105 X0.5942 Y-1.6356
N9110 Y-1.6276
N9115 Y-1.5
N9120 Y-1.3724
N9125 Y-1.3644
N9130 X0.5943 Y-1.0056
N9135 Y-0.9977
N9140 X0.5944 Y-0.9897
N9145 X0.5946 Y-0.9817
N9150 X0.5947 Y-0.9801
N9155 X0.595 Y-0.9737
N9160 X0.5955 Y-0.9658
N9165 X0.5961 Y-0.9578
N9170 X0.5968 Y-0.9498
N9175 X0.5977 Y-0.9418
N9180 X0.5987 Y-0.9339
N9185 X0.5998 Y-0.9259
N9190 X0.6011 Y-0.9179
N9195 X0.6025 Y-0.9099
N9200 X0.6027 Y-0.9092
N9205 X0.604 Y-0.902
N9210 X0.6057 Y-0.894
N9215 X0.6075 Y-0.886
N9220 X0.6094 Y-0.8781
N9225 X0.6106 Y-0.8733
N9230 X0.6115 Y-0.8701
N9235 X0.6137 Y-0.8621
N9240 X0.616 Y-0.8541
N9245 X0.6185 Y-0.8462
N9250 X0.6186 Y-0.8459
N9255 X0.6212 Y-0.8382
N9260 X0.6239 Y-0.8302
N9265 X0.6266 Y-0.823
N9270 X0.6269 Y-0.8222
N9275 X0.63 Y-0.8143
N9280 X0.6332 Y-0.8063
N9285 X0.6346 Y-0.8031
N9290 X0.6366 Y-0.7983
N9295 X0.6402 Y-0.7903
N9300 X0.6425 Y-0.7852
N9305 X0.6439 Y-0.7824
N9310 X0.6478 Y-0.7744
N9315 X0.6505 Y-0.7691
N9320 X0.6519 Y-0.7664
N9325 X0.6562 Y-0.7584
N9330 X0.6585 Y-0.7542
N9335 X0.6606 Y-0.7505
N9340 X0.6652 Y-0.7425
N9345 X0.6664 Y-0.7404
N9350 X0.6701 Y-0.7345
N9355 X0.6744 Y-0.7276
N9360 X0.6751 Y-0.7266
N9365 X0.6804 Y-0.7186
N9370 X0.6858 Y-0.7106
N9375 X0.6904 Y-0.7043
N9380 X0.6916 Y-0.7026
N9385 X0.6975 Y-0.6947
N9390 X0.6983 Y-0.6936
N9395 X0.7037 Y-0.6867
N9400 X0.7063 Y-0.6834
N9405 X0.7101 Y-0.6787
N9410 X0.7143 Y-0.6737
N9415 X0.7168 Y-0.6707
N9420 X0.7223 Y-0.6646
N9425 X0.7239 Y-0.6628
N9430 X0.7302 Y-0.6558
N9435 X0.7312 Y-0.6548
N9440 X0.7382 Y-0.6475
N9445 X0.7388 Y-0.6468
N9450 X0.7462 Y-0.6395
N9455 X0.7468 Y-0.6388
N9460 X0.7542 Y-0.6318
N9465 X0.7552 Y-0.6309
N9470 X0.7621 Y-0.6245
N9475 X0.7639 Y-0.6229
N9480 X0.7701 Y-0.6175
N9485 X0.7731 Y-0.6149
N9490 X0.7781 Y-0.6107
N9495 X0.7828 Y-0.6069
N9500 X0.7861 Y-0.6043
N9505 X0.7929 Y-0.599
N9510 X0.794 Y-0.5981
N9515 X0.802 Y-0.5922
N9520 X0.8036 Y-0.591
N9525 X0.81 Y-0.5865
N9530 X0.8179 Y-0.581
N9535 X0.8259 Y-0.5758
N9540 X0.827 Y-0.5751
N9545 X0.8339 Y-0.5707
N9550 X0.8398 Y-0.5671
N9555 X0.8419 Y-0.5659
N9560 X0.8498 Y-0.5612
N9565 X0.8536 Y-0.5591
N9570 X0.8578 Y-0.5568
N9575 X0.8658 Y-0.5525
N9580 X0.8685 Y-0.5511
N9585 X0.8738 Y-0.5484
N9590 X0.8817 Y-0.5445
N9595 X0.8846 Y-0.5432
N9600 X0.8897 Y-0.5408
N9605 X0.8977 Y-0.5372
N9610 X0.9025 Y-0.5352
N9615 X0.9057 Y-0.5338
N9620 X0.9136 Y-0.5306
N9625 X0.9216 Y-0.5275
N9630 X0.9224 Y-0.5272
N9635 X0.9296 Y-0.5245
N9640 X0.9376 Y-0.5218
N9645 X0.9453 Y-0.5192
N9650 X0.9455
N9655 X0.9535 Y-0.5166
N9660 X0.9615 Y-0.5143
N9665 X0.9694 Y-0.5121
N9670 X0.9727 Y-0.5113
N9675 X0.9774 Y-0.51
N9680 X0.9854 Y-0.5081
N9685 X0.9934 Y-0.5063
N9690 X1.0013 Y-0.5046
N9695 X1.0085 Y-0.5033
N9700 X1.0093 Y-0.5031
N9705 X1.0173 Y-0.5017
N9710 X1.0253 Y-0.5005
N9715 X1.0332 Y-0.4994
N9720 X1.0412 Y-0.4983
N9725 X1.0492 Y-0.4975
N9730 X1.0572 Y-0.4967
N9735 X1.0651 Y-0.4961
N9740 X1.0731 Y-0.4956
N9745 X1.0795 Y-0.4953
N9750 X1.0811
N9755 X1.0891 Y-0.495
N9760 X1.097 Y-0.4949
N9765 X1.105
N9770 X1.4638
N9775 X1.4718
N9780 X1.5994
N9785 X1.7269
N9790 X1.7349
N9795 X2.0937
N9800 X2.1017
N9805 X2.1097 Y-0.495
N9810 X2.1177 Y-0.4953
N9815 X2.1193
N9820 X2.1256 Y-0.4956
N9825 X2.1336 Y-0.4961
N9830 X2.1416 Y-0.4967
N9835 X2.1496 Y-0.4975
N9840 X2.1575 Y-0.4983
N9845 X2.1655 Y-0.4994
N9850 X2.1735 Y-0.5005
N9855 X2.1814 Y-0.5017
N9860 X2.1894 Y-0.5031
N9865 X2.1902 Y-0.5033
N9870 X2.1974 Y-0.5046
N9875 X2.2054 Y-0.5063
N9880 X2.2133 Y-0.5081
N9885 X2.2213 Y-0.51
N9890 X2.2261 Y-0.5113
N9895 X2.2293 Y-0.5121
N9900 X2.2373 Y-0.5143
N9905 X2.2452 Y-0.5166
N9910 X2.2532 Y-0.5192
N9915 X2.2535
N9920 X2.2612 Y-0.5218
N9925 X2.2692 Y-0.5245
N9930 X2.2763 Y-0.5272
N9935 X2.2771 Y-0.5275
N9940 X2.2851 Y-0.5306
N9945 X2.2931 Y-0.5338
N9950 X2.2963 Y-0.5352
N9955 X2.3011 Y-0.5372
N9960 X2.309 Y-0.5408
N9965 X2.3141 Y-0.5432
N9970 X2.317 Y-0.5445
N9975 X2.325 Y-0.5484
N9980 X2.3302 Y-0.5511
N9985 X2.3329 Y-0.5525
N9990 X2.3409 Y-0.5568
N9995 X2.3451 Y-0.5591
N10000 X2.3489 Y-0.5612
N10005 X2.3569 Y-0.5659
N10010 X2.3589 Y-0.5671
N10015 X2.3648 Y-0.5707
N10020 X2.3717 Y-0.5751
N10025 X2.3728 Y-0.5758
N10030 X2.3808 Y-0.581
N10035 X2.3888 Y-0.5865
N10040 X2.3951 Y-0.591
N10045 X2.3967 Y-0.5922
N10050 X2.4047 Y-0.5981
N10055 X2.4058 Y-0.599
N10060 X2.4127 Y-0.6043
N10065 X2.416 Y-0.6069
N10070 X2.4207 Y-0.6107
N10075 X2.4256 Y-0.6149
N10080 X2.4286 Y-0.6175
N10085 X2.4348 Y-0.6229
N10090 X2.4366 Y-0.6245
N10095 X2.4436 Y-0.6309
N10100 X2.4446 Y-0.6318
N10105 X2.4519 Y-0.6388
N10110 X2.4526 Y-0.6395
N10115 X2.4599 Y-0.6468
N10120 X2.4605 Y-0.6475
N10125 X2.4675 Y-0.6548
N10130 X2.4685 Y-0.6558
N10135 X2.4749 Y-0.6628
N10140 X2.4765 Y-0.6646
N10145 X2.4819 Y-0.6707
N10150 X2.4844 Y-0.6737
N10155 X2.4886 Y-0.6787
N10160 X2.4924 Y-0.6834
N10165 X2.4951 Y-0.6867
N10170 X2.5004 Y-0.6935
N10175 X2.5012 Y-0.6947
N10180 X2.5072 Y-0.7026
N10185 X2.5084 Y-0.7043
N10190 X2.5129 Y-0.7106
N10195 X2.5184 Y-0.7186
N10200 X2.5236 Y-0.7266
N10205 X2.5243 Y-0.7276
N10210 X2.5286 Y-0.7345
N10215 X2.5323 Y-0.7404
N10220 X2.5335 Y-0.7425
N10225 X2.5382 Y-0.7505
N10230 X2.5403 Y-0.7542
N10235 X2.5426 Y-0.7584
N10240 X2.5468 Y-0.7664
N10245 X2.5482 Y-0.7691
N10250 X2.5509 Y-0.7744
N10255 X2.5548 Y-0.7824
N10260 X2.5562 Y-0.7852
N10265 X2.5586 Y-0.7903
N10270 X2.5621 Y-0.7983
N10275 X2.5642 Y-0.8031
N10280 X2.5656 Y-0.8063
N10285 X2.5688 Y-0.8143
N10290 X2.5719 Y-0.8222
N10295 X2.5722 Y-0.823
N10300 X2.5748 Y-0.8302
N10305 X2.5776 Y-0.8382
N10310 X2.5801 Y-0.8459
N10315 X2.5802 Y-0.8462
N10320 X2.5827 Y-0.8541
N10325 X2.5851 Y-0.8621
N10330 X2.5873 Y-0.8701
N10335 X2.5881 Y-0.8733
N10340 X2.5893 Y-0.8781
N10345 X2.5912 Y-0.886
N10350 X2.593 Y-0.894
N10355 X2.5947 Y-0.902
N10360 X2.5961 Y-0.9092
N10365 X2.5962 Y-0.9099
N10370 X2.5976 Y-0.9179
N10375 X2.5989 Y-0.9259
N10380 X2.6 Y-0.9339
N10385 X2.601 Y-0.9418
N10390 X2.6019 Y-0.9498
N10395 X2.6026 Y-0.9578
N10400 X2.6033 Y-0.9658
N10405 X2.6038 Y-0.9737
N10410 X2.6041 Y-0.9801
N10415 Y-0.9817
N10420 X2.6044 Y-0.9897
N10425 X2.6045 Y-0.9977
N10430 Y-1.0056
N10435 Y-1.3644
N10440 Y-1.3724
N10445 Y-1.5
N10450 Y-1.6276
N10455 Y-1.6356
N10460 Y-1.9944
N10465 Y-2.0023
N10470 X2.6044 Y-2.0103
N10475 X2.6041 Y-2.0183
N10480 Y-2.0199
N10485 X2.6038 Y-2.0263
N10490 X2.6033 Y-2.0342
N10495 X2.6026 Y-2.0422
N10500 X2.6019 Y-2.0502
N10505 X2.601 Y-2.0582
N10510 X2.6 Y-2.0661
N10515 X2.5989 Y-2.0741
N10520 X2.5976 Y-2.0821
N10525 X2.5962 Y-2.0901
N10530 X2.5961 Y-2.0908
N10535 X2.5947 Y-2.098
N10540 X2.593 Y-2.106
N10545 X2.5912 Y-2.114
N10550 X2.5893 Y-2.1219
N10555 X2.5881 Y-2.1267
N10560 X2.5873 Y-2.1299
N10565 X2.5851 Y-2.1379
N10570 X2.5827 Y-2.1459
N10575 X2.5802 Y-2.1538
N10580 X2.5801 Y-2.1541
N10585 X2.5776 Y-2.1618
N10590 X2.5748 Y-2.1698
N10595 X2.5722 Y-2.177
N10600 X2.5719 Y-2.1778
N10605 X2.5688 Y-2.1857
N10610 X2.5656 Y-2.1937
N10615 X2.5642 Y-2.1969
N10620 X2.5621 Y-2.2017
N10625 X2.5586 Y-2.2097
N10630 X2.5562 Y-2.2148
N10635 X2.5548 Y-2.2176
N10640 X2.5509 Y-2.2256
N10645 X2.5482 Y-2.2309
N10650 X2.5468 Y-2.2336
N10655 X2.5426 Y-2.2416
N10660 X2.5403 Y-2.2458
N10665 X2.5381 Y-2.2495
N10670 X2.5335 Y-2.2575
N10675 X2.5323 Y-2.2596
N10680 X2.5286 Y-2.2655
N10685 X2.5243 Y-2.2724
N10690 X2.5236 Y-2.2734
N10695 X2.5184 Y-2.2814
N10700 X2.5129 Y-2.2894
N10705 X2.5084 Y-2.2957
N10710 X2.5072 Y-2.2974
N10715 X2.5012 Y-2.3053
N10720 X2.5004 Y-2.3065
N10725 X2.4951 Y-2.3133
N10730 X2.4924 Y-2.3166
N10735 X2.4886 Y-2.3213
N10740 X2.4844 Y-2.3263
N10745 X2.4819 Y-2.3293
N10750 X2.4765 Y-2.3354
N10755 X2.4749 Y-2.3372
N10760 X2.4685 Y-2.3442
N10765 X2.4675 Y-2.3452
N10770 X2.4605 Y-2.3525
N10775 X2.4599 Y-2.3532
N10780 X2.4526 Y-2.3605
N10785 X2.4519 Y-2.3612
N10790 X2.4446 Y-2.3682
N10795 X2.4436 Y-2.3691
N10800 X2.4366 Y-2.3755
N10805 X2.4348 Y-2.3771
N10810 X2.4286 Y-2.3825
N10815 X2.4256 Y-2.3851
N10820 X2.4207 Y-2.3893
N10825 X2.416 Y-2.3931
N10830 X2.4127 Y-2.3957
N10835 X2.4058 Y-2.401
N10840 X2.4047 Y-2.4019
N10845 X2.3967 Y-2.4078
N10850 X2.3951 Y-2.409
N10855 X2.3888 Y-2.4135
N10860 X2.3808 Y-2.419
N10865 X2.3728 Y-2.4242
N10870 X2.3717 Y-2.4249
N10875 X2.3648 Y-2.4293
N10880 X2.3589 Y-2.4329
N10885 X2.3569 Y-2.4341
N10890 X2.3489 Y-2.4388
N10895 X2.3451 Y-2.4409
N10900 X2.3409 Y-2.4432
N10905 X2.3329 Y-2.4475
N10910 X2.3302 Y-2.4489
N10915 X2.325 Y-2.4516
N10920 X2.317 Y-2.4555
N10925 X2.3141 Y-2.4568
N10930 X2.309 Y-2.4592
N10935 X2.3011 Y-2.4628
N10940 X2.2963 Y-2.4648
N10945 X2.2931 Y-2.4662
N10950 X2.2851 Y-2.4694
N10955 X2.2771 Y-2.4725
N10960 X2.2763 Y-2.4728
N10965 X2.2692 Y-2.4755
N10970 X2.2612 Y-2.4782
N10975 X2.2535 Y-2.4808
N10980 X2.2532
N10985 X2.2452 Y-2.4834
N10990 X2.2373 Y-2.4857
N10995 X2.2293 Y-2.4879
N11000 X2.2261 Y-2.4887
N11005 X2.2213 Y-2.49
N11010 X2.2133 Y-2.4919
N11015 X2.2054 Y-2.4937
N11020 X2.1974 Y-2.4954
N11025 X2.1902 Y-2.4967
N11030 X2.1894 Y-2.4969
N11035 X2.1814 Y-2.4983
N11040 X2.1735 Y-2.4995
N11045 X2.1655 Y-2.5006
N11050 X2.1575 Y-2.5017
N11055 X2.1496 Y-2.5025
N11060 X2.1416 Y-2.5033
N11065 X2.1336 Y-2.5039
N11070 X2.1256 Y-2.5044
N11075 X2.1193 Y-2.5047
N11080 X2.1177
N11085 X2.1097 Y-2.505
N11090 X2.1017 Y-2.5051
N11095 X2.0937
N11100 X1.7349
N11105 X1.7269
N11110 X1.5994
N11115 X1.4718
N11120 X1.4638
N11125 X1.105
N11130 X1.097
N11135 X1.0891 Y-2.505
N11140 X1.0811 Y-2.5047
N11145 X1.0795
N11150 X1.0731 Y-2.5044
N11155 X1.0651 Y-2.5039
N11160 X1.0572 Y-2.5033
N11165 X1.0492 Y-2.5025
N11170 X1.0412 Y-2.5017
N11175 X1.0332 Y-2.5006
N11180 X1.0253 Y-2.4995
N11185 X1.0173 Y-2.4983
N11190 X1.0093 Y-2.4969
N11195 X1.0085 Y-2.4967
N11200 X1.0013 Y-2.4954
N11205 X0.9934 Y-2.4937
N11210 X0.9854 Y-2.4919
N11215 X0.9774 Y-2.49
N11220 X0.9727 Y-2.4887
N11225 X0.9694 Y-2.4879
N11230 X0.9615 Y-2.4857
N11235 X0.9535 Y-2.4834
N11240 X0.9455 Y-2.4808
N11245 X0.9453
N11250 X0.9376 Y-2.4782
N11255 X0.9296 Y-2.4755
N11260 X0.9224 Y-2.4728
N11265 X0.9216 Y-2.4725
N11270 X0.9136 Y-2.4694
N11275 X0.9057 Y-2.4662
N11280 X0.9025 Y-2.4648
N11285 X0.8977 Y-2.4628
N11290 X0.8897 Y-2.4592
N11295 X0.8846 Y-2.4568
N11300 X0.8817 Y-2.4555
N11305 X0.8738 Y-2.4516
N11310 X0.8685 Y-2.4489
N11315 X0.8658 Y-2.4475
N11320 X0.8578 Y-2.4432
N11325 X0.8536 Y-2.4409
N11330 X0.8498 Y-2.4388
N11335 X0.8419 Y-2.4341
N11340 X0.8398 Y-2.4329
N11345 X0.8339 Y-2.4293
N11350 X0.827 Y-2.4249
N11355 X0.8259 Y-2.4242
N11360 X0.8179 Y-2.419
N11365 X0.81 Y-2.4135
N11370 X0.8036 Y-2.409
N11375 X0.802 Y-2.4078
N11380 X0.794 Y-2.4019
N11385 X0.7929 Y-2.401
N11390 X0.7861 Y-2.3957
N11395 X0.7828 Y-2.3931
N11400 X0.7781 Y-2.3893
N11405 X0.7731 Y-2.3851
N11410 X0.7701 Y-2.3825
N11415 X0.7639 Y-2.3771
N11420 X0.7621 Y-2.3755
N11425 X0.7552 Y-2.3691
N11430 X0.7542 Y-2.3682
N11435 X0.7468 Y-2.3612
N11440 X0.7462 Y-2.3605
N11445 X0.7388 Y-2.3532
N11450 X0.7382 Y-2.3525
N11455 X0.7312 Y-2.3452
N11460 X0.7302 Y-2.3442
N11465 X0.7239 Y-2.3372
N11470 X0.7223 Y-2.3354
N11475 X0.7168 Y-2.3293
N11480 X0.7143 Y-2.3263
N11485 X0.7101 Y-2.3213
N11490 X0.7063 Y-2.3166
N11495 X0.7037 Y-2.3133
N11500 X0.6983 Y-2.3064
N11505 X0.6975 Y-2.3053
N11510 X0.6916 Y-2.2974
N11515 X0.6904 Y-2.2957
N11520 X0.6858 Y-2.2894
N11525 X0.6804 Y-2.2814
N11530 X0.6751 Y-2.2734
N11535 X0.6744 Y-2.2724
N11540 X0.6701 Y-2.2655
N11545 X0.6664 Y-2.2596
N11550 X0.6652 Y-2.2575
N11555 X0.6606 Y-2.2495
N11560 X0.6585 Y-2.2458
N11565 X0.6562 Y-2.2416
N11570 X0.6519 Y-2.2336
N11575 X0.6505 Y-2.2309
N11580 X0.6478 Y-2.2256
N11585 X0.6439 Y-2.2176
N11590 X0.6425 Y-2.2148
N11595 X0.6402 Y-2.2097
N11600 X0.6366 Y-2.2017
N11605 X0.6346 Y-2.1969
N11610 X0.6332 Y-2.1937
N11615 X0.63 Y-2.1857
N11620 X0.6269 Y-2.1778
N11625 X0.6266 Y-2.177
N11630 X0.6239 Y-2.1698
N11635 X0.6212 Y-2.1618
N11640 X0.6186 Y-2.1541
N11645 X0.6185 Y-2.1538
N11650 X0.616 Y-2.1459
N11655 X0.6137 Y-2.1379
N11660 X0.6115 Y-2.1299
N11665 X0.6106 Y-2.1267
N11670 X0.6094 Y-2.1219
N11675 X0.6075 Y-2.114
N11680 X0.6057 Y-2.106
N11685 X0.604 Y-2.098
N11690 X0.6027 Y-2.0908
N11695 X0.6025 Y-2.0901
N11700 X0.6011 Y-2.0821
N11705 X0.6005 Y-2.078
N11710 X0.3947 Y-2.0758
N11715 G3 X0.4963 Y-1.9993 Z-0.137 I0.0508 J0.0382
N11720 X0.3947 Y-2.0758 Z-0.1439 I-0.0508 J-0.0382
N11725 X0.4963 Y-1.9993 Z-0.1509 I0.0508 J0.0382
N11730 X0.3947 Y-2.0758 Z-0.1579 I-0.0508 J-0.0382
N11735 X0.4963 Y-1.9993 Z-0.1649 I0.0508 J0.0382
N11740 X0.3947 Y-2.0758 Z-0.1718 I-0.0508 J-0.0382
N11745 X0.4963 Y-1.9993 Z-0.1788 I0.0508 J0.0382
N11750 X0.3947 Y-2.0758 Z-0.1858 I-0.0508 J-0.0382
N11755 X0.4963 Y-1.9993 Z-0.1927 I0.0508 J0.0382
N11760 X0.3947 Y-2.0758 Z-0.1997 I-0.0508 J-0.0382
N11765 X0.4963 Y-1.9993 Z-0.2067 I0.0508 J0.0382
N11770 X0.3947 Y-2.0758 Z-0.2137 I-0.0508 J-0.0382
N11775 X0.4963 Y-1.9993 Z-0.2206 I0.0508 J0.0382
N11780 X0.3947 Y-2.0758 Z-0.2276 I-0.0508 J-0.0382
N11785 X0.4552 Y-2.1004 Z-0.23 I0.0508 J0.0382
N11790 G1 X0.5264 Y-2.0894
N11795 X0.5253 Y-2.0821
N11800 X0.5242 Y-2.0741
N11805 X0.5232 Y-2.0661
N11810 X0.5224 Y-2.0582
N11815 X0.5216 Y-2.0502
N11820 X0.5209 Y-2.0422
N11825 X0.5204 Y-2.0342
N11830 X0.52 Y-2.0263
N11835 X0.5197 Y-2.0183
N11840 X0.5194 Y-2.0103
N11845 X0.5193 Y-2.0023
N11850 Y-1.9944
N11855 Y-1.7552
N11860 Y-1.6422
N11865 X0.5192 Y-1.6421
N11870 X0.507
N11875 X0.499
N11880 X0.491 Y-1.6418
N11885 X0.4831 Y-1.6409
N11890 X0.4791 Y-1.6403
N11895 X0.4771 Y-1.64
N11900 X0.4761 Y-1.6398
N11905 X0.4756 Y-1.6397
N11910 X0.4752 Y-1.6396
N11915 X0.4751 Y-1.6397
N11920 Y-1.9944
N11925 Y-2.0023
N11930 X0.4754 Y-2.0103
N11935 X0.4763 Y-2.0342
N11940 X0.4766 Y-2.0422
N11945 X0.4773 Y-2.0502
N11950 X0.4808 Y-2.0821
N11955 X0.4818 Y-2.0901
N11960 X0.4831 Y-2.0973
N11965 X0.4875 Y-2.1219
N11970 X0.489 Y-2.1299
N11975 X0.4908 Y-2.1379
N11980 X0.499 Y-2.1698
N11985 X0.5012 Y-2.1778
N11990 X0.5038 Y-2.1857
N11995 X0.5117 Y-2.2097
N12000 X0.5146 Y-2.2176
N12005 X0.5149 Y-2.2185
N12010 X0.5243 Y-2.2416
N12015 X0.5275 Y-2.2495
N12020 X0.5309 Y-2.2569
N12025 X0.5427 Y-2.2814
N12030 X0.5466 Y-2.2894
N12035 X0.5468 Y-2.2898
N12040 X0.5511 Y-2.2974
N12045 X0.5628 Y-2.3182
N12050 X0.5646 Y-2.3213
N12055 X0.5696 Y-2.3293
N12060 X0.5799 Y-2.3452
N12065 X0.5851 Y-2.3532
N12070 X0.5867 Y-2.3555
N12075 X0.5908 Y-2.3612
N12080 X0.6027 Y-2.3773
N12085 X0.6085 Y-2.3851
N12090 X0.6106 Y-2.3876
N12095 X0.6284 Y-2.409
N12100 X0.6346 Y-2.416
N12105 X0.6505 Y-2.433
N12110 X0.658 Y-2.4409
N12115 X0.6585 Y-2.4413
N12120 X0.6664 Y-2.4489
N12125 X0.6748 Y-2.4568
N12130 X0.6824 Y-2.464
N12135 X0.6833 Y-2.4648
N12140 X0.6904 Y-2.4709
N12145 X0.7063 Y-2.4843
N12150 X0.7117 Y-2.4887
N12155 X0.7143 Y-2.4908
N12160 X0.7223 Y-2.4968
N12165 X0.7382 Y-2.5086
N12170 X0.7438 Y-2.5127
N12175 X0.7462 Y-2.5142
N12180 X0.756 Y-2.5206
N12185 X0.7701 Y-2.5298
N12190 X0.7781 Y-2.5348
N12195 X0.7813 Y-2.5366
N12200 X0.802 Y-2.5483
N12205 X0.8096 Y-2.5525
N12210 X0.81 Y-2.5527
N12215 X0.8179 Y-2.5567
N12220 X0.8424 Y-2.5685
N12225 X0.8498 Y-2.5719
N12230 X0.8578 Y-2.5751
N12235 X0.8817 Y-2.5847
N12240 X0.8897 Y-2.5877
N12245 X0.8977 Y-2.5903
N12250 X0.9216 Y-2.5981
N12255 X0.9293 Y-2.6004
N12260 X0.9296
N12265 X0.9615 Y-2.6085
N12270 X0.9694 Y-2.6104
N12275 X0.9774 Y-2.6119
N12280 X1.0022 Y-2.6163
N12285 X1.0093 Y-2.6176
N12290 X1.0173 Y-2.6186
N12295 X1.0492 Y-2.622
N12300 X1.0572 Y-2.6228
N12305 X1.0651 Y-2.6231
N12310 X1.0891 Y-2.6239
N12315 X1.097 Y-2.6242
N12320 X1.105 Y-2.6243
N12325 X1.4597
N12330 X1.4598 Y-2.6242
N12335 X1.4597 Y-2.6238
N12340 X1.4596 Y-2.6233
N12345 X1.4594 Y-2.6223
N12350 X1.459 Y-2.6203
N12355 X1.4584 Y-2.6163
N12360 X1.4576 Y-2.6083
N12365 X1.4573 Y-2.6004
N12370 Y-2.5924
N12375 Y-2.5801
N12380 X1.4572
N12385 X1.3442
N12390 X1.105
N12395 X1.097
N12400 X1.0891 Y-2.5799
N12405 X1.0811 Y-2.5797
N12410 X1.0731 Y-2.5794
N12415 X1.0651 Y-2.5789
N12420 X1.0572 Y-2.5784
N12425 X1.0492 Y-2.5778
N12430 X1.0412 Y-2.577
N12435 X1.0332 Y-2.5761
N12440 X1.0253 Y-2.5751
N12445 X1.0173 Y-2.5741
N12450 X1.0093 Y-2.5728
N12455 X1.0013 Y-2.5715
N12460 X0.9934 Y-2.5701
N12465 X0.9854 Y-2.5685
N12470 X0.9774 Y-2.5669
N12475 X0.9694 Y-2.5651
N12480 X0.9615 Y-2.5632
N12485 X0.9535 Y-2.5611
N12490 X0.9511 Y-2.5605
N12495 X0.9455 Y-2.559
N12500 X0.9376 Y-2.5567
N12505 X0.9296 Y-2.5544
N12510 X0.9216 Y-2.5518
N12515 X0.9136 Y-2.5492
N12520 X0.9057 Y-2.5464
N12525 X0.9005 Y-2.5446
N12530 X0.8977 Y-2.5435
N12535 X0.8897 Y-2.5405
N12540 X0.8799 Y-2.5366
N12545 X0.8738 Y-2.534
N12550 X0.8658 Y-2.5306
N12555 X0.8614 Y-2.5286
N12560 X0.8578 Y-2.527
N12565 X0.8498 Y-2.5232
N12570 X0.8419 Y-2.5194
N12575 X0.8339 Y-2.5153
N12580 X0.8288 Y-2.5127
N12585 X0.8259 Y-2.5111
N12590 X0.8179 Y-2.5068
N12595 X0.8142 Y-2.5047
N12600 X0.81 Y-2.5022
N12605 X0.802 Y-2.4976
N12610 X0.8005 Y-2.4967
N12615 X0.794 Y-2.4927
N12620 X0.7877 Y-2.4887
N12625 X0.7861 Y-2.4877
N12630 X0.7781 Y-2.4825
N12635 X0.7756 Y-2.4808
N12640 X0.7701 Y-2.477
N12645 X0.764 Y-2.4728
N12650 X0.7621 Y-2.4714
N12655 X0.7542 Y-2.4656
N12660 X0.7531 Y-2.4648
N12665 X0.7462 Y-2.4596
N12670 X0.7426 Y-2.4568
N12675 X0.7382 Y-2.4533
N12680 X0.7326 Y-2.4489
N12685 X0.7302 Y-2.4469
N12690 X0.7223 Y-2.4402
N12695 X0.7143 Y-2.4332
N12700 X0.714 Y-2.4329
N12705 X0.7063 Y-2.426
N12710 X0.7052 Y-2.4249
N12715 X0.6983 Y-2.4185
N12720 X0.6904 Y-2.4107
N12725 X0.6887 Y-2.409
N12730 X0.6809 Y-2.401
N12735 X0.6744 Y-2.3942
N12740 X0.6734 Y-2.3931
N12745 X0.6664 Y-2.3854
N12750 X0.6662 Y-2.3851
N12755 X0.6592 Y-2.3771
N12760 X0.6525 Y-2.3691
N12765 X0.6505 Y-2.3667
N12770 X0.646 Y-2.3612
N12775 X0.6425 Y-2.3568
N12780 X0.6398 Y-2.3532
N12785 X0.6346 Y-2.3463
N12790 X0.6337 Y-2.3452
N12795 X0.6279 Y-2.3372
N12800 X0.6266 Y-2.3353
N12805 X0.6223 Y-2.3293
N12810 X0.6186 Y-2.3238
N12815 X0.6169 Y-2.3213
N12820 X0.6117 Y-2.3133
N12825 X0.6106 Y-2.3117
N12830 X0.6067 Y-2.3053
N12835 X0.6027 Y-2.2988
N12840 X0.6018 Y-2.2974
N12845 X0.5971 Y-2.2894
N12850 X0.5947 Y-2.2852
N12855 X0.5926 Y-2.2814
N12860 X0.5882 Y-2.2734
N12865 X0.5867 Y-2.2706
N12870 X0.5841 Y-2.2655
N12875 X0.58 Y-2.2575
N12880 X0.5761 Y-2.2495
N12885 X0.5724 Y-2.2416
N12890 X0.5708 Y-2.238
N12895 X0.5688 Y-2.2336
N12900 X0.5654 Y-2.2256
N12905 X0.5628 Y-2.2195
N12910 X0.5589 Y-2.2097
N12915 X0.5559 Y-2.2017
N12920 X0.5548 Y-2.1989
N12925 X0.5529 Y-2.1937
N12930 X0.5502 Y-2.1857
N12935 X0.5475 Y-2.1778
N12940 X0.545 Y-2.1698
N12945 X0.5426 Y-2.1618
N12950 X0.5403 Y-2.1538
N12955 X0.5389 Y-2.1483
N12960 X0.5382 Y-2.1459
N12965 X0.5362 Y-2.1379
N12970 X0.5343 Y-2.1299
N12975 X0.5325 Y-2.1219
N12980 X0.5308 Y-2.114
N12985 X0.5293 Y-2.106
N12990 X0.5278 Y-2.098
N12995 X0.5265 Y-2.0901
N13000 X0.5264 Y-2.0894
N13005 X0.3574 Y-2.0861
N13010 G3 X0.4533 Y-2.0024 Z-0.237 I0.048 J0.0419
N13015 X0.3574 Y-2.0861 Z-0.244 I-0.048 J-0.0419
N13020 X0.4533 Y-2.0024 Z-0.2509 I0.048 J0.0419
N13025 X0.3574 Y-2.0861 Z-0.2579 I-0.048 J-0.0419
N13030 X0.4533 Y-2.0024 Z-0.2649 I0.048 J0.0419
N13035 X0.3574 Y-2.0861 Z-0.2719 I-0.048 J-0.0419
N13040 X0.4533 Y-2.0024 Z-0.2789 I0.048 J0.0419
N13045 X0.3574 Y-2.0861 Z-0.2859 I-0.048 J-0.0419
N13050 X0.4533 Y-2.0024 Z-0.2928 I0.048 J0.0419
N13055 X0.3574 Y-2.0861 Z-0.2998 I-0.048 J-0.0419
N13060 X0.4533 Y-2.0024 Z-0.3068 I0.048 J0.0419
N13065 X0.3574 Y-2.0861 Z-0.3138 I-0.048 J-0.0419
N13070 X0.4533 Y-2.0024 Z-0.3208 I0.048 J0.0419
N13075 X0.3574 Y-2.0861 Z-0.3278 I-0.048 J-0.0419
N13080 X0.4154 Y-2.1071 Z-0.33 I0.048 J0.0419
N13085 G1 X0.4866 Y-2.0958
N13090 X0.4856 Y-2.0901
N13095 X0.4846 Y-2.0821
N13100 X0.4835 Y-2.0741
N13105 X0.4831 Y-2.0701
N13110 X0.4826 Y-2.0661
N13115 X0.4818 Y-2.0582
N13120 X0.4811 Y-2.0502
N13125 X0.4805 Y-2.0422
N13130 X0.48 Y-2.0342
N13135 X0.4796 Y-2.0263
N13140 X0.4793 Y-2.0183
N13145 X0.4791 Y-2.0103
N13150 X0.479 Y-2.0023
N13155 Y-1.9944
N13160 X0.4789 Y-1.7233
N13165 X0.4788
N13170 X0.4787
N13175 X0.4769 Y-1.7229
N13180 X0.476 Y-1.7228
N13185 X0.4755 Y-1.7227
N13190 X0.4752 Y-1.7226
N13195 X0.4751 Y-1.7227
N13200 Y-1.9944
N13205 Y-2.0023
N13210 X0.4754 Y-2.0103
N13215 X0.4763 Y-2.0342
N13220 X0.4766 Y-2.0422
N13225 X0.4773 Y-2.0502
N13230 X0.4808 Y-2.0821
N13235 X0.4818 Y-2.0901
N13240 X0.4831 Y-2.0973
N13245 X0.4875 Y-2.1219
N13250 X0.489 Y-2.1299
N13255 X0.4908 Y-2.1379
N13260 X0.499 Y-2.1698
N13265 X0.5012 Y-2.1778
N13270 X0.5038 Y-2.1857
N13275 X0.5117 Y-2.2097
N13280 X0.5146 Y-2.2176
N13285 X0.5149 Y-2.2185
N13290 X0.5243 Y-2.2416
N13295 X0.5275 Y-2.2495
N13300 X0.5309 Y-2.2569
N13305 X0.5427 Y-2.2814
N13310 X0.5466 Y-2.2894
N13315 X0.5468 Y-2.2898
N13320 X0.5511 Y-2.2974
N13325 X0.5628 Y-2.3182
N13330 X0.5646 Y-2.3213
N13335 X0.5696 Y-2.3293
N13340 X0.5799 Y-2.3452
N13345 X0.5851 Y-2.3532
N13350 X0.5867 Y-2.3555
N13355 X0.5908 Y-2.3612
N13360 X0.6027 Y-2.3773
N13365 X0.6085 Y-2.3851
N13370 X0.6106 Y-2.3876
N13375 X0.6284 Y-2.409
N13380 X0.6346 Y-2.416
N13385 X0.6505 Y-2.433
N13390 X0.658 Y-2.4409
N13395 X0.6585 Y-2.4413
N13400 X0.6664 Y-2.4489
N13405 X0.6748 Y-2.4568
N13410 X0.6824 Y-2.464
N13415 X0.6833 Y-2.4648
N13420 X0.6904 Y-2.4709
N13425 X0.7063 Y-2.4843
N13430 X0.7117 Y-2.4887
N13435 X0.7143 Y-2.4908
N13440 X0.7223 Y-2.4968
N13445 X0.7382 Y-2.5086
N13450 X0.7438 Y-2.5127
N13455 X0.7462 Y-2.5142
N13460 X0.756 Y-2.5206
N13465 X0.7701 Y-2.5298
N13470 X0.7781 Y-2.5348
N13475 X0.7813 Y-2.5366
N13480 X0.802 Y-2.5483
N13485 X0.8096 Y-2.5525
N13490 X0.81 Y-2.5527
N13495 X0.8179 Y-2.5567
N13500 X0.8424 Y-2.5685
N13505 X0.8498 Y-2.5719
N13510 X0.8578 Y-2.5751
N13515 X0.8817 Y-2.5847
N13520 X0.8897 Y-2.5877
N13525 X0.8977 Y-2.5903
N13530 X0.9216 Y-2.5981
N13535 X0.9293 Y-2.6004
N13540 X0.9296
N13545 X0.9615 Y-2.6085
N13550 X0.9694 Y-2.6104
N13555 X0.9774 Y-2.6119
N13560 X1.0022 Y-2.6163
N13565 X1.0093 Y-2.6176
N13570 X1.0173 Y-2.6186
N13575 X1.0492 Y-2.622
N13580 X1.0572 Y-2.6228
N13585 X1.0651 Y-2.6231
N13590 X1.0891 Y-2.6239
N13595 X1.097 Y-2.6242
N13600 X1.105 Y-2.6243
N13605 X1.3767
N13610 X1.3768 Y-2.6242
N13615 X1.3767 Y-2.6238
N13620 X1.3766 Y-2.6234
N13625 X1.3764 Y-2.6225
N13630 X1.3761 Y-2.6207
N13635 Y-2.6205
N13640 X1.376 Y-2.6204
N13645 X1.105
N13650 X1.097
N13655 X1.0891 Y-2.6203
N13660 X1.0811 Y-2.6201
N13665 X1.0731 Y-2.6198
N13670 X1.0651 Y-2.6194
N13675 X1.0572 Y-2.6189
N13680 X1.0492 Y-2.6183
N13685 X1.0412 Y-2.6176
N13690 X1.0332 Y-2.6168
N13695 X1.0293 Y-2.6163
N13700 X1.0253 Y-2.6159
N13705 X1.0173 Y-2.6148
N13710 X1.0093 Y-2.6137
N13715 X1.0013 Y-2.6124
N13720 X0.9934 Y-2.6111
N13725 X0.9854 Y-2.6097
N13730 X0.9784 Y-2.6083
N13735 X0.9774 Y-2.6081
N13740 X0.9694 Y-2.6064
N13745 X0.9615 Y-2.6047
N13750 X0.9535 Y-2.6028
N13755 X0.9455 Y-2.6008
N13760 X0.9376 Y-2.5987
N13765 X0.9296 Y-2.5965
N13770 X0.9216 Y-2.5942
N13775 X0.9159 Y-2.5924
N13780 X0.9136 Y-2.5917
N13785 X0.9057 Y-2.5891
N13790 X0.8977 Y-2.5864
N13795 X0.8919 Y-2.5844
N13800 X0.8897 Y-2.5836
N13805 X0.8817 Y-2.5807
N13810 X0.8738 Y-2.5776
N13815 X0.8658 Y-2.5744
N13820 X0.8578 Y-2.5711
N13825 X0.8498 Y-2.5677
N13830 X0.8419 Y-2.5641
N13835 X0.8341 Y-2.5605
N13840 X0.8339 Y-2.5604
N13845 X0.8259 Y-2.5565
N13850 X0.818 Y-2.5525
N13855 X0.81 Y-2.5484
N13860 X0.8029 Y-2.5446
N13865 X0.802 Y-2.5441
N13870 X0.794 Y-2.5397
N13875 X0.7887 Y-2.5366
N13880 X0.7861 Y-2.535
N13885 X0.7781 Y-2.5303
N13890 X0.7701 Y-2.5254
N13895 X0.7627 Y-2.5206
N13900 X0.7621 Y-2.5203
N13905 X0.7542 Y-2.515
N13910 X0.7507 Y-2.5127
N13915 X0.7462 Y-2.5096
N13920 X0.7392 Y-2.5047
N13925 X0.7382 Y-2.5039
N13930 X0.7302 Y-2.4982
N13935 X0.7283 Y-2.4967
N13940 X0.7223 Y-2.4921
N13945 X0.7178 Y-2.4887
N13950 X0.7143 Y-2.4859
N13955 X0.7079 Y-2.4808
N13960 X0.7063 Y-2.4795
N13965 X0.6983 Y-2.4728
N13970 X0.6904 Y-2.4659
N13975 X0.6891 Y-2.4648
N13980 X0.6824 Y-2.4589
N13985 X0.6802 Y-2.4568
N13990 X0.6744 Y-2.4515
N13995 X0.6717 Y-2.4489
N14000 X0.6664 Y-2.4438
N14005 X0.6635 Y-2.4409
N14010 X0.6585 Y-2.4359
N14015 X0.6556 Y-2.4329
N14020 X0.6505 Y-2.4277
N14025 X0.6479 Y-2.4249
N14030 X0.6425 Y-2.4191
N14035 X0.6405 Y-2.417
N14040 X0.6346 Y-2.4103
N14045 X0.6334 Y-2.409
N14050 X0.6266 Y-2.4011
N14055 X0.6199 Y-2.3931
N14060 X0.6186 Y-2.3915
N14065 X0.6135 Y-2.3851
N14070 X0.6106 Y-2.3815
N14075 X0.6072 Y-2.3771
N14080 X0.6027 Y-2.3711
N14085 X0.6012 Y-2.3691
N14090 X0.5954 Y-2.3612
N14095 X0.5947 Y-2.3601
N14100 X0.5898 Y-2.3532
N14105 X0.5867 Y-2.3487
N14110 X0.5843 Y-2.3452
N14115 X0.5791 Y-2.3372
N14120 X0.5787 Y-2.3367
N14125 X0.574 Y-2.3293
N14130 X0.5691 Y-2.3213
N14135 X0.5643 Y-2.3133
N14140 X0.5628 Y-2.3107
N14145 X0.5597 Y-2.3053
N14150 X0.5553 Y-2.2974
N14155 X0.5548 Y-2.2965
N14160 X0.551 Y-2.2894
N14165 X0.5468 Y-2.2814
N14170 X0.5429 Y-2.2734
N14175 X0.539 Y-2.2655
N14180 X0.5389 Y-2.2652
N14185 X0.5353 Y-2.2575
N14190 X0.5317 Y-2.2495
N14195 X0.5283 Y-2.2416
N14200 X0.5249 Y-2.2336
N14205 X0.5218 Y-2.2256
N14210 X0.5187 Y-2.2176
N14215 X0.5157 Y-2.2097
N14220 X0.5149 Y-2.2074
N14225 X0.513 Y-2.2017
N14230 X0.5102 Y-2.1937
N14235 X0.5077 Y-2.1857
N14240 X0.507 Y-2.1834
N14245 X0.5052 Y-2.1778
N14250 X0.5029 Y-2.1698
N14255 X0.5007 Y-2.1618
N14260 X0.4986 Y-2.1538
N14265 X0.4966 Y-2.1459
N14270 X0.4947 Y-2.1379
N14275 X0.4929 Y-2.1299
N14280 X0.4912 Y-2.1219
N14285 X0.491 Y-2.121
N14290 X0.4897 Y-2.114
N14295 X0.4882 Y-2.106
N14300 X0.4869 Y-2.098
N14305 X0.4866 Y-2.0958
N14310 G0 Z-0.0498
N14315 X0.4007 Y-1.4231 Z-0.07
N14320 X0.3966 Y-1.3912 Z-0.0719
N14325 X0.3659 Y-1.1501 Z-0.125
N14330 G3 X0.4102 Y-0.9167 Z-0.138 I0.0222 J0.1167 F40
N14335 X0.3659 Y-1.1501 Z-0.1511 I-0.0222 J-0.1167
N14340 X0.4102 Y-0.9167 Z-0.1641 I0.0222 J0.1167
N14345 X0.3659 Y-1.1501 Z-0.1771 I-0.0222 J-0.1167
N14350 X0.4102 Y-0.9167 Z-0.1901 I0.0222 J0.1167
N14355 X0.3659 Y-1.1501 Z-0.2032 I-0.0222 J-0.1167
N14360 X0.4102 Y-0.9167 Z-0.2162 I0.0222 J0.1167
N14365 X0.2698 Y-1.0223 Z-0.2231 I-0.0222 J-0.1167
N14370 X0.388 Y-1.1522 Z-0.23 I0.1182 J-0.0111
N14375 G1 X0.5193
N14380 Y-1.0056
N14385 Y-0.9977
N14390 X0.5194 Y-0.9897
N14395 X0.5197 Y-0.9817
N14400 X0.52 Y-0.9737
N14405 X0.5204 Y-0.9658
N14410 X0.5209 Y-0.9578
N14415 X0.5216 Y-0.9498
N14420 X0.5224 Y-0.9418
N14425 X0.5232 Y-0.9339
N14430 X0.5242 Y-0.9259
N14435 X0.5253 Y-0.9179
N14440 X0.5265 Y-0.9099
N14445 X0.5278 Y-0.902
N14450 X0.5293 Y-0.894
N14455 X0.5308 Y-0.886
N14460 X0.5325 Y-0.8781
N14465 X0.5343 Y-0.8701
N14470 X0.5362 Y-0.8621
N14475 X0.5382 Y-0.8541
N14480 X0.5389 Y-0.8517
N14485 X0.5403 Y-0.8462
N14490 X0.5426 Y-0.8382
N14495 X0.545 Y-0.8302
N14500 X0.5475 Y-0.8222
N14505 X0.5502 Y-0.8143
N14510 X0.5529 Y-0.8063
N14515 X0.5548 Y-0.8011
N14520 X0.5559 Y-0.7983
N14525 X0.5589 Y-0.7903
N14530 X0.5628 Y-0.7805
N14535 X0.5654 Y-0.7744
N14540 X0.5688 Y-0.7664
N14545 X0.5708 Y-0.762
N14550 X0.5724 Y-0.7584
N14555 X0.5761 Y-0.7505
N14560 X0.58 Y-0.7425
N14565 X0.5841 Y-0.7345
N14570 X0.5867 Y-0.7294
N14575 X0.5882 Y-0.7266
N14580 X0.5926 Y-0.7186
N14585 X0.5947 Y-0.7148
N14590 X0.5971 Y-0.7106
N14595 X0.6018 Y-0.7026
N14600 X0.6027 Y-0.7012
N14605 X0.6067 Y-0.6947
N14610 X0.6106 Y-0.6883
N14615 X0.6117 Y-0.6867
N14620 X0.6169 Y-0.6787
N14625 X0.6186 Y-0.6762
N14630 X0.6223 Y-0.6707
N14635 X0.6266 Y-0.6647
N14640 X0.6279 Y-0.6628
N14645 X0.6337 Y-0.6548
N14650 X0.6346 Y-0.6537
N14655 X0.6398 Y-0.6468
N14660 X0.6425 Y-0.6432
N14665 X0.646 Y-0.6388
N14670 X0.6505 Y-0.6333
N14675 X0.6525 Y-0.6309
N14680 X0.6592 Y-0.6229
N14685 X0.6662 Y-0.6149
N14690 X0.6664 Y-0.6146
N14695 X0.6734 Y-0.6069
N14700 X0.6744 Y-0.6058
N14705 X0.6809 Y-0.599
N14710 X0.6887 Y-0.591
N14715 X0.6904 Y-0.5893
N14720 X0.6983 Y-0.5815
N14725 X0.7052 Y-0.5751
N14730 X0.7063 Y-0.574
N14735 X0.714 Y-0.5671
N14740 X0.7143 Y-0.5668
N14745 X0.7223 Y-0.5598
N14750 X0.7302 Y-0.5531
N14755 X0.7326 Y-0.5511
N14760 X0.7382 Y-0.5467
N14765 X0.7426 Y-0.5432
N14770 X0.7462 Y-0.5404
N14775 X0.7531 Y-0.5352
N14780 X0.7542 Y-0.5344
N14785 X0.7621 Y-0.5286
N14790 X0.764 Y-0.5272
N14795 X0.7701 Y-0.523
N14800 X0.7756 Y-0.5192
N14805 X0.7781 Y-0.5175
N14810 X0.7861 Y-0.5123
N14815 X0.7877 Y-0.5113
N14820 X0.794 Y-0.5073
N14825 X0.8005 Y-0.5033
N14830 X0.802 Y-0.5024
N14835 X0.81 Y-0.4978
N14840 X0.8142 Y-0.4953
N14845 X0.8179 Y-0.4932
N14850 X0.8259 Y-0.4889
N14855 X0.8288 Y-0.4873
N14860 X0.8339 Y-0.4847
N14865 X0.8419 Y-0.4806
N14870 X0.8498 Y-0.4768
N14875 X0.8578 Y-0.473
N14880 X0.8614 Y-0.4714
N14885 X0.8658 Y-0.4694
N14890 X0.8738 Y-0.466
N14895 X0.8799 Y-0.4634
N14900 X0.8897 Y-0.4595
N14905 X0.8977 Y-0.4565
N14910 X0.9005 Y-0.4554
N14915 X0.9057 Y-0.4536
N14920 X0.9136 Y-0.4508
N14925 X0.9216 Y-0.4482
N14930 X0.9296 Y-0.4456
N14935 X0.9376 Y-0.4433
N14940 X0.9455 Y-0.441
N14945 X0.9511 Y-0.4395
N14950 X0.9535 Y-0.4389
N14955 X0.9615 Y-0.4368
N14960 X0.9694 Y-0.4349
N14965 X0.9774 Y-0.4331
N14970 X0.9854 Y-0.4315
N14975 X0.9934 Y-0.4299
N14980 X1.0013 Y-0.4285
N14985 X1.0093 Y-0.4272
N14990 X1.0173 Y-0.4259
N14995 X1.0253 Y-0.4249
N15000 X1.0332 Y-0.4239
N15005 X1.0412 Y-0.423
N15010 X1.0492 Y-0.4222
N15015 X1.0572 Y-0.4216
N15020 X1.0651 Y-0.4211
N15025 X1.0731 Y-0.4206
N15030 X1.0811 Y-0.4203
N15035 X1.0891 Y-0.4201
N15040 X1.097 Y-0.4199
N15045 X1.105
N15050 X1.3442
N15055 X1.4572
N15060 X1.4573
N15065 Y-0.4076
N15070 Y-0.3996
N15075 X1.4576 Y-0.3917
N15080 X1.4584 Y-0.3837
N15085 X1.459 Y-0.3797
N15090 X1.4594 Y-0.3777
N15095 X1.4596 Y-0.3767
N15100 X1.4597 Y-0.3762
N15105 X1.4598 Y-0.3758
N15110 X1.4597 Y-0.3757
N15115 X1.105
N15120 X1.097 Y-0.3758
N15125 X1.0891 Y-0.3761
N15130 X1.0651 Y-0.3769
N15135 X1.0572 Y-0.3772
N15140 X1.0492 Y-0.3779
N15145 X1.0173 Y-0.3814
N15150 X1.0093 Y-0.3824
N15155 X1.0021 Y-0.3837
N15160 X0.9774 Y-0.3882
N15165 X0.9694 Y-0.3896
N15170 X0.9615 Y-0.3914
N15175 X0.9296 Y-0.3996
N15180 X0.9216 Y-0.4018
N15185 X0.9136 Y-0.4045
N15190 X0.8897 Y-0.4124
N15195 X0.8817 Y-0.4152
N15200 X0.8809 Y-0.4156
N15205 X0.8578 Y-0.4249
N15210 X0.8498 Y-0.4281
N15215 X0.8424 Y-0.4315
N15220 X0.8179 Y-0.4433
N15225 X0.81 Y-0.4473
N15230 X0.8096 Y-0.4475
N15235 X0.802 Y-0.4517
N15240 X0.7812 Y-0.4634
N15245 X0.7781 Y-0.4652
N15250 X0.7701 Y-0.4702
N15255 X0.7542 Y-0.4805
N15260 X0.7462 Y-0.4857
N15265 X0.7439 Y-0.4873
N15270 X0.7382 Y-0.4915
N15275 X0.7221 Y-0.5033
N15280 X0.7143 Y-0.5092
N15285 X0.7117 Y-0.5113
N15290 X0.6904 Y-0.529
N15295 X0.6834 Y-0.5352
N15300 X0.6663 Y-0.5511
N15305 X0.6585 Y-0.5586
N15310 X0.658 Y-0.5591
N15315 X0.6505 Y-0.5671
N15320 X0.6425 Y-0.5755
N15325 X0.6354 Y-0.583
N15330 X0.6346 Y-0.5839
N15335 X0.6285 Y-0.591
N15340 X0.6151 Y-0.6069
N15345 X0.6106 Y-0.6123
N15350 X0.6085 Y-0.6149
N15355 X0.6027 Y-0.6228
N15360 X0.5908 Y-0.6388
N15365 X0.5867 Y-0.6445
N15370 X0.5851 Y-0.6468
N15375 X0.5787 Y-0.6566
N15380 X0.5695 Y-0.6707
N15385 X0.5646 Y-0.6787
N15390 X0.5628 Y-0.6819
N15395 X0.5511 Y-0.7026
N15400 X0.5468 Y-0.7102
N15405 X0.5466 Y-0.7106
N15410 X0.5427 Y-0.7186
N15415 X0.5309 Y-0.7431
N15420 X0.5275 Y-0.7505
N15425 X0.5243 Y-0.7584
N15430 X0.5146 Y-0.7824
N15435 X0.5117 Y-0.7903
N15440 X0.5091 Y-0.7983
N15445 X0.5013 Y-0.8222
N15450 X0.499 Y-0.83
N15455 X0.4989 Y-0.8302
N15460 X0.4909 Y-0.8621
N15465 X0.489 Y-0.8701
N15470 X0.4875 Y-0.8781
N15475 X0.4831 Y-0.9028
N15480 X0.4818 Y-0.9099
N15485 X0.4807 Y-0.9179
N15490 X0.4773 Y-0.9498
N15495 X0.4766 Y-0.9578
N15500 X0.4763 Y-0.9658
N15505 X0.4754 Y-0.9897
N15510 X0.4751 Y-0.9977
N15515 Y-1.0056
N15520 Y-1.3603
N15525 X0.4752 Y-1.3604
N15530 X0.4756 Y-1.3603
N15535 X0.4761 Y-1.3602
N15540 X0.4771 Y-1.36
N15545 X0.4791 Y-1.3597
N15550 X0.4831 Y-1.3591
N15555 X0.491 Y-1.3582
N15560 X0.499 Y-1.3579
N15565 X0.507
N15570 X0.5192
N15575 X0.5193 Y-1.3578
N15580 Y-1.2448
N15585 Y-1.1522
N15590 X0.4605 Y-1.0672
N15595 G3 X0.3533 Y-1.1184 Z-0.2365 I-0.0536 J-0.0256
N15600 X0.4605 Y-1.0672 Z-0.243 I0.0536 J0.0256
N15605 X0.3533 Y-1.1184 Z-0.2495 I-0.0536 J-0.0256
N15610 X0.4605 Y-1.0672 Z-0.256 I0.0536 J0.0256
N15615 X0.3533 Y-1.1184 Z-0.2626 I-0.0536 J-0.0256
N15620 X0.4605 Y-1.0672 Z-0.2691 I0.0536 J0.0256
N15625 X0.3533 Y-1.1184 Z-0.2756 I-0.0536 J-0.0256
N15630 X0.4605 Y-1.0672 Z-0.2821 I0.0536 J0.0256
N15635 X0.3533 Y-1.1184 Z-0.2886 I-0.0536 J-0.0256
N15640 X0.4605 Y-1.0672 Z-0.2951 I0.0536 J0.0256
N15645 X0.3533 Y-1.1184 Z-0.3016 I-0.0536 J-0.0256
N15650 X0.4605 Y-1.0672 Z-0.3081 I0.0536 J0.0256
N15655 X0.3533 Y-1.1184 Z-0.3146 I-0.0536 J-0.0256
N15660 X0.4605 Y-1.0672 Z-0.3212 I0.0536 J0.0256
N15665 X0.3533 Y-1.1184 Z-0.3277 I-0.0536 J-0.0256
N15670 X0.4069 Y-1.1521 Z-0.33 I0.0536 J0.0256
N15675 G1 X0.4789 Y-1.1522
N15680 X0.479 Y-1.0056
N15685 Y-0.9977
N15690 X0.4791 Y-0.9897
N15695 X0.4793 Y-0.9817
N15700 X0.4796 Y-0.9737
N15705 X0.48 Y-0.9658
N15710 X0.4805 Y-0.9578
N15715 X0.4811 Y-0.9498
N15720 X0.4818 Y-0.9418
N15725 X0.4826 Y-0.9339
N15730 X0.4831 Y-0.9299
N15735 X0.4835 Y-0.9259
N15740 X0.4846 Y-0.9179
N15745 X0.4856 Y-0.9099
N15750 X0.4869 Y-0.902
N15755 X0.4882 Y-0.894
N15760 X0.4897 Y-0.886
N15765 X0.491 Y-0.8791
N15770 X0.4912 Y-0.8781
N15775 X0.4929 Y-0.8701
N15780 X0.4947 Y-0.8621
N15785 X0.4966 Y-0.8541
N15790 X0.4986 Y-0.8462
N15795 X0.5007 Y-0.8382
N15800 X0.5029 Y-0.8302
N15805 X0.5052 Y-0.8222
N15810 X0.507 Y-0.8166
N15815 X0.5077 Y-0.8143
N15820 X0.5102 Y-0.8063
N15825 X0.513 Y-0.7983
N15830 X0.5149 Y-0.7926
N15835 X0.5157 Y-0.7903
N15840 X0.5187 Y-0.7824
N15845 X0.5218 Y-0.7744
N15850 X0.5249 Y-0.7664
N15855 X0.5283 Y-0.7584
N15860 X0.5317 Y-0.7505
N15865 X0.5353 Y-0.7425
N15870 X0.5389 Y-0.7348
N15875 X0.539 Y-0.7345
N15880 X0.5429 Y-0.7266
N15885 X0.5468 Y-0.7186
N15890 X0.551 Y-0.7106
N15895 X0.5548 Y-0.7035
N15900 X0.5553 Y-0.7026
N15905 X0.5597 Y-0.6947
N15910 X0.5628 Y-0.6893
N15915 X0.5643 Y-0.6867
N15920 X0.5691 Y-0.6787
N15925 X0.574 Y-0.6707
N15930 X0.5787 Y-0.6633
N15935 X0.5791 Y-0.6628
N15940 X0.5843 Y-0.6548
N15945 X0.5867 Y-0.6513
N15950 X0.5898 Y-0.6468
N15955 X0.5947 Y-0.6399
N15960 X0.5954 Y-0.6388
N15965 X0.6012 Y-0.6309
N15970 X0.6027 Y-0.6289
N15975 X0.6072 Y-0.6229
N15980 X0.6106 Y-0.6185
N15985 X0.6135 Y-0.6149
N15990 X0.6186 Y-0.6085
N15995 X0.6199 Y-0.6069
N16000 X0.6266 Y-0.5989
N16005 X0.6334 Y-0.591
N16010 X0.6346 Y-0.5897
N16015 X0.6405 Y-0.583
N16020 X0.6425 Y-0.5809
N16025 X0.6479 Y-0.5751
N16030 X0.6505 Y-0.5723
N16035 X0.6556 Y-0.5671
N16040 X0.6585 Y-0.5641
N16045 X0.6635 Y-0.5591
N16050 X0.6664 Y-0.5562
N16055 X0.6717 Y-0.5511
N16060 X0.6744 Y-0.5485
N16065 X0.6802 Y-0.5432
N16070 X0.6824 Y-0.5411
N16075 X0.6891 Y-0.5352
N16080 X0.6904 Y-0.5341
N16085 X0.6983 Y-0.5272
N16090 X0.7063 Y-0.5205
N16095 X0.7079 Y-0.5192
N16100 X0.7143 Y-0.5141
N16105 X0.7178 Y-0.5113
N16110 X0.7223 Y-0.5079
N16115 X0.7283 Y-0.5033
N16120 X0.7302 Y-0.5018
N16125 X0.7382 Y-0.4961
N16130 X0.7392 Y-0.4953
N16135 X0.7462 Y-0.4904
N16140 X0.7507 Y-0.4873
N16145 X0.7542 Y-0.485
N16150 X0.7621 Y-0.4797
N16155 X0.7627 Y-0.4794
N16160 X0.7701 Y-0.4746
N16165 X0.7781 Y-0.4697
N16170 X0.7861 Y-0.465
N16175 X0.7887 Y-0.4634
N16180 X0.794 Y-0.4603
N16185 X0.802 Y-0.4559
N16190 X0.8029 Y-0.4554
N16195 X0.81 Y-0.4516
N16200 X0.818 Y-0.4475
N16205 X0.8259 Y-0.4435
N16210 X0.8339 Y-0.4396
N16215 X0.8341 Y-0.4395
N16220 X0.8419 Y-0.4359
N16225 X0.8498 Y-0.4323
N16230 X0.8578 Y-0.4289
N16235 X0.8658 Y-0.4256
N16240 X0.8738 Y-0.4224
N16245 X0.8817 Y-0.4193
N16250 X0.8897 Y-0.4164
N16255 X0.8919 Y-0.4156
N16260 X0.8977 Y-0.4136
N16265 X0.9057 Y-0.4109
N16270 X0.9136 Y-0.4083
N16275 X0.9159 Y-0.4076
N16280 X0.9216 Y-0.4058
N16285 X0.9296 Y-0.4035
N16290 X0.9376 Y-0.4013
N16295 X0.9455 Y-0.3992
N16300 X0.9535 Y-0.3972
N16305 X0.9615 Y-0.3953
N16310 X0.9694 Y-0.3936
N16315 X0.9774 Y-0.3919
N16320 X0.9784 Y-0.3917
N16325 X0.9854 Y-0.3903
N16330 X0.9934 Y-0.3889
N16335 X1.0013 Y-0.3876
N16340 X1.0093 Y-0.3863
N16345 X1.0173 Y-0.3852
N16350 X1.0253 Y-0.3841
N16355 X1.0293 Y-0.3837
N16360 X1.0332 Y-0.3832
N16365 X1.0412 Y-0.3824
N16370 X1.0492 Y-0.3817
N16375 X1.0572 Y-0.3811
N16380 X1.0651 Y-0.3806
N16385 X1.0731 Y-0.3802
N16390 X1.0811 Y-0.3799
N16395 X1.0891 Y-0.3797
N16400 X1.097 Y-0.3796
N16405 X1.105
N16410 X1.376
N16415 X1.3761 Y-0.3795
N16420 Y-0.3793
N16425 X1.3764 Y-0.3775
N16430 X1.3766 Y-0.3766
N16435 X1.3767 Y-0.3762
N16440 X1.3768 Y-0.3758
N16445 X1.3767 Y-0.3757
N16450 X1.105
N16455 X1.097 Y-0.3758
N16460 X1.0891 Y-0.3761
N16465 X1.0651 Y-0.3769
N16470 X1.0572 Y-0.3772
N16475 X1.0492 Y-0.3779
N16480 X1.0173 Y-0.3814
N16485 X1.0093 Y-0.3824
N16490 X1.0021 Y-0.3837
N16495 X0.9774 Y-0.3882
N16500 X0.9694 Y-0.3896
N16505 X0.9615 Y-0.3914
N16510 X0.9296 Y-0.3996
N16515 X0.9216 Y-0.4018
N16520 X0.9136 Y-0.4045
N16525 X0.8897 Y-0.4124
N16530 X0.8817 Y-0.4152
N16535 X0.8809 Y-0.4156
N16540 X0.8578 Y-0.4249
N16545 X0.8498 Y-0.4281
N16550 X0.8424 Y-0.4315
N16555 X0.8179 Y-0.4433
N16560 X0.81 Y-0.4473
N16565 X0.8096 Y-0.4475
N16570 X0.802 Y-0.4517
N16575 X0.7812 Y-0.4634
N16580 X0.7781 Y-0.4652
N16585 X0.7701 Y-0.4702
N16590 X0.7542 Y-0.4805
N16595 X0.7462 Y-0.4857
N16600 X0.7439 Y-0.4873
N16605 X0.7382 Y-0.4915
N16610 X0.7221 Y-0.5033
N16615 X0.7143 Y-0.5092
N16620 X0.7117 Y-0.5113
N16625 X0.6904 Y-0.529
N16630 X0.6834 Y-0.5352
N16635 X0.6663 Y-0.5511
N16640 X0.6585 Y-0.5586
N16645 X0.658 Y-0.5591
N16650 X0.6505 Y-0.5671
N16655 X0.6425 Y-0.5755
N16660 X0.6354 Y-0.583
N16665 X0.6346 Y-0.5839
N16670 X0.6285 Y-0.591
N16675 X0.6151 Y-0.6069
N16680 X0.6106 Y-0.6123
N16685 X0.6085 Y-0.6149
N16690 X0.6027 Y-0.6228
N16695 X0.5908 Y-0.6388
N16700 X0.5867 Y-0.6445
N16705 X0.5851 Y-0.6468
N16710 X0.5787 Y-0.6566
N16715 X0.5695 Y-0.6707
N16720 X0.5646 Y-0.6787
N16725 X0.5628 Y-0.6819
N16730 X0.5511 Y-0.7026
N16735 X0.5468 Y-0.7102
N16740 X0.5466 Y-0.7106
N16745 X0.5427 Y-0.7186
N16750 X0.5309 Y-0.7431
N16755 X0.5275 Y-0.7505
N16760 X0.5243 Y-0.7584
N16765 X0.5146 Y-0.7824
N16770 X0.5117 Y-0.7903
N16775 X0.5091 Y-0.7983
N16780 X0.5013 Y-0.8222
N16785 X0.499 Y-0.83
N16790 X0.4989 Y-0.8302
N16795 X0.4909 Y-0.8621
N16800 X0.489 Y-0.8701
N16805 X0.4875 Y-0.8781
N16810 X0.4831 Y-0.9028
N16815 X0.4818 Y-0.9099
N16820 X0.4807 Y-0.9179
N16825 X0.4773 Y-0.9498
N16830 X0.4766 Y-0.9578
N16835 X0.4763 Y-0.9658
N16840 X0.4754 Y-0.9897
N16845 X0.4751 Y-0.9977
N16850 Y-1.0056
N16855 Y-1.2773
N16860 X0.4752 Y-1.2774
N16865 X0.4755 Y-1.2773
N16870 X0.476 Y-1.2772
N16875 X0.4769 Y-1.2771
N16880 X0.4787 Y-1.2767
N16885 X0.4789
N16890 Y-1.1522
N16895 G0 Z-0.0498
N16900 X0.6134 Y-1.0736 Z0.0813
N16905 X0.7786 Y-0.9769 Z0.1427
N16910 X1.2244 Y-0.7162 Z0.1389
N16915 X1.3988 Y-0.6142 Z0.1245
N16920 X1.5696 Y-0.5144 Z0.0718
N16925 X1.9935 Y-0.2665 Z-0.125
N16930 G3 X1.9914 Y-0.2887 Z-0.1258 I0.1167 J-0.0222 F40
N16935 X2.2289 Z-0.1388 I0.1188
N16940 X1.9914 Z-0.1518 I-0.1188
N16945 X2.2289 Z-0.1649 I0.1188
N16950 X1.9914 Z-0.1779 I-0.1188
N16955 X2.2289 Z-0.1909 I0.1188
N16960 X1.9914 Z-0.2039 I-0.1188
N16965 X2.2289 Z-0.217 I0.1188
N16970 X1.9914 Z-0.23 I-0.1188
N16975 G1 Y-0.4199
N16980 X2.0937
N16985 X2.1017
N16990 X2.1097 Y-0.4201
N16995 X2.1177 Y-0.4203
N17000 X2.1256 Y-0.4206
N17005 X2.1336 Y-0.4211
N17010 X2.1416 Y-0.4216
N17015 X2.1496 Y-0.4222
N17020 X2.1575 Y-0.423
N17025 X2.1655 Y-0.4239
N17030 X2.1735 Y-0.4249
N17035 X2.1814 Y-0.4259
N17040 X2.1894 Y-0.4272
N17045 X2.1974 Y-0.4285
N17050 X2.2054 Y-0.4299
N17055 X2.2133 Y-0.4315
N17060 X2.2213 Y-0.4331
N17065 X2.2293 Y-0.4349
N17070 X2.2373 Y-0.4368
N17075 X2.2452 Y-0.4389
N17080 X2.2477 Y-0.4395
N17085 X2.2532 Y-0.441
N17090 X2.2612 Y-0.4433
N17095 X2.2692 Y-0.4456
N17100 X2.2771 Y-0.4482
N17105 X2.2851 Y-0.4508
N17110 X2.2931 Y-0.4536
N17115 X2.2983 Y-0.4554
N17120 X2.3011 Y-0.4565
N17125 X2.309 Y-0.4595
N17130 X2.3188 Y-0.4634
N17135 X2.325 Y-0.466
N17140 X2.3329 Y-0.4694
N17145 X2.3373 Y-0.4714
N17150 X2.3409 Y-0.473
N17155 X2.3489 Y-0.4768
N17160 X2.3569 Y-0.4806
N17165 X2.3648 Y-0.4847
N17170 X2.3699 Y-0.4873
N17175 X2.3728 Y-0.4889
N17180 X2.3808 Y-0.4932
N17185 X2.3845 Y-0.4953
N17190 X2.3888 Y-0.4978
N17195 X2.3967 Y-0.5024
N17200 X2.3982 Y-0.5033
N17205 X2.4047 Y-0.5073
N17210 X2.411 Y-0.5113
N17215 X2.4127 Y-0.5123
N17220 X2.4207 Y-0.5175
N17225 X2.4232 Y-0.5192
N17230 X2.4286 Y-0.523
N17235 X2.4347 Y-0.5272
N17240 X2.4366 Y-0.5286
N17245 X2.4446 Y-0.5344
N17250 X2.4457 Y-0.5352
N17255 X2.4526 Y-0.5404
N17260 X2.4561 Y-0.5432
N17265 X2.4605 Y-0.5467
N17270 X2.4661 Y-0.5511
N17275 X2.4685 Y-0.5531
N17280 X2.4765 Y-0.5598
N17285 X2.4844 Y-0.5668
N17290 X2.4848 Y-0.5671
N17295 X2.4924 Y-0.574
N17300 X2.4935 Y-0.5751
N17305 X2.5004 Y-0.5815
N17310 X2.5084 Y-0.5893
N17315 X2.5101 Y-0.591
N17320 X2.5179 Y-0.599
N17325 X2.5243 Y-0.6058
N17330 X2.5253 Y-0.6069
N17335 X2.5323 Y-0.6146
N17340 X2.5326 Y-0.6149
N17345 X2.5395 Y-0.6229
N17350 X2.5463 Y-0.6309
N17355 X2.5482 Y-0.6333
N17360 X2.5527 Y-0.6388
N17365 X2.5562 Y-0.6432
N17370 X2.559 Y-0.6468
N17375 X2.5642 Y-0.6537
N17380 X2.565 Y-0.6548
N17385 X2.5708 Y-0.6628
N17390 X2.5722 Y-0.6647
N17395 X2.5764 Y-0.6707
N17400 X2.5801 Y-0.6762
N17405 X2.5818 Y-0.6787
N17410 X2.587 Y-0.6867
N17415 X2.5881 Y-0.6883
N17420 X2.5921 Y-0.6947
N17425 X2.5961 Y-0.7012
N17430 X2.597 Y-0.7026
N17435 X2.6016 Y-0.7106
N17440 X2.6041 Y-0.7148
N17445 X2.6061 Y-0.7186
N17450 X2.6105 Y-0.7266
N17455 X2.612 Y-0.7294
N17460 X2.6147 Y-0.7345
N17465 X2.6187 Y-0.7425
N17470 X2.6226 Y-0.7505
N17475 X2.6263 Y-0.7584
N17480 X2.628 Y-0.762
N17485 X2.63 Y-0.7664
N17490 X2.6334 Y-0.7744
N17495 X2.6359 Y-0.7805
N17500 X2.6399 Y-0.7903
N17505 X2.6429 Y-0.7983
N17510 X2.6439 Y-0.8011
N17515 X2.6458 Y-0.8063
N17520 X2.6486 Y-0.8143
N17525 X2.6512 Y-0.8222
N17530 X2.6537 Y-0.8302
N17535 X2.6561 Y-0.8382
N17540 X2.6584 Y-0.8462
N17545 X2.6599 Y-0.8517
N17550 X2.6605 Y-0.8541
N17555 X2.6626 Y-0.8621
N17560 X2.6644 Y-0.8701
N17565 X2.6662 Y-0.8781
N17570 X2.6679 Y-0.886
N17575 X2.6694 Y-0.894
N17580 X2.6709 Y-0.902
N17585 X2.6722 Y-0.9099
N17590 X2.6734 Y-0.9179
N17595 X2.6745 Y-0.9259
N17600 X2.6755 Y-0.9339
N17605 X2.6764 Y-0.9418
N17610 X2.6771 Y-0.9498
N17615 X2.6778 Y-0.9578
N17620 X2.6783 Y-0.9658
N17625 X2.6788 Y-0.9737
N17630 X2.6791 Y-0.9817
N17635 X2.6793 Y-0.9897
N17640 X2.6794 Y-0.9977
N17645 Y-1.0056
N17650 X2.6795 Y-1.2448
N17655 X2.6794 Y-1.3578
N17660 X2.6795 Y-1.3579
N17665 X2.6918
N17670 X2.6997
N17675 X2.7077 Y-1.3582
N17680 X2.7157 Y-1.3591
N17685 X2.7197 Y-1.3597
N17690 X2.7216 Y-1.36
N17695 X2.7226 Y-1.3602
N17700 X2.7231 Y-1.3603
N17705 X2.7236 Y-1.3604
N17710 Y-1.3603
N17715 Y-1.0056
N17720 Y-0.9977
N17725 X2.7233 Y-0.9897
N17730 X2.7224 Y-0.9658
N17735 X2.7221 Y-0.9578
N17740 X2.7214 Y-0.9498
N17745 X2.718 Y-0.9179
N17750 X2.717 Y-0.9099
N17755 X2.7157 Y-0.9027
N17760 X2.7112 Y-0.8781
N17765 X2.7097 Y-0.8701
N17770 X2.7079 Y-0.8621
N17775 X2.6997 Y-0.8302
N17780 X2.6975 Y-0.8222
N17785 X2.6949 Y-0.8143
N17790 X2.687 Y-0.7903
N17795 X2.6841 Y-0.7824
N17800 X2.6838 Y-0.7815
N17805 X2.6745 Y-0.7584
N17810 X2.6712 Y-0.7505
N17815 X2.6678 Y-0.7431
N17820 X2.6561 Y-0.7186
N17825 X2.6521 Y-0.7106
N17830 X2.6519 Y-0.7102
N17835 X2.6476 Y-0.7026
N17840 X2.6359 Y-0.6818
N17845 X2.6342 Y-0.6787
N17850 X2.6291 Y-0.6707
N17855 X2.6188 Y-0.6548
N17860 X2.6136 Y-0.6468
N17865 X2.612 Y-0.6445
N17870 X2.6079 Y-0.6388
N17875 X2.5961 Y-0.6227
N17880 X2.5902 Y-0.6149
N17885 X2.5881 Y-0.6124
N17890 X2.5704 Y-0.591
N17895 X2.5642 Y-0.584
N17900 X2.5482 Y-0.567
N17905 X2.5407 Y-0.5591
N17910 X2.5403 Y-0.5587
N17915 X2.5323 Y-0.5511
N17920 X2.5239 Y-0.5432
N17925 X2.5163 Y-0.536
N17930 X2.5155 Y-0.5352
N17935 X2.5084 Y-0.5291
N17940 X2.4924 Y-0.5157
N17945 X2.4871 Y-0.5113
N17950 X2.4844 Y-0.5092
N17955 X2.4765 Y-0.5033
N17960 X2.4605 Y-0.4914
N17965 X2.4549 Y-0.4873
N17970 X2.4526 Y-0.4858
N17975 X2.4427 Y-0.4794
N17980 X2.4286 Y-0.4702
N17985 X2.4207 Y-0.4652
N17990 X2.4174 Y-0.4634
N17995 X2.3967 Y-0.4517
N18000 X2.3892 Y-0.4475
N18005 X2.3888 Y-0.4473
N18010 X2.3808 Y-0.4433
N18015 X2.3563 Y-0.4315
N18020 X2.3489 Y-0.4281
N18025 X2.3409 Y-0.4249
N18030 X2.317 Y-0.4153
N18035 X2.309 Y-0.4123
N18040 X2.3011 Y-0.4097
N18045 X2.2771 Y-0.4019
N18050 X2.2694 Y-0.3996
N18055 X2.2692
N18060 X2.2373 Y-0.3915
N18065 X2.2293 Y-0.3896
N18070 X2.2213 Y-0.3881
N18075 X2.1965 Y-0.3837
N18080 X2.1894 Y-0.3824
N18085 X2.1814 Y-0.3814
N18090 X2.1496 Y-0.378
N18095 X2.1416 Y-0.3772
N18100 X2.1336 Y-0.3769
N18105 X2.1097 Y-0.3761
N18110 X2.1017 Y-0.3758
N18115 X2.0937 Y-0.3757
N18120 X1.739
N18125 Y-0.3758
N18130 X1.7391 Y-0.3762
N18135 X1.7392 Y-0.3767
N18140 X1.7393 Y-0.3777
N18145 X1.7397 Y-0.3797
N18150 X1.7403 Y-0.3837
N18155 X1.7411 Y-0.3917
N18160 X1.7415 Y-0.3996
N18165 Y-0.4076
N18170 Y-0.4199
N18175 X1.7416
N18180 X1.8545
N18185 X1.9914
N18190 X2.0764 Y-0.3611
N18195 G3 X2.0252 Y-0.2539 Z-0.2365 I-0.0256 J0.0536
N18200 X2.0764 Y-0.3611 Z-0.243 I0.0256 J-0.0536
N18205 X2.0252 Y-0.2539 Z-0.2495 I-0.0256 J0.0536
N18210 X2.0764 Y-0.3611 Z-0.256 I0.0256 J-0.0536
N18215 X2.0252 Y-0.2539 Z-0.2626 I-0.0256 J0.0536
N18220 X2.0764 Y-0.3611 Z-0.2691 I0.0256 J-0.0536
N18225 X2.0252 Y-0.2539 Z-0.2756 I-0.0256 J0.0536
N18230 X2.0764 Y-0.3611 Z-0.2821 I0.0256 J-0.0536
N18235 X2.0252 Y-0.2539 Z-0.2886 I-0.0256 J0.0536
N18240 X2.0764 Y-0.3611 Z-0.2951 I0.0256 J-0.0536
N18245 X2.0252 Y-0.2539 Z-0.3016 I-0.0256 J0.0536
N18250 X2.0764 Y-0.3611 Z-0.3081 I0.0256 J-0.0536
N18255 X2.0252 Y-0.2539 Z-0.3146 I-0.0256 J0.0536
N18260 X2.0764 Y-0.3611 Z-0.3212 I0.0256 J-0.0536
N18265 X2.0252 Y-0.2539 Z-0.3277 I-0.0256 J0.0536
N18270 X1.9915 Y-0.3075 Z-0.33 I0.0256 J-0.0536
N18275 G1 X1.9914 Y-0.3796
N18280 X2.0937
N18285 X2.1017
N18290 X2.1097 Y-0.3797
N18295 X2.1177 Y-0.3799
N18300 X2.1256 Y-0.3802
N18305 X2.1336 Y-0.3806
N18310 X2.1416 Y-0.3811
N18315 X2.1496 Y-0.3817
N18320 X2.1575 Y-0.3824
N18325 X2.1655 Y-0.3832
N18330 X2.1695 Y-0.3837
N18335 X2.1735 Y-0.3841
N18340 X2.1814 Y-0.3852
N18345 X2.1894 Y-0.3863
N18350 X2.1974 Y-0.3876
N18355 X2.2054 Y-0.3889
N18360 X2.2133 Y-0.3903
N18365 X2.2203 Y-0.3917
N18370 X2.2213 Y-0.3919
N18375 X2.2293 Y-0.3936
N18380 X2.2373 Y-0.3953
N18385 X2.2452 Y-0.3972
N18390 X2.2532 Y-0.3992
N18395 X2.2612 Y-0.4013
N18400 X2.2692 Y-0.4035
N18405 X2.2771 Y-0.4058
N18410 X2.2828 Y-0.4076
N18415 X2.2851 Y-0.4083
N18420 X2.2931 Y-0.4109
N18425 X2.3011 Y-0.4136
N18430 X2.3068 Y-0.4156
N18435 X2.309 Y-0.4164
N18440 X2.317 Y-0.4193
N18445 X2.325 Y-0.4224
N18450 X2.3329 Y-0.4256
N18455 X2.3409 Y-0.4289
N18460 X2.3489 Y-0.4323
N18465 X2.3569 Y-0.4359
N18470 X2.3646 Y-0.4395
N18475 X2.3648 Y-0.4396
N18480 X2.3728 Y-0.4435
N18485 X2.3808 Y-0.4475
N18490 X2.3888 Y-0.4516
N18495 X2.3959 Y-0.4554
N18500 X2.3967 Y-0.4559
N18505 X2.4047 Y-0.4603
N18510 X2.41 Y-0.4634
N18515 X2.4127 Y-0.465
N18520 X2.4207 Y-0.4697
N18525 X2.4286 Y-0.4746
N18530 X2.436 Y-0.4794
N18535 X2.4366 Y-0.4797
N18540 X2.4446 Y-0.485
N18545 X2.4481 Y-0.4873
N18550 X2.4526 Y-0.4904
N18555 X2.4595 Y-0.4953
N18560 X2.4605 Y-0.4961
N18565 X2.4685 Y-0.5018
N18570 X2.4704 Y-0.5033
N18575 X2.4765 Y-0.5079
N18580 X2.4809 Y-0.5113
N18585 X2.4844 Y-0.5141
N18590 X2.4909 Y-0.5192
N18595 X2.4924 Y-0.5205
N18600 X2.5004 Y-0.5272
N18605 X2.5084 Y-0.5341
N18610 X2.5096 Y-0.5352
N18615 X2.5163 Y-0.5411
N18620 X2.5185 Y-0.5432
N18625 X2.5243 Y-0.5485
N18630 X2.5271 Y-0.5511
N18635 X2.5323 Y-0.5562
N18640 X2.5353 Y-0.5591
N18645 X2.5403 Y-0.5641
N18650 X2.5432 Y-0.5671
N18655 X2.5482 Y-0.5723
N18660 X2.5508 Y-0.5751
N18665 X2.5562 Y-0.5809
N18670 X2.5582 Y-0.583
N18675 X2.5642 Y-0.5897
N18680 X2.5653 Y-0.591
N18685 X2.5722 Y-0.5989
N18690 X2.5789 Y-0.6069
N18695 X2.5801 Y-0.6085
N18700 X2.5853 Y-0.6149
N18705 X2.5881 Y-0.6185
N18710 X2.5915 Y-0.6229
N18715 X2.5961 Y-0.6289
N18720 X2.5975 Y-0.6309
N18725 X2.6033 Y-0.6388
N18730 X2.6041 Y-0.6399
N18735 X2.6089 Y-0.6468
N18740 X2.612 Y-0.6513
N18745 X2.6144 Y-0.6548
N18750 X2.6196 Y-0.6628
N18755 X2.62 Y-0.6633
N18760 X2.6247 Y-0.6707
N18765 X2.6297 Y-0.6787
N18770 X2.6344 Y-0.6867
N18775 X2.6359 Y-0.6893
N18780 X2.639 Y-0.6947
N18785 X2.6434 Y-0.7026
N18790 X2.6439 Y-0.7035
N18795 X2.6477 Y-0.7106
N18800 X2.6519 Y-0.7186
N18805 X2.6559 Y-0.7266
N18810 X2.6598 Y-0.7345
N18815 X2.6599 Y-0.7347
N18820 X2.6634 Y-0.7425
N18825 X2.6671 Y-0.7505
N18830 X2.6705 Y-0.7584
N18835 X2.6738 Y-0.7664
N18840 X2.677 Y-0.7744
N18845 X2.68 Y-0.7824
N18850 X2.683 Y-0.7903
N18855 X2.6838 Y-0.7925
N18860 X2.6858 Y-0.7983
N18865 X2.6885 Y-0.8063
N18870 X2.691 Y-0.8143
N18875 X2.6918 Y-0.8166
N18880 X2.6935 Y-0.8222
N18885 X2.6958 Y-0.8302
N18890 X2.6981 Y-0.8382
N18895 X2.7002 Y-0.8462
N18900 X2.7022 Y-0.8541
N18905 X2.7041 Y-0.8621
N18910 X2.7058 Y-0.8701
N18915 X2.7075 Y-0.8781
N18920 X2.7077 Y-0.879
N18925 X2.709 Y-0.886
N18930 X2.7105 Y-0.894
N18935 X2.7118 Y-0.902
N18940 X2.7131 Y-0.9099
N18945 X2.7142 Y-0.9179
N18950 X2.7152 Y-0.9259
N18955 X2.7157 Y-0.9299
N18960 X2.7161 Y-0.9339
N18965 X2.717 Y-0.9418
N18970 X2.7176 Y-0.9498
