%
(1001)
(T2 D=0.0312 CR=0.0156 - ZMIN=-0.4 - ball end mill)
(T4 D=0.25 CR=0 - ZMIN=-0.4 - flat end mill)
N10 G90
N15 G28 G91 Z0
N20 G90

(Horizontal1)
N25 M9
N30 T4 M6
N35 T2
N40 S1000 M3
N45 M9
N50 G0 X1.5994 Y2.7871
N55 Z0.6
N60 Z-0.1006
N65 G1 Z-0.115 F40
N70 Y2.7868 Z-0.1189
N75 Y2.7858 Z-0.1227
N80 Y2.7843 Z-0.1263
N85 Y2.7823 Z-0.1297
N90 Y2.7797 Z-0.1327
N95 Y2.7768 Z-0.1352
N100 Y2.7734 Z-0.1373
N105 Y2.7698 Z-0.1388
N110 Y2.766 Z-0.1397
N115 Y2.7621 Z-0.14
N120 G3 X1.5995 Y2.7591 I0.025
N125 G1 X1.6242 Y2.5515
N130 G2 X1.5994 Y2.5236 I-0.0248 J-0.0029
N135 G1 X1.4434
N140 G3 X1.4165 Y2.5162 J-0.0528
N145 G2 X1.3856 Y2.5019 I-0.0866 J0.1464
N150 X1.3521 Y2.4963 I-0.0335 J0.0966
N155 X1.2102 Y2.497 I-0.0001 J14.3375
N160 G3 X1.0683 Y2.4931 I-0.0188 J-1.9031
N165 X0.823 Y2.4098 I0.0323 J-0.4979
N170 X0.6536 Y2.2138 I0.2719 J-0.4062
N175 X0.6174 Y2.1181 I0.5614 J-0.2673
N180 X0.6052 Y2.0166 I0.3086 J-0.0887
N185 G2 X0.607 Y1.8794 I-2.6137 J-0.1044
N190 X0.6028 Y1.7422 I-3.764 J0.0473
N195 X0.5966 Y1.7113 I-0.1053 J0.0052
N200 X0.5831 Y1.6829 I-0.1597 J0.0581
N205 G3 X0.5758 Y1.656 I0.0454 J-0.0269
N210 G1 Y1.344
N215 G3 X0.5831 Y1.3171 I0.0528
N220 G2 X0.5974 Y1.2863 I-0.1463 J-0.0866
N225 X0.6031 Y1.2528 I-0.0966 J-0.0335
N230 X0.6024 Y1.1108 I-14.3374 J-0.0001
N235 G3 X0.6063 Y0.969 I1.9031 J-0.0188
N240 X0.6896 Y0.7236 I0.4979 J0.0323
N245 X0.8856 Y0.5542 I0.4062 J0.272
N250 X0.9842 Y0.5181 I0.2429 J0.5101
N255 X1.0884 Y0.5058 I0.0953 J0.3608
N260 G2 X1.2228 Y0.5071 I0.1104 J-4.6306
N265 X1.3572 Y0.5034 I-0.0159 J-3.0691
N270 X1.388 Y0.4972 I-0.0052 J-0.1053
N275 X1.4165 Y0.4838 I-0.0581 J-0.1598
N280 G3 X1.4434 Y0.4764 I0.0269 J0.0454
N285 G1 X1.7554
N290 G3 X1.7823 Y0.4838 J0.0528
N295 G2 X1.8131 Y0.4981 I0.0865 J-0.1462
N300 X1.8466 Y0.5037 I0.0335 J-0.0966
N305 X1.9885 Y0.503 I0.0001 J-14.3387
N310 G3 X2.1304 Y0.5069 I0.0188 J1.9031
N315 X2.3757 Y0.5902 I-0.0323 J0.4979
N320 X2.5451 Y0.7862 I-0.272 J0.4062
N325 X2.5797 Y0.8825 I-0.4648 J0.2213
N330 X2.5938 Y0.9838 I-0.4632 J0.116
N335 X2.5922 Y1.1267 I-1.6876 J0.0521
N340 G2 X2.5973 Y1.2695 I0.7944 J0.0428
N345 X2.604 Y1.2942 I0.0922 J-0.0117
N350 X2.6156 Y1.3171 I0.1795 J-0.0765
N355 G3 X2.623 Y1.344 I-0.0454 J0.0269
N360 G1 Y1.656
N365 G3 X2.6156 Y1.6829 I-0.0528
N370 G2 X2.6013 Y1.7137 I0.1463 J0.0866
N375 X2.5956 Y1.7472 I0.0966 J0.0335
N380 X2.5963 Y1.8892 I14.3387 J0.0001
N385 G3 X2.5925 Y2.031 I-1.9031 J0.0188
N390 X2.5077 Y2.2799 I-0.5036 J-0.0326
N395 X2.3061 Y2.4485 I-0.3914 J-0.263
N400 X2.2097 Y2.4822 I-0.263 J-0.5983
N405 X2.1083 Y2.4941 I-0.0927 J-0.3516
N410 G2 X1.974 Y2.493 I-0.105 J4.4009
N415 X1.8397 Y2.4967 I0.0212 J3.1713
N420 X1.8098 Y2.503 I0.0048 J0.0973
N425 X1.7823 Y2.5162 I0.0638 J0.1676
N430 G3 X1.7554 Y2.5236 I-0.0269 J-0.0454
N435 G1 X1.5994
N440 G2 X1.5236 Y2.5741 J0.082
N445 G3 X1.4479 Y2.6246 I-0.0757 J-0.0316
N450 G1 X1.377
N455 X1.3769 Y2.6245
N460 Y2.6229
N465 X1.3767 Y2.6212
N470 X1.3764 Y2.6196
N475 X1.376 Y2.6179
N480 X1.3756 Y2.6166
N485 X1.3749 Y2.6146
N490 X1.3744 Y2.6136
N495 X1.3739 Y2.6126
N500 X1.3734 Y2.6116
N505 X1.3727 Y2.6106
N510 X1.372 Y2.6096
N515 X1.3713 Y2.6086
N520 X1.3706 Y2.6078
N525 X1.3698 Y2.607
N530 X1.3689 Y2.6061
N535 X1.3681 Y2.6053
N540 X1.3671 Y2.6045
N545 X1.3661 Y2.6038
N550 X1.3651 Y2.6032
N555 X1.3641 Y2.6026
N560 X1.3631 Y2.602
N565 X1.3621 Y2.6016
N570 X1.3598 Y2.6007
N575 X1.3579 Y2.6001
N580 X1.356 Y2.5997
N585 X1.354 Y2.5995
N590 X1.3521 Y2.5994
N595 X1.1049
N600 X1.0969 Y2.5993
N605 X1.0889 Y2.5992
N610 X1.0869 Y2.5993
N615 X1.0849 Y2.5996
N620 X1.0829 Y2.6
N625 X1.0806 Y2.6007
N630 X1.0793 Y2.6011
N635 X1.0778 Y2.6018
N640 X1.0777
N645 X1.0768 Y2.6013
N650 X1.0755 Y2.6007
N655 X1.0742 Y2.6001
N660 X1.073 Y2.5996
N665 X1.071 Y2.5991
N670 X1.069 Y2.5987
N675 X1.067 Y2.5984
N680 X1.057 Y2.5978
N685 X1.049 Y2.5972
N690 X1.047
N695 X1.045 Y2.5974
N700 X1.0431 Y2.5978
N705 X1.0411 Y2.5984
N710 X1.0391 Y2.5991
N715 X1.0381 Y2.5995
N720 X1.0371 Y2.6
N725 X1.036 Y2.6006
N730 X1.0356 Y2.6003
N735 X1.0341 Y2.5991
N740 X1.0331 Y2.5984
N745 X1.0321 Y2.5977
N750 X1.0311 Y2.5971
N755 X1.0301 Y2.5966
N760 X1.0291 Y2.5962
N765 X1.0271 Y2.5954
N770 X1.0251 Y2.5948
N775 X1.0231 Y2.5944
N780 X1.0112 Y2.5927
N785 X1.0052 Y2.5917
N790 X1.0032 Y2.5915
N795 X1.0012 Y2.5914
N800 X0.9992 Y2.5915
N805 X0.9972 Y2.5917
N810 X0.9953 Y2.5921
N815 X0.9931 Y2.5928
N820 X0.992 Y2.5919
N825 X0.991 Y2.5913
N830 X0.9901 Y2.5907
N835 X0.9891 Y2.5901
N840 X0.9872 Y2.5892
N845 X0.9852 Y2.5884
N850 X0.9832 Y2.5879
N855 X0.965 Y2.5839
N860 X0.9631 Y2.5837
N865 X0.9613 Y2.5836
N870 X0.9593
N875 X0.9574 Y2.5838
N880 X0.9554 Y2.5842
N885 X0.9533 Y2.5847
N890 X0.9518 Y2.5853
N895 X0.951 Y2.5856
N900 X0.9509
N905 X0.9502 Y2.5847
N910 X0.9491 Y2.5835
N915 X0.9478 Y2.5823
N920 X0.9466 Y2.5813
N925 X0.9454 Y2.5804
N930 X0.9444 Y2.5797
N935 X0.9434 Y2.5792
N940 X0.9424 Y2.5786
N945 X0.9414 Y2.5782
N950 X0.9394 Y2.5774
N955 X0.9372 Y2.5767
N960 X0.9294 Y2.5745
N965 X0.9214 Y2.572
N970 X0.9194 Y2.5715
N975 X0.9174 Y2.5711
N980 X0.9154 Y2.5708
N985 X0.913 Y2.5707
N990 X0.9128 Y2.5708
N995 X0.9116 Y2.5699
N1000 X0.9098 Y2.5688
N1005 X0.9087 Y2.5682
N1010 X0.9076 Y2.5677
N1015 X0.9055 Y2.5668
N1020 X0.8975 Y2.564
N1025 X0.8887 Y2.5608
N1030 X0.8869 Y2.5602
N1035 X0.8851 Y2.5598
N1040 X0.8833 Y2.5595
N1045 X0.8815 Y2.5594
N1050 X0.8796
N1055 X0.8771 Y2.5596
N1060 X0.8766 Y2.559
N1065 X0.8756 Y2.5579
N1070 X0.8746 Y2.5569
N1075 X0.8736 Y2.5561
N1080 X0.8723 Y2.5551
N1085 X0.871 Y2.5542
N1090 X0.8698 Y2.5535
N1095 X0.8685 Y2.5528
N1100 X0.8576 Y2.5481
N1105 X0.8503 Y2.5448
N1110 X0.8496 Y2.5446
N1115 X0.8476 Y2.544
N1120 X0.8457 Y2.5436
N1125 X0.8437 Y2.5434
N1130 X0.8417 Y2.5433
N1135 X0.8392 Y2.5434
N1140 X0.8389
N1145 X0.8387 Y2.5432
N1150 X0.8377 Y2.5418
N1155 X0.8368 Y2.5407
N1160 X0.8359 Y2.5397
N1165 X0.8348 Y2.5386
N1170 X0.8337 Y2.5376
N1175 X0.8327 Y2.5369
N1180 X0.831 Y2.5356
N1185 X0.8292 Y2.5346
N1190 X0.8177 Y2.5286
N1195 X0.8138 Y2.5265
N1200 X0.8118 Y2.5255
N1205 X0.8098 Y2.5248
N1210 X0.808 Y2.5242
N1215 X0.8062 Y2.5238
N1220 X0.8053 Y2.5237
N1225 X0.8051 Y2.5236
N1230 X0.8044 Y2.5227
N1235 X0.8035 Y2.5218
N1240 X0.8026 Y2.5209
N1245 X0.8018 Y2.5202
N1250 X0.8008 Y2.5194
N1255 X0.7998 Y2.5187
N1260 X0.7978 Y2.5175
N1265 X0.7938 Y2.5152
N1270 X0.79 Y2.5129
N1275 X0.7818 Y2.5079
N1280 X0.7799 Y2.5067
N1285 X0.7783 Y2.5059
N1290 X0.7771 Y2.505
N1295 X0.7651 Y2.497
N1300 X0.7619 Y2.4948
N1305 X0.7535 Y2.489
N1310 X0.746 Y2.4836
N1315 X0.7448 Y2.483
N1320 X0.7437 Y2.4824
N1325 X0.7419 Y2.4816
N1330 X0.7406 Y2.4801
N1335 X0.7397 Y2.4792
N1340 X0.7388 Y2.4784
N1345 X0.738 Y2.4776
N1350 X0.73 Y2.4715
N1355 X0.722 Y2.4651
N1360 X0.7124 Y2.4571
N1365 X0.7061 Y2.4517
N1370 X0.6981 Y2.4446
N1375 X0.6901 Y2.4373
N1380 X0.689 Y2.4365
N1385 X0.6878 Y2.4357
N1390 X0.687 Y2.4351
N1395 X0.6865 Y2.4344
N1400 X0.6855 Y2.4332
N1405 X0.6848 Y2.4323
N1410 X0.6839 Y2.4314
N1415 X0.6776 Y2.4252
N1420 X0.6742 Y2.4218
N1425 X0.6679 Y2.4154
N1430 X0.6671 Y2.4146
N1435 X0.6662 Y2.4139
N1440 X0.6645 Y2.4126
N1445 X0.6642 Y2.4123
N1450 X0.6637 Y2.4115
N1455 X0.6629 Y2.4104
N1460 X0.662 Y2.4092
N1465 X0.6547 Y2.4013
N1470 X0.6476 Y2.3933
N1475 X0.6408 Y2.3853
N1480 X0.6342 Y2.3773
N1485 X0.6279 Y2.3694
N1490 X0.6217 Y2.3614
N1495 X0.621 Y2.3605
N1500 X0.6202 Y2.3597
N1505 X0.6193 Y2.3588
N1510 X0.6177 Y2.3575
N1515 X0.617 Y2.3557
N1520 X0.6164 Y2.3546
N1525 X0.6157 Y2.3534
N1530 X0.6101 Y2.3454
N1535 X0.6046 Y2.3375
N1540 X0.6024 Y2.3343
N1545 X0.5944 Y2.3223
N1550 X0.5934 Y2.321
N1555 X0.5927 Y2.3195
N1560 X0.5915 Y2.3175
N1565 X0.5864 Y2.3093
N1570 X0.5819 Y2.3016
N1575 X0.5806 Y2.2996
N1580 X0.5799 Y2.2986
N1585 X0.5791 Y2.2976
N1590 X0.5785 Y2.2968
N1595 X0.5776 Y2.2959
N1600 X0.5762 Y2.2946
N1605 X0.5757 Y2.2942
N1610 Y2.2941
N1615 X0.5755 Y2.2932
N1620 X0.5751 Y2.2914
N1625 X0.5746 Y2.2896
N1630 X0.5738 Y2.2876
N1635 X0.5729 Y2.2856
N1640 X0.5665 Y2.2737
N1645 X0.5647 Y2.2701
N1650 X0.5637 Y2.2684
N1655 X0.5625 Y2.2666
N1660 X0.5618 Y2.2657
N1665 X0.5608 Y2.2646
N1670 X0.5597 Y2.2635
N1675 X0.5586 Y2.2625
N1680 X0.5576 Y2.2617
N1685 X0.556 Y2.2606
N1690 X0.5559 Y2.2605
N1695 X0.556 Y2.2597
N1700 X0.5561 Y2.2577
N1705 X0.556 Y2.2557
N1710 X0.5558 Y2.2537
N1715 X0.5553 Y2.2517
N1720 X0.5548 Y2.2497
N1725 X0.5545 Y2.2491
N1730 X0.5513 Y2.2417
N1735 X0.5466 Y2.2309
N1740 X0.5459 Y2.2296
N1745 X0.5452 Y2.2283
N1750 X0.5443 Y2.2271
N1755 X0.5433 Y2.2258
N1760 X0.5424 Y2.2248
N1765 X0.5415 Y2.2238
N1770 X0.5403 Y2.2227
N1775 X0.5404 Y2.2218
N1780 Y2.2198
N1785 X0.5403 Y2.2178
N1790 X0.5401 Y2.216
N1795 X0.5397 Y2.2142
N1800 X0.5392 Y2.2125
N1805 X0.5353 Y2.2019
N1810 X0.5326 Y2.1939
N1815 X0.5317 Y2.1917
N1820 X0.5312 Y2.1906
N1825 X0.5306 Y2.1895
N1830 X0.5295 Y2.1877
N1835 X0.5286 Y2.1865
N1840 Y2.1859
N1845 X0.5285 Y2.1839
N1850 X0.5283 Y2.1819
N1855 X0.5279 Y2.1799
N1860 X0.5273 Y2.1779
N1865 X0.5249 Y2.17
N1870 X0.5226 Y2.162
N1875 X0.5218 Y2.16
N1880 X0.5214 Y2.159
N1885 X0.5209 Y2.158
N1890 X0.5204 Y2.157
N1895 X0.5198 Y2.156
N1900 X0.5191 Y2.155
N1905 X0.5184 Y2.154
N1910 X0.5176 Y2.1531
N1915 X0.5167 Y2.1521
N1920 X0.5157 Y2.1511
N1925 X0.5141 Y2.1498
N1930 X0.5135 Y2.1493
N1935 X0.5139 Y2.1483
N1940 X0.5147 Y2.146
N1945 X0.5153 Y2.144
N1950 X0.5156 Y2.1421
N1955 X0.5158 Y2.1401
N1960 Y2.1381
N1965 X0.5157 Y2.1362
N1970 X0.5154 Y2.1344
N1975 X0.5123 Y2.1201
N1980 X0.5117 Y2.1181
N1985 X0.511 Y2.1161
N1990 X0.5105 Y2.1151
N1995 X0.51 Y2.1141
N2000 X0.5093 Y2.113
N2005 X0.5085 Y2.1119
N2010 X0.5077 Y2.1107
N2015 X0.5067 Y2.1096
N2020 X0.5057 Y2.1086
N2025 X0.5067 Y2.1061
N2030 X0.5072 Y2.1041
N2035 X0.5076 Y2.1021
N2040 X0.5079 Y2.1002
N2045 X0.508 Y2.0982
N2050 X0.5079 Y2.0962
N2055 X0.5076 Y2.0942
N2060 X0.5067 Y2.0882
N2065 X0.5053 Y2.0782
N2070 X0.505 Y2.0763
N2075 X0.5044 Y2.0743
N2080 X0.5038 Y2.0723
N2085 X0.5033 Y2.0713
N2090 X0.5029 Y2.0703
N2095 X0.5023 Y2.0693
N2100 X0.5018 Y2.0683
N2105 X0.5011 Y2.0673
N2110 X0.5004 Y2.0663
N2115 X0.4996 Y2.0653
N2120 X0.4984 Y2.064
N2125 X0.4994 Y2.0622
N2130 X0.5 Y2.0609
N2135 X0.5006 Y2.0596
N2140 X0.501 Y2.0583
N2145 X0.5016 Y2.0563
N2150 X0.5019 Y2.0543
N2155 X0.5021 Y2.0523
N2160 X0.5022 Y2.0503
N2165 X0.5016 Y2.0424
N2170 X0.501 Y2.0324
N2175 X0.5007 Y2.0304
N2180 X0.5003 Y2.0284
N2185 X0.4997 Y2.0264
N2190 X0.4993 Y2.0251
N2195 X0.4987 Y2.0238
N2200 X0.4981 Y2.0226
N2205 X0.4975 Y2.0216
N2210 Y2.0215
N2215 X0.4982 Y2.02
N2220 X0.4988 Y2.0184
N2225 X0.4994 Y2.0164
N2230 X0.4998 Y2.0144
N2235 X0.5001 Y2.0124
N2240 Y2.0105
N2245 X0.5 Y2.0025
N2250 Y1.9865
N2255 Y1.7472
N2260 X0.4999 Y1.7453
N2265 X0.4997 Y1.7434
N2270 X0.4993 Y1.7415
N2275 X0.4986 Y1.7393
N2280 X0.4978 Y1.7373
N2285 X0.4973 Y1.7363
N2290 X0.4968 Y1.7353
N2295 X0.4962 Y1.7343
N2300 X0.4956 Y1.7333
N2305 X0.4948 Y1.7323
N2310 X0.494 Y1.7313
N2315 X0.4932 Y1.7304
N2320 X0.4924 Y1.7295
N2325 X0.4916 Y1.7288
N2330 X0.4907 Y1.7281
N2335 X0.4897 Y1.7273
N2340 X0.4887 Y1.7266
N2345 X0.4877 Y1.726
N2350 X0.4867 Y1.7254
N2355 X0.4857 Y1.7249
N2360 X0.4847 Y1.7245
N2365 X0.4828 Y1.7237
N2370 X0.4814 Y1.7233
N2375 X0.4798 Y1.7229
N2380 X0.4781 Y1.7227
N2385 X0.4765 Y1.7225
N2390 X0.4749
N2395 X0.4748 Y1.7224
N2400 Y1.2776
N2405 X0.4749 Y1.2775
N2410 X0.4765
N2415 X0.4781 Y1.2773
N2420 X0.4798 Y1.2771
N2425 X0.4814 Y1.2767
N2430 X0.4828 Y1.2763
N2435 X0.4847 Y1.2755
N2440 X0.4857 Y1.2751
N2445 X0.4867 Y1.2746
N2450 X0.4877 Y1.274
N2455 X0.4887 Y1.2734
N2460 X0.4897 Y1.2727
N2465 X0.4907 Y1.2719
N2470 X0.4916 Y1.2712
N2475 X0.4924 Y1.2705
N2480 X0.4932 Y1.2696
N2485 X0.494 Y1.2687
N2490 X0.4948 Y1.2677
N2495 X0.4956 Y1.2667
N2500 X0.4962 Y1.2657
N2505 X0.4968 Y1.2647
N2510 X0.4973 Y1.2637
N2515 X0.4978 Y1.2627
N2520 X0.4987 Y1.2604
N2525 X0.4993 Y1.2585
N2530 X0.4997 Y1.2566
N2535 X0.4999 Y1.2547
N2540 X0.5 Y1.2528
N2545 Y1.0055
N2550 Y0.9975
N2555 X0.5001 Y0.9895
N2560 Y0.9876
N2565 X0.4998 Y0.9856
N2570 X0.4994 Y0.9836
N2575 X0.4987 Y0.9812
N2580 X0.4982 Y0.98
N2585 X0.4975 Y0.9785
N2590 Y0.9784
N2595 X0.4981 Y0.9774
N2600 X0.4987 Y0.9762
N2605 X0.4993 Y0.9749
N2610 X0.4997 Y0.9736
N2615 X0.5003 Y0.9716
N2620 X0.5007 Y0.9696
N2625 X0.501 Y0.9676
N2630 X0.5016 Y0.9576
N2635 X0.5022 Y0.9497
N2640 X0.5021 Y0.9477
N2645 X0.5019 Y0.9457
N2650 X0.5016 Y0.9437
N2655 X0.501 Y0.9417
N2660 X0.5003 Y0.9397
N2665 X0.4999 Y0.9387
N2670 X0.4994 Y0.9377
N2675 X0.4987 Y0.9366
N2680 Y0.9365
N2685 X0.4995 Y0.9357
N2690 X0.5003 Y0.9347
N2695 X0.501 Y0.9337
N2700 X0.5016 Y0.9327
N2705 X0.5022 Y0.9317
N2710 X0.5027 Y0.9307
N2715 X0.5032 Y0.9297
N2720 X0.504 Y0.9277
N2725 X0.5046 Y0.9257
N2730 X0.505 Y0.9237
N2735 X0.5067 Y0.9118
N2740 X0.5076 Y0.9058
N2745 X0.5079 Y0.9038
N2750 X0.508 Y0.9018
N2755 X0.5079 Y0.8998
N2760 X0.5076 Y0.8979
N2765 X0.5072 Y0.8959
N2770 X0.5066 Y0.8937
N2775 X0.5074 Y0.8926
N2780 X0.5081 Y0.8917
N2785 X0.5087 Y0.8907
N2790 X0.5093 Y0.8897
N2795 X0.5102 Y0.8878
N2800 X0.5109 Y0.8859
N2805 X0.5115 Y0.8839
N2810 X0.5154 Y0.8656
N2815 X0.5157 Y0.8638
N2820 X0.5158 Y0.8619
N2825 X0.5157 Y0.86
N2830 X0.5155 Y0.858
N2835 X0.5152 Y0.856
N2840 X0.5146 Y0.854
N2845 X0.5141 Y0.8524
N2850 X0.5138 Y0.8516
N2855 X0.5139 Y0.8515
N2860 X0.5147 Y0.8509
N2865 X0.5159 Y0.8497
N2870 X0.5171 Y0.8484
N2875 X0.5181 Y0.8472
N2880 X0.519 Y0.846
N2885 X0.5196 Y0.845
N2890 X0.5202 Y0.844
N2895 X0.5207 Y0.843
N2900 X0.5212 Y0.842
N2905 X0.522 Y0.84
N2910 X0.5226 Y0.8378
N2915 X0.5249 Y0.83
N2920 X0.5273 Y0.8221
N2925 X0.5279 Y0.8201
N2930 X0.5283 Y0.8181
N2935 X0.5285 Y0.8161
N2940 X0.5286 Y0.8136
N2945 Y0.8135
N2950 X0.5295 Y0.8123
N2955 X0.5306 Y0.8105
N2960 X0.5312 Y0.8094
N2965 X0.5317 Y0.8083
N2970 X0.5326 Y0.8061
N2975 X0.5353 Y0.7981
N2980 X0.5386 Y0.7893
N2985 X0.5392 Y0.7875
N2990 X0.5396 Y0.7858
N2995 X0.5399 Y0.784
N3000 X0.54 Y0.7822
N3005 Y0.7802
N3010 X0.5399 Y0.7782
N3015 X0.5398 Y0.7777
N3020 X0.5399 Y0.7776
N3025 X0.5415 Y0.7762
N3030 X0.5424 Y0.7752
N3035 X0.5433 Y0.7742
N3040 X0.5443 Y0.7729
N3045 X0.5452 Y0.7717
N3050 X0.5459 Y0.7704
N3055 X0.5466 Y0.7692
N3060 X0.5513 Y0.7583
N3065 X0.5545 Y0.7509
N3070 X0.5548 Y0.7503
N3075 X0.5553 Y0.7483
N3080 X0.5558 Y0.7463
N3085 X0.556 Y0.7443
N3090 X0.5561 Y0.7423
N3095 X0.556 Y0.7398
N3100 X0.5559 Y0.7395
N3105 X0.5576 Y0.7383
N3110 X0.5586 Y0.7375
N3115 X0.5597 Y0.7365
N3120 X0.5608 Y0.7354
N3125 X0.5618 Y0.7343
N3130 X0.5625 Y0.7334
N3135 X0.5637 Y0.7316
N3140 X0.5647 Y0.7299
N3145 X0.5707 Y0.7184
N3150 X0.5729 Y0.7144
N3155 X0.5738 Y0.7124
N3160 X0.5746 Y0.7104
N3165 X0.5751 Y0.7086
N3170 X0.5755 Y0.7068
N3175 X0.5757 Y0.7059
N3180 X0.5758 Y0.7058
N3185 X0.5767 Y0.705
N3190 X0.5776 Y0.7041
N3195 X0.5785 Y0.7032
N3200 X0.5791 Y0.7024
N3205 X0.5799 Y0.7014
N3210 X0.5806 Y0.7004
N3215 X0.5819 Y0.6984
N3220 X0.5842 Y0.6944
N3225 X0.5864 Y0.6907
N3230 X0.5915 Y0.6825
N3235 X0.5926 Y0.6805
N3240 X0.5934 Y0.6789
N3245 X0.5944 Y0.6777
N3250 X0.6024 Y0.6657
N3255 X0.6045 Y0.6625
N3260 X0.6104 Y0.6541
N3265 X0.6157 Y0.6466
N3270 X0.6164 Y0.6454
N3275 X0.617 Y0.6443
N3280 X0.6177 Y0.6425
N3285 X0.6193 Y0.6412
N3290 X0.6202 Y0.6403
N3295 X0.621 Y0.6395
N3300 X0.6217 Y0.6386
N3305 X0.6279 Y0.6306
N3310 X0.6343 Y0.6226
N3315 X0.6423 Y0.613
N3320 X0.6477 Y0.6067
N3325 X0.6547 Y0.5987
N3330 X0.662 Y0.5908
N3335 X0.6629 Y0.5896
N3340 X0.6637 Y0.5885
N3345 X0.6643 Y0.5876
N3350 X0.665 Y0.5871
N3355 X0.6662 Y0.5862
N3360 X0.6671 Y0.5854
N3365 X0.6679 Y0.5846
N3370 X0.6742 Y0.5782
N3375 X0.6776 Y0.5748
N3380 X0.6839 Y0.5686
N3385 X0.6848 Y0.5677
N3390 X0.6855 Y0.5668
N3395 X0.6868 Y0.5652
N3400 X0.687 Y0.5648
N3405 X0.6878 Y0.5643
N3410 X0.689 Y0.5636
N3415 X0.6901 Y0.5627
N3420 X0.6981 Y0.5554
N3425 X0.7061 Y0.5483
N3430 X0.7141 Y0.5415
N3435 X0.722 Y0.5349
N3440 X0.73 Y0.5285
N3445 X0.738 Y0.5224
N3450 X0.7388 Y0.5216
N3455 X0.7397 Y0.5208
N3460 X0.7406 Y0.5199
N3465 X0.7419 Y0.5184
N3470 X0.7437 Y0.5176
N3475 X0.7448 Y0.517
N3480 X0.746 Y0.5164
N3485 X0.7539 Y0.5107
N3490 X0.7619 Y0.5052
N3495 X0.7651 Y0.503
N3500 X0.7771 Y0.495
N3505 X0.7784 Y0.494
N3510 X0.7799 Y0.4933
N3515 X0.7818 Y0.4921
N3520 X0.79 Y0.4871
N3525 X0.7978 Y0.4825
N3530 X0.7998 Y0.4813
N3535 X0.8008 Y0.4806
N3540 X0.8018 Y0.4798
N3545 X0.8026 Y0.4791
N3550 X0.8035 Y0.4782
N3555 X0.8048 Y0.4768
N3560 X0.8052 Y0.4763
N3565 X0.8053
N3570 X0.8062 Y0.4762
N3575 X0.808 Y0.4758
N3580 X0.8098 Y0.4752
N3585 X0.8118 Y0.4745
N3590 X0.8138 Y0.4735
N3595 X0.8257 Y0.4672
N3600 X0.8292 Y0.4654
N3605 X0.831 Y0.4644
N3610 X0.8327 Y0.4631
N3615 X0.8337 Y0.4624
N3620 X0.8348 Y0.4614
N3625 X0.8359 Y0.4603
N3630 X0.8368 Y0.4593
N3635 X0.8377 Y0.4582
N3640 X0.8388 Y0.4566
N3645 X0.8389
N3650 X0.8397
N3655 X0.8417 Y0.4567
N3660 X0.8437 Y0.4566
N3665 X0.8457 Y0.4564
N3670 X0.8476 Y0.456
N3675 X0.8496 Y0.4554
N3680 X0.8503 Y0.4552
N3685 X0.8576 Y0.4519
N3690 X0.8685 Y0.4472
N3695 X0.8698 Y0.4465
N3700 X0.871 Y0.4458
N3705 X0.8723 Y0.4449
N3710 X0.8736 Y0.4439
N3715 X0.8746 Y0.4431
N3720 X0.8756 Y0.4421
N3725 X0.8766 Y0.4409
N3730 X0.8776 Y0.441
N3735 X0.8796 Y0.4411
N3740 X0.8815 Y0.441
N3745 X0.8833 Y0.4407
N3750 X0.8851 Y0.4404
N3755 X0.8869 Y0.4399
N3760 X0.8975 Y0.436
N3765 X0.9055 Y0.4332
N3770 X0.9076 Y0.4323
N3775 X0.9087 Y0.4318
N3780 X0.9098 Y0.4312
N3785 X0.9116 Y0.4301
N3790 X0.9128 Y0.4292
N3795 X0.9134 Y0.4293
N3800 X0.9154 Y0.4292
N3805 X0.9174 Y0.4289
N3810 X0.9194 Y0.4285
N3815 X0.9214 Y0.428
N3820 X0.9294 Y0.4255
N3825 X0.9374 Y0.4232
N3830 X0.9394 Y0.4225
N3835 X0.9404 Y0.422
N3840 X0.9414 Y0.4216
N3845 X0.9424 Y0.421
N3850 X0.9434 Y0.4204
N3855 X0.9444 Y0.4197
N3860 X0.9454 Y0.419
N3865 X0.9463 Y0.4182
N3870 X0.9472 Y0.4173
N3875 X0.9483 Y0.4163
N3880 X0.9496 Y0.4147
N3885 X0.9501 Y0.4141
N3890 X0.9511 Y0.4146
N3895 X0.9533 Y0.4154
N3900 X0.9553 Y0.4159
N3905 X0.9573 Y0.4162
N3910 X0.9593 Y0.4164
N3915 X0.9613 Y0.4165
N3920 X0.9631 Y0.4163
N3925 X0.965 Y0.4161
N3930 X0.9792 Y0.413
N3935 X0.9812 Y0.4124
N3940 X0.9832 Y0.4116
N3945 X0.9842 Y0.4111
N3950 X0.9852 Y0.4106
N3955 X0.9864 Y0.4099
N3960 X0.9875 Y0.4091
N3965 X0.9886 Y0.4083
N3970 X0.9898 Y0.4073
N3975 X0.9908 Y0.4063
N3980 X0.9933 Y0.4073
N3985 X0.9953 Y0.4079
N3990 X0.9972 Y0.4083
N3995 X0.9992 Y0.4085
N4000 X1.0012 Y0.4086
N4005 X1.0032 Y0.4085
N4010 X1.0052 Y0.4083
N4015 X1.0112 Y0.4073
N4020 X1.0211 Y0.4059
N4025 X1.0231 Y0.4056
N4030 X1.0251 Y0.4051
N4035 X1.0271 Y0.4044
N4040 X1.0281 Y0.404
N4045 X1.0291 Y0.4035
N4050 X1.0301 Y0.403
N4055 X1.0311 Y0.4024
N4060 X1.0321 Y0.4018
N4065 X1.0331 Y0.401
N4070 X1.0341 Y0.4002
N4075 X1.0354 Y0.3991
N4080 X1.0372 Y0.4001
N4085 X1.0385 Y0.4007
N4090 X1.0398 Y0.4012
N4095 X1.0411 Y0.4017
N4100 X1.0431 Y0.4022
N4105 X1.045 Y0.4026
N4110 X1.047 Y0.4028
N4115 X1.049
N4120 X1.057 Y0.4022
N4125 X1.067 Y0.4016
N4130 X1.069 Y0.4013
N4135 X1.071 Y0.4009
N4140 X1.073 Y0.4004
N4145 X1.0742 Y0.3999
N4150 X1.0755 Y0.3993
N4155 X1.0769 Y0.3987
N4160 X1.0782 Y0.3979
N4165 X1.0794 Y0.3971
N4170 X1.0795
N4175 X1.0809 Y0.3979
N4180 X1.0826 Y0.3987
N4185 X1.0843 Y0.3993
N4190 X1.0855 Y0.3997
N4195 X1.0866 Y0.4
N4200 X1.0878 Y0.4003
N4205 X1.0889 Y0.4005
N4210 X1.0909 Y0.4007
N4215 X1.0929
N4220 X1.0969
N4225 X1.1128 Y0.4006
N4230 X1.3521
N4235 X1.354 Y0.4005
N4240 X1.356 Y0.4003
N4245 X1.3579 Y0.3999
N4250 X1.3601 Y0.3992
N4255 X1.3621 Y0.3984
N4260 X1.3631 Y0.398
N4265 X1.3641 Y0.3974
N4270 X1.3651 Y0.3968
N4275 X1.3661 Y0.3962
N4280 X1.3671 Y0.3955
N4285 X1.3681 Y0.3947
N4290 X1.3689 Y0.3939
N4295 X1.3698 Y0.393
N4300 X1.3706 Y0.3922
N4305 X1.3713 Y0.3914
N4310 X1.372 Y0.3904
N4315 X1.3727 Y0.3894
N4320 X1.3734 Y0.3884
N4325 X1.3739 Y0.3874
N4330 X1.3744 Y0.3864
N4335 X1.3749 Y0.3854
N4340 X1.3756 Y0.3834
N4345 X1.376 Y0.3821
N4350 X1.3764 Y0.3804
N4355 X1.3767 Y0.3788
N4360 X1.3769 Y0.3771
N4365 Y0.3755
N4370 X1.377 Y0.3754
N4375 X1.8217
N4380 X1.8218 Y0.3755
N4385 X1.8219 Y0.3771
N4390 X1.822 Y0.3787
N4395 X1.8223 Y0.3804
N4400 X1.8227 Y0.3821
N4405 X1.8231 Y0.3834
N4410 X1.8238 Y0.3854
N4415 X1.8243 Y0.3864
N4420 X1.8248 Y0.3874
N4425 X1.8254 Y0.3884
N4430 X1.826 Y0.3894
N4435 X1.8267 Y0.3904
N4440 X1.8275 Y0.3914
N4445 X1.8281 Y0.3922
N4450 X1.8289 Y0.393
N4455 X1.8298 Y0.3939
N4460 X1.8307 Y0.3947
N4465 X1.8317 Y0.3955
N4470 X1.8327 Y0.3962
N4475 X1.8337 Y0.3968
N4480 X1.8347 Y0.3974
N4485 X1.8356 Y0.398
N4490 X1.8366 Y0.3984
N4495 X1.8389 Y0.3993
N4500 X1.8409 Y0.3999
N4505 X1.8428 Y0.4003
N4510 X1.8447 Y0.4005
N4515 X1.8466 Y0.4006
N4520 X2.0939
N4525 X2.1018 Y0.4007
N4530 X2.1098 Y0.4008
N4535 X2.1118 Y0.4007
N4540 X2.1138 Y0.4004
N4545 X2.1158 Y0.4
N4550 X2.1181 Y0.3993
N4555 X2.1194 Y0.3989
N4560 X2.1209 Y0.3982
N4565 X2.121
N4570 X2.1219 Y0.3987
N4575 X2.1232 Y0.3993
N4580 X2.1245 Y0.3999
N4585 X2.1258 Y0.4004
N4590 X2.1278 Y0.4009
N4595 X2.1298 Y0.4013
N4600 X2.1318 Y0.4016
N4605 X2.1417 Y0.4022
N4610 X2.1497 Y0.4028
N4615 X2.1517
N4620 X2.1537 Y0.4026
N4625 X2.1557 Y0.4022
N4630 X2.1577 Y0.4016
N4635 X2.1597 Y0.4009
N4640 X2.1607 Y0.4005
N4645 X2.1617 Y0.4
N4650 X2.1628 Y0.3994
N4655 X2.1629 Y0.3995
N4660 X2.1637 Y0.4001
N4665 X2.1647 Y0.4009
N4670 X2.1656 Y0.4016
N4675 X2.1666 Y0.4023
N4680 X2.1676 Y0.4029
N4685 X2.1686 Y0.4034
N4690 X2.1696 Y0.4038
N4695 X2.1716 Y0.4046
N4700 X2.1736 Y0.4052
N4705 X2.1756 Y0.4056
N4710 X2.1876 Y0.4073
N4715 X2.1936 Y0.4083
N4720 X2.1956 Y0.4085
N4725 X2.1976 Y0.4086
N4730 X2.1995 Y0.4085
N4735 X2.2015 Y0.4083
N4740 X2.2035 Y0.4079
N4745 X2.2056 Y0.4072
N4750 X2.2067 Y0.4081
N4755 X2.2077 Y0.4087
N4760 X2.2087 Y0.4093
N4765 X2.2096 Y0.4099
N4770 X2.2116 Y0.4108
N4775 X2.2135 Y0.4116
N4780 X2.2155 Y0.4121
N4785 X2.2338 Y0.4161
N4790 X2.2356 Y0.4163
N4795 X2.2374 Y0.4164
N4800 X2.2394
N4805 X2.2414 Y0.4162
N4810 X2.2434 Y0.4158
N4815 X2.2454 Y0.4153
N4820 X2.247 Y0.4147
N4825 X2.2477 Y0.4144
N4830 X2.2478
N4835 X2.2485 Y0.4153
N4840 X2.2496 Y0.4165
N4845 X2.2509 Y0.4177
N4850 X2.2522 Y0.4187
N4855 X2.2534 Y0.4196
N4860 X2.2544 Y0.4203
N4865 X2.2554 Y0.4208
N4870 X2.2564 Y0.4214
N4875 X2.2574 Y0.4218
N4880 X2.2594 Y0.4226
N4885 X2.2616 Y0.4233
N4890 X2.2693 Y0.4255
N4895 X2.2773 Y0.428
N4900 X2.2793 Y0.4285
N4905 X2.2813 Y0.4289
N4910 X2.2833 Y0.4292
N4915 X2.2857 Y0.4293
N4920 X2.2859 Y0.4292
N4925 X2.2871 Y0.4301
N4930 X2.2889 Y0.4312
N4935 X2.29 Y0.4318
N4940 X2.2911 Y0.4323
N4945 X2.2933 Y0.4332
N4950 X2.3012 Y0.436
N4955 X2.3101 Y0.4392
N4960 X2.3118 Y0.4398
N4965 X2.3136 Y0.4402
N4970 X2.3154 Y0.4405
N4975 X2.3172 Y0.4406
N4980 X2.3192
N4985 X2.3217 Y0.4404
N4990 X2.3222 Y0.441
N4995 X2.3232 Y0.4421
N5000 X2.3242 Y0.4431
N5005 X2.3252 Y0.4439
N5010 X2.3264 Y0.4449
N5015 X2.3277 Y0.4458
N5020 X2.329 Y0.4465
N5025 X2.3302 Y0.4472
N5030 X2.3411 Y0.4519
N5035 X2.3485 Y0.4552
N5040 X2.3491 Y0.4554
N5045 X2.3511 Y0.456
N5050 X2.3531 Y0.4564
N5055 X2.3551 Y0.4566
N5060 X2.3571 Y0.4567
N5065 X2.3596 Y0.4566
N5070 X2.3599
N5075 X2.3601 Y0.4568
N5080 X2.3611 Y0.4582
N5085 X2.3619 Y0.4593
N5090 X2.3628 Y0.4603
N5095 X2.3639 Y0.4614
N5100 X2.365 Y0.4624
N5105 X2.366 Y0.4631
N5110 X2.3677 Y0.4644
N5115 X2.3695 Y0.4654
N5120 X2.381 Y0.4714
N5125 X2.385 Y0.4735
N5130 X2.387 Y0.4745
N5135 X2.389 Y0.4752
N5140 X2.3908 Y0.4758
N5145 X2.3926 Y0.4762
N5150 X2.3935 Y0.4763
N5155 X2.3936 Y0.4764
N5160 X2.3944 Y0.4773
N5165 X2.3953 Y0.4782
N5170 X2.3962 Y0.4791
N5175 X2.3969 Y0.4798
N5180 X2.3979 Y0.4806
N5185 X2.3989 Y0.4813
N5190 X2.4009 Y0.4825
N5195 X2.4049 Y0.4848
N5200 X2.4087 Y0.4871
N5205 X2.4169 Y0.4921
N5210 X2.4189 Y0.4933
N5215 X2.4204 Y0.4941
N5220 X2.4217 Y0.495
N5225 X2.4337 Y0.503
N5230 X2.4368 Y0.5052
N5235 X2.4452 Y0.511
N5240 X2.4528 Y0.5163
N5245 X2.4539 Y0.517
N5250 X2.4551 Y0.5176
N5255 X2.4569 Y0.5184
N5260 X2.4582 Y0.5199
N5265 X2.4591 Y0.5208
N5270 X2.4599 Y0.5216
N5275 X2.4608 Y0.5224
N5280 X2.4687 Y0.5285
N5285 X2.4768 Y0.5349
N5290 X2.4864 Y0.5429
N5295 X2.4927 Y0.5483
N5300 X2.5006 Y0.5554
N5305 X2.5086 Y0.5626
N5310 X2.5098 Y0.5635
N5315 X2.5109 Y0.5643
N5320 X2.5118 Y0.5649
N5325 X2.5122 Y0.5656
N5330 X2.5132 Y0.5668
N5335 X2.514 Y0.5677
N5340 X2.5148 Y0.5686
N5345 X2.5212 Y0.5748
N5350 X2.5246 Y0.5782
N5355 X2.5308 Y0.5846
N5360 X2.5317 Y0.5854
N5365 X2.5325 Y0.5861
N5370 X2.5342 Y0.5874
N5375 X2.5345 Y0.5877
N5380 X2.535 Y0.5885
N5385 X2.5358 Y0.5896
N5390 X2.5367 Y0.5908
N5395 X2.544 Y0.5987
N5400 X2.5511 Y0.6067
N5405 X2.5579 Y0.6147
N5410 X2.5645 Y0.6227
N5415 X2.5709 Y0.6306
N5420 X2.577 Y0.6386
N5425 X2.5779 Y0.6397
N5430 X2.5789 Y0.6407
N5435 X2.5797 Y0.6414
N5440 X2.5804 Y0.6428
N5445 X2.5809 Y0.6437
N5450 X2.5816 Y0.6447
N5455 X2.5887 Y0.6546
N5460 X2.5942 Y0.6625
N5465 X2.5963 Y0.6657
N5470 X2.6043 Y0.6777
N5475 X2.6054 Y0.679
N5480 X2.6061 Y0.6805
N5485 X2.6072 Y0.6825
N5490 X2.6123 Y0.6907
N5495 X2.6169 Y0.6984
N5500 X2.6181 Y0.7004
N5505 X2.6188 Y0.7014
N5510 X2.6196 Y0.7024
N5515 X2.6203 Y0.7032
N5520 X2.6211 Y0.7041
N5525 X2.6226 Y0.7054
N5530 X2.623 Y0.7058
N5535 X2.6231 Y0.7059
N5540 X2.6232 Y0.7068
N5545 X2.6236 Y0.7086
N5550 X2.6241 Y0.7104
N5555 X2.6249 Y0.7124
N5560 X2.6259 Y0.7144
N5565 X2.6322 Y0.7263
N5570 X2.634 Y0.7299
N5575 X2.635 Y0.7316
N5580 X2.6362 Y0.7334
N5585 X2.637 Y0.7343
N5590 X2.6379 Y0.7354
N5595 X2.6391 Y0.7365
N5600 X2.6401 Y0.7375
N5605 X2.6411 Y0.7383
N5610 X2.6428 Y0.7394
N5615 Y0.7395
N5620 X2.6427 Y0.7403
N5625 X2.6426 Y0.7423
N5630 X2.6427 Y0.7443
N5635 X2.643 Y0.7463
N5640 X2.6434 Y0.7483
N5645 X2.644 Y0.7503
N5650 X2.6442 Y0.7509
N5655 X2.6474 Y0.7583
N5660 X2.6522 Y0.7691
N5665 X2.6528 Y0.7704
N5670 X2.6536 Y0.7717
N5675 X2.6544 Y0.7729
N5680 X2.6554 Y0.7742
N5685 X2.6563 Y0.7752
N5690 X2.6573 Y0.7762
N5695 X2.6584 Y0.7772
N5700 X2.6583 Y0.7782
N5705 X2.6582 Y0.7802
N5710 X2.6584 Y0.7822
N5715 X2.6586 Y0.784
N5720 X2.659 Y0.7858
N5725 X2.6595 Y0.7875
N5730 X2.6634 Y0.7981
N5735 X2.6662 Y0.8061
N5740 X2.667 Y0.8083
N5745 X2.6675 Y0.8094
N5750 X2.6681 Y0.8105
N5755 X2.6693 Y0.8123
N5760 X2.6701 Y0.8135
N5765 Y0.8141
N5770 X2.6702 Y0.8161
N5775 X2.6704 Y0.8181
N5780 X2.6708 Y0.8201
N5785 X2.6714 Y0.8221
N5790 X2.6738 Y0.83
N5795 X2.6762 Y0.838
N5800 X2.6769 Y0.84
N5805 X2.6773 Y0.841
N5810 X2.6778 Y0.842
N5815 X2.6784 Y0.843
N5820 X2.679 Y0.844
N5825 X2.6796 Y0.845
N5830 X2.6804 Y0.846
N5835 X2.6812 Y0.8469
N5840 X2.682 Y0.8479
N5845 X2.6831 Y0.8489
N5850 X2.6846 Y0.8502
N5855 X2.6852 Y0.8507
N5860 X2.6848 Y0.8517
N5865 X2.684 Y0.854
N5870 X2.6835 Y0.856
N5875 X2.6831 Y0.8579
N5880 X2.6829 Y0.8599
N5885 Y0.8619
N5890 X2.683 Y0.8638
N5895 X2.6833 Y0.8656
N5900 X2.6864 Y0.8799
N5905 X2.687 Y0.8819
N5910 X2.6878 Y0.8839
N5915 X2.6883 Y0.8849
N5920 X2.6888 Y0.8859
N5925 X2.6895 Y0.887
N5930 X2.6902 Y0.8881
N5935 X2.6911 Y0.8893
N5940 X2.6921 Y0.8904
N5945 X2.693 Y0.8914
N5950 X2.6921 Y0.8939
N5955 X2.6915 Y0.8959
N5960 X2.6911 Y0.8979
N5965 X2.6909 Y0.8998
N5970 X2.6908 Y0.9018
N5975 X2.6909 Y0.9038
N5980 X2.6911 Y0.9058
N5985 X2.6921 Y0.9118
N5990 X2.6934 Y0.9218
N5995 X2.6938 Y0.9237
N6000 X2.6943 Y0.9257
N6005 X2.695 Y0.9277
N6010 X2.6954 Y0.9287
N6015 X2.6959 Y0.9297
N6020 X2.6964 Y0.9307
N6025 X2.697 Y0.9317
N6030 X2.6976 Y0.9327
N6035 X2.6983 Y0.9337
N6040 X2.6991 Y0.9347
N6045 X2.7003 Y0.936
N6050 X2.6993 Y0.9378
N6055 X2.6987 Y0.9391
N6060 X2.6982 Y0.9404
N6065 X2.6977 Y0.9417
N6070 X2.6972 Y0.9437
N6075 X2.6968 Y0.9457
N6080 X2.6966 Y0.9477
N6085 Y0.9497
N6090 X2.6971 Y0.9576
N6095 X2.6978 Y0.9676
N6100 X2.698 Y0.9696
N6105 X2.6984 Y0.9716
N6110 X2.699 Y0.9736
N6115 X2.6995 Y0.9749
N6120 X2.7 Y0.9761
N6125 X2.7007 Y0.9775
N6130 X2.7015 Y0.9789
N6135 X2.7023 Y0.98
N6140 Y0.9801
N6145 X2.7015 Y0.9816
N6150 X2.7007 Y0.9833
N6155 X2.7 Y0.985
N6160 X2.6997 Y0.9861
N6165 X2.6994 Y0.9873
N6170 X2.6991 Y0.9884
N6175 X2.6989 Y0.9895
N6180 X2.6987 Y0.9915
N6185 X2.6986 Y0.9935
N6190 X2.6987 Y0.9975
N6195 Y1.0135
N6200 Y1.2528
N6205 X2.6988 Y1.2547
N6210 X2.6991 Y1.2566
N6215 X2.6995 Y1.2585
N6220 X2.7001 Y1.2607
N6225 X2.7009 Y1.2627
N6230 X2.7014 Y1.2637
N6235 X2.7019 Y1.2647
N6240 X2.7025 Y1.2657
N6245 X2.7032 Y1.2667
N6250 X2.7039 Y1.2677
N6255 X2.7047 Y1.2687
N6260 X2.7055 Y1.2696
N6265 X2.7064 Y1.2705
N6270 X2.7072 Y1.2712
N6275 X2.708 Y1.2719
N6280 X2.709 Y1.2727
N6285 X2.71 Y1.2734
N6290 X2.711 Y1.274
N6295 X2.712 Y1.2746
N6300 X2.713 Y1.2751
N6305 X2.714 Y1.2755
N6310 X2.716 Y1.2763
N6315 X2.7173 Y1.2767
N6320 X2.719 Y1.2771
N6325 X2.7206 Y1.2773
N6330 X2.7223 Y1.2775
N6335 X2.7239
N6340 Y1.2776
N6345 Y1.7224
N6350 Y1.7225
N6355 X2.7223
N6360 X2.7206 Y1.7227
N6365 X2.719 Y1.7229
N6370 X2.7173 Y1.7233
N6375 X2.716 Y1.7237
N6380 X2.714 Y1.7245
N6385 X2.713 Y1.7249
N6390 X2.712 Y1.7254
N6395 X2.711 Y1.726
N6400 X2.71 Y1.7266
N6405 X2.709 Y1.7273
N6410 X2.708 Y1.7281
N6415 X2.7072 Y1.7288
N6420 X2.7064 Y1.7295
N6425 X2.7055 Y1.7304
N6430 X2.7047 Y1.7313
N6435 X2.7039 Y1.7323
N6440 X2.7032 Y1.7333
N6445 X2.7025 Y1.7343
N6450 X2.7019 Y1.7353
N6455 X2.7014 Y1.7363
N6460 X2.7009 Y1.7373
N6465 X2.7 Y1.7396
N6470 X2.6995 Y1.7415
N6475 X2.6991 Y1.7434
N6480 X2.6988 Y1.7453
N6485 X2.6987 Y1.7472
N6490 Y1.9945
N6495 Y2.0025
N6500 X2.6986 Y2.0105
N6505 X2.6987 Y2.0124
N6510 X2.6989 Y2.0144
N6515 X2.6993 Y2.0164
N6520 X2.7 Y2.0188
N6525 X2.7005 Y2.02
N6530 X2.7012 Y2.0215
N6535 Y2.0216
N6540 X2.7007 Y2.0226
N6545 X2.7 Y2.0239
N6550 X2.6995 Y2.0251
N6555 X2.699 Y2.0264
N6560 X2.6984 Y2.0284
N6565 X2.698 Y2.0304
N6570 X2.6978 Y2.0324
N6575 X2.6971 Y2.0424
N6580 X2.6966 Y2.0503
N6585 Y2.0523
N6590 X2.6968 Y2.0543
N6595 X2.6972 Y2.0563
N6600 X2.6977 Y2.0583
N6605 X2.6984 Y2.0603
N6610 X2.6989 Y2.0613
N6615 X2.6994 Y2.0623
N6620 X2.7 Y2.0634
N6625 X2.6999 Y2.0635
N6630 X2.6993 Y2.0643
N6635 X2.6985 Y2.0653
N6640 X2.6977 Y2.0663
N6645 X2.6971 Y2.0673
N6650 X2.6965 Y2.0683
N6655 X2.696 Y2.0693
N6660 X2.6955 Y2.0703
N6665 X2.6947 Y2.0723
N6670 X2.6941 Y2.0743
N6675 X2.6937 Y2.0763
N6680 X2.6921 Y2.0882
N6685 X2.6911 Y2.0942
N6690 X2.6909 Y2.0962
N6695 X2.6908 Y2.0982
N6700 X2.6909 Y2.1002
N6705 X2.6911 Y2.1021
N6710 X2.6915 Y2.1041
N6715 X2.6921 Y2.1063
N6720 X2.6913 Y2.1074
N6725 X2.6906 Y2.1083
N6730 X2.69 Y2.1093
N6735 X2.6895 Y2.1103
N6740 X2.6885 Y2.1122
N6745 X2.6878 Y2.1141
N6750 X2.6872 Y2.1161
N6755 X2.6833 Y2.1344
N6760 X2.6831 Y2.1362
N6765 X2.683 Y2.1381
N6770 Y2.14
N6775 X2.6832 Y2.142
N6780 X2.6835 Y2.144
N6785 X2.6841 Y2.146
N6790 X2.6846 Y2.1476
N6795 X2.685 Y2.1484
N6800 X2.6849
N6805 X2.6841 Y2.1491
N6810 X2.6828 Y2.1503
N6815 X2.6816 Y2.1516
N6820 X2.6806 Y2.1528
N6825 X2.6797 Y2.154
N6830 X2.6791 Y2.155
N6835 X2.6785 Y2.156
N6840 X2.678 Y2.157
N6845 X2.6775 Y2.158
N6850 X2.6768 Y2.16
N6855 X2.6761 Y2.1622
N6860 X2.6739 Y2.17
N6865 X2.6714 Y2.1779
N6870 X2.6708 Y2.1799
N6875 X2.6704 Y2.1819
N6880 X2.6702 Y2.1839
N6885 X2.6701 Y2.1864
N6890 Y2.1865
N6895 X2.6693 Y2.1877
N6900 X2.6681 Y2.1895
N6905 X2.6675 Y2.1906
N6910 X2.667 Y2.1917
N6915 X2.6662 Y2.1939
N6920 X2.6634 Y2.2019
N6925 X2.6601 Y2.2107
N6930 X2.6596 Y2.2125
N6935 X2.6592 Y2.2143
N6940 X2.6589 Y2.216
N6945 X2.6588 Y2.2178
N6950 Y2.2198
N6955 X2.659 Y2.2223
N6960 X2.6584 Y2.2228
N6965 X2.6573 Y2.2238
N6970 X2.6563 Y2.2248
N6975 X2.6554 Y2.2258
N6980 X2.6544 Y2.2271
N6985 X2.6536 Y2.2283
N6990 X2.6528 Y2.2296
N6995 X2.6522 Y2.2308
N7000 X2.6474 Y2.2417
N7005 X2.6442 Y2.2491
N7010 X2.644 Y2.2497
N7015 X2.6434 Y2.2517
N7020 X2.643 Y2.2537
N7025 X2.6427 Y2.2557
N7030 X2.6426 Y2.2577
N7035 X2.6428 Y2.2602
N7040 Y2.2605
N7045 X2.6426 Y2.2607
N7050 X2.6411 Y2.2617
N7055 X2.6401 Y2.2625
N7060 X2.639 Y2.2635
N7065 X2.6379 Y2.2646
N7070 X2.637 Y2.2657
N7075 X2.6362 Y2.2666
N7080 X2.635 Y2.2684
N7085 X2.634 Y2.2701
N7090 X2.628 Y2.2816
N7095 X2.6259 Y2.2856
N7100 X2.6249 Y2.2876
N7105 X2.6241 Y2.2896
N7110 X2.6236 Y2.2914
N7115 X2.6232 Y2.2932
N7120 X2.6231 Y2.2941
N7125 X2.6229 Y2.2942
N7130 X2.6221 Y2.295
N7135 X2.6211 Y2.2959
N7140 X2.6203 Y2.2968
N7145 X2.6196 Y2.2976
N7150 X2.6188 Y2.2986
N7155 X2.6181 Y2.2996
N7160 X2.6169 Y2.3016
N7165 X2.6145 Y2.3056
N7170 X2.6123 Y2.3093
N7175 X2.6072 Y2.3175
N7180 X2.6061 Y2.3195
N7185 X2.6053 Y2.3211
N7190 X2.6043 Y2.3223
N7195 X2.5963 Y2.3343
N7200 X2.5942 Y2.3375
N7205 X2.5884 Y2.3459
N7210 X2.583 Y2.3534
N7215 X2.5824 Y2.3546
N7220 X2.5818 Y2.3557
N7225 X2.581 Y2.3575
N7230 X2.5795 Y2.3588
N7235 X2.5785 Y2.3597
N7240 X2.5777 Y2.3605
N7245 X2.577 Y2.3614
N7250 X2.5709 Y2.3694
N7255 X2.5644 Y2.3774
N7260 X2.5565 Y2.387
N7265 X2.5511 Y2.3933
N7270 X2.544 Y2.4013
N7275 X2.5367 Y2.4092
N7280 X2.5358 Y2.4104
N7285 X2.535 Y2.4115
N7290 X2.5345 Y2.4124
N7295 X2.5338 Y2.4129
N7300 X2.5325 Y2.4138
N7305 X2.5317 Y2.4146
N7310 X2.5308 Y2.4154
N7315 X2.5246 Y2.4218
N7320 X2.5212 Y2.4252
N7325 X2.5148 Y2.4314
N7330 X2.514 Y2.4323
N7335 X2.5132 Y2.4332
N7340 X2.512 Y2.4348
N7345 X2.5117 Y2.4352
N7350 X2.5109 Y2.4357
N7355 X2.5098 Y2.4365
N7360 X2.5086 Y2.4374
N7365 X2.5006 Y2.4446
N7370 X2.4927 Y2.4517
N7375 X2.4847 Y2.4585
N7380 X2.4767 Y2.4651
N7385 X2.4687 Y2.4715
N7390 X2.4608 Y2.4776
N7395 X2.4599 Y2.4784
N7400 X2.4591 Y2.4792
N7405 X2.4582 Y2.4801
N7410 X2.4569 Y2.4816
N7415 X2.4551 Y2.4824
N7420 X2.4539 Y2.483
N7425 X2.4528 Y2.4836
N7430 X2.4448 Y2.4893
N7435 X2.4401 Y2.4925
N7440 X2.4368 Y2.4948
N7445 X2.4337 Y2.497
N7450 X2.4217 Y2.505
N7455 X2.4204 Y2.506
N7460 X2.4189 Y2.5067
N7465 X2.4169 Y2.5079
N7470 X2.4087 Y2.5129
N7475 X2.4009 Y2.5175
N7480 X2.3989 Y2.5187
N7485 X2.3979 Y2.5194
N7490 X2.3969 Y2.5202
N7495 X2.3962 Y2.5209
N7500 X2.3953 Y2.5218
N7505 X2.3939 Y2.5232
N7510 X2.3935 Y2.5237
N7515 X2.3926 Y2.5238
N7520 X2.3908 Y2.5242
N7525 X2.389 Y2.5248
N7530 X2.387 Y2.5255
N7535 X2.385 Y2.5265
N7540 X2.373 Y2.5328
N7545 X2.3695 Y2.5346
N7550 X2.3678 Y2.5356
N7555 X2.366 Y2.5369
N7560 X2.365 Y2.5376
N7565 X2.3639 Y2.5386
N7570 X2.3628 Y2.5397
N7575 X2.3619 Y2.5407
N7580 X2.3611 Y2.5418
N7585 X2.3599 Y2.5434
N7590 X2.3591
N7595 X2.3571 Y2.5433
N7600 X2.3551 Y2.5434
N7605 X2.3531 Y2.5436
N7610 X2.3511 Y2.544
N7615 X2.3491 Y2.5446
N7620 X2.3485 Y2.5448
N7625 X2.3411 Y2.5481
N7630 X2.3302 Y2.5528
N7635 X2.329 Y2.5535
N7640 X2.3277 Y2.5542
N7645 X2.3264 Y2.5551
N7650 X2.3252 Y2.5561
N7655 X2.3242 Y2.5569
N7660 X2.3232 Y2.5579
N7665 X2.3221 Y2.5591
N7670 X2.3212 Y2.559
N7675 X2.3192 Y2.5589
N7680 X2.3172 Y2.559
N7685 X2.3154 Y2.5593
N7690 X2.3136 Y2.5596
N7695 X2.3118 Y2.5601
N7700 X2.3012 Y2.564
N7705 X2.2933 Y2.5668
N7710 X2.2911 Y2.5677
N7715 X2.29 Y2.5682
N7720 X2.2889 Y2.5688
N7725 X2.2871 Y2.5699
N7730 X2.2859 Y2.5708
N7735 X2.2853 Y2.5707
N7740 X2.2833 Y2.5708
N7745 X2.2813 Y2.5711
N7750 X2.2793 Y2.5715
N7755 X2.2773 Y2.572
N7760 X2.2693 Y2.5745
N7765 X2.2614 Y2.5768
N7770 X2.2594 Y2.5775
N7775 X2.2584 Y2.578
N7780 X2.2574 Y2.5784
N7785 X2.2564 Y2.579
N7790 X2.2554 Y2.5796
N7795 X2.2544 Y2.5803
N7800 X2.2534 Y2.581
N7805 X2.2524 Y2.5818
N7810 X2.2515 Y2.5827
N7815 X2.2505 Y2.5837
N7820 X2.2491 Y2.5853
N7825 X2.2487 Y2.5859
N7830 X2.2476 Y2.5854
N7835 X2.2454 Y2.5846
N7840 X2.2434 Y2.5841
N7845 X2.2414 Y2.5838
N7850 X2.2394 Y2.5836
N7855 X2.2374 Y2.5835
N7860 X2.2356 Y2.5837
N7865 X2.2338 Y2.5839
N7870 X2.2195 Y2.587
N7875 X2.2175 Y2.5876
N7880 X2.2155 Y2.5884
N7885 X2.2145 Y2.5889
N7890 X2.2135 Y2.5894
N7895 X2.2124 Y2.5901
N7900 X2.2112 Y2.5909
N7905 X2.2101 Y2.5917
N7910 X2.209 Y2.5927
N7915 X2.2079 Y2.5937
N7920 X2.2054 Y2.5927
N7925 X2.2035 Y2.5921
N7930 X2.2015 Y2.5917
N7935 X2.1995 Y2.5915
N7940 X2.1976 Y2.5914
N7945 X2.1956 Y2.5915
N7950 X2.1936 Y2.5917
N7955 X2.1876 Y2.5927
N7960 X2.1776 Y2.5941
N7965 X2.1756 Y2.5944
N7970 X2.1736 Y2.5949
N7975 X2.1716 Y2.5956
N7980 X2.1706 Y2.596
N7985 X2.1696 Y2.5965
N7990 X2.1686 Y2.597
N7995 X2.1676 Y2.5976
N8000 X2.1666 Y2.5982
N8005 X2.1656 Y2.599
N8010 X2.1646 Y2.5998
N8015 X2.1634 Y2.6009
N8020 X2.1616 Y2.5999
N8025 X2.1603 Y2.5993
N8030 X2.159 Y2.5988
N8035 X2.1577 Y2.5983
N8040 X2.1557 Y2.5978
N8045 X2.1537 Y2.5974
N8050 X2.1517 Y2.5972
N8055 X2.1497
N8060 X2.1417 Y2.5978
N8065 X2.1318 Y2.5984
N8070 X2.1298 Y2.5987
N8075 X2.1278 Y2.5991
N8080 X2.1258 Y2.5996
N8085 X2.1245 Y2.6001
N8090 X2.1232 Y2.6007
N8095 X2.1219 Y2.6013
N8100 X2.1205 Y2.6021
N8105 X2.1193 Y2.6029
N8110 X2.1192
N8115 X2.1178 Y2.6021
N8120 X2.1161 Y2.6013
N8125 X2.1144 Y2.6007
N8130 X2.1133 Y2.6003
N8135 X2.1121 Y2.6
N8140 X2.111 Y2.5997
N8145 X2.1098 Y2.5995
N8150 X2.1078 Y2.5993
N8155 X2.1058
N8160 X2.1018
N8165 X2.0859 Y2.5994
N8170 X1.8466
N8175 X1.8447 Y2.5995
N8180 X1.8428 Y2.5997
N8185 X1.8409 Y2.6001
N8190 X1.8386 Y2.6008
N8195 X1.8366 Y2.6016
N8200 X1.8356 Y2.602
N8205 X1.8347 Y2.6026
N8210 X1.8337 Y2.6032
N8215 X1.8327 Y2.6038
N8220 X1.8317 Y2.6045
N8225 X1.8307 Y2.6053
N8230 X1.8298 Y2.6061
N8235 X1.8289 Y2.607
N8240 X1.8281 Y2.6078
N8245 X1.8275 Y2.6086
N8250 X1.8267 Y2.6096
N8255 X1.826 Y2.6106
N8260 X1.8254 Y2.6116
N8265 X1.8248 Y2.6126
N8270 X1.8243 Y2.6136
N8275 X1.8238 Y2.6146
N8280 X1.8231 Y2.6166
N8285 X1.8227 Y2.6179
N8290 X1.8223 Y2.6196
N8295 X1.822 Y2.6213
N8300 X1.8219 Y2.6229
N8305 X1.8218 Y2.6245
N8310 X1.8217 Y2.6246
N8315 X1.4479
N8320 G3 X1.4229 Y2.5996 J-0.025
N8325 G1 Y2.5957 Z-0.1397
N8330 Y2.5918 Z-0.1388
N8335 Y2.5882 Z-0.1373
N8340 Y2.5849 Z-0.1352
N8345 Y2.5819 Z-0.1327
N8350 Y2.5793 Z-0.1297
N8355 Y2.5773 Z-0.1263
N8360 Y2.5758 Z-0.1227
N8365 Y2.5749 Z-0.1189
N8370 Y2.5746 Z-0.115
N8375 G0 Z0.2
N8380 X2.6825 Y2.4896
N8385 Z-0.1006
N8390 G1 Z-0.115 F40
N8395 X2.6823 Y2.4894 Z-0.1189
N8400 X2.6816 Y2.4888 Z-0.1227
N8405 X2.6804 Y2.4878 Z-0.1263
N8410 X2.6788 Y2.4865 Z-0.1297
N8415 X2.6769 Y2.4849 Z-0.1327
N8420 X2.6746 Y2.483 Z-0.1352
N8425 X2.672 Y2.4808 Z-0.1373
N8430 X2.6692 Y2.4785 Z-0.1388
N8435 X2.6663 Y2.4761 Z-0.1397
N8440 X2.6633 Y2.4736 Z-0.14
N8445 G2 X2.6617 Y2.4723 I-0.016 J0.0192
N8450 G1 X2.4126 Y2.2976
N8455 G3 X2.4077 Y2.2611 I0.0144 J-0.0205
N8460 G2 X2.4725 Y2.1552 I-0.332 J-0.2759
N8465 X2.5023 Y2.0347 I-0.3514 J-0.1506
N8470 G1 X2.5038 Y0.9962
N8475 G2 X2.4285 Y0.7664 I-0.4036 J0.005
N8480 X2.2362 Y0.6197 I-0.3348 J0.2395
N8485 X2.1766 Y0.6032 I-0.1279 J0.3466
N8490 X2.1152 Y0.5959 I-0.0848 J0.4506
N8495 G1 X1.0756 Y0.5963
N8500 G2 X0.8518 Y0.6807 I0.02 J0.3921
N8505 X0.7145 Y0.8765 I0.2601 J0.3283
N8510 X0.6996 Y0.9399 I0.3391 J0.113
N8515 X0.6949 Y1.0048 I0.4854 J0.0681
N8520 G1 X0.6971 Y2.0412
N8525 G2 X0.7928 Y2.2628 I0.3942 J-0.0389
N8530 X0.9972 Y2.3911 I0.3152 J-0.2751
N8535 X1.046 Y2.4009 I0.0947 J-0.3448
N8540 X1.0956 Y2.4044 I0.0548 J-0.4223
N8545 G1 X2.134 Y2.4029
N8550 G2 X2.4077 Y2.2611 I-0.0311 J-0.3952
N8555 X2.414 Y2.1562 I-0.0683 J-0.0568
N8560 G3 X2.3937 Y2.053 I0.1194 J-0.0771
N8565 G1 X2.3942 Y2.0503
N8570 X2.3955 Y2.0424
N8575 X2.3965 Y2.0344
N8580 X2.3969 Y2.0309
N8585 X2.3974 Y2.0264
N8590 X2.398 Y2.0184
N8595 X2.3984 Y2.0105
N8600 X2.3986 Y2.0025
N8605 X2.3987 Y1.9945
N8610 Y1.0055
N8615 X2.3986 Y0.9975
N8620 X2.3984 Y0.9895
N8625 X2.398 Y0.9816
N8630 X2.3974 Y0.9736
N8635 X2.3969 Y0.9691
N8640 X2.3965 Y0.9656
N8645 X2.3955 Y0.9576
N8650 X2.3942 Y0.9497
N8655 X2.3927 Y0.9417
N8660 X2.391 Y0.9337
N8665 X2.389 Y0.9254
N8670 X2.3869 Y0.9178
N8675 X2.3845 Y0.9098
N8680 X2.3818 Y0.9018
N8685 X2.381 Y0.8995
N8690 X2.3789 Y0.8938
N8695 X2.3757 Y0.8859
N8700 X2.3722 Y0.8779
N8705 X2.3685 Y0.8699
N8710 X2.3645 Y0.8619
N8715 X2.3601 Y0.854
N8720 X2.3571 Y0.8486
N8725 X2.3555 Y0.846
N8730 X2.3505 Y0.838
N8735 X2.3452 Y0.83
N8740 X2.3411 Y0.8243
N8745 X2.3395 Y0.8221
N8750 X2.3331 Y0.8138
N8755 X2.3268 Y0.8061
N8760 X2.3198 Y0.7981
N8765 X2.3172 Y0.7955
N8770 X2.3105 Y0.7888
N8775 X2.3088 Y0.7873
N8780 X2.3086 Y0.7871
N8785 X2.3079 Y0.7863
N8790 X2.3066 Y0.7849
N8795 X2.3039 Y0.7822
N8800 X2.3012 Y0.7796
N8805 X2.2933 Y0.7725
N8810 X2.2853 Y0.766
N8815 X2.2773 Y0.7599
N8820 X2.2751 Y0.7583
N8825 X2.2693 Y0.7542
N8830 X2.2614 Y0.7488
N8835 X2.2534 Y0.7438
N8840 X2.2508 Y0.7423
N8845 X2.2454 Y0.7392
N8850 X2.2374 Y0.7349
N8855 X2.2295 Y0.7309
N8860 X2.2215 Y0.7271
N8865 X2.2135 Y0.7237
N8870 X2.2055 Y0.7205
N8875 X2.1998 Y0.7184
N8880 X2.1976 Y0.7176
N8885 X2.1896 Y0.7149
N8890 X2.1816 Y0.7125
N8895 X2.1736 Y0.7103
N8900 X2.1656 Y0.7084
N8905 X2.1577 Y0.7067
N8910 X2.1497 Y0.7052
N8915 X2.1417 Y0.7039
N8920 X2.1337 Y0.7028
N8925 X2.1302 Y0.7024
N8930 X2.1258 Y0.702
N8935 X2.1178 Y0.7014
N8940 X2.1098 Y0.7009
N8945 X2.1018 Y0.7007
N8950 X2.0939
N8955 X1.1049
N8960 X1.0969
N8965 X1.0889 Y0.7009
N8970 X1.0809 Y0.7014
N8975 X1.073 Y0.702
N8980 X1.0685 Y0.7024
N8985 X1.065 Y0.7028
N8990 X1.057 Y0.7039
N8995 X1.049 Y0.7052
N9000 X1.0411 Y0.7067
N9005 X1.0331 Y0.7084
N9010 X1.0248 Y0.7104
N9015 X1.0171 Y0.7125
N9020 X1.0092 Y0.7149
N9025 X1.0012 Y0.7176
N9030 X0.9989 Y0.7184
N9035 X0.9932 Y0.7205
N9040 X0.9852 Y0.7237
N9045 X0.9773 Y0.7271
N9050 X0.9693 Y0.7309
N9055 X0.9613 Y0.7349
N9060 X0.9533 Y0.7392
N9065 X0.9479 Y0.7423
N9070 X0.9454 Y0.7438
N9075 X0.9374 Y0.7488
N9080 X0.9294 Y0.7542
N9085 X0.9236 Y0.7583
N9090 X0.9214 Y0.7599
N9095 X0.9132 Y0.7662
N9100 X0.9055 Y0.7726
N9105 X0.8975 Y0.7796
N9110 X0.8948 Y0.7822
N9115 X0.8882 Y0.7888
N9120 X0.8867 Y0.7905
N9125 X0.8865 Y0.7907
N9130 X0.8856 Y0.7915
N9135 X0.8843 Y0.7927
N9140 X0.8815 Y0.7955
N9145 X0.879 Y0.7981
N9150 X0.8719 Y0.8061
N9155 X0.8654 Y0.8141
N9160 X0.8592 Y0.8221
N9165 X0.8576 Y0.8243
N9170 X0.8535 Y0.83
N9175 X0.8482 Y0.838
N9180 X0.8432 Y0.846
N9185 X0.8417 Y0.8486
N9190 X0.8386 Y0.854
N9195 X0.8342 Y0.8619
N9200 X0.8302 Y0.8699
N9205 X0.8265 Y0.8779
N9210 X0.8231 Y0.8859
N9215 X0.8198 Y0.8938
N9220 X0.8177 Y0.8996
N9225 X0.8169 Y0.9018
N9230 X0.8143 Y0.9098
N9235 X0.8119 Y0.9178
N9240 X0.8097 Y0.9257
N9245 X0.8077 Y0.9337
N9250 X0.806 Y0.9417
N9255 X0.8045 Y0.9497
N9260 X0.8033 Y0.9576
N9265 X0.8022 Y0.9656
N9270 X0.8018 Y0.9691
N9275 X0.8013 Y0.9736
N9280 X0.8007 Y0.9816
N9285 X0.8003 Y0.9895
N9290 X0.8001 Y0.9975
N9295 Y1.0055
N9300 Y1.9945
N9305 Y2.0025
N9310 X0.8003 Y2.0105
N9315 X0.8007 Y2.0184
N9320 X0.8013 Y2.0264
N9325 X0.8018 Y2.0309
N9330 X0.8022 Y2.0344
N9335 X0.8033 Y2.0424
N9340 X0.8045 Y2.0503
N9345 X0.806 Y2.0583
N9350 X0.8077 Y2.0663
N9355 X0.8098 Y2.0746
N9360 X0.8119 Y2.0822
N9365 X0.8143 Y2.0902
N9370 X0.8169 Y2.0982
N9375 X0.8177 Y2.1004
N9380 X0.8198 Y2.1062
N9385 X0.823 Y2.1141
N9390 X0.8265 Y2.1221
N9395 X0.8302 Y2.1301
N9400 X0.8342 Y2.1381
N9405 X0.8386 Y2.146
N9410 X0.8417 Y2.1514
N9415 X0.8432 Y2.154
N9420 X0.8482 Y2.162
N9425 X0.8535 Y2.17
N9430 X0.8576 Y2.1757
N9435 X0.8592 Y2.1779
N9440 X0.8656 Y2.1862
N9445 X0.8719 Y2.1939
N9450 X0.879 Y2.2019
N9455 X0.8815 Y2.2045
N9460 X0.8882 Y2.2112
N9465 X0.8899 Y2.2127
N9470 X0.8901 Y2.2129
N9475 X0.8908 Y2.2137
N9480 X0.8921 Y2.2151
N9485 X0.8948 Y2.2178
N9490 X0.8975 Y2.2204
N9495 X0.9055 Y2.2275
N9500 X0.9134 Y2.234
N9505 X0.9214 Y2.2401
N9510 X0.9236 Y2.2417
N9515 X0.9294 Y2.2458
N9520 X0.9374 Y2.2512
N9525 X0.9454 Y2.2562
N9530 X0.9479 Y2.2577
N9535 X0.9533 Y2.2608
N9540 X0.9613 Y2.2651
N9545 X0.9693 Y2.2691
N9550 X0.9773 Y2.2729
N9555 X0.9852 Y2.2763
N9560 X0.9932 Y2.2795
N9565 X0.9989 Y2.2816
N9570 X1.0012 Y2.2824
N9575 X1.0092 Y2.2851
N9580 X1.0171 Y2.2875
N9585 X1.0251 Y2.2897
N9590 X1.0331 Y2.2916
N9595 X1.0411 Y2.2933
N9600 X1.049 Y2.2948
N9605 X1.057 Y2.2961
N9610 X1.065 Y2.2972
N9615 X1.0685 Y2.2976
N9620 X1.073 Y2.298
N9625 X1.0809 Y2.2986
N9630 X1.0889 Y2.2991
N9635 X1.0969 Y2.2993
N9640 X1.1049
N9645 X2.0939
N9650 X2.1018
N9655 X2.1098 Y2.2991
N9660 X2.1178 Y2.2986
N9665 X2.1258 Y2.298
N9670 X2.1302 Y2.2976
N9675 X2.1337 Y2.2972
N9680 X2.1417 Y2.2961
N9685 X2.1497 Y2.2948
N9690 X2.1577 Y2.2933
N9695 X2.1656 Y2.2916
N9700 X2.174 Y2.2896
N9705 X2.1816 Y2.2875
N9710 X2.1896 Y2.2851
N9715 X2.1976 Y2.2824
N9720 X2.1998 Y2.2816
N9725 X2.2055 Y2.2795
N9730 X2.2135 Y2.2763
N9735 X2.2215 Y2.2729
N9740 X2.2295 Y2.2691
N9745 X2.2374 Y2.2651
N9750 X2.2454 Y2.2608
N9755 X2.2508 Y2.2577
N9760 X2.2534 Y2.2562
N9765 X2.2614 Y2.2512
N9770 X2.2693 Y2.2458
N9775 X2.2751 Y2.2417
N9780 X2.2773 Y2.2401
N9785 X2.2856 Y2.2338
N9790 X2.2933 Y2.2275
N9795 X2.3012 Y2.2204
N9800 X2.3092 Y2.2128
N9805 X2.3122 Y2.2098
N9810 X2.3198 Y2.2019
N9815 X2.3268 Y2.1939
N9820 X2.3334 Y2.1859
N9825 X2.3395 Y2.1779
N9830 X2.3411 Y2.1757
N9835 X2.3452 Y2.17
N9840 X2.3505 Y2.162
N9845 X2.3555 Y2.154
N9850 X2.3571 Y2.1514
N9855 X2.3601 Y2.146
N9860 X2.3645 Y2.1381
N9865 X2.3685 Y2.1301
N9870 X2.3722 Y2.1221
N9875 X2.3757 Y2.1141
N9880 X2.3789 Y2.1062
N9885 X2.381 Y2.1005
N9890 X2.3818 Y2.0982
N9895 X2.3845 Y2.0902
N9900 X2.3869 Y2.0822
N9905 X2.3891 Y2.0743
N9910 X2.391 Y2.0663
N9915 X2.3927 Y2.0583
N9920 X2.3937 Y2.053
N9925 G3 X2.4229 Y2.033 I0.0246 J0.0046
N9930 G1 X2.4267 Y2.0337 Z-0.1397
N9935 X2.4305 Y2.0344 Z-0.1388
N9940 X2.434 Y2.0351 Z-0.1373
N9945 X2.4373 Y2.0357 Z-0.1352
N9950 X2.4402 Y2.0362 Z-0.1327
N9955 X2.4428 Y2.0367 Z-0.1297
N9960 X2.4448 Y2.0371 Z-0.1263
N9965 X2.4462 Y2.0374 Z-0.1227
N9970 X2.4471 Y2.0375 Z-0.1189
N9975 X2.4474 Y2.0376 Z-0.115
N9980 G0 Z0.6

(Contour1)
N9985 M9
N9990 X0.8716 Y0.9988
N9995 Z0.6
N10000 Z-0.0757
N10005 G1 Z-0.1679 F40
N10010 X0.8713 Z-0.1706
N10015 X0.8704 Y0.9987 Z-0.1731
N10020 X0.869 Y0.9985 Z-0.1754
N10025 X0.867 Y0.9982 Z-0.1774
N10030 X0.8648 Y0.9979 Z-0.1788
N10035 X0.8622 Y0.9976 Z-0.1797
N10040 X0.8595 Y0.9972 Z-0.18
N10045 G3 X0.8381 Y0.9691 I0.0034 J-0.0248
N10050 G1 X0.8391 Y0.9619
N10055 X0.8404 Y0.954
N10060 X0.842 Y0.946
N10065 X0.8438 Y0.938
N10070 X0.8459 Y0.9301
N10075 X0.8461 Y0.9294
N10080 X0.8483 Y0.9221
N10085 X0.8509 Y0.9141
N10090 X0.8538 Y0.9061
N10095 X0.8541 Y0.9055
N10100 X0.857 Y0.8982
N10105 X0.8606 Y0.8902
N10110 X0.862 Y0.887
N10115 X0.8644 Y0.8822
N10120 X0.8686 Y0.8743
N10125 X0.87 Y0.8717
N10130 X0.8731 Y0.8663
N10135 X0.8738 Y0.8651
N10140 X0.8741 Y0.8646
N10145 X0.8742 Y0.8645
N10150 X0.8747 Y0.8643
N10155 X0.8755 Y0.8638
N10160 X0.878 Y0.8625
N10165 X0.885 Y0.8583
N10170 X0.8859 Y0.8577
N10175 X0.8939 Y0.852
N10180 X0.896 Y0.8504
N10185 X0.9019 Y0.8452
N10190 X0.9049 Y0.8424
N10195 X0.9099 Y0.8374
N10200 X0.9368 Y0.8105
N10205 X0.9417 Y0.8055
N10210 X0.9446 Y0.8025
N10215 X0.9497 Y0.7966
N10220 X0.9514 Y0.7946
N10225 X0.9571 Y0.7866
N10230 X0.9577 Y0.7856
N10235 X0.9619 Y0.7786
N10240 X0.9632 Y0.7762
N10245 X0.9636 Y0.7753
N10250 X0.9639 Y0.7748
N10255 X0.964 Y0.7747
N10260 X0.9644 Y0.7745
N10265 X0.9657 Y0.7738
N10270 X0.971 Y0.7706
N10275 X0.9736 Y0.7692
N10280 X0.9816 Y0.765
N10285 X0.9864 Y0.7627
N10290 X0.9896 Y0.7612
N10295 X0.9975 Y0.7577
N10300 X1.0048 Y0.7547
N10305 X1.0055 Y0.7544
N10310 X1.0135 Y0.7515
N10315 X1.0215 Y0.7489
N10320 X1.0287 Y0.7467
N10325 X1.0294 Y0.7465
N10330 X1.0374 Y0.7444
N10335 X1.0454 Y0.7426
N10340 X1.0533 Y0.741
N10345 X1.0613 Y0.7397
N10350 X1.0684 Y0.7388
N10355 X1.0693 Y0.7387
N10360 X1.0773 Y0.7378
N10365 X1.0852 Y0.7373
N10370 X1.0932 Y0.7369
N10375 X1.1012 Y0.7368
N10380 X1.4997
N10385 X1.5954
N10390 X1.6034
N10395 X1.699
N10400 X2.0976
N10405 X2.1055 Y0.7369
N10410 X2.1135 Y0.7373
N10415 X2.1215 Y0.7378
N10420 X2.1294 Y0.7387
N10425 X2.1303 Y0.7388
N10430 X2.1374 Y0.7397
N10435 X2.1454 Y0.741
N10440 X2.1534 Y0.7426
N10445 X2.1613 Y0.7444
N10450 X2.1693 Y0.7465
N10455 X2.17 Y0.7467
N10460 X2.1773 Y0.7489
N10465 X2.1852 Y0.7515
N10470 X2.1932 Y0.7544
N10475 X2.1939 Y0.7547
N10480 X2.2012 Y0.7577
N10485 X2.2092 Y0.7612
N10490 X2.2123 Y0.7627
N10495 X2.2171 Y0.765
N10500 X2.2251 Y0.7692
N10505 X2.2277 Y0.7706
N10510 X2.2331 Y0.7738
N10515 X2.2343 Y0.7745
N10520 X2.2347 Y0.7747
N10525 X2.2348 Y0.7748
N10530 X2.2351 Y0.7753
N10535 X2.2355 Y0.7762
N10540 X2.2368 Y0.7786
N10545 X2.241 Y0.7856
N10550 X2.2417 Y0.7866
N10555 X2.2474 Y0.7946
N10560 X2.249 Y0.7966
N10565 X2.2541 Y0.8025
N10570 X2.257 Y0.8055
N10575 X2.2619 Y0.8105
N10580 X2.2889 Y0.8374
N10585 X2.2938 Y0.8424
N10590 X2.2968 Y0.8452
N10595 X2.3027 Y0.8504
N10600 X2.3048 Y0.852
N10605 X2.3128 Y0.8577
N10610 X2.3138 Y0.8583
N10615 X2.3208 Y0.8625
N10620 X2.3232 Y0.8638
N10625 X2.324 Y0.8643
N10630 X2.3246 Y0.8645
N10635 Y0.8646
N10640 X2.3249 Y0.8651
N10645 X2.3256 Y0.8663
N10650 X2.3287 Y0.8717
N10655 X2.3301 Y0.8743
N10660 X2.3344 Y0.8822
N10665 X2.3367 Y0.887
N10670 X2.3382 Y0.8902
N10675 X2.3417 Y0.8982
N10680 X2.3447 Y0.9055
N10685 X2.3449 Y0.9061
N10690 X2.3478 Y0.9141
N10695 X2.3505 Y0.9221
N10700 X2.3526 Y0.9294
N10705 X2.3528 Y0.9301
N10710 X2.3549 Y0.938
N10715 X2.3567 Y0.946
N10720 X2.3583 Y0.954
N10725 X2.3596 Y0.9619
N10730 X2.3606 Y0.9691
N10735 X2.3607 Y0.9699
N10740 X2.3615 Y0.9779
N10745 X2.3621 Y0.9859
N10750 X2.3624 Y0.9938
N10755 X2.3626 Y1.0018
N10760 Y1.4004
N10765 Y1.496
N10770 Y1.504
N10775 Y1.5996
N10780 Y1.9982
N10785 X2.3624 Y2.0062
N10790 X2.3621 Y2.0141
N10795 X2.3615 Y2.0221
N10800 X2.3607 Y2.0301
N10805 X2.3606 Y2.0309
N10810 X2.3596 Y2.0381
N10815 X2.3583 Y2.046
N10820 X2.3567 Y2.054
N10825 X2.3549 Y2.062
N10830 X2.3528 Y2.0699
N10835 X2.3526 Y2.0706
N10840 X2.3505 Y2.0779
N10845 X2.3478 Y2.0859
N10850 X2.3449 Y2.0939
N10855 X2.3447 Y2.0945
N10860 X2.3417 Y2.1018
N10865 X2.3382 Y2.1098
N10870 X2.3367 Y2.113
N10875 X2.3344 Y2.1178
N10880 X2.3301 Y2.1257
N10885 X2.3287 Y2.1283
N10890 X2.3256 Y2.1337
N10895 X2.3208 Y2.1416
N10900 X2.3207 Y2.1417
N10905 X2.3154 Y2.1496
N10910 X2.3128 Y2.1533
N10915 X2.3096 Y2.1576
N10920 X2.3048 Y2.1638
N10925 X2.3034 Y2.1656
N10930 X2.2968 Y2.1733
N10935 X2.2966 Y2.1736
N10940 X2.2893 Y2.1815
N10945 X2.2889 Y2.182
N10950 X2.2814 Y2.1895
N10955 X2.2809 Y2.19
N10960 X2.2729 Y2.1973
N10965 X2.2727 Y2.1975
N10970 X2.265 Y2.204
N10975 X2.2632 Y2.2054
N10980 X2.257 Y2.2103
N10985 X2.2527 Y2.2134
N10990 X2.249 Y2.216
N10995 X2.241 Y2.2213
N11000 Y2.2214
N11005 X2.2331 Y2.2262
N11010 X2.2277 Y2.2294
N11015 X2.2251 Y2.2308
N11020 X2.2171 Y2.235
N11025 X2.2123 Y2.2373
N11030 X2.2092 Y2.2388
N11035 X2.2012 Y2.2423
N11040 X2.1939 Y2.2453
N11045 X2.1932 Y2.2456
N11050 X2.1852 Y2.2485
N11055 X2.1773 Y2.2511
N11060 X2.17 Y2.2533
N11065 X2.1693 Y2.2535
N11070 X2.1613 Y2.2556
N11075 X2.1534 Y2.2574
N11080 X2.1454 Y2.259
N11085 X2.1374 Y2.2603
N11090 X2.1303 Y2.2612
N11095 X2.1294 Y2.2613
N11100 X2.1215 Y2.2622
N11105 X2.1135 Y2.2627
N11110 X2.1055 Y2.2631
N11115 X2.0976 Y2.2632
N11120 X1.699
N11125 X1.6034
N11130 X1.5954
N11135 X1.4997
N11140 X1.1012
N11145 X1.0932 Y2.2631
N11150 X1.0852 Y2.2627
N11155 X1.0773 Y2.2622
N11160 X1.0693 Y2.2613
N11165 X1.0684 Y2.2612
N11170 X1.0613 Y2.2603
N11175 X1.0533 Y2.259
N11180 X1.0454 Y2.2574
N11185 X1.0374 Y2.2556
N11190 X1.0294 Y2.2535
N11195 X1.0287 Y2.2533
N11200 X1.0215 Y2.2511
N11205 X1.0135 Y2.2485
N11210 X1.0055 Y2.2456
N11215 X1.0048 Y2.2453
N11220 X0.9975 Y2.2423
N11225 X0.9896 Y2.2388
N11230 X0.9864 Y2.2373
N11235 X0.9816 Y2.235
N11240 X0.9736 Y2.2308
N11245 X0.971 Y2.2294
N11250 X0.9657 Y2.2262
N11255 X0.9644 Y2.2255
N11260 X0.964 Y2.2253
N11265 X0.9639 Y2.2252
N11270 X0.9636 Y2.2247
N11275 X0.9632 Y2.2238
N11280 X0.9619 Y2.2214
N11285 X0.9577 Y2.2144
N11290 X0.9571 Y2.2134
N11295 X0.9514 Y2.2054
N11300 X0.9497 Y2.2034
N11305 X0.9446 Y2.1975
N11310 X0.9417 Y2.1945
N11315 X0.9368 Y2.1895
N11320 X0.9099 Y2.1626
N11325 X0.9049 Y2.1576
N11330 X0.9019 Y2.1548
N11335 X0.896 Y2.1496
N11340 X0.8939 Y2.148
N11345 X0.8859 Y2.1423
N11350 X0.885 Y2.1417
N11355 X0.878 Y2.1375
N11360 X0.8755 Y2.1362
N11365 X0.8747 Y2.1357
N11370 X0.8742 Y2.1355
N11375 X0.8741 Y2.1354
N11380 X0.8738 Y2.1349
N11385 X0.8731 Y2.1337
N11390 X0.87 Y2.1283
N11395 X0.8686 Y2.1257
N11400 X0.8644 Y2.1178
N11405 X0.862 Y2.113
N11410 X0.8606 Y2.1098
N11415 X0.857 Y2.1018
N11420 X0.8541 Y2.0945
N11425 X0.8538 Y2.0939
N11430 X0.8509 Y2.0859
N11435 X0.8483 Y2.0779
N11440 X0.8461 Y2.0706
N11445 X0.8459 Y2.0699
N11450 X0.8438 Y2.062
N11455 X0.842 Y2.054
N11460 X0.8404 Y2.046
N11465 X0.8391 Y2.0381
N11470 X0.8381 Y2.0309
N11475 X0.838 Y2.0301
N11480 X0.8372 Y2.0221
N11485 X0.8366 Y2.0141
N11490 X0.8363 Y2.0062
N11495 X0.8362 Y1.9982
N11500 Y1.5996
N11505 Y1.504
N11510 Y1.496
N11515 Y1.4004
N11520 Y1.0018
N11525 X0.8363 Y0.9938
N11530 X0.8366 Y0.9859
N11535 X0.8372 Y0.9779
N11540 X0.838 Y0.9699
N11545 X0.8381 Y0.9691
N11550 X0.8392 Y0.9615
N11555 X0.8405 Y0.954
N11560 X0.842 Y0.9465
N11565 X0.8437 Y0.939 Z-0.1801
N11570 X0.8455 Y0.9319
N11575 X0.8475 Y0.9249
N11580 X0.8499 Y0.9175 Z-0.1802
N11585 X0.8525 Y0.9102
N11590 X0.8552 Y0.9031 Z-0.1803
N11595 X0.8581 Y0.8961
N11600 X0.8612 Y0.8894 Z-0.1804
N11605 X0.8644 Y0.8828 Z-0.1805
N11610 X0.868 Y0.8759 Z-0.1806
N11615 X0.8718 Y0.8692 Z-0.1807
N11620 X0.8738 Y0.8657
N11625 X0.8744 Y0.8648
N11630 X0.8747 Y0.8643
N11635 X0.8748 Y0.8642
N11640 X0.8751 Y0.8641
N11645 X0.8769 Y0.8631 Z-0.1808
N11650 X0.8838 Y0.8591 Z-0.1809
N11655 X0.8903 Y0.8547 Z-0.181
N11660 X0.8965 Y0.85 Z-0.1811
N11665 X0.902 Y0.8452 Z-0.1812
N11670 X0.9072 Y0.8401 Z-0.1813
N11675 X0.9123 Y0.835 Z-0.1815
N11680 X0.9175 Y0.8298 Z-0.1816
N11685 X0.9225 Y0.8248 Z-0.1817
N11690 X0.9275 Y0.8198 Z-0.1819
N11695 X0.9327 Y0.8146 Z-0.182
N11700 X0.9378 Y0.8095 Z-0.1822
N11705 X0.9429 Y0.8044 Z-0.1823
N11710 X0.9478 Y0.799 Z-0.1825
N11715 X0.9525 Y0.7931 Z-0.1826
N11720 X0.9569 Y0.7869 Z-0.1828
N11725 X0.9611 Y0.78 Z-0.183
N11730 X0.9621 Y0.7782 Z-0.1831
N11735 X0.9626 Y0.7773
N11740 X0.9627 Y0.7771
N11745 X0.9628 Y0.777
N11750 X0.9635 Y0.7766
N11755 X0.967 Y0.7745 Z-0.1832
N11760 X0.9735 Y0.7709 Z-0.1834
N11765 X0.98 Y0.7675 Z-0.1836
N11770 X0.9869 Y0.7642 Z-0.1838
N11775 X0.9904 Y0.7626 Z-0.1839
N11780 X0.9939 Y0.761 Z-0.184
N11785 X0.9974 Y0.7596 Z-0.1841
N11790 X1.0009 Y0.7582 Z-0.1842
N11795 X1.0044 Y0.7568 Z-0.1843
N11800 X1.0079 Y0.7555 Z-0.1844
N11805 X1.0114 Y0.7542 Z-0.1845
N11810 X1.0149 Y0.7531 Z-0.1846
N11815 X1.0183 Y0.7519 Z-0.1847
N11820 X1.0219 Y0.7508 Z-0.1848
N11825 X1.0255 Y0.7498 Z-0.1849
N11830 X1.0292 Y0.7488 Z-0.185
N11835 X1.0329 Y0.7478 Z-0.1852
N11840 X1.0366 Y0.7469 Z-0.1853
N11845 X1.0403 Y0.746 Z-0.1854
N11850 X1.044 Y0.7452 Z-0.1855
N11855 X1.0477 Y0.7445 Z-0.1856
N11860 X1.0514 Y0.7438 Z-0.1857
N11865 X1.055 Y0.7432 Z-0.1859
N11870 X1.0586 Y0.7427 Z-0.186
N11875 X1.0622 Y0.7421 Z-0.1861
N11880 X1.0658 Y0.7417 Z-0.1862
N11885 X1.0696 Y0.7413 Z-0.1863
N11890 X1.0734 Y0.7409 Z-0.1864
N11895 X1.0771 Y0.7406 Z-0.1866
N11900 X1.0809 Y0.7403 Z-0.1867
N11905 X1.0847 Y0.7401 Z-0.1868
N11910 X1.0884 Y0.74 Z-0.1869
N11915 X1.0922 Y0.7399 Z-0.1871
N11920 X1.096 Z-0.1872
N11925 X1.0995 Z-0.1873
N11930 X1.1031 Z-0.1874
N11935 X1.1066 Z-0.1876
N11940 X1.1102 Y0.74 Z-0.1877
N11945 X1.1137 Y0.7401 Z-0.1878
N11950 X1.1172 Z-0.1879
N11955 X1.1207 Y0.7402 Z-0.1881
N11960 X1.1242 Z-0.1882
N11965 X1.1277 Y0.7403 Z-0.1883
N11970 X1.1312 Z-0.1884
N11975 X1.1347 Y0.7404 Z-0.1885
N11980 X1.1382 Z-0.1887
N11985 X1.1452 Y0.7405 Z-0.1889
N11990 X1.1557 Y0.7407 Z-0.1893
N11995 X1.1627 Y0.7408 Z-0.1895
N12000 X1.1662 Y0.7409 Z-0.1896
N12005 X1.1732 Y0.741 Z-0.1899
N12010 X1.1837 Y0.7411 Z-0.1903
N12015 X1.1907 Y0.7413 Z-0.1905
N12020 X1.1942 Z-0.1906
N12025 X1.2012 Y0.7414 Z-0.1909
N12030 X1.2117 Y0.7416 Z-0.1912
N12035 X1.2187 Y0.7417 Z-0.1915
N12040 X1.2222 Y0.7418 Z-0.1916
N12045 X1.2292 Y0.7419 Z-0.1918
N12050 X1.2397 Y0.742 Z-0.1922
N12055 X1.2467 Y0.7421 Z-0.1925
N12060 X1.2502 Y0.7422 Z-0.1926
N12065 X1.2572 Y0.7423 Z-0.1928
N12070 X1.2782 Y0.7426 Z-0.1936
N12075 X1.2817 Y0.7427 Z-0.1937
N12080 X1.2887 Y0.7428 Z-0.1939
N12085 X1.2922 Y0.7429 Z-0.194
N12090 X1.2992 Y0.743 Z-0.1943
N12095 X1.3202 Y0.7433 Z-0.195
N12100 X1.3307 Y0.7435 Z-0.1954
N12105 X1.3377 Y0.7436 Z-0.1956
N12110 X1.3587 Y0.744 Z-0.1964
N12115 X1.3657 Y0.7441 Z-0.1966
N12120 X1.3972 Y0.7446 Z-0.1977
N12125 X1.4497 Y0.7455 Z-0.1995
N12130 X1.4672 Y0.7458 Z-0.2002
N12135 X1.5162 Y0.7466 Z-0.2019
N12140 X1.5197 Y0.7467 Z-0.202
N12145 X1.5407 Y0.7471 Z-0.2027
N12150 X1.5442 Z-0.2028
N12155 X1.5547 Y0.7473 Z-0.2032
N12160 X1.5617 Y0.7475 Z-0.2035
N12165 X1.5827 Y0.7479 Z-0.2042
N12170 X1.5897 Y0.748 Z-0.2044
N12175 X1.5967 Y0.7481 Z-0.2047
N12180 X1.6002 Y0.7482 Z-0.2048
N12185 X1.6107 Y0.7484 Z-0.2052
N12190 X1.6142 Z-0.2053
N12195 X1.6212 Y0.7486 Z-0.2055
N12200 X1.6422 Y0.7489 Z-0.2063
N12205 X1.6492 Y0.7491 Z-0.2065
N12210 X1.6702 Y0.7495 Z-0.2072
N12215 X1.6772 Y0.7496 Z-0.2075
N12220 X1.6877 Y0.7498 Z-0.2079
N12225 X1.6947 Y0.7499 Z-0.2081
N12230 X1.6982 Y0.75 Z-0.2082
N12235 X1.7052 Y0.7501 Z-0.2085
N12240 X1.7157 Y0.7503 Z-0.2088
N12245 X1.7227 Y0.7504 Z-0.2091
N12250 X1.7262 Y0.7505 Z-0.2092
N12255 X1.7332 Y0.7506 Z-0.2094
N12260 X1.7437 Y0.7508 Z-0.2098
N12265 X1.7507 Y0.7509 Z-0.2101
N12270 X1.7542 Y0.751 Z-0.2102
N12275 X1.7612 Y0.7511 Z-0.2104
N12280 X1.7682 Y0.7512 Z-0.2107
N12285 X1.7717 Y0.7513 Z-0.2108
N12290 X1.7752 Y0.7514 Z-0.2109
N12295 X1.7787 Z-0.211
N12300 X1.7822 Y0.7515 Z-0.2112
N12305 X1.7857 Y0.7516 Z-0.2113
N12310 X1.7892 Y0.7517 Z-0.2114
N12315 X1.7927 Z-0.2115
N12320 X1.7962 Y0.7518 Z-0.2116
N12325 X1.7997 Y0.7519 Z-0.2118
N12330 X1.8032 Z-0.2119
N12335 X1.8067 Y0.752 Z-0.212
N12340 X1.8102 Y0.7521 Z-0.2121
N12345 X1.8137 Z-0.2123
N12350 X1.8172 Y0.7522 Z-0.2124
N12355 X1.8207 Y0.7523 Z-0.2125
N12360 X1.8242 Z-0.2126
N12365 X1.8277 Y0.7524 Z-0.2127
N12370 X1.8312 Y0.7525 Z-0.2129
N12375 X1.8347 Y0.7526 Z-0.213
N12380 X1.8382 Z-0.2131
N12385 X1.8417 Y0.7527 Z-0.2132
N12390 X1.8452 Y0.7528 Z-0.2133
N12395 X1.8487 Z-0.2134
N12400 X1.8522 Y0.7529 Z-0.2136
N12405 X1.8557 Z-0.2137
N12410 X1.8592 Y0.753 Z-0.2138
N12415 X1.8627 Y0.7531 Z-0.2139
N12420 X1.8662 Z-0.214
N12425 X1.8697 Y0.7532 Z-0.2141
N12430 X1.8732 Y0.7533 Z-0.2142
N12435 X1.8767 Z-0.2143
N12440 X1.8802 Y0.7534 Z-0.2145
N12445 X1.8837 Y0.7535 Z-0.2146
N12450 X1.8872 Z-0.2147
N12455 X1.8907 Y0.7536 Z-0.2148
N12460 X1.8942 Z-0.2149
N12465 X1.8977 Y0.7537 Z-0.215
N12470 X1.9012 Y0.7538 Z-0.2151
N12475 X1.9047 Z-0.2152
N12480 X1.9082 Y0.7539 Z-0.2153
N12485 X1.9117 Z-0.2154
N12490 X1.9152 Y0.754 Z-0.2155
N12495 X1.9222 Y0.7541 Z-0.2157
N12500 X1.9292 Y0.7542 Z-0.2159
N12505 X1.9362 Y0.7543 Z-0.2161
N12510 X1.9432 Y0.7544 Z-0.2163
N12515 X1.9502 Y0.7545 Z-0.2165
N12520 X1.9572 Y0.7546 Z-0.2166
N12525 X1.9642 Y0.7547 Z-0.2168
N12530 X1.9712 Y0.7548 Z-0.217
N12535 X1.9782 Y0.7549 Z-0.2172
N12540 X1.9852 Y0.755 Z-0.2173
N12545 X1.9922 Y0.7551 Z-0.2175
N12550 X1.9992 Y0.7552 Z-0.2176
N12555 X2.0062 Y0.7553 Z-0.2178
N12560 X2.0132 Y0.7554 Z-0.2179
N12565 X2.0202 Z-0.2181
N12570 X2.0272 Y0.7555 Z-0.2182
N12575 X2.0342 Y0.7556 Z-0.2183
N12580 X2.0412 Y0.7557 Z-0.2185
N12585 X2.0482 Z-0.2186
N12590 X2.0552 Y0.7558 Z-0.2187
N12595 X2.0622 Y0.7559 Z-0.2188
N12600 X2.0692 Z-0.2189
N12605 X2.0762 Y0.756 Z-0.219
N12610 X2.0902 Y0.7561 Z-0.2192
N12615 X2.1042 Y0.7563 Z-0.2194
N12620 X2.1182 Y0.7571 Z-0.2196
N12625 X2.1321 Y0.7587 Z-0.2197
N12630 X2.1459 Y0.7611 Z-0.2198
N12635 X2.1596 Y0.7643 Z-0.2199
N12640 X2.173 Y0.7682
N12645 X2.1862 Y0.7729 Z-0.22
N12650 X2.1991 Y0.7783
N12655 X2.2008 Y0.7791
N12660 X2.2012 Y0.7792
N12665 X2.2092 Y0.7831
N12670 X2.2157 Y0.7866
N12675 X2.2171 Y0.7873
N12680 X2.2251 Y0.792
N12685 X2.2293 Y0.7946
N12690 X2.2331 Y0.797
N12695 X2.241 Y0.8025
N12700 X2.2411
N12705 X2.249 Y0.8085
N12710 X2.2515 Y0.8105
N12715 X2.257 Y0.815
N12720 X2.261 Y0.8185
N12725 X2.265 Y0.8221
N12730 X2.2695 Y0.8264
N12735 X2.2729 Y0.8299
N12740 X2.2773 Y0.8344
N12745 X2.2809 Y0.8384
N12750 X2.2844 Y0.8424
N12755 X2.2889 Y0.8478
N12760 X2.2909 Y0.8504
N12765 X2.2968 Y0.8583
N12770 X2.2969
N12775 X2.3024 Y0.8663
N12780 X2.3048 Y0.8701
N12785 X2.3074 Y0.8743
N12790 X2.312 Y0.8822
N12795 X2.3128 Y0.8836
N12800 X2.3163 Y0.8902
N12805 X2.3201 Y0.8982
N12810 X2.3208 Y0.8995
N12815 X2.3237 Y0.9061
N12820 X2.3269 Y0.9141
N12825 X2.3287 Y0.9192
N12830 X2.3297 Y0.9221
N12835 X2.3323 Y0.9301
N12840 X2.3346 Y0.938
N12845 X2.3365 Y0.946
N12850 X2.3367 Y0.9466
N12855 X2.3383 Y0.954
N12860 X2.3397 Y0.9619
N12865 X2.3408 Y0.9699
N12870 X2.3417 Y0.9779
N12875 X2.3423 Y0.9859
N12880 X2.3427 Y0.9938
N12885 X2.3428 Y1.0018
N12890 Y1.0895
N12895 Y1.0975
N12900 Y1.496
N12905 Y1.5279
N12910 Y1.9025
N12915 Y1.9105
N12920 Y1.9982
N12925 X2.3427 Y2.0062
N12930 X2.3423 Y2.0141
N12935 X2.3417 Y2.0221
N12940 X2.3408 Y2.0301
N12945 X2.3397 Y2.0381
N12950 X2.3383 Y2.046
N12955 X2.3367 Y2.0534
N12960 X2.3365 Y2.054
N12965 X2.3346 Y2.062
N12970 X2.3323 Y2.0699
N12975 X2.3297 Y2.0779
N12980 X2.3287 Y2.0808
N12985 X2.3269 Y2.0859
N12990 X2.3237 Y2.0939
N12995 X2.3208 Y2.1005
N13000 X2.3201 Y2.1018
N13005 X2.3163 Y2.1098
N13010 X2.3128 Y2.1164
N13015 X2.312 Y2.1178
N13020 X2.3074 Y2.1257
N13025 X2.3048 Y2.1299
N13030 X2.3024 Y2.1337
N13035 X2.2969 Y2.1417
N13040 X2.2968
N13045 X2.2909 Y2.1496
N13050 X2.2889 Y2.1522
N13055 X2.2844 Y2.1576
N13060 X2.2809 Y2.1616
N13065 X2.2773 Y2.1656
N13070 X2.2729 Y2.1701
N13075 X2.2695 Y2.1736
N13080 X2.265 Y2.1779
N13085 X2.261 Y2.1815
N13090 X2.257 Y2.185
N13095 X2.2515 Y2.1895
N13100 X2.249 Y2.1915
N13105 X2.2411 Y2.1975
N13110 X2.241
N13115 X2.2331 Y2.203
N13120 X2.2293 Y2.2054
N13125 X2.2251 Y2.208
N13130 X2.2171 Y2.2127
N13135 X2.2157 Y2.2134
N13140 X2.2092 Y2.2169
N13145 X2.2012 Y2.2208
N13150 X2.1998 Y2.2214
N13155 X2.1932 Y2.2243
N13160 X2.1852 Y2.2275
N13165 X2.1802 Y2.2294
N13170 X2.1773 Y2.2304
N13175 X2.1693 Y2.2329
N13180 X2.1613 Y2.2352
N13185 X2.1534 Y2.2372
N13190 X2.1527 Y2.2373
N13195 X2.1454 Y2.2389
N13200 X2.1374 Y2.2403
N13205 X2.1294 Y2.2415
N13210 X2.1215 Y2.2424
N13215 X2.1135 Y2.243
N13220 X2.1055 Y2.2433
N13225 X2.0976 Y2.2435
N13230 X2.0099
N13235 X2.0019
N13240 X1.6034
N13245 X1.5715
N13250 X1.1968
N13255 X1.1889
N13260 X1.1012
N13265 X1.0932 Y2.2433
N13270 X1.0852 Y2.243
N13275 X1.0773 Y2.2424
N13280 X1.0693 Y2.2415
N13285 X1.0613 Y2.2403
N13290 X1.0533 Y2.2389
N13295 X1.046 Y2.2373
N13300 X1.0454 Y2.2372
N13305 X1.0374 Y2.2352
N13310 X1.0294 Y2.2329
N13315 X1.0215 Y2.2304
N13320 X1.0186 Y2.2294
N13325 X1.0135 Y2.2275
N13330 X1.0055 Y2.2243
N13335 X0.9989 Y2.2214
N13340 X0.9975 Y2.2208
N13345 X0.9896 Y2.2169
N13350 X0.983 Y2.2134
N13355 X0.9816 Y2.2127
N13360 X0.9736 Y2.208
N13365 X0.9694 Y2.2054
N13370 X0.9657 Y2.203
N13375 X0.9577 Y2.1975
N13380 X0.9497 Y2.1915
N13385 X0.9472 Y2.1895
N13390 X0.9417 Y2.185
N13395 X0.9378 Y2.1815
N13400 X0.9338 Y2.1779
N13405 X0.9292 Y2.1736
N13410 X0.9258 Y2.1701
N13415 X0.9215 Y2.1656
N13420 X0.9178 Y2.1616
N13425 X0.9144 Y2.1576
N13430 X0.9099 Y2.1522
N13435 X0.9078 Y2.1496
N13440 X0.9019 Y2.1417
N13445 X0.8964 Y2.1337
N13450 X0.8939 Y2.1299
N13455 X0.8913 Y2.1257
N13460 X0.8867 Y2.1178
N13465 X0.8859 Y2.1164
N13470 X0.8825 Y2.1098
N13475 X0.8786 Y2.1018
N13480 X0.878 Y2.1005
N13485 X0.8751 Y2.0939
N13490 X0.8719 Y2.0859
N13495 X0.87 Y2.0808
N13500 X0.869 Y2.0779
N13505 X0.8664 Y2.0699
N13510 X0.8642 Y2.062
N13515 X0.8622 Y2.054
N13520 X0.862 Y2.0534
N13525 X0.8605 Y2.046
N13530 X0.8591 Y2.0381
N13535 X0.8579 Y2.0301
N13540 X0.857 Y2.0221
N13545 X0.8564 Y2.0141
N13550 X0.856 Y2.0062
N13555 X0.8559 Y1.9982
N13560 Y1.9105
N13565 Y1.9025
N13570 Y1.504
N13575 Y1.4721
N13580 Y1.0975
N13585 Y1.0895
N13590 Y1.0018
N13595 X0.856 Y0.9938
N13600 X0.8564 Y0.9859
N13605 X0.857 Y0.9779
N13610 X0.8577 Y0.9713
N13615 X0.8579 Y0.9699
N13620 X0.8591 Y0.9619
N13625 X0.8605 Y0.954
N13630 X0.862 Y0.9466
N13635 X0.8622 Y0.946
N13640 X0.8642 Y0.938
N13645 X0.8664 Y0.9301
N13650 X0.869 Y0.9221
N13655 X0.87 Y0.9192
N13660 X0.8719 Y0.9141
N13665 X0.8751 Y0.9061
N13670 X0.878 Y0.8995
N13675 X0.8786 Y0.8982
N13680 X0.8825 Y0.8902
N13685 X0.8859 Y0.8836
N13690 X0.8867 Y0.8822
N13695 X0.8913 Y0.8743
N13700 X0.8939 Y0.8701
N13705 X0.8964 Y0.8663
N13710 X0.9019 Y0.8583
N13715 X0.9078 Y0.8504
N13720 X0.9099 Y0.8478
N13725 X0.9144 Y0.8424
N13730 X0.9178 Y0.8384
N13735 X0.9215 Y0.8344
N13740 X0.9258 Y0.8299
N13745 X0.9292 Y0.8264
N13750 X0.9338 Y0.8221
N13755 X0.9378 Y0.8185
N13760 X0.9417 Y0.815
N13765 X0.9472 Y0.8105
N13770 X0.9497 Y0.8085
N13775 X0.9577 Y0.8025
N13780 X0.9657 Y0.797
N13785 X0.9694 Y0.7946
N13790 X0.9736 Y0.792
N13795 X0.9816 Y0.7873
N13800 X0.983 Y0.7866
N13805 X0.9896 Y0.7831
N13810 X0.9975 Y0.7792
N13815 X0.9989 Y0.7786
N13820 X1.0055 Y0.7757
N13825 X1.0135 Y0.7725
N13830 X1.0186 Y0.7706
N13835 X1.0215 Y0.7696
N13840 X1.0294 Y0.7671
N13845 X1.0374 Y0.7648
N13850 X1.0454 Y0.7628
N13855 X1.046 Y0.7627
N13860 X1.0533 Y0.7611
N13865 X1.0613 Y0.7597
N13870 X1.0693 Y0.7585
N13875 X1.0773 Y0.7576
N13880 X1.0852 Y0.757
N13885 X1.0932 Y0.7567
N13890 X1.1012 Y0.7565
N13895 X1.1889
N13900 X1.1968
N13905 X1.5954
N13910 X1.6273
N13915 X2.0019
N13920 X2.0099
N13925 X2.0976
N13930 X2.1055 Y0.7567
N13935 X2.1135 Y0.757
N13940 X2.1215 Y0.7576
N13945 X2.1294 Y0.7585
N13950 X2.1374 Y0.7597
N13955 X2.1454 Y0.7611
N13960 X2.1527 Y0.7627
N13965 X2.1534 Y0.7628
N13970 X2.1613 Y0.7648
N13975 X2.1693 Y0.7671
N13980 X2.1773 Y0.7696
N13985 X2.1802 Y0.7706
N13990 X2.1852 Y0.7725
N13995 X2.1932 Y0.7757
N14000 X2.1998 Y0.7786
N14005 X2.2008 Y0.7791
N14010 X2.2079 Y0.7825
N14015 X2.2149 Y0.7861
N14020 X2.2216 Y0.7899
N14025 X2.2282 Y0.7939 Z-0.2201
N14030 X2.2349 Y0.7983
N14035 X2.2414 Y0.8029
N14040 X2.2476 Y0.8075 Z-0.2202
N14045 X2.2536 Y0.8123
N14050 X2.2594 Y0.8173 Z-0.2203
N14055 X2.2651 Y0.8225 Z-0.2204
N14060 X2.271 Y0.8283
N14065 X2.2768 Y0.8344 Z-0.2205
N14070 X2.2819 Y0.8401 Z-0.2206
N14075 X2.2868 Y0.8459 Z-0.2207
N14080 X2.2916 Y0.852 Z-0.2208
N14085 X2.2961 Y0.8583 Z-0.2209
N14090 X2.3007 Y0.8648 Z-0.221
N14095 X2.3049 Y0.8715 Z-0.2212
N14100 X2.3088 Y0.8781 Z-0.2213
N14105 X2.3125 Y0.8849 Z-0.2214
N14110 X2.3161 Y0.8919 Z-0.2215
N14115 X2.3194 Y0.899 Z-0.2217
N14120 X2.3226 Y0.9064 Z-0.2218
N14125 X2.3256 Y0.914 Z-0.222
N14130 X2.3281 Y0.9211 Z-0.2222
N14135 X2.3303 Y0.9283 Z-0.2223
N14140 X2.3325 Y0.9359 Z-0.2225
N14145 X2.3344 Y0.9436 Z-0.2227
N14150 X2.336 Y0.9514 Z-0.2228
N14155 X2.3374 Y0.9592 Z-0.223
N14160 X2.3385 Y0.9666 Z-0.2232
N14165 X2.3393 Y0.974 Z-0.2234
N14170 X2.3397 Y0.9779 Z-0.2235
N14175 X2.3399 Y0.9818 Z-0.2236
N14180 X2.3402 Y0.9858 Z-0.2237
N14185 X2.3403 Y0.9897 Z-0.2238
N14190 X2.3404 Y0.9935 Z-0.2239
N14195 Y0.9974 Z-0.224
N14200 Y1.0012 Z-0.2241
N14205 X2.3403 Y1.005 Z-0.2242
N14210 X2.3402 Y1.012 Z-0.2244
N14215 X2.3401 Y1.0155 Z-0.2245
N14220 Y1.019 Z-0.2246
N14225 X2.34 Y1.0225 Z-0.2247
N14230 X2.3399 Y1.026 Z-0.2248
N14235 Y1.0295 Z-0.2249
N14240 X2.3398 Y1.033 Z-0.225
N14245 X2.3397 Y1.0365 Z-0.2251
N14250 Y1.04 Z-0.2252
N14255 X2.3396 Y1.0435 Z-0.2253
N14260 X2.3395 Y1.047 Z-0.2255
N14265 Y1.0505 Z-0.2256
N14270 X2.3394 Y1.054 Z-0.2257
N14275 X2.3393 Y1.0575 Z-0.2258
N14280 Y1.061 Z-0.2259
N14285 X2.3392 Y1.0645 Z-0.226
N14290 X2.3391 Y1.068 Z-0.2261
N14295 Y1.0715 Z-0.2262
N14300 X2.339 Y1.075 Z-0.2263
N14305 X2.3389 Y1.0785 Z-0.2265
N14310 Y1.082 Z-0.2266
N14315 X2.3388 Y1.0855 Z-0.2267
N14320 X2.3387 Y1.089 Z-0.2268
N14325 X2.3386 Y1.0925 Z-0.2269
N14330 Y1.096 Z-0.227
N14335 X2.3385 Y1.0995 Z-0.2272
N14340 X2.3384 Y1.103 Z-0.2273
N14345 X2.3383 Y1.1065 Z-0.2274
N14350 Y1.11 Z-0.2275
N14355 X2.3382 Y1.1135 Z-0.2276
N14360 X2.3381 Y1.117 Z-0.2278
N14365 X2.338 Y1.1205 Z-0.2279
N14370 Y1.124 Z-0.228
N14375 X2.3379 Y1.1275 Z-0.2281
N14380 X2.3378 Y1.131 Z-0.2283
N14385 X2.3377 Y1.1345 Z-0.2284
N14390 Y1.138 Z-0.2285
N14395 X2.3376 Y1.1415 Z-0.2286
N14400 X2.3375 Y1.145 Z-0.2287
N14405 X2.3374 Y1.1485 Z-0.2289
N14410 Y1.152 Z-0.229
N14415 X2.3373 Y1.1555 Z-0.2291
N14420 X2.3372 Y1.159 Z-0.2292
N14425 X2.3371 Y1.166 Z-0.2295
N14430 X2.3368 Y1.1765 Z-0.2298
N14435 X2.3367 Y1.1835 Z-0.2301
N14440 X2.3366 Y1.187 Z-0.2302
N14445 X2.3365 Y1.194 Z-0.2305
N14450 X2.3362 Y1.2045 Z-0.2308
N14455 X2.3361 Y1.2115 Z-0.2311
N14460 X2.336 Y1.215 Z-0.2312
N14465 X2.3359 Y1.222 Z-0.2314
N14470 X2.3356 Y1.2325 Z-0.2318
N14475 X2.3355 Y1.2395 Z-0.232
N14480 X2.3354 Y1.243 Z-0.2322
N14485 X2.3353 Y1.25 Z-0.2324
N14490 X2.335 Y1.2605 Z-0.2328
N14495 X2.3349 Y1.2675 Z-0.233
N14500 X2.3348 Y1.271 Z-0.2331
N14505 X2.3347 Y1.278 Z-0.2334
N14510 X2.3345 Y1.285 Z-0.2336
N14515 X2.3344 Y1.2885 Z-0.2338
N14520 X2.3343 Y1.2955 Z-0.234
N14525 X2.3342 Y1.299 Z-0.2341
N14530 X2.334 Y1.306 Z-0.2344
N14535 X2.3335 Y1.327 Z-0.2351
N14540 X2.3333 Y1.3375 Z-0.2355
N14545 X2.3331 Y1.3445 Z-0.2357
N14550 X2.3326 Y1.3655 Z-0.2364
N14555 X2.3325 Y1.3725 Z-0.2367
N14560 X2.332 Y1.3935 Z-0.2374
N14565 X2.3318 Y1.404 Z-0.2378
N14570 X2.3305 Y1.4565 Z-0.2396
N14575 X2.3295 Y1.502 Z-0.2412
N14580 X2.3289 Y1.5265 Z-0.2421
N14585 Y1.53 Z-0.2422
N14590 X2.3282 Y1.558 Z-0.2432
N14595 X2.3279 Y1.5685 Z-0.2435
N14600 X2.3274 Y1.5895 Z-0.2443
N14605 X2.3273 Y1.5965 Z-0.2445
N14610 X2.3271 Y1.6035 Z-0.2448
N14615 X2.327 Y1.607 Z-0.2449
N14620 X2.3268 Y1.614 Z-0.2451
N14625 X2.3263 Y1.635 Z-0.2459
N14630 X2.3262 Y1.642 Z-0.2461
N14635 X2.3256 Y1.663 Z-0.2468
N14640 X2.3255 Y1.67 Z-0.2471
N14645 X2.3252 Y1.6805 Z-0.2475
N14650 X2.325 Y1.6875 Z-0.2477
N14655 Y1.691 Z-0.2478
N14660 X2.3248 Y1.698 Z-0.2481
N14665 X2.3245 Y1.7085 Z-0.2484
N14670 X2.3244 Y1.7155 Z-0.2487
N14675 X2.3243 Y1.719 Z-0.2488
N14680 X2.3241 Y1.726 Z-0.249
N14685 X2.3239 Y1.7365 Z-0.2494
N14690 X2.3237 Y1.7435 Z-0.2497
N14695 X2.3236 Y1.747 Z-0.2498
N14700 X2.3234 Y1.754 Z-0.25
N14705 X2.3233 Y1.7575 Z-0.2501
N14710 Y1.761 Z-0.2503
N14715 X2.3231 Y1.768 Z-0.2505
N14720 X2.323 Y1.7715 Z-0.2506
N14725 X2.3229 Y1.775 Z-0.2508
N14730 X2.3228 Y1.7785 Z-0.2509
N14735 X2.3227 Y1.782 Z-0.251
N14740 X2.3226 Y1.7855 Z-0.2511
N14745 X2.3225 Y1.789 Z-0.2512
N14750 Y1.7925 Z-0.2514
N14755 X2.3224 Y1.796 Z-0.2515
N14760 X2.3223 Y1.7995 Z-0.2516
N14765 X2.3222 Y1.803 Z-0.2517
N14770 X2.3221 Y1.8065 Z-0.2519
N14775 X2.322 Y1.81 Z-0.252
N14780 X2.3219 Y1.8135 Z-0.2521
N14785 X2.3218 Y1.817 Z-0.2522
N14790 X2.3217 Y1.8205 Z-0.2523
N14795 Y1.824 Z-0.2525
N14800 X2.3216 Y1.8275 Z-0.2526
N14805 X2.3215 Y1.831 Z-0.2527
N14810 X2.3214 Y1.8345 Z-0.2528
N14815 X2.3213 Y1.838 Z-0.2529
N14820 X2.3212 Y1.8415 Z-0.2531
N14825 X2.3211 Y1.845 Z-0.2532
N14830 X2.321 Y1.8485 Z-0.2533
N14835 Y1.852 Z-0.2534
N14840 X2.3209 Y1.8555 Z-0.2535
N14845 X2.3208 Y1.859 Z-0.2536
N14850 X2.3207 Y1.8625 Z-0.2538
N14855 X2.3206 Y1.866 Z-0.2539
N14860 X2.3205 Y1.8695 Z-0.254
N14865 Y1.873 Z-0.2541
N14870 X2.3204 Y1.8765 Z-0.2542
N14875 X2.3203 Y1.88 Z-0.2543
N14880 X2.3202 Y1.8835 Z-0.2544
N14885 X2.3201 Y1.887 Z-0.2545
N14890 Y1.8905 Z-0.2546
N14895 X2.32 Y1.894 Z-0.2547
N14900 X2.3199 Y1.8975 Z-0.2549
N14905 X2.3198 Y1.901 Z-0.255
N14910 Y1.9045 Z-0.2551
N14915 X2.3197 Y1.908 Z-0.2552
N14920 X2.3196 Y1.9115 Z-0.2553
N14925 X2.3195 Y1.915 Z-0.2554
N14930 Y1.9185 Z-0.2555
N14935 X2.3194 Y1.922 Z-0.2556
N14940 X2.3192 Y1.929 Z-0.2558
N14945 X2.3191 Y1.936 Z-0.256
N14950 X2.319 Y1.943 Z-0.2562
N14955 X2.3188 Y1.95 Z-0.2563
N14960 X2.3187 Y1.957 Z-0.2565
N14965 X2.3186 Y1.964 Z-0.2567
N14970 X2.3184 Y1.971 Z-0.2569
N14975 X2.3183 Y1.978 Z-0.257
N14980 X2.3182 Y1.985 Z-0.2572
N14985 X2.3181 Y1.992 Z-0.2574
N14990 X2.3179 Y1.999 Z-0.2575
N14995 X2.3177 Y2.006 Z-0.2577
N15000 X2.3173 Y2.013 Z-0.2578
N15005 X2.3166 Y2.0201 Z-0.258
N15010 X2.3157 Y2.0271 Z-0.2581
N15015 X2.3146 Y2.034 Z-0.2583
N15020 X2.3133 Y2.0409 Z-0.2584
N15025 X2.3117 Y2.0478 Z-0.2585
N15030 X2.31 Y2.0546 Z-0.2586
N15035 X2.308 Y2.0614 Z-0.2588
N15040 X2.3058 Y2.068 Z-0.2589
N15045 X2.3034 Y2.0746 Z-0.259
N15050 X2.3008 Y2.0812 Z-0.2591
N15055 X2.295 Y2.0939 Z-0.2593
N15060 X2.2884 Y2.1063 Z-0.2594
N15065 X2.281 Y2.1182 Z-0.2596
N15070 X2.2729 Y2.1297 Z-0.2597
N15075 X2.264 Y2.1406 Z-0.2598
N15080 X2.2546 Y2.1509 Z-0.2599
N15085 X2.2445 Y2.1606 Z-0.26
N15090 X2.2338 Y2.1696
N15095 X2.2243 Y2.1766
N15100 X2.2171 Y2.1815
N15105 X2.2092 Y2.1865
N15110 X2.2039 Y2.1895
N15115 X2.2012 Y2.191
N15120 X2.1932 Y2.195
N15125 X2.188 Y2.1975
N15130 X2.1852 Y2.1987
N15135 X2.1773 Y2.202
N15140 X2.1693 Y2.2049
N15145 X2.1677 Y2.2054
N15150 X2.1613 Y2.2075
N15155 X2.1534 Y2.2097
N15160 X2.1454 Y2.2116
N15165 X2.1374 Y2.2132
N15170 X2.1365 Y2.2134
N15175 X2.1294 Y2.2145
N15180 X2.1215 Y2.2155
N15185 X2.1135 Y2.2162
N15190 X2.1055 Y2.2167
N15195 X2.0976 Y2.2168
N15200 X2.0577
N15205 X2.0497
N15210 X1.6034
N15215 X1.5794
N15220 X1.149
N15225 X1.141
N15230 X1.1012
N15235 X1.0932 Y2.2167
N15240 X1.0852 Y2.2162
N15245 X1.0773 Y2.2155
N15250 X1.0693 Y2.2145
N15255 X1.0623 Y2.2134
N15260 X1.0613 Y2.2132
N15265 X1.0533 Y2.2116
N15270 X1.0454 Y2.2097
N15275 X1.0374 Y2.2075
N15280 X1.031 Y2.2054
N15285 X1.0294 Y2.2049
N15290 X1.0215 Y2.202
N15295 X1.0135 Y2.1987
N15300 X1.0107 Y2.1975
N15305 X1.0055 Y2.195
N15310 X0.9975 Y2.191
N15315 X0.9949 Y2.1895
N15320 X0.9896 Y2.1865
N15325 X0.9816 Y2.1815
N15330 X0.9736 Y2.1761
N15335 X0.9702 Y2.1736
N15340 X0.9657 Y2.1701
N15345 X0.9601 Y2.1656
N15350 X0.9577 Y2.1635
N15355 X0.9512 Y2.1576
N15360 X0.9497 Y2.1563
N15365 X0.9431 Y2.1496
N15370 X0.9417 Y2.1482
N15375 X0.9358 Y2.1417
N15380 X0.9338 Y2.1392
N15385 X0.9293 Y2.1337
N15390 X0.9258 Y2.1292
N15395 X0.9233 Y2.1257
N15400 X0.9178 Y2.1178
N15405 X0.9129 Y2.1098
N15410 X0.9099 Y2.1045
N15415 X0.9084 Y2.1018
N15420 X0.9043 Y2.0939
N15425 X0.9019 Y2.0886
N15430 X0.9007 Y2.0859
N15435 X0.8974 Y2.0779
N15440 X0.8945 Y2.0699
N15445 X0.8939 Y2.0683
N15450 X0.8919 Y2.062
N15455 X0.8897 Y2.054
N15460 X0.8877 Y2.046
N15465 X0.8861 Y2.0381
N15470 X0.8859 Y2.0371
N15475 X0.8848 Y2.0301
N15480 X0.8838 Y2.0221
N15485 X0.8831 Y2.0141
N15490 X0.8827 Y2.0062
N15495 X0.8826 Y1.9982
N15500 Y1.9583
N15505 Y1.9504
N15510 Y1.504
N15515 Y1.4801
N15520 Y1.0496
N15525 Y1.0417
N15530 Y1.0018
N15535 X0.8827 Y0.9938
N15540 X0.8831 Y0.9859
N15545 X0.8838 Y0.9779
N15550 X0.8848 Y0.9699
N15555 X0.8859 Y0.9629
N15560 X0.8861 Y0.9619
N15565 X0.8877 Y0.954
N15570 X0.8897 Y0.946
N15575 X0.8919 Y0.938
N15580 X0.8939 Y0.9317
N15585 X0.8945 Y0.9301
N15590 X0.8974 Y0.9221
N15595 X0.9007 Y0.9141
N15600 X0.9019 Y0.9114
N15605 X0.9043 Y0.9061
N15610 X0.9084 Y0.8982
N15615 X0.9099 Y0.8955
N15620 X0.9129 Y0.8902
N15625 X0.9178 Y0.8822
N15630 X0.9233 Y0.8743
N15635 X0.9258 Y0.8708
N15640 X0.9293 Y0.8663
N15645 X0.9338 Y0.8608
N15650 X0.9358 Y0.8583
N15655 X0.9417 Y0.8518
N15660 X0.9431 Y0.8504
N15665 X0.9497 Y0.8437
N15670 X0.9512 Y0.8424
N15675 X0.9577 Y0.8365
N15680 X0.9601 Y0.8344
N15685 X0.9657 Y0.8299
N15690 X0.9702 Y0.8264
N15695 X0.9736 Y0.8239
N15700 X0.9816 Y0.8185
N15705 X0.9896 Y0.8135
N15710 X0.9949 Y0.8105
N15715 X0.9975 Y0.809
N15720 X1.0055 Y0.805
N15725 X1.0107 Y0.8025
N15730 X1.0135 Y0.8013
N15735 X1.0215 Y0.798
N15740 X1.0294 Y0.7951
N15745 X1.031 Y0.7946
N15750 X1.0374 Y0.7925
N15755 X1.0454 Y0.7903
N15760 X1.0533 Y0.7884
N15765 X1.0613 Y0.7868
N15770 X1.0623 Y0.7866
N15775 X1.0693 Y0.7855
N15780 X1.0773 Y0.7845
N15785 X1.0852 Y0.7838
N15790 X1.0932 Y0.7833
N15795 X1.1012 Y0.7832
N15800 X1.141
N15805 X1.149
N15810 X1.5954
N15815 X1.6193
N15820 X2.0497
N15825 X2.0577
N15830 X2.0976
N15835 X2.1055 Y0.7833
N15840 X2.1135 Y0.7838
N15845 X2.1215 Y0.7845
N15850 X2.1294 Y0.7855
N15855 X2.1365 Y0.7866
N15860 X2.1374 Y0.7868
N15865 X2.1454 Y0.7884
N15870 X2.1534 Y0.7903
N15875 X2.1613 Y0.7925
N15880 X2.1677 Y0.7946
N15885 X2.1693 Y0.7951
N15890 X2.1773 Y0.798
N15895 X2.1852 Y0.8013
N15900 X2.188 Y0.8025
N15905 X2.1932 Y0.805
N15910 X2.2012 Y0.809
N15915 X2.2039 Y0.8105
N15920 X2.2092 Y0.8135
N15925 X2.2171 Y0.8185
N15930 X2.2251 Y0.8239
N15935 X2.2286 Y0.8264
N15940 X2.2331 Y0.8299
N15945 X2.2386 Y0.8344
N15950 X2.241 Y0.8365
N15955 X2.2476 Y0.8424
N15960 X2.249 Y0.8437
N15965 X2.2556 Y0.8504
N15970 X2.257 Y0.8518
N15975 X2.2629 Y0.8583
N15980 X2.265 Y0.8607
N15985 X2.2695 Y0.8663
N15990 X2.2729 Y0.8708
N15995 X2.2755 Y0.8743
N16000 X2.2809 Y0.8822
N16005 X2.2858 Y0.8902
N16010 X2.2889 Y0.8955
N16015 X2.2903 Y0.8982
N16020 X2.2944 Y0.9061
N16025 X2.2968 Y0.9114
N16030 X2.2981 Y0.9141
N16035 X2.3013 Y0.9221
N16040 X2.3043 Y0.9301
N16045 X2.3048 Y0.9317
N16050 X2.3068 Y0.938
N16055 X2.3091 Y0.946
N16060 X2.311 Y0.954
N16065 X2.3126 Y0.9619
N16070 X2.3128 Y0.9629
N16075 X2.3139 Y0.9699
N16080 X2.3149 Y0.9779
N16085 X2.3156 Y0.9859
N16090 X2.316 Y0.9938
N16095 X2.3162 Y1.0018
N16100 Y1.0417
N16105 Y1.0496
N16110 Y1.496
N16115 Y1.5199
N16120 Y1.9504
N16125 Y1.9583
N16130 Y1.9982
N16135 X2.316 Y2.0062
N16140 X2.3156 Y2.0141
N16145 X2.3149 Y2.0221
N16150 X2.3139 Y2.0301
N16155 X2.3128 Y2.0371
N16160 X2.3126 Y2.0381
N16165 X2.311 Y2.046
N16170 X2.3091 Y2.054
N16175 X2.3068 Y2.062
N16180 X2.3048 Y2.0683
N16185 X2.3043 Y2.0699
N16190 X2.3013 Y2.0779
N16195 X2.2981 Y2.0859
N16200 X2.2968 Y2.0886
N16205 X2.2944 Y2.0939
N16210 X2.2903 Y2.1018
N16215 X2.2889 Y2.1045
N16220 X2.2858 Y2.1098
N16225 X2.2809 Y2.1178
N16230 X2.2755 Y2.1257
N16235 X2.2729 Y2.1292
N16240 X2.2695 Y2.1337
N16245 X2.265 Y2.1393
N16250 X2.2629 Y2.1417
N16255 X2.257 Y2.1482
N16260 X2.2556 Y2.1496
N16265 X2.249 Y2.1563
N16270 X2.2476 Y2.1576
N16275 X2.241 Y2.1635
N16280 X2.2386 Y2.1656
N16285 X2.2331 Y2.1701
N16290 X2.2286 Y2.1736
N16295 X2.2251 Y2.1761
N16300 X2.2243 Y2.1766
N16305 X2.2178 Y2.1811
N16310 X2.2112 Y2.1853
N16315 X2.2037 Y2.1896
N16320 X2.1961 Y2.1936 Z-0.2601
N16325 X2.1883 Y2.1973
N16330 X2.1804 Y2.2006 Z-0.2602
N16335 X2.173 Y2.2034
N16340 X2.1655 Y2.2059 Z-0.2603
N16345 X2.1575 Y2.2083
N16350 X2.1495 Y2.2104 Z-0.2604
N16355 X2.1414 Y2.2121 Z-0.2605
N16360 X2.1333 Y2.2135 Z-0.2606
N16365 X2.1254 Y2.2146 Z-0.2607
N16370 X2.1175 Y2.2153 Z-0.2608
N16375 X2.1091 Y2.2158 Z-0.2609
N16380 X2.1008 Y2.216 Z-0.261
N16385 X2.0935 Z-0.2611
N16390 X2.0862 Y2.2159 Z-0.2612
N16395 X2.0792 Y2.2158 Z-0.2613
N16400 X2.0722 Y2.2157 Z-0.2615
N16405 X2.0652 Y2.2156 Z-0.2616
N16410 X2.0582 Y2.2155 Z-0.2617
N16415 X2.0512 Y2.2154 Z-0.2619
N16420 X2.0442 Y2.2153 Z-0.262
N16425 X2.0372 Y2.2152 Z-0.2621
N16430 X2.0302 Y2.2151 Z-0.2623
N16435 X2.0232 Y2.2149 Z-0.2624
N16440 X2.0162 Y2.2148 Z-0.2626
N16445 X2.0092 Y2.2147 Z-0.2628
N16450 X2.0022 Y2.2146 Z-0.2629
N16455 X1.9952 Y2.2144 Z-0.2631
N16460 X1.9882 Y2.2143 Z-0.2633
N16465 X1.9812 Y2.2142 Z-0.2635
N16470 X1.9742 Y2.214 Z-0.2636
N16475 X1.9672 Y2.2139 Z-0.2638
N16480 X1.9602 Y2.2137 Z-0.264
N16485 X1.9532 Y2.2136 Z-0.2642
N16490 X1.9462 Y2.2134 Z-0.2644
N16495 X1.9427 Z-0.2645
N16500 X1.9392 Y2.2133 Z-0.2646
N16505 X1.9357 Y2.2132 Z-0.2647
N16510 X1.9322 Y2.2131 Z-0.2648
N16515 X1.9287 Y2.213 Z-0.2649
N16520 X1.9252 Z-0.265
N16525 X1.9217 Y2.2129 Z-0.2651
N16530 X1.9182 Y2.2128 Z-0.2652
N16535 X1.9147 Y2.2127 Z-0.2653
N16540 X1.9112 Y2.2126 Z-0.2654
N16545 X1.9077 Z-0.2655
N16550 X1.9042 Y2.2125 Z-0.2656
N16555 X1.9007 Y2.2124 Z-0.2658
N16560 X1.8972 Y2.2123 Z-0.2659
N16565 X1.8937 Y2.2122 Z-0.266
N16570 X1.8902 Y2.2121 Z-0.2661
N16575 X1.8867 Y2.212 Z-0.2662
N16580 X1.8832 Z-0.2663
N16585 X1.8797 Y2.2119 Z-0.2664
N16590 X1.8762 Y2.2118 Z-0.2665
N16595 X1.8727 Y2.2117 Z-0.2667
N16600 X1.8692 Y2.2116 Z-0.2668
N16605 X1.8657 Y2.2115 Z-0.2669
N16610 X1.8622 Y2.2114 Z-0.267
N16615 X1.8587 Y2.2113 Z-0.2671
N16620 X1.8552 Y2.2112 Z-0.2673
N16625 X1.8517 Y2.2111 Z-0.2674
N16630 X1.8447 Y2.211 Z-0.2676
N16635 X1.8412 Y2.2109 Z-0.2677
N16640 X1.8377 Y2.2108 Z-0.2679
N16645 X1.8342 Y2.2107 Z-0.268
N16650 X1.8307 Y2.2106 Z-0.2681
N16655 X1.8272 Y2.2105 Z-0.2682
N16660 X1.8237 Y2.2104 Z-0.2684
N16665 X1.8202 Y2.2103 Z-0.2685
N16670 X1.8167 Y2.2102 Z-0.2686
N16675 X1.8132 Y2.2101 Z-0.2687
N16680 X1.8097 Y2.21 Z-0.2688
N16685 X1.8062 Y2.2099 Z-0.269
N16690 X1.8027 Y2.2098 Z-0.2691
N16695 X1.7992 Y2.2097 Z-0.2692
N16700 X1.7957 Y2.2096 Z-0.2693
N16705 X1.7922 Y2.2095 Z-0.2695
N16710 X1.7887 Y2.2094 Z-0.2696
N16715 X1.7817 Y2.2093 Z-0.2698
N16720 X1.7782 Y2.2092 Z-0.2699
N16725 X1.7712 Y2.209 Z-0.2702
N16730 X1.7607 Y2.2087 Z-0.2706
N16735 X1.7537 Y2.2085 Z-0.2708
N16740 X1.7502 Y2.2084 Z-0.2709
N16745 X1.7432 Y2.2082 Z-0.2712
N16750 X1.7327 Y2.2079 Z-0.2715
N16755 X1.7292 Y2.2078 Z-0.2717
N16760 X1.7257 Y2.2077 Z-0.2718
N16765 X1.7222 Y2.2076 Z-0.2719
N16770 X1.7152 Y2.2074 Z-0.2721
N16775 X1.7047 Y2.2071 Z-0.2725
N16780 X1.6977 Y2.2069 Z-0.2728
N16785 X1.6942 Y2.2068 Z-0.2729
N16790 X1.6872 Y2.2066 Z-0.2731
N16795 X1.6767 Y2.2063 Z-0.2735
N16800 X1.6697 Y2.2061 Z-0.2737
N16805 X1.6662 Y2.206 Z-0.2739
N16810 X1.6592 Y2.2059 Z-0.2741
N16815 X1.6382 Y2.2053 Z-0.2748
N16820 X1.6312 Y2.2051 Z-0.2751
N16825 X1.6102 Y2.2045 Z-0.2758
N16830 X1.5997 Y2.2042 Z-0.2762
N16835 X1.5927 Y2.204 Z-0.2764
N16840 X1.5717 Y2.2034 Z-0.2772
N16845 X1.5647 Y2.2032 Z-0.2774
N16850 X1.5297 Y2.2022 Z-0.2786
N16855 X1.5157 Y2.2018 Z-0.2791
N16860 X1.4807 Y2.2008 Z-0.2803
N16865 X1.4387 Y2.1996 Z-0.2818
N16870 X1.4037 Y2.1985 Z-0.283
N16875 X1.3967 Y2.1983 Z-0.2833
N16880 X1.3757 Y2.1977 Z-0.284
N16885 X1.3687 Y2.1975 Z-0.2843
N16890 X1.3617 Y2.1973 Z-0.2845
N16895 X1.3582 Y2.1972 Z-0.2846
N16900 X1.3512 Y2.197 Z-0.2849
N16905 X1.3302 Y2.1964 Z-0.2856
N16910 X1.3232 Y2.1962 Z-0.2858
N16915 X1.3127 Y2.1958 Z-0.2862
N16920 X1.3057 Y2.1956 Z-0.2865
N16925 X1.3022 Y2.1955 Z-0.2866
N16930 X1.2987 Y2.1954 Z-0.2867
N16935 X1.2917 Y2.1952 Z-0.2869
N16940 X1.2882 Y2.1951 Z-0.2871
N16945 X1.2812 Y2.1949 Z-0.2873
N16950 X1.2707 Y2.1946 Z-0.2877
N16955 X1.2637 Y2.1944 Z-0.2879
N16960 X1.2602 Y2.1943 Z-0.288
N16965 X1.2532 Y2.194 Z-0.2883
N16970 X1.2427 Y2.1937 Z-0.2887
N16975 X1.2357 Y2.1935 Z-0.2889
N16980 X1.2322 Y2.1934 Z-0.289
N16985 X1.2252 Y2.1932 Z-0.2893
N16990 X1.2147 Y2.1929 Z-0.2896
N16995 X1.2077 Y2.1927 Z-0.2899
N17000 X1.2042 Y2.1925 Z-0.29
N17005 X1.2007 Y2.1924 Z-0.2901
N17010 X1.1972 Y2.1923 Z-0.2902
N17015 X1.1937 Y2.1922 Z-0.2904
N17020 X1.1902 Y2.1921 Z-0.2905
N17025 X1.1867 Y2.192 Z-0.2906
N17030 X1.1832 Y2.1919 Z-0.2907
N17035 X1.1797 Y2.1918 Z-0.2909
N17040 X1.1762 Y2.1917 Z-0.291
N17045 X1.1727 Y2.1916 Z-0.2911
N17050 X1.1692 Y2.1915 Z-0.2912
N17055 X1.1657 Y2.1914 Z-0.2913
N17060 X1.1622 Y2.1913 Z-0.2915
N17065 X1.1587 Y2.1912 Z-0.2916
N17070 X1.1552 Y2.191 Z-0.2917
N17075 X1.1517 Y2.1909 Z-0.2918
N17080 X1.1482 Y2.1908 Z-0.292
N17085 X1.1447 Y2.1907 Z-0.2921
N17090 X1.1412 Y2.1906 Z-0.2922
N17095 X1.1377 Y2.1905 Z-0.2923
N17100 X1.1307 Y2.1903 Z-0.2926
N17105 X1.1272 Y2.1902 Z-0.2927
N17110 X1.1237 Y2.1901 Z-0.2928
N17115 X1.1202 Y2.19 Z-0.2929
N17120 X1.1167 Y2.1899 Z-0.293
N17125 X1.1132 Y2.1898 Z-0.2932
N17130 X1.1097 Y2.1897 Z-0.2933
N17135 X1.1062 Y2.1896 Z-0.2934
N17140 X1.1026 Y2.1895 Z-0.2935
N17145 X1.099 Y2.1893 Z-0.2936
N17150 X1.0955 Y2.1892 Z-0.2938
N17155 X1.0919 Y2.1889 Z-0.2939
N17160 X1.0883 Y2.1886 Z-0.294
N17165 X1.0848 Y2.1883 Z-0.2941
N17170 X1.0813 Y2.1878 Z-0.2942
N17175 X1.0777 Y2.1874 Z-0.2943
N17180 X1.0742 Y2.1868 Z-0.2944
N17185 X1.0706 Y2.1862 Z-0.2946
N17190 X1.0671 Y2.1855 Z-0.2947
N17195 X1.0635 Y2.1847 Z-0.2948
N17200 X1.06 Y2.1839 Z-0.2949
N17205 X1.0566 Y2.183 Z-0.295
N17210 X1.0531 Y2.182 Z-0.2951
N17215 X1.0496 Y2.181 Z-0.2952
N17220 X1.0462 Y2.1799 Z-0.2953
N17225 X1.0429 Y2.1788 Z-0.2954
N17230 X1.0395 Y2.1776 Z-0.2955
N17235 X1.0362 Y2.1763 Z-0.2956
N17240 X1.0329 Y2.175 Z-0.2957
N17245 X1.0296 Y2.1736 Z-0.2958
N17250 X1.0231 Y2.1706 Z-0.296
N17255 X1.0167 Y2.1674 Z-0.2962
N17260 X1.0104 Y2.1639 Z-0.2964
N17265 X1.0043 Y2.1603 Z-0.2966
N17270 X0.9984 Y2.1564 Z-0.2968
N17275 X0.9926 Y2.1523 Z-0.297
N17280 X0.9869 Y2.1479 Z-0.2971
N17285 X0.9815 Y2.1434 Z-0.2973
N17290 X0.9762 Y2.1387 Z-0.2975
N17295 X0.9711 Y2.1338 Z-0.2976
N17300 X0.9662 Y2.1287 Z-0.2978
N17305 X0.9614 Y2.1235 Z-0.2979
N17310 X0.9569 Y2.118 Z-0.2981
N17315 X0.9526 Y2.1124 Z-0.2982
N17320 X0.9485 Y2.1067 Z-0.2984
N17325 X0.9446 Y2.1008 Z-0.2985
N17330 X0.941 Y2.0948 Z-0.2986
N17335 X0.9376 Y2.0886 Z-0.2987
N17340 X0.9344 Y2.0823 Z-0.2988
N17345 X0.9314 Y2.0759 Z-0.299
N17350 X0.9287 Y2.0694 Z-0.2991
N17355 X0.9241 Y2.0561 Z-0.2993
N17360 X0.9204 Y2.0426 Z-0.2994
N17365 X0.9177 Y2.0288 Z-0.2996
N17370 X0.9161 Y2.0149 Z-0.2997
N17375 X0.9156 Y2.0009 Z-0.2998
N17380 Y1.9869 Z-0.2999
N17385 X0.9157 Y1.9729 Z-0.3
N17390 Y1.9589
N17395 Y1.9453
N17400 Y1.775
N17405 Y1.504
N17410 Y1.488
N17415 Y1.225
N17420 Y1.0018
N17425 X0.9159 Y0.9938
N17430 X0.9163 Y0.9859
N17435 X0.9172 Y0.978
N17440 Y0.9779
N17445 X0.9178 Y0.9732
N17450 X0.9184 Y0.9699
N17455 X0.9199 Y0.9619
N17460 X0.9218 Y0.954
N17465 X0.9241 Y0.946
N17470 X0.9258 Y0.9408
N17475 X0.9268 Y0.938
N17480 X0.9299 Y0.9301
N17485 X0.9334 Y0.9221
N17490 X0.9338 Y0.9214
N17495 X0.9374 Y0.9141
N17500 X0.9417 Y0.9065
N17505 X0.9419 Y0.9061
N17510 X0.947 Y0.8982
N17515 X0.9497 Y0.8942
N17520 X0.9527 Y0.8902
N17525 X0.9577 Y0.8838
N17530 X0.959 Y0.8822
N17535 X0.9657 Y0.8747
N17540 X0.9661 Y0.8743
N17545 X0.9736 Y0.8667
N17550 X0.9741 Y0.8663
N17555 X0.9816 Y0.8596
N17560 X0.9832 Y0.8583
N17565 X0.9896 Y0.8533
N17570 X0.9936 Y0.8504
N17575 X0.9975 Y0.8476
N17580 X1.0055 Y0.8426
N17585 X1.0058 Y0.8424
N17590 X1.0135 Y0.8381
N17595 X1.0207 Y0.8344
N17600 X1.0215 Y0.8341
N17605 X1.0294 Y0.8305
N17610 X1.0374 Y0.8274
N17615 X1.0402 Y0.8264
N17620 X1.0454 Y0.8247
N17625 X1.0533 Y0.8225
N17630 X1.0613 Y0.8205
N17635 X1.0693 Y0.819
N17640 X1.0725 Y0.8185
N17645 X1.0773 Y0.8178
N17650 X1.0852 Y0.817
N17655 X1.0932 Y0.8165
N17660 X1.1012 Y0.8164
N17665 X1.3244 Y0.8163
N17670 X1.5954
N17675 X1.6113
N17680 X1.8744
N17685 X2.0976 Y0.8164
N17690 X2.1055 Y0.8165
N17695 X2.1135 Y0.817
N17700 X2.1215 Y0.8178
N17705 X2.1262 Y0.8185
N17710 X2.1294 Y0.819
N17715 X2.1374 Y0.8205
N17720 X2.1454 Y0.8225
N17725 X2.1534 Y0.8247
N17730 X2.1585 Y0.8264
N17735 X2.1613 Y0.8274
N17740 X2.1693 Y0.8305
N17745 X2.1773 Y0.8341
N17750 X2.178 Y0.8344
N17755 X2.1852 Y0.8381
N17760 X2.1929 Y0.8424
N17765 X2.1932 Y0.8426
N17770 X2.2012 Y0.8476
N17775 X2.2051 Y0.8504
N17780 X2.2092 Y0.8533
N17785 X2.2156 Y0.8583
N17790 X2.2171 Y0.8596
N17795 X2.2246 Y0.8663
N17800 X2.2251 Y0.8667
N17805 X2.2326 Y0.8743
N17810 X2.2331 Y0.8747
N17815 X2.2397 Y0.8822
N17820 X2.241 Y0.8838
N17825 X2.2461 Y0.8902
N17830 X2.249 Y0.8942
N17835 X2.2517 Y0.8982
N17840 X2.2568 Y0.9061
N17845 X2.257 Y0.9065
N17850 X2.2613 Y0.9141
N17855 X2.265 Y0.9214
N17860 X2.2653 Y0.9221
N17865 X2.2688 Y0.9301
N17870 X2.2719 Y0.938
N17875 X2.2729 Y0.9408
N17880 X2.2746 Y0.946
N17885 X2.2769 Y0.954
N17890 X2.2788 Y0.9619
N17895 X2.2804 Y0.9699
N17900 X2.2809 Y0.9731
N17905 X2.2816 Y0.9779
N17910 X2.2824 Y0.9859
N17915 X2.2829 Y0.9938
N17920 X2.283 Y1.0018
N17925 Y1.225
N17930 Y1.496
N17935 Y1.512
N17940 Y1.775
N17945 Y1.9982
N17950 X2.2829 Y2.0062
N17955 X2.2824 Y2.0141
N17960 X2.2816 Y2.0221
N17965 X2.2809 Y2.0269
N17970 X2.2804 Y2.0301
N17975 X2.2788 Y2.0381
N17980 X2.2769 Y2.046
N17985 X2.2746 Y2.054
N17990 X2.2729 Y2.0592
N17995 X2.2719 Y2.062
N18000 X2.2688 Y2.0699
N18005 X2.2653 Y2.0779
N18010 X2.265 Y2.0786
N18015 X2.2613 Y2.0859
N18020 X2.257 Y2.0935
N18025 X2.2568 Y2.0939
N18030 X2.2517 Y2.1018
N18035 X2.249 Y2.1058
N18040 X2.2461 Y2.1098
N18045 X2.241 Y2.1162
N18050 X2.2397 Y2.1178
N18055 X2.2331 Y2.1253
N18060 X2.2326 Y2.1257
N18065 X2.2251 Y2.1333
N18070 X2.2246 Y2.1337
N18075 X2.2171 Y2.1404
N18080 X2.2156 Y2.1417
N18085 X2.2092 Y2.1467
N18090 X2.2051 Y2.1496
N18095 X2.2012 Y2.1524
N18100 X2.1932 Y2.1574
N18105 X2.1929 Y2.1576
N18110 X2.1852 Y2.1619
N18115 X2.178 Y2.1656
N18120 X2.1773 Y2.1659
N18125 X2.1693 Y2.1695
N18130 X2.1613 Y2.1726
N18135 X2.1585 Y2.1736
N18140 X2.1534 Y2.1753
N18145 X2.1454 Y2.1776
N18150 X2.1374 Y2.1795
N18155 X2.1294 Y2.181
N18160 X2.1262 Y2.1815
N18165 X2.1215 Y2.1822
N18170 X2.1135 Y2.183
N18175 X2.1055 Y2.1835
N18180 X2.0976 Y2.1836
N18185 X1.8744 Y2.1837
N18190 X1.6034
N18195 X1.5874
N18200 X1.3244
N18205 X1.1012 Y2.1836
N18210 X1.0932 Y2.1835
N18215 X1.0852 Y2.183
N18220 X1.0773 Y2.1822
N18225 X1.0725 Y2.1815
N18230 X1.0693 Y2.181
N18235 X1.0613 Y2.1795
N18240 X1.0533 Y2.1775
N18245 X1.0454 Y2.1753
N18250 X1.0402 Y2.1736
N18255 X1.0374 Y2.1726
N18260 X1.0294 Y2.1695
N18265 X1.0215 Y2.1659
N18270 X1.0207 Y2.1656
N18275 X1.0135 Y2.1619
N18280 X1.0058 Y2.1576
N18285 X1.0055 Y2.1574
N18290 X0.9975 Y2.1524
N18295 X0.9936 Y2.1496
N18300 X0.9896 Y2.1467
N18305 X0.9832 Y2.1417
N18310 X0.9816 Y2.1404
N18315 X0.9741 Y2.1337
N18320 X0.9736 Y2.1333
N18325 X0.9661 Y2.1257
N18330 X0.9657 Y2.1253
N18335 X0.959 Y2.1178
N18340 X0.9577 Y2.1162
N18345 X0.9527 Y2.1098
N18350 X0.9497 Y2.1058
N18355 X0.947 Y2.1018
N18360 X0.9419 Y2.0939
N18365 X0.9417 Y2.0935
N18370 X0.9374 Y2.0859
N18375 X0.9338 Y2.0786
N18380 X0.9334 Y2.0779
N18385 X0.9299 Y2.0699
N18390 X0.9268 Y2.062
N18395 X0.9258 Y2.0592
N18400 X0.9241 Y2.054
N18405 X0.9218 Y2.046
N18410 X0.9199 Y2.0381
N18415 X0.9184 Y2.0301
N18420 X0.9178 Y2.0268
N18425 X0.9172 Y2.0221
N18430 X0.9163 Y2.0141
N18435 X0.9159 Y2.0062
N18440 X0.9157 Y1.9982
N18445 Y1.9453
N18450 Y1.9313
N18455 X0.9158 Y1.9173
N18460 Y1.9033 Z-0.3001
N18465 X0.9159 Y1.8893 Z-0.3002
N18470 X0.916 Y1.8753 Z-0.3003
N18475 X0.9161 Y1.8613 Z-0.3004
N18480 X0.9162 Y1.8473 Z-0.3006
N18485 X0.9164 Y1.8333 Z-0.3007
N18490 X0.9166 Y1.8193 Z-0.3009
N18495 X0.9167 Y1.8123 Z-0.301
N18500 X0.9168 Y1.8053 Z-0.3011
N18505 X0.9169 Y1.7983 Z-0.3013
N18510 X0.917 Y1.7913 Z-0.3014
N18515 X0.9171 Y1.7843 Z-0.3015
N18520 X0.9172 Y1.7773 Z-0.3016
N18525 X0.9173 Y1.7703 Z-0.3018
N18530 X0.9174 Y1.7633 Z-0.3019
N18535 X0.9176 Y1.7563 Z-0.302
N18540 X0.9177 Y1.7493 Z-0.3022
N18545 X0.9178 Y1.7423 Z-0.3023
N18550 X0.918 Y1.7353 Z-0.3025
N18555 X0.9181 Y1.7283 Z-0.3026
N18560 X0.9183 Y1.7213 Z-0.3028
N18565 X0.9184 Y1.7143 Z-0.303
N18570 X0.9186 Y1.7073 Z-0.3031
N18575 X0.9187 Y1.7003 Z-0.3033
N18580 X0.9189 Y1.6933 Z-0.3035
N18585 X0.9191 Y1.6863 Z-0.3037
N18590 X0.9192 Y1.6793 Z-0.3039
N18595 X0.9194 Y1.6723 Z-0.304
N18600 X0.9196 Y1.6653 Z-0.3042
N18605 X0.9198 Y1.6583 Z-0.3044
N18610 X0.9199 Y1.6548 Z-0.3045
N18615 X0.92 Y1.6513 Z-0.3046
N18620 X0.9201 Y1.6478 Z-0.3047
N18625 X0.9202 Y1.6443 Z-0.3048
N18630 Y1.6408 Z-0.3049
N18635 X0.9203 Y1.6373 Z-0.305
N18640 X0.9204 Y1.6338 Z-0.3052
N18645 X0.9205 Y1.6303 Z-0.3053
N18650 X0.9206 Y1.6268 Z-0.3054
N18655 X0.9207 Y1.6233 Z-0.3055
N18660 X0.9208 Y1.6198 Z-0.3056
N18665 X0.9209 Y1.6163 Z-0.3057
N18670 X0.9211 Y1.6128 Z-0.3058
N18675 X0.9212 Y1.6093 Z-0.3059
N18680 X0.9213 Y1.6058 Z-0.306
N18685 X0.9214 Y1.6023 Z-0.3061
N18690 X0.9215 Y1.5988 Z-0.3062
N18695 X0.9216 Y1.5953 Z-0.3064
N18700 X0.9217 Y1.5918 Z-0.3065
N18705 X0.9218 Y1.5883 Z-0.3066
N18710 X0.9219 Y1.5848 Z-0.3067
N18715 X0.922 Y1.5813 Z-0.3068
N18720 X0.9221 Y1.5778 Z-0.3069
N18725 X0.9223 Y1.5743 Z-0.3071
N18730 X0.9224 Y1.5708 Z-0.3072
N18735 X0.9225 Y1.5673 Z-0.3073
N18740 X0.9226 Y1.5638 Z-0.3074
N18745 X0.9227 Y1.5603 Z-0.3075
N18750 X0.9228 Y1.5568 Z-0.3077
N18755 X0.9229 Y1.5533 Z-0.3078
N18760 X0.9231 Y1.5498 Z-0.3079
N18765 X0.9232 Y1.5463 Z-0.308
N18770 X0.9233 Y1.5428 Z-0.3082
N18775 X0.9234 Y1.5393 Z-0.3083
N18780 X0.9235 Y1.5358 Z-0.3084
N18785 X0.9236 Y1.5323 Z-0.3085
N18790 X0.9238 Y1.5288 Z-0.3086
N18795 X0.9239 Y1.5253 Z-0.3088
N18800 X0.924 Y1.5218 Z-0.3089
N18805 X0.9241 Y1.5183 Z-0.309
N18810 X0.9242 Y1.5148 Z-0.3091
N18815 X0.9243 Y1.5113 Z-0.3093
N18820 X0.9245 Y1.5078 Z-0.3094
N18825 X0.9246 Y1.5043 Z-0.3095
N18830 X0.9248 Y1.4973 Z-0.3097
N18835 X0.9249 Y1.4938 Z-0.3099
N18840 X0.925 Y1.4903 Z-0.31
N18845 X0.9252 Y1.4868 Z-0.3101
N18850 X0.9253 Y1.4833 Z-0.3102
N18855 X0.9255 Y1.4763 Z-0.3105
N18860 X0.9257 Y1.4693 Z-0.3107
N18865 X0.9258 Y1.4658 Z-0.3108
N18870 X0.9261 Y1.4588 Z-0.3111
N18875 X0.9262 Y1.4553 Z-0.3112
N18880 X0.9264 Y1.4483 Z-0.3115
N18885 X0.9268 Y1.4378 Z-0.3118
N18890 X0.9269 Y1.4343 Z-0.3119
N18895 X0.9273 Y1.4238 Z-0.3123
N18900 X0.9275 Y1.4168 Z-0.3126
N18905 X0.9276 Y1.4133 Z-0.3127
N18910 X0.9279 Y1.4063 Z-0.3129
N18915 X0.9282 Y1.3958 Z-0.3133
N18920 X0.9285 Y1.3888 Z-0.3135
N18925 X0.9286 Y1.3853 Z-0.3137
N18930 X0.9288 Y1.3783 Z-0.3139
N18935 X0.9296 Y1.3573 Z-0.3146
N18940 X0.9298 Y1.3503 Z-0.3149
N18945 X0.9305 Y1.3293 Z-0.3156
N18950 X0.9308 Y1.3223 Z-0.3159
N18955 X0.9316 Y1.2978 Z-0.3167
N18960 X0.9323 Y1.2768 Z-0.3175
N18965 X0.9324 Y1.2733 Z-0.3176
N18970 X0.9328 Y1.2628 Z-0.3179
N18975 X0.9333 Y1.2488 Z-0.3184
N18980 X0.9339 Y1.2313 Z-0.319
N18985 X0.9349 Y1.2033 Z-0.32
N18990 X0.9383 Y1.1088 Z-0.3233
N18995 X0.9386 Y1.1018 Z-0.3236
N19000 X0.9393 Y1.0808 Z-0.3243
N19005 X0.9395 Y1.0773 Z-0.3244
N19010 X0.9397 Y1.0703 Z-0.3247
N19015 X0.9405 Y1.0493 Z-0.3254
N19020 X0.9407 Y1.0423 Z-0.3256
N19025 X0.9411 Y1.0318 Z-0.326
N19030 X0.9414 Y1.0248 Z-0.3263
N19035 X0.9415 Y1.0213 Z-0.3264
N19040 X0.9417 Y1.0143 Z-0.3266
N19045 X0.9421 Y1.0035 Z-0.327
N19050 X0.9423 Y0.9998 Z-0.3271
N19055 X0.9426 Y0.996 Z-0.3273
N19060 X0.9429 Y0.9922 Z-0.3274
N19065 X0.9433 Y0.9885 Z-0.3275
N19070 X0.9438 Y0.9848 Z-0.3277
N19075 X0.9443 Y0.9811 Z-0.3278
N19080 X0.945 Y0.9775 Z-0.3279
N19085 X0.9457 Y0.9737 Z-0.3281
N19090 X0.9466 Y0.97 Z-0.3282
N19095 X0.9475 Y0.9663 Z-0.3283
N19100 X0.9485 Y0.9626 Z-0.3285
N19105 X0.9497 Y0.9589 Z-0.3286
N19110 X0.9509 Y0.9553 Z-0.3287
N19115 X0.9522 Y0.9517 Z-0.3289
N19120 X0.9535 Y0.9482 Z-0.329
N19125 X0.955 Y0.9447 Z-0.3291
N19130 X0.9565 Y0.9413 Z-0.3292
N19135 X0.9581 Y0.9379 Z-0.3294
N19140 X0.9598 Y0.9346 Z-0.3295
N19145 X0.9616 Y0.9312 Z-0.3296
N19150 X0.9635 Y0.9278 Z-0.3298
N19155 X0.9655 Y0.9245 Z-0.3299
N19160 X0.9675 Y0.9213 Z-0.33
N19165 X0.9696 Y0.9182 Z-0.3302
N19170 X0.9717 Y0.9151 Z-0.3303
N19175 X0.9739 Y0.9122 Z-0.3304
N19180 X0.9762 Y0.9092 Z-0.3306
N19185 X0.9786 Y0.9063 Z-0.3307
N19190 X0.9811 Y0.9034 Z-0.3308
N19195 X0.9837 Y0.9006 Z-0.331
N19200 X0.9863 Y0.8978 Z-0.3311
N19205 X0.9889 Y0.8952 Z-0.3312
N19210 X0.9916 Y0.8926 Z-0.3314
N19215 X0.9943 Y0.8902 Z-0.3315
N19220 X0.9971 Y0.8877 Z-0.3316
N19225 X1 Y0.8853 Z-0.3317
N19230 X1.003 Y0.883 Z-0.3319
N19235 X1.006 Y0.8807 Z-0.332
N19240 X1.0091 Y0.8786 Z-0.3321
N19245 X1.0121 Y0.8765 Z-0.3323
N19250 X1.0152 Y0.8745 Z-0.3324
N19255 X1.0184 Y0.8727 Z-0.3325
N19260 X1.0215 Y0.8708 Z-0.3327
N19265 X1.0249 Y0.8691 Z-0.3328
N19270 X1.0282 Y0.8674 Z-0.3329
N19275 X1.0316 Y0.8658 Z-0.333
N19280 X1.035 Y0.8642 Z-0.3332
N19285 X1.0384 Y0.8628 Z-0.3333
N19290 X1.0418 Y0.8615 Z-0.3334
N19295 X1.0452 Y0.8603 Z-0.3335
N19300 X1.0487 Y0.8591 Z-0.3337
N19305 X1.0522 Y0.858 Z-0.3338
N19310 X1.0557 Y0.857 Z-0.3339
N19315 X1.0593 Y0.8561 Z-0.334
N19320 X1.0628 Y0.8553 Z-0.3341
N19325 X1.0664 Y0.8545 Z-0.3343
N19330 X1.07 Y0.8539 Z-0.3344
N19335 X1.0736 Y0.8533 Z-0.3345
N19340 X1.0773 Y0.8528 Z-0.3346
N19345 X1.0808 Y0.8525 Z-0.3347
N19350 X1.0844 Y0.8522 Z-0.3348
N19355 X1.088 Y0.8519 Z-0.3349
N19360 X1.0916 Y0.8518 Z-0.3351
N19365 X1.0952 Z-0.3352
N19370 X1.0988 Z-0.3353
N19375 X1.1025 Z-0.3354
N19380 X1.1061 Y0.852 Z-0.3355
N19385 X1.1131 Y0.8522 Z-0.3357
N19390 X1.1201 Y0.8524 Z-0.3359
N19395 X1.1271 Y0.8526 Z-0.3361
N19400 X1.1341 Y0.8528 Z-0.3363
N19405 X1.1411 Y0.853 Z-0.3364
N19410 X1.1481 Y0.8532 Z-0.3366
N19415 X1.1551 Y0.8534 Z-0.3368
N19420 X1.1621 Y0.8536 Z-0.337
N19425 X1.1691 Y0.8538 Z-0.3371
N19430 X1.1761 Y0.854 Z-0.3373
N19435 X1.1831 Y0.8542 Z-0.3375
N19440 X1.1901 Y0.8543 Z-0.3376
N19445 X1.1971 Y0.8545 Z-0.3378
N19450 X1.2041 Y0.8547 Z-0.3379
N19455 X1.2111 Y0.8548 Z-0.3381
N19460 X1.2181 Y0.855 Z-0.3382
N19465 X1.2251 Y0.8552 Z-0.3383
N19470 X1.2321 Y0.8553 Z-0.3385
N19475 X1.2391 Y0.8554 Z-0.3386
N19480 X1.2461 Y0.8556 Z-0.3387
N19485 X1.2531 Y0.8557 Z-0.3388
N19490 X1.2601 Y0.8558 Z-0.3389
N19495 X1.2671 Y0.856 Z-0.339
N19500 X1.2741 Y0.8561 Z-0.3391
N19505 X1.2881 Y0.8563 Z-0.3393
N19510 X1.3021 Y0.8565 Z-0.3395
N19515 X1.3161 Y0.8566 Z-0.3396
N19520 X1.3301 Y0.8568 Z-0.3397
N19525 X1.3441 Y0.8569 Z-0.3398
N19530 X1.3581 Y0.857 Z-0.3399
N19535 X1.3721 Z-0.34
N19540 X1.3861 Y0.8571
N19545 X1.3958
N19550 X1.5236 Y0.857
N19555 X1.5396
N19560 X1.5954
N19565 X1.6113
N19570 X1.6671
N19575 X1.6751
N19580 X2.0976 Y0.8571
N19585 X2.1055 Y0.8573
N19590 X2.1135 Y0.8579
N19595 X2.117 Y0.8583
N19600 X2.1215 Y0.859
N19605 X2.1294 Y0.8605
N19610 X2.1374 Y0.8625
N19615 X2.1454 Y0.865
N19620 X2.1489 Y0.8663
N19625 X2.1534 Y0.868
N19630 X2.1613 Y0.8716
N19635 X2.1665 Y0.8743
N19640 X2.1693 Y0.8758
N19645 X2.1773 Y0.8807
N19650 X2.1796 Y0.8822
N19655 X2.1852 Y0.8863
N19660 X2.1902 Y0.8902
N19665 X2.1932 Y0.8928
N19670 X2.199 Y0.8982
N19675 X2.2012 Y0.9003
N19680 X2.2066 Y0.9061
N19685 X2.2092 Y0.9092
N19690 X2.2131 Y0.9141
N19695 X2.2171 Y0.9198
N19700 X2.2187 Y0.9221
N19705 X2.2236 Y0.9301
N19710 X2.2251 Y0.9329
N19715 X2.2277 Y0.938
N19720 X2.2313 Y0.946
N19725 X2.2331 Y0.9504
N19730 X2.2344 Y0.954
N19735 X2.2369 Y0.9619
N19740 X2.2389 Y0.9699
N19745 X2.2404 Y0.9779
N19750 X2.241 Y0.9824
N19755 X2.2415 Y0.9859
N19760 X2.2421 Y0.9938
N19765 X2.2423 Y1.0018
N19770 Y1.4243
N19775 Y1.4402
N19780 Y1.496
N19785 Y1.512
N19790 Y1.5678
N19795 Y1.5757
N19800 Y1.9982
N19805 X2.2421 Y2.0062
N19810 X2.2415 Y2.0141
N19815 X2.241 Y2.0176
N19820 X2.2404 Y2.0221
N19825 X2.2389 Y2.0301
N19830 X2.2369 Y2.0381
N19835 X2.2344 Y2.046
N19840 X2.2331 Y2.0496
N19845 X2.2313 Y2.054
N19850 X2.2277 Y2.062
N19855 X2.2251 Y2.0671
N19860 X2.2236 Y2.0699
N19865 X2.2187 Y2.0779
N19870 X2.2171 Y2.0802
N19875 X2.2131 Y2.0859
N19880 X2.2092 Y2.0908
N19885 X2.2066 Y2.0939
N19890 X2.2012 Y2.0997
N19895 X2.199 Y2.1018
N19900 X2.1932 Y2.1072
N19905 X2.1902 Y2.1098
N19910 X2.1852 Y2.1137
N19915 X2.1796 Y2.1178
N19920 X2.1773 Y2.1193
N19925 X2.1693 Y2.1242
N19930 X2.1665 Y2.1257
N19935 X2.1613 Y2.1284
N19940 X2.1534 Y2.132
N19945 X2.1489 Y2.1337
N19950 X2.1454 Y2.135
N19955 X2.1374 Y2.1375
N19960 X2.1294 Y2.1395
N19965 X2.1215 Y2.141
N19970 X2.117 Y2.1417
N19975 X2.1135 Y2.1421
N19980 X2.1055 Y2.1427
N19985 X2.0976 Y2.1429
N19990 X1.6751 Y2.143
N19995 X1.6591
N20000 X1.6034
N20005 X1.5874
N20010 X1.5316
N20015 X1.5236
N20020 X1.1012 Y2.1429
N20025 X1.0932 Y2.1427
N20030 X1.0852 Y2.1421
