%
(1001)
(Bottom of workpiece)
(T1 D=0.25 CR=0.125 - ZMIN=-0.36 - ball end mill)
N10 G90
N15 G28 G91 Z0
N20 G90

(Contour)
N25 M9
N30 T1 M6
N35 S1000 M3
N40 M8
N45 G0 X0.7803 Y-2.0932
N50 Z0.6
N55 Z0.0346
N60 G1 Z-0.005 F40
N65 X0.7806 Z-0.0089
N70 X0.7815 Y-2.093 Z-0.0127
N75 X0.783 Y-2.0926 Z-0.0163
N80 X0.785 Y-2.0922 Z-0.0197
N85 X0.7875 Y-2.0916 Z-0.0227
N90 X0.7904 Y-2.091 Z-0.0252
N95 X0.7936 Y-2.0902 Z-0.0273
N100 X0.7972 Y-2.0894 Z-0.0288
N105 X0.8009 Y-2.0886 Z-0.0297
N110 X0.8047 Y-2.0878 Z-0.03
N115 G3 X0.8236 Y-2.0579 I-0.0055 J0.0244
N120 G1 X0.8235 Y-2.057
N125 X0.8221 Y-2.0502
N130 X0.8209 Y-2.0433
N135 X0.8199 Y-2.0365
N140 X0.8191 Y-2.0297
N145 X0.8185 Y-2.0228
N150 X0.818 Y-2.016
N155 X0.8176 Y-2.0092
N160 X0.8173 Y-2.0023
N165 Y-1.9955
N170 Y-1.8862
N175 Y-1.8725
N180 Y-1.8588
N185 Y-1.8451
N190 Y-1.8315
N195 X0.8174 Y-1.5034
N200 Y-1.4966
N205 X0.8173 Y-1.1685
N210 Y-1.1549
N215 Y-1.1412
N220 Y-1.1275
N225 Y-1.1138
N230 Y-1.0045
N235 Y-0.9977
N240 X0.8176 Y-0.9908
N245 X0.818 Y-0.984
N250 X0.8185 Y-0.9772
N255 X0.8191 Y-0.9703
N260 X0.8199 Y-0.9635
N265 X0.8209 Y-0.9567
N270 X0.8221 Y-0.9498
N275 X0.8235 Y-0.943
N280 X0.8236 Y-0.9421
N285 X0.825 Y-0.9362
N290 X0.8267 Y-0.9293
N295 X0.8286 Y-0.9225
N300 X0.8305 Y-0.9161
N305 X0.8306 Y-0.9156
N310 X0.8329 Y-0.9088
N315 X0.8353 Y-0.902
N320 X0.8373 Y-0.8968
N325 X0.838 Y-0.8951
N330 X0.8409 Y-0.8883
N335 X0.8439 Y-0.8815
N340 X0.8442 Y-0.881
N345 X0.8472 Y-0.8746
N350 X0.8507 Y-0.8678
N355 X0.851 Y-0.8674
N360 X0.8545 Y-0.861
N365 X0.8578 Y-0.8553
N370 X0.8585 Y-0.8541
N375 X0.8628 Y-0.8473
N380 X0.8647 Y-0.8445
N385 X0.8674 Y-0.8405
N390 X0.8715 Y-0.8347
N395 X0.8723 Y-0.8336
N400 X0.8774 Y-0.8268
N405 X0.8783 Y-0.8257
N410 X0.8829 Y-0.82
N415 X0.8852 Y-0.8173
N420 X0.8888 Y-0.8131
N425 X0.892 Y-0.8096
N430 X0.8951 Y-0.8063
N435 X0.8988 Y-0.8024
N440 X0.9018 Y-0.7995
N445 X0.9057 Y-0.7957
N450 X0.909 Y-0.7926
N455 X0.9125 Y-0.7895
N460 X0.9167 Y-0.7858
N465 X0.9193 Y-0.7836
N470 X0.925 Y-0.779
N475 X0.9262 Y-0.7781
N480 X0.933 Y-0.7729
N485 X0.9341 Y-0.7721
N490 X0.9398 Y-0.768
N495 X0.9439 Y-0.7653
N500 X0.9467 Y-0.7635
N505 X0.9535 Y-0.7592
N510 X0.9547 Y-0.7585
N515 X0.9603 Y-0.7552
N520 X0.9667 Y-0.7516
N525 X0.9672 Y-0.7514
N530 X0.974 Y-0.7479
N535 X0.9804 Y-0.7448
N540 X0.9808 Y-0.7446
N545 X0.9877 Y-0.7415
N550 X0.9945 Y-0.7386
N555 X0.9962 Y-0.738
N560 X1.0013 Y-0.736
N565 X1.0082 Y-0.7335
N570 X1.015 Y-0.7313
N575 X1.0155 Y-0.7311
N580 X1.0218 Y-0.7292
N585 X1.0287 Y-0.7273
N590 X1.0355 Y-0.7256
N595 X1.0415 Y-0.7243
N600 X1.0424 Y-0.7241
N605 X1.0492 Y-0.7228
N610 X1.056 Y-0.7216
N615 X1.0629 Y-0.7206
N620 X1.0697 Y-0.7198
N625 X1.0765 Y-0.7191
N630 X1.0834 Y-0.7186
N635 X1.0902 Y-0.7183
N640 X1.097 Y-0.718
N645 X1.1039 Y-0.7179
N650 X1.2132
N655 X1.2269
N660 X1.2406
N665 X1.2542
N670 X1.2679
N675 X1.5959 Y-0.7181
N680 X1.6028
N685 X1.9308 Y-0.7179
N690 X1.9445
N695 X1.9582
N700 X1.9718
N705 X1.9855
N710 X2.0949
N715 X2.1017 Y-0.718
N720 X2.1085 Y-0.7183
N725 X2.1154 Y-0.7186
N730 X2.1222 Y-0.7191
N735 X2.129 Y-0.7198
N740 X2.1359 Y-0.7206
N745 X2.1427 Y-0.7216
N750 X2.1495 Y-0.7228
N755 X2.1564 Y-0.7241
N760 X2.1573 Y-0.7243
N765 X2.1632 Y-0.7256
N770 X2.17 Y-0.7273
N775 X2.1769 Y-0.7292
N780 X2.1832 Y-0.7311
N785 X2.1837 Y-0.7313
N790 X2.1906 Y-0.7335
N795 X2.1974 Y-0.736
N800 X2.2025 Y-0.738
N805 X2.2042 Y-0.7386
N810 X2.2111 Y-0.7415
N815 X2.2179 Y-0.7446
N820 X2.2184 Y-0.7448
N825 X2.2247 Y-0.7479
N830 X2.2316 Y-0.7514
N835 X2.232 Y-0.7516
N840 X2.2384 Y-0.7552
N845 X2.244 Y-0.7585
N850 X2.2452 Y-0.7592
N855 X2.2521 Y-0.7635
N860 X2.2549 Y-0.7653
N865 X2.2589 Y-0.768
N870 X2.2647 Y-0.7721
N875 X2.2657 Y-0.7729
N880 X2.2726 Y-0.7781
N885 X2.2737 Y-0.779
N890 X2.2794 Y-0.7836
N895 X2.282 Y-0.7858
N900 X2.2862 Y-0.7895
N905 X2.2897 Y-0.7926
N910 X2.2931 Y-0.7957
N915 X2.2969 Y-0.7995
N920 X2.2999 Y-0.8024
N925 X2.3036 Y-0.8063
N930 X2.3067 Y-0.8096
N935 X2.3099 Y-0.8131
N940 X2.3136 Y-0.8173
N945 X2.3158 Y-0.82
N950 X2.3204 Y-0.8257
N955 X2.3213 Y-0.8268
N960 X2.3265 Y-0.8336
N965 X2.3272 Y-0.8347
N970 X2.3313 Y-0.8405
N975 X2.3341 Y-0.8445
N980 X2.3359 Y-0.8473
N985 X2.3402 Y-0.8541
N990 X2.3409 Y-0.8553
N995 X2.3442 Y-0.861
N1000 X2.3477 Y-0.8674
N1005 X2.348 Y-0.8678
N1010 X2.3515 Y-0.8746
N1015 X2.3546 Y-0.881
N1020 X2.3548 Y-0.8815
N1025 X2.3579 Y-0.8883
N1030 X2.3607 Y-0.8951
N1035 X2.3614 Y-0.8968
N1040 X2.3634 Y-0.902
N1045 X2.3658 Y-0.9088
N1050 X2.3681 Y-0.9156
N1055 X2.3682 Y-0.9161
N1060 X2.3702 Y-0.9225
N1065 X2.3721 Y-0.9293
N1070 X2.3738 Y-0.9362
N1075 X2.3751 Y-0.9421
N1080 X2.3753 Y-0.943
N1085 X2.3766 Y-0.9498
N1090 X2.3778 Y-0.9567
N1095 X2.3788 Y-0.9635
N1100 X2.3796 Y-0.9703
N1105 X2.3803 Y-0.9772
N1110 X2.3808 Y-0.984
N1115 X2.3811 Y-0.9908
N1120 X2.3814 Y-0.9977
N1125 X2.3815 Y-1.0045
N1130 Y-1.1138
N1135 Y-1.1275
N1140 Y-1.1412
N1145 Y-1.1549
N1150 X2.3814 Y-1.1685
N1155 X2.3813 Y-1.4966
N1160 Y-1.5034
N1165 X2.3814 Y-1.8315
N1170 X2.3815 Y-1.8451
N1175 Y-1.8588
N1180 Y-1.8725
N1185 Y-1.8862
N1190 Y-1.9955
N1195 X2.3814 Y-2.0023
N1200 X2.3811 Y-2.0092
N1205 X2.3808 Y-2.016
N1210 X2.3803 Y-2.0228
N1215 X2.3796 Y-2.0297
N1220 X2.3788 Y-2.0365
N1225 X2.3778 Y-2.0433
N1230 X2.3766 Y-2.0502
N1235 X2.3753 Y-2.057
N1240 X2.3751 Y-2.0579
N1245 X2.3738 Y-2.0638
N1250 X2.3721 Y-2.0707
N1255 X2.3702 Y-2.0775
N1260 X2.3682 Y-2.0839
N1265 X2.3681 Y-2.0844
N1270 X2.3658 Y-2.0912
N1275 X2.3634 Y-2.098
N1280 X2.3614 Y-2.1032
N1285 X2.3607 Y-2.1049
N1290 X2.3579 Y-2.1117
N1295 X2.3548 Y-2.1185
N1300 X2.3546 Y-2.119
N1305 X2.3515 Y-2.1254
N1310 X2.348 Y-2.1322
N1315 X2.3477 Y-2.1326
N1320 X2.3442 Y-2.139
N1325 X2.3409 Y-2.1447
N1330 X2.3402 Y-2.1459
N1335 X2.3359 Y-2.1527
N1340 X2.3341 Y-2.1555
N1345 X2.3313 Y-2.1595
N1350 X2.3272 Y-2.1653
N1355 X2.3265 Y-2.1664
N1360 X2.3213 Y-2.1732
N1365 X2.3204 Y-2.1743
N1370 X2.3158 Y-2.18
N1375 X2.3136 Y-2.1827
N1380 X2.3099 Y-2.1869
N1385 X2.3067 Y-2.1904
N1390 X2.3036 Y-2.1937
N1395 X2.2999 Y-2.1976
N1400 X2.2969 Y-2.2005
N1405 X2.2931 Y-2.2043
N1410 X2.2897 Y-2.2074
N1415 X2.2862 Y-2.2105
N1420 X2.282 Y-2.2142
N1425 X2.2794 Y-2.2164
N1430 X2.2737 Y-2.221
N1435 X2.2726 Y-2.2219
N1440 X2.2657 Y-2.2271
N1445 X2.2647 Y-2.2279
N1450 X2.2589 Y-2.232
N1455 X2.2549 Y-2.2347
N1460 X2.2521 Y-2.2365
N1465 X2.2452 Y-2.2408
N1470 X2.244 Y-2.2415
N1475 X2.2384 Y-2.2448
N1480 X2.232 Y-2.2484
N1485 X2.2316 Y-2.2486
N1490 X2.2247 Y-2.2521
N1495 X2.2184 Y-2.2552
N1500 X2.2179 Y-2.2554
N1505 X2.2111 Y-2.2585
N1510 X2.2042 Y-2.2614
N1515 X2.2025 Y-2.262
N1520 X2.1974 Y-2.264
N1525 X2.1906 Y-2.2665
N1530 X2.1837 Y-2.2687
N1535 X2.1832 Y-2.2689
N1540 X2.1769 Y-2.2708
N1545 X2.17 Y-2.2727
N1550 X2.1632 Y-2.2744
N1555 X2.1573 Y-2.2757
N1560 X2.1564 Y-2.2759
N1565 X2.1495 Y-2.2772
N1570 X2.1427 Y-2.2784
N1575 X2.1359 Y-2.2794
N1580 X2.129 Y-2.2802
N1585 X2.1222 Y-2.2809
N1590 X2.1154 Y-2.2814
N1595 X2.1085 Y-2.2817
N1600 X2.1017 Y-2.282
N1605 X2.0949 Y-2.2821
N1610 X1.9855
N1615 X1.9718
N1620 X1.9582
N1625 X1.9445
N1630 X1.9308
N1635 X1.6028 Y-2.2819
N1640 X1.5959
N1645 X1.2679 Y-2.2821
N1650 X1.2542
N1655 X1.2406
N1660 X1.2269
N1665 X1.2132
N1670 X1.1039
N1675 X1.097 Y-2.282
N1680 X1.0902 Y-2.2817
N1685 X1.0834 Y-2.2814
N1690 X1.0765 Y-2.2809
N1695 X1.0697 Y-2.2802
N1700 X1.0629 Y-2.2794
N1705 X1.056 Y-2.2784
N1710 X1.0492 Y-2.2772
N1715 X1.0424 Y-2.2759
N1720 X1.0415 Y-2.2757
N1725 X1.0355 Y-2.2744
N1730 X1.0287 Y-2.2727
N1735 X1.0218 Y-2.2708
N1740 X1.0155 Y-2.2689
N1745 X1.015 Y-2.2687
N1750 X1.0082 Y-2.2665
N1755 X1.0013 Y-2.264
N1760 X0.9962 Y-2.262
N1765 X0.9945 Y-2.2614
N1770 X0.9877 Y-2.2585
N1775 X0.9808 Y-2.2554
N1780 X0.9804 Y-2.2552
N1785 X0.974 Y-2.2521
N1790 X0.9672 Y-2.2486
N1795 X0.9667 Y-2.2484
N1800 X0.9603 Y-2.2448
N1805 X0.9547 Y-2.2415
N1810 X0.9535 Y-2.2408
N1815 X0.9467 Y-2.2365
N1820 X0.9439 Y-2.2347
N1825 X0.9398 Y-2.232
N1830 X0.9341 Y-2.2279
N1835 X0.933 Y-2.2271
N1840 X0.9262 Y-2.2219
N1845 X0.925 Y-2.221
N1850 X0.9193 Y-2.2164
N1855 X0.9167 Y-2.2142
N1860 X0.9125 Y-2.2105
N1865 X0.909 Y-2.2074
N1870 X0.9057 Y-2.2043
N1875 X0.9018 Y-2.2005
N1880 X0.8988 Y-2.1976
N1885 X0.8951 Y-2.1937
N1890 X0.892 Y-2.1904
N1895 X0.8888 Y-2.1869
N1900 X0.8852 Y-2.1827
N1905 X0.8829 Y-2.18
N1910 X0.8783 Y-2.1743
N1915 X0.8774 Y-2.1732
N1920 X0.8723 Y-2.1664
N1925 X0.8715 Y-2.1653
N1930 X0.8674 Y-2.1595
N1935 X0.8647 Y-2.1555
N1940 X0.8628 Y-2.1527
N1945 X0.8585 Y-2.1459
N1950 X0.8578 Y-2.1447
N1955 X0.8545 Y-2.139
N1960 X0.851 Y-2.1326
N1965 X0.8507 Y-2.1322
N1970 X0.8472 Y-2.1254
N1975 X0.8442 Y-2.119
N1980 X0.8439 Y-2.1185
N1985 X0.8409 Y-2.1117
N1990 X0.838 Y-2.1049
N1995 X0.8373 Y-2.1032
N2000 X0.8353 Y-2.098
N2005 X0.8329 Y-2.0912
N2010 X0.8306 Y-2.0844
N2015 X0.8305 Y-2.0839
N2020 X0.8286 Y-2.0775
N2025 X0.8267 Y-2.0707
N2030 X0.825 Y-2.0638
N2035 X0.8236 Y-2.0579
N2040 X0.821 Y-2.0471
N2045 X0.8193 Y-2.0359
N2050 X0.818 Y-2.0249 Z-0.0301
N2055 X0.817 Y-2.0136
N2060 X0.8164 Y-2.0024 Z-0.0302
N2065 X0.8161 Y-1.99 Z-0.0303
N2070 X0.8158 Y-1.976 Z-0.0304
N2075 X0.8154 Y-1.962 Z-0.0306
N2080 X0.815 Y-1.948 Z-0.0307
N2085 X0.8146 Y-1.934 Z-0.0309
N2090 X0.8141 Y-1.92 Z-0.0311
N2095 X0.8136 Y-1.906 Z-0.0313
N2100 X0.813 Y-1.892 Z-0.0316
N2105 X0.8124 Y-1.878 Z-0.0319
N2110 X0.8117 Y-1.864 Z-0.0321
N2115 X0.811 Y-1.85 Z-0.0324
N2120 X0.8103 Y-1.836 Z-0.0328
N2125 X0.8095 Y-1.822 Z-0.0331
N2130 X0.8087 Y-1.808 Z-0.0335
N2135 X0.8079 Y-1.794 Z-0.0338
N2140 X0.807 Y-1.78 Z-0.0342
N2145 X0.8061 Y-1.766 Z-0.0346
N2150 X0.8052 Y-1.752 Z-0.035
N2155 X0.8043 Y-1.738 Z-0.0354
N2160 X0.8034 Y-1.724 Z-0.0359
N2165 X0.8024 Y-1.71 Z-0.0363
N2170 X0.8015 Y-1.696 Z-0.0368
N2175 X0.8005 Y-1.682 Z-0.0373
N2180 X0.7995 Y-1.668 Z-0.0377
N2185 X0.7964 Y-1.626 Z-0.0392
N2190 X0.7944 Y-1.598 Z-0.0402
N2195 X0.7923 Y-1.57 Z-0.0412
N2200 X0.7913 Y-1.556 Z-0.0417
N2205 X0.7903 Y-1.542 Z-0.0422
N2210 X0.7893 Y-1.528 Z-0.0426
N2215 X0.7884 Y-1.514 Z-0.0431
N2220 X0.7874 Y-1.5 Z-0.0436
N2225 X0.7865 Y-1.486 Z-0.0441
N2230 X0.7856 Y-1.472 Z-0.0446
N2235 X0.7755 Y-1.318 Z-0.05
N2240 X0.7746 Y-1.304 Z-0.0505
N2245 X0.7737 Y-1.29 Z-0.051
N2250 X0.7728 Y-1.276 Z-0.0515
N2255 X0.772 Y-1.262 Z-0.052
N2260 X0.7711 Y-1.248 Z-0.0524
N2265 X0.7611 Y-1.08 Z-0.0583
N2270 X0.7603 Y-1.066 Z-0.0588
N2275 X0.7586 Y-1.038 Z-0.0598
N2280 X0.7578 Y-1.024 Z-0.0603
N2285 X0.757 Y-1.01 Z-0.0608
N2290 X0.7563 Y-0.9963 Z-0.0612
N2295 X0.756 Y-0.9828 Z-0.0617
N2300 X0.7562 Y-0.9692 Z-0.0622
N2305 X0.757 Y-0.9557 Z-0.0626
N2310 X0.7583 Y-0.9421 Z-0.0631
N2315 X0.7603 Y-0.9286 Z-0.0635
N2320 X0.7627 Y-0.9152 Z-0.064
N2325 X0.7657 Y-0.9019 Z-0.0644
N2330 X0.7692 Y-0.8887 Z-0.0648
N2335 X0.7733 Y-0.8756 Z-0.0652
N2340 X0.7779 Y-0.8627 Z-0.0656
N2345 X0.7831 Y-0.8499 Z-0.066
N2350 X0.7888 Y-0.8373 Z-0.0663
N2355 X0.7949 Y-0.825 Z-0.0667
N2360 X0.8016 Y-0.8129 Z-0.067
N2365 X0.8088 Y-0.8011 Z-0.0673
N2370 X0.8165 Y-0.7895 Z-0.0676
N2375 X0.8246 Y-0.7783 Z-0.0679
N2380 X0.8332 Y-0.7674 Z-0.0682
N2385 X0.8423 Y-0.7568 Z-0.0684
N2390 X0.8518 Y-0.7467 Z-0.0687
N2395 X0.8617 Y-0.7369 Z-0.0689
N2400 X0.872 Y-0.7275 Z-0.0691
N2405 X0.8827 Y-0.7186 Z-0.0693
N2410 X0.8938 Y-0.7101 Z-0.0694
N2415 X0.9052 Y-0.702 Z-0.0696
N2420 X0.917 Y-0.6944 Z-0.0697
N2425 X0.9291 Y-0.6874 Z-0.0698
N2430 X0.9414 Y-0.6808 Z-0.0699
N2435 X0.954 Y-0.6747 Z-0.07
N2440 X0.9669 Y-0.6692
N2445 X0.9791 Y-0.6645
N2450 X0.9808 Y-0.6639
N2455 X0.9841 Y-0.6628
N2460 X0.9877 Y-0.6615
N2465 X0.9945 Y-0.6594
N2470 X1.0013 Y-0.6573
N2475 X1.0063 Y-0.6559
N2480 X1.0082 Y-0.6554
N2485 X1.015 Y-0.6537
N2490 X1.0218 Y-0.6521
N2495 X1.0287 Y-0.6506
N2500 X1.0355 Y-0.6493
N2505 X1.0365 Y-0.6491
N2510 X1.0424 Y-0.6481
N2515 X1.0492 Y-0.647
N2520 X1.056 Y-0.6461
N2525 X1.0629 Y-0.6453
N2530 X1.0697 Y-0.6447
N2535 X1.0765 Y-0.6441
N2540 X1.0834 Y-0.6437
N2545 X1.0902 Y-0.6435
N2550 X1.097 Y-0.6433
N2555 X1.1039
N2560 X1.1175
N2565 X1.1244
N2570 X1.1312
N2575 X1.5959
N2580 X1.6028
N2585 X2.0675
N2590 X2.0744
N2595 X2.0812
N2600 X2.0949
N2605 X2.1017
N2610 X2.1085 Y-0.6435
N2615 X2.1154 Y-0.6437
N2620 X2.1222 Y-0.6441
N2625 X2.129 Y-0.6447
N2630 X2.1359 Y-0.6453
N2635 X2.1427 Y-0.6461
N2640 X2.1495 Y-0.647
N2645 X2.1564 Y-0.6481
N2650 X2.1623 Y-0.6491
N2655 X2.1632 Y-0.6493
N2660 X2.17 Y-0.6506
N2665 X2.1769 Y-0.6521
N2670 X2.1837 Y-0.6537
N2675 X2.1906 Y-0.6554
N2680 X2.1925 Y-0.6559
N2685 X2.1974 Y-0.6573
N2690 X2.2042 Y-0.6594
N2695 X2.2111 Y-0.6615
N2700 X2.2146 Y-0.6628
N2705 X2.2179 Y-0.6639
N2710 X2.2247 Y-0.6664
N2715 X2.2316 Y-0.6691
N2720 X2.2329 Y-0.6696
N2725 X2.2384 Y-0.6719
N2730 X2.2452 Y-0.6749
N2735 X2.2486 Y-0.6764
N2740 X2.2521 Y-0.678
N2745 X2.2589 Y-0.6814
N2750 X2.2626 Y-0.6833
N2755 X2.2657 Y-0.6849
N2760 X2.2726 Y-0.6886
N2765 X2.2752 Y-0.6901
N2770 X2.2794 Y-0.6925
N2775 X2.2862 Y-0.6967
N2780 X2.2867 Y-0.6969
N2785 X2.2931 Y-0.701
N2790 X2.2973 Y-0.7038
N2795 X2.2999 Y-0.7055
N2800 X2.3067 Y-0.7103
N2805 X2.3072 Y-0.7106
N2810 X2.3136 Y-0.7153
N2815 X2.3163 Y-0.7174
N2820 X2.3204 Y-0.7206
N2825 X2.325 Y-0.7243
N2830 X2.3272 Y-0.7262
N2835 X2.3331 Y-0.7311
N2840 X2.3341 Y-0.732
N2845 X2.3407 Y-0.738
N2850 X2.3409 Y-0.7382
N2855 X2.3477 Y-0.7446
N2860 X2.3479 Y-0.7448
N2865 X2.3546 Y-0.7515
N2870 X2.3547 Y-0.7516
N2875 X2.3612 Y-0.7585
N2880 X2.3614 Y-0.7587
N2885 X2.3674 Y-0.7653
N2890 X2.3682 Y-0.7663
N2895 X2.3732 Y-0.7721
N2900 X2.3751 Y-0.7744
N2905 X2.3788 Y-0.779
N2910 X2.3819 Y-0.783
N2915 X2.384 Y-0.7858
N2920 X2.3888 Y-0.7922
N2925 X2.3891 Y-0.7926
N2930 X2.3938 Y-0.7995
N2935 X2.3956 Y-0.802
N2940 X2.3984 Y-0.8063
N2945 X2.4024 Y-0.8127
N2950 X2.4027 Y-0.8131
N2955 X2.4068 Y-0.82
N2960 X2.4093 Y-0.8241
N2965 X2.4107 Y-0.8268
N2970 X2.4145 Y-0.8336
N2975 X2.4161 Y-0.8368
N2980 X2.418 Y-0.8405
N2985 X2.4213 Y-0.8473
N2990 X2.4229 Y-0.8507
N2995 X2.4245 Y-0.8541
N3000 X2.4275 Y-0.861
N3005 X2.4298 Y-0.8665
N3010 X2.4303 Y-0.8678
N3015 X2.433 Y-0.8746
N3020 X2.4355 Y-0.8815
N3025 X2.4366 Y-0.8847
N3030 X2.4378 Y-0.8883
N3035 X2.44 Y-0.8951
N3040 X2.442 Y-0.902
N3045 X2.4434 Y-0.9069
N3050 X2.4439 Y-0.9088
N3055 X2.4457 Y-0.9156
N3060 X2.4473 Y-0.9225
N3065 X2.4488 Y-0.9293
N3070 X2.4501 Y-0.9362
N3075 X2.4503 Y-0.9371
N3080 X2.4513 Y-0.943
N3085 X2.4524 Y-0.9498
N3090 X2.4533 Y-0.9567
N3095 X2.4541 Y-0.9635
N3100 X2.4547 Y-0.9703
N3105 X2.4552 Y-0.9772
N3110 X2.4556 Y-0.984
N3115 X2.4559 Y-0.9908
N3120 X2.456 Y-0.9977
N3125 X2.4561 Y-1.0045
N3130 Y-1.0182
N3135 Y-1.025
N3140 Y-1.0318
N3145 X2.456 Y-1.4966
N3150 Y-1.5034
N3155 X2.4561 Y-1.9682
N3160 Y-1.975
N3165 Y-1.9818
N3170 Y-1.9955
N3175 X2.456 Y-2.0023
N3180 X2.4559 Y-2.0092
N3185 X2.4556 Y-2.016
N3190 X2.4552 Y-2.0228
N3195 X2.4547 Y-2.0297
N3200 X2.4541 Y-2.0365
N3205 X2.4533 Y-2.0433
N3210 X2.4524 Y-2.0502
N3215 X2.4513 Y-2.057
N3220 X2.4503 Y-2.0629
N3225 X2.4501 Y-2.0638
N3230 X2.4488 Y-2.0707
N3235 X2.4473 Y-2.0775
N3240 X2.4457 Y-2.0844
N3245 X2.4439 Y-2.0912
N3250 X2.4434 Y-2.0931
N3255 X2.442 Y-2.098
N3260 X2.44 Y-2.1049
N3265 X2.4378 Y-2.1117
N3270 X2.4366 Y-2.1153
N3275 X2.4355 Y-2.1185
N3280 X2.433 Y-2.1254
N3285 X2.4303 Y-2.1322
N3290 X2.4298 Y-2.1335
N3295 X2.4275 Y-2.139
N3300 X2.4245 Y-2.1459
N3305 X2.4229 Y-2.1493
N3310 X2.4213 Y-2.1527
N3315 X2.418 Y-2.1595
N3320 X2.4161 Y-2.1632
N3325 X2.4145 Y-2.1664
N3330 X2.4107 Y-2.1732
N3335 X2.4093 Y-2.1758
N3340 X2.4068 Y-2.18
N3345 X2.4027 Y-2.1869
N3350 X2.4024 Y-2.1873
N3355 X2.3984 Y-2.1937
N3360 X2.3956 Y-2.198
N3365 X2.3938 Y-2.2005
N3370 X2.3891 Y-2.2074
N3375 X2.3888 Y-2.2078
N3380 X2.384 Y-2.2142
N3385 X2.3819 Y-2.217
N3390 X2.3788 Y-2.221
N3395 X2.3751 Y-2.2256
N3400 X2.3732 Y-2.2279
N3405 X2.3682 Y-2.2337
N3410 X2.3674 Y-2.2347
N3415 X2.3614 Y-2.2413
N3420 X2.3612 Y-2.2415
N3425 X2.3547 Y-2.2484
N3430 X2.3546 Y-2.2485
N3435 X2.3479 Y-2.2552
N3440 X2.3477 Y-2.2554
N3445 X2.3409 Y-2.2618
N3450 X2.3407 Y-2.262
N3455 X2.3341 Y-2.268
N3460 X2.3331 Y-2.2689
N3465 X2.3272 Y-2.2738
N3470 X2.325 Y-2.2757
N3475 X2.3204 Y-2.2794
N3480 X2.3163 Y-2.2826
N3485 X2.3136 Y-2.2847
N3490 X2.3072 Y-2.2894
N3495 X2.3067 Y-2.2897
N3500 X2.2999 Y-2.2945
N3505 X2.2973 Y-2.2962
N3510 X2.2931 Y-2.299
N3515 X2.2867 Y-2.3031
N3520 X2.2862 Y-2.3033
N3525 X2.2794 Y-2.3075
N3530 X2.2752 Y-2.3099
N3535 X2.2726 Y-2.3114
N3540 X2.2657 Y-2.3151
N3545 X2.2626 Y-2.3167
N3550 X2.2589 Y-2.3186
N3555 X2.2521 Y-2.322
N3560 X2.2486 Y-2.3236
N3565 X2.2452 Y-2.3251
N3570 X2.2384 Y-2.3281
N3575 X2.2329 Y-2.3304
N3580 X2.2316 Y-2.3309
N3585 X2.2247 Y-2.3336
N3590 X2.2179 Y-2.3361
N3595 X2.2146 Y-2.3372
N3600 X2.2111 Y-2.3385
N3605 X2.2042 Y-2.3406
N3610 X2.1974 Y-2.3427
N3615 X2.1925 Y-2.3441
N3620 X2.1906 Y-2.3446
N3625 X2.1837 Y-2.3463
N3630 X2.1769 Y-2.3479
N3635 X2.17 Y-2.3494
N3640 X2.1632 Y-2.3507
N3645 X2.1623 Y-2.3509
N3650 X2.1564 Y-2.3519
N3655 X2.1495 Y-2.353
N3660 X2.1427 Y-2.3539
N3665 X2.1359 Y-2.3547
N3670 X2.129 Y-2.3553
N3675 X2.1222 Y-2.3559
N3680 X2.1154 Y-2.3563
N3685 X2.1085 Y-2.3565
N3690 X2.1017 Y-2.3567
N3695 X2.0949
N3700 X2.0812
N3705 X2.0744
N3710 X2.0675
N3715 X1.6028
N3720 X1.5959
N3725 X1.1312
N3730 X1.1244
N3735 X1.1175
N3740 X1.1039
N3745 X1.097
N3750 X1.0902 Y-2.3565
N3755 X1.0834 Y-2.3563
N3760 X1.0765 Y-2.3559
N3765 X1.0697 Y-2.3553
N3770 X1.0629 Y-2.3547
N3775 X1.056 Y-2.3539
N3780 X1.0492 Y-2.353
N3785 X1.0424 Y-2.3519
N3790 X1.0365 Y-2.3509
N3795 X1.0355 Y-2.3507
N3800 X1.0287 Y-2.3494
N3805 X1.0218 Y-2.3479
N3810 X1.015 Y-2.3463
N3815 X1.0082 Y-2.3446
N3820 X1.0063 Y-2.3441
N3825 X1.0013 Y-2.3427
N3830 X0.9945 Y-2.3406
N3835 X0.9877 Y-2.3385
N3840 X0.9841 Y-2.3372
N3845 X0.9808 Y-2.3361
N3850 X0.974 Y-2.3336
N3855 X0.9672 Y-2.3309
N3860 X0.9658 Y-2.3304
N3865 X0.9603 Y-2.3281
N3870 X0.9535 Y-2.3251
N3875 X0.9501 Y-2.3236
N3880 X0.9467 Y-2.322
N3885 X0.9398 Y-2.3186
N3890 X0.9362 Y-2.3167
N3895 X0.933 Y-2.3151
N3900 X0.9262 Y-2.3114
N3905 X0.9235 Y-2.3099
N3910 X0.9193 Y-2.3075
N3915 X0.9125 Y-2.3033
N3920 X0.912 Y-2.3031
N3925 X0.9057 Y-2.299
N3930 X0.9014 Y-2.2962
N3935 X0.8988 Y-2.2945
N3940 X0.892 Y-2.2897
N3945 X0.8916 Y-2.2894
N3950 X0.8852 Y-2.2847
N3955 X0.8824 Y-2.2826
N3960 X0.8783 Y-2.2794
N3965 X0.8737 Y-2.2757
N3970 X0.8715 Y-2.2738
N3975 X0.8657 Y-2.2689
N3980 X0.8647 Y-2.268
N3985 X0.858 Y-2.262
N3990 X0.8578 Y-2.2618
N3995 X0.851 Y-2.2554
N4000 X0.8508 Y-2.2552
N4005 X0.8442 Y-2.2485
N4010 X0.844 Y-2.2484
N4015 X0.8375 Y-2.2415
N4020 X0.8373 Y-2.2413
N4025 X0.8314 Y-2.2347
N4030 X0.8305 Y-2.2337
N4035 X0.8255 Y-2.2279
N4040 X0.8236 Y-2.2256
N4045 X0.82 Y-2.221
N4050 X0.8168 Y-2.217
N4055 X0.8147 Y-2.2142
N4060 X0.81 Y-2.2078
N4065 X0.8097 Y-2.2074
N4070 X0.8049 Y-2.2005
N4075 X0.8031 Y-2.198
N4080 X0.8004 Y-2.1937
N4085 X0.7963 Y-2.1873
N4090 X0.796 Y-2.1869
N4095 X0.7919 Y-2.18
N4100 X0.7895 Y-2.1758
N4105 X0.788 Y-2.1732
N4110 X0.7843 Y-2.1664
N4115 X0.7826 Y-2.1632
N4120 X0.7807 Y-2.1595
N4125 X0.7774 Y-2.1527
N4130 X0.7758 Y-2.1493
N4135 X0.7743 Y-2.1459
N4140 X0.7713 Y-2.139
N4145 X0.769 Y-2.1335
N4150 X0.7684 Y-2.1322
N4155 X0.7658 Y-2.1254
N4160 X0.7633 Y-2.1185
N4165 X0.7621 Y-2.1153
N4170 X0.7609 Y-2.1117
N4175 X0.7587 Y-2.1049
N4180 X0.7567 Y-2.098
N4185 X0.7553 Y-2.0931
N4190 X0.7548 Y-2.0912
N4195 X0.753 Y-2.0844
N4200 X0.7514 Y-2.0775
N4205 X0.7506 Y-2.0734
N4210 X0.75 Y-2.0707
N4215 X0.7486 Y-2.0638
N4220 X0.7485 Y-2.0629
N4225 X0.7475 Y-2.057
N4230 X0.7464 Y-2.0502
N4235 X0.7455 Y-2.0433
N4240 X0.7447 Y-2.0365
N4245 X0.744 Y-2.0297
N4250 X0.7435 Y-2.0228
N4255 X0.7431 Y-2.016
N4260 X0.7428 Y-2.0092
N4265 X0.7427 Y-2.0023
N4270 Y-1.9955
N4275 Y-1.9818
N4280 Y-1.975
N4285 Y-1.9682
N4290 Y-1.5034
N4295 Y-1.4966
N4300 Y-1.0318
N4305 Y-1.025
N4310 Y-1.0182
N4315 Y-1.0045
N4320 Y-0.9977
N4325 X0.7428 Y-0.9908
N4330 X0.7431 Y-0.984
N4335 X0.7435 Y-0.9772
N4340 X0.744 Y-0.9703
N4345 X0.7447 Y-0.9635
N4350 X0.7455 Y-0.9567
N4355 X0.7464 Y-0.9498
N4360 X0.7475 Y-0.943
N4365 X0.7485 Y-0.9371
N4370 X0.7486 Y-0.9362
N4375 X0.75 Y-0.9293
N4380 X0.7514 Y-0.9225
N4385 X0.753 Y-0.9156
N4390 X0.7548 Y-0.9088
N4395 X0.7553 Y-0.9069
N4400 X0.7567 Y-0.902
N4405 X0.7587 Y-0.8951
N4410 X0.7609 Y-0.8883
N4415 X0.7621 Y-0.8847
N4420 X0.7633 Y-0.8815
N4425 X0.7658 Y-0.8746
N4430 X0.7684 Y-0.8678
N4435 X0.769 Y-0.8665
N4440 X0.7713 Y-0.861
N4445 X0.7743 Y-0.8541
N4450 X0.7758 Y-0.8507
N4455 X0.7774 Y-0.8473
N4460 X0.7807 Y-0.8405
N4465 X0.7826 Y-0.8368
N4470 X0.7843 Y-0.8336
N4475 X0.788 Y-0.8268
N4480 X0.7895 Y-0.8242
N4485 X0.7919 Y-0.82
N4490 X0.796 Y-0.8131
N4495 X0.7963 Y-0.8127
N4500 X0.8004 Y-0.8063
N4505 X0.8031 Y-0.802
N4510 X0.8049 Y-0.7995
N4515 X0.8097 Y-0.7926
N4520 X0.81 Y-0.7922
N4525 X0.8147 Y-0.7858
N4530 X0.8168 Y-0.783
N4535 X0.82 Y-0.779
N4540 X0.8236 Y-0.7744
N4545 X0.8255 Y-0.7721
N4550 X0.8305 Y-0.7663
N4555 X0.8314 Y-0.7653
N4560 X0.8373 Y-0.7587
N4565 X0.8375 Y-0.7585
N4570 X0.844 Y-0.7516
N4575 X0.8442 Y-0.7515
N4580 X0.8508 Y-0.7448
N4585 X0.851 Y-0.7446
N4590 X0.8578 Y-0.7382
N4595 X0.858 Y-0.738
N4600 X0.8647 Y-0.732
N4605 X0.8657 Y-0.7311
N4610 X0.8715 Y-0.7262
N4615 X0.8737 Y-0.7243
N4620 X0.8783 Y-0.7206
N4625 X0.8824 Y-0.7174
N4630 X0.8852 Y-0.7153
N4635 X0.8916 Y-0.7106
N4640 X0.892 Y-0.7103
N4645 X0.8988 Y-0.7055
N4650 X0.9014 Y-0.7038
N4655 X0.9057 Y-0.701
N4660 X0.912 Y-0.6969
N4665 X0.9125 Y-0.6967
N4670 X0.9193 Y-0.6925
N4675 X0.9235 Y-0.6901
N4680 X0.9262 Y-0.6886
N4685 X0.933 Y-0.6849
N4690 X0.9362 Y-0.6833
N4695 X0.9398 Y-0.6814
N4700 X0.9467 Y-0.678
N4705 X0.9501 Y-0.6764
N4710 X0.9535 Y-0.6749
N4715 X0.9603 Y-0.6719
N4720 X0.9658 Y-0.6696
N4725 X0.9672 Y-0.6691
N4730 X0.974 Y-0.6664
N4735 X0.9791 Y-0.6645
N4740 X0.9909 Y-0.6605
N4745 X1.0024 Y-0.657
N4750 X1.0141 Y-0.6538 Z-0.0701
N4755 X1.0262 Y-0.6509
N4760 X1.038 Y-0.6485 Z-0.0702
N4765 X1.0502 Y-0.6464 Z-0.0703
N4770 X1.0623 Y-0.6447 Z-0.0704
N4775 X1.0743 Y-0.6434 Z-0.0706
N4780 X1.0868 Y-0.6425 Z-0.0707
N4785 X1.0992 Y-0.6419 Z-0.0709
N4790 X1.113 Y-0.6416 Z-0.0711
N4795 X1.127 Y-0.6413 Z-0.0713
N4800 X1.141 Y-0.6409 Z-0.0716
N4805 X1.155 Y-0.6405 Z-0.0718
N4810 X1.169 Y-0.6401 Z-0.0721
N4815 X1.183 Y-0.6397 Z-0.0724
N4820 X1.197 Y-0.6392 Z-0.0727
N4825 X1.211 Y-0.6387 Z-0.0731
N4830 X1.225 Y-0.6382 Z-0.0734
N4835 X1.239 Y-0.6377 Z-0.0738
N4840 X1.253 Y-0.6372 Z-0.0742
N4845 X1.267 Y-0.6366 Z-0.0745
N4850 X1.281 Y-0.636 Z-0.075
N4855 X1.295 Y-0.6354 Z-0.0754
N4860 X1.309 Y-0.6348 Z-0.0758
N4865 X1.323 Y-0.6342 Z-0.0763
N4870 X1.337 Y-0.6335 Z-0.0767
N4875 X1.351 Y-0.6328 Z-0.0772
N4880 X1.365 Y-0.6321 Z-0.0777
N4885 X1.435 Y-0.6287 Z-0.0801
N4890 X1.491 Y-0.6259 Z-0.0821
N4895 X1.505 Y-0.6252 Z-0.0826
N4900 X1.519 Y-0.6245 Z-0.0831
N4905 X1.533 Y-0.6239 Z-0.0836
N4910 X1.547 Y-0.6232 Z-0.084
N4915 X1.561 Y-0.6226 Z-0.0845
N4920 X1.617 Y-0.62 Z-0.0865
N4925 X1.743 Y-0.6142 Z-0.0909
N4930 X1.785 Y-0.6122 Z-0.0924
N4935 X1.813 Y-0.6109 Z-0.0933
N4940 X1.827 Y-0.6103 Z-0.0938
N4945 X1.841 Y-0.6097 Z-0.0943
N4950 X1.855 Y-0.609 Z-0.0948
N4955 X1.869 Y-0.6084 Z-0.0953
N4960 X1.883 Y-0.6078 Z-0.0958
N4965 X1.911 Y-0.6066 Z-0.0968
N4970 X1.953 Y-0.6048 Z-0.0982
N4975 X1.967 Y-0.6042 Z-0.0987
N4980 X2.065 Y-0.6 Z-0.1022
N4985 X2.079 Y-0.5994 Z-0.1026
N4990 X2.093 Y-0.5988 Z-0.1031
N4995 X2.1068 Y-0.5983 Z-0.1036
N5000 X2.1206 Z-0.104
N5005 X2.1344 Y-0.5987 Z-0.1044
N5010 X2.1482 Y-0.5997 Z-0.1049
N5015 X2.1619 Y-0.6011 Z-0.1053
N5020 X2.1756 Y-0.6031 Z-0.1057
N5025 X2.1892 Y-0.6055 Z-0.106
N5030 X2.2027 Y-0.6084 Z-0.1064
N5035 X2.2162 Y-0.6118 Z-0.1067
N5040 X2.2295 Y-0.6156 Z-0.1071
N5045 X2.2427 Y-0.62 Z-0.1074
N5050 X2.2557 Y-0.6248 Z-0.1077
N5055 X2.2686 Y-0.6301 Z-0.108
N5060 X2.2813 Y-0.6358 Z-0.1083
N5065 X2.2938 Y-0.642 Z-0.1085
N5070 X2.3061 Y-0.6487 Z-0.1087
N5075 X2.3181 Y-0.6557 Z-0.109
N5080 X2.3299 Y-0.6632 Z-0.1092
N5085 X2.3414 Y-0.6711 Z-0.1093
N5090 X2.3526 Y-0.6795 Z-0.1095
N5095 X2.3635 Y-0.6882 Z-0.1096
N5100 X2.3741 Y-0.6973 Z-0.1098
N5105 X2.3844 Y-0.7068
N5110 X2.3943 Y-0.7167 Z-0.1099
N5115 X2.4039 Y-0.7269 Z-0.11
N5120 X2.4131 Y-0.7375
N5125 X2.4181 Y-0.7436
N5130 X2.419 Y-0.7448
N5135 X2.4229 Y-0.7497
N5140 X2.4243 Y-0.7516
N5145 X2.4295 Y-0.7585
N5150 X2.4298 Y-0.7589
N5155 X2.4344 Y-0.7653
N5160 X2.4391 Y-0.7721
N5165 X2.4434 Y-0.7788
N5170 X2.4436 Y-0.779
N5175 X2.4479 Y-0.7858
N5180 X2.4503 Y-0.7897
N5185 X2.452 Y-0.7926
N5190 X2.4559 Y-0.7995
N5195 X2.4597 Y-0.8063
N5200 X2.4633 Y-0.8131
N5205 X2.4639 Y-0.8144
N5210 X2.4667 Y-0.82
N5215 X2.47 Y-0.8268
N5220 X2.4731 Y-0.8336
N5225 X2.4761 Y-0.8405
N5230 X2.4776 Y-0.844
N5235 X2.4789 Y-0.8473
N5240 X2.4816 Y-0.8541
N5245 X2.4844 Y-0.8616
N5250 X2.4866 Y-0.8678
N5255 X2.4889 Y-0.8746
N5260 X2.491 Y-0.8815
N5265 X2.4913 Y-0.8823
N5270 X2.493 Y-0.8883
N5275 X2.4949 Y-0.8951
N5280 X2.4967 Y-0.902
N5285 X2.4983 Y-0.9088
N5290 X2.4998 Y-0.9156
N5295 X2.5012 Y-0.9225
N5300 X2.5025 Y-0.9293
N5305 X2.5036 Y-0.9362
N5310 X2.5047 Y-0.943
N5315 X2.5056 Y-0.9498
N5320 X2.5064 Y-0.9567
N5325 X2.5071 Y-0.9635
N5330 X2.5077 Y-0.9703
N5335 X2.5081 Y-0.9772
N5340 X2.5084 Y-0.984
N5345 X2.5087 Y-0.9908
N5350 X2.5088 Y-0.9977
N5355 Y-1.0045
N5360 X2.5089 Y-1.0728
N5365 Y-1.0865
N5370 Y-1.1002
N5375 X2.5088 Y-1.4966
N5380 Y-1.5034
N5385 X2.5089 Y-1.9067
N5390 Y-1.9203
N5395 Y-1.934
N5400 X2.5088 Y-1.9955
N5405 Y-2.0023
N5410 X2.5087 Y-2.0092
N5415 X2.5084 Y-2.016
N5420 X2.5081 Y-2.0228
N5425 X2.5077 Y-2.0297
N5430 X2.5071 Y-2.0365
N5435 X2.5064 Y-2.0433
N5440 X2.5056 Y-2.0502
N5445 X2.5047 Y-2.057
N5450 X2.5036 Y-2.0638
N5455 X2.5025 Y-2.0707
N5460 X2.5012 Y-2.0775
N5465 X2.4998 Y-2.0844
N5470 X2.4983 Y-2.0912
N5475 X2.4967 Y-2.098
N5480 X2.4949 Y-2.1049
N5485 X2.493 Y-2.1117
N5490 X2.4913 Y-2.1177
N5495 X2.491 Y-2.1185
N5500 X2.4889 Y-2.1254
N5505 X2.4866 Y-2.1322
N5510 X2.4844 Y-2.1384
N5515 X2.4816 Y-2.1459
N5520 X2.4789 Y-2.1527
N5525 X2.4776 Y-2.156
N5530 X2.4761 Y-2.1595
N5535 X2.4731 Y-2.1664
N5540 X2.47 Y-2.1732
N5545 X2.4667 Y-2.18
N5550 X2.4639 Y-2.1856
N5555 X2.4633 Y-2.1869
N5560 X2.4597 Y-2.1937
N5565 X2.4559 Y-2.2005
N5570 X2.452 Y-2.2074
N5575 X2.4503 Y-2.2103
N5580 X2.4479 Y-2.2142
N5585 X2.4436 Y-2.221
N5590 X2.4434 Y-2.2212
N5595 X2.4391 Y-2.2279
N5600 X2.4344 Y-2.2347
N5605 X2.4298 Y-2.2411
N5610 X2.4295 Y-2.2415
N5615 X2.4243 Y-2.2484
N5620 X2.4229 Y-2.2503
N5625 X2.419 Y-2.2552
N5630 X2.4161 Y-2.2589
N5635 X2.4134 Y-2.262
N5640 X2.4093 Y-2.267
N5645 X2.4076 Y-2.2689
N5650 X2.4024 Y-2.2747
N5655 X2.4015 Y-2.2757
N5660 X2.3956 Y-2.2821
N5665 X2.3951 Y-2.2826
N5670 X2.3888 Y-2.2891
N5675 X2.3885 Y-2.2894
N5680 X2.3819 Y-2.2958
N5685 X2.3814 Y-2.2962
N5690 X2.3751 Y-2.3021
N5695 X2.3741 Y-2.3031
N5700 X2.3682 Y-2.3082
N5705 X2.3664 Y-2.3099
N5710 X2.3614 Y-2.3141
N5715 X2.3582 Y-2.3167
N5720 X2.3546 Y-2.3196
N5725 X2.3496 Y-2.3236
N5730 X2.3477 Y-2.325
N5735 X2.3409 Y-2.3301
N5740 X2.3405 Y-2.3304
N5745 X2.3341 Y-2.335
N5750 X2.3272 Y-2.3397
N5755 X2.3206 Y-2.3441
N5760 X2.3204 Y-2.3442
N5765 X2.3136 Y-2.3485
N5770 X2.3097 Y-2.3509
N5775 X2.3067 Y-2.3526
N5780 X2.2999 Y-2.3566
N5785 X2.2931 Y-2.3603
N5790 X2.2862 Y-2.3639
N5795 X2.285 Y-2.3646
N5800 X2.2794 Y-2.3673
N5805 X2.2726 Y-2.3706
N5810 X2.2657 Y-2.3738
N5815 X2.2589 Y-2.3767
N5820 X2.2554 Y-2.3782
N5825 X2.2521 Y-2.3796
N5830 X2.2452 Y-2.3823
N5835 X2.2377 Y-2.3851
N5840 X2.2316 Y-2.3872
N5845 X2.2247 Y-2.3895
N5850 X2.2179 Y-2.3917
N5855 X2.2171 Y-2.3919
N5860 X2.2111 Y-2.3937
N5865 X2.2042 Y-2.3955
N5870 X2.1974 Y-2.3973
N5875 X2.1906 Y-2.399
N5880 X2.1837 Y-2.4005
N5885 X2.1769 Y-2.4019
N5890 X2.17 Y-2.4031
N5895 X2.1632 Y-2.4043
N5900 X2.1564 Y-2.4053
N5905 X2.1495 Y-2.4062
N5910 X2.1427 Y-2.407
N5915 X2.1359 Y-2.4077
N5920 X2.129 Y-2.4083
N5925 X2.1222 Y-2.4087
N5930 X2.1154 Y-2.4091
N5935 X2.1085 Y-2.4093
N5940 X2.1017 Y-2.4094
N5945 X2.0949 Y-2.4095
N5950 X2.0265
N5955 X2.0129
N5960 X1.9992
N5965 X1.6028
N5970 X1.5959
N5975 X1.1927
N5980 X1.179
N5985 X1.1654
N5990 X1.1039
N5995 X1.097 Y-2.4094
N6000 X1.0902 Y-2.4093
N6005 X1.0834 Y-2.4091
N6010 X1.0765 Y-2.4087
N6015 X1.0697 Y-2.4083
N6020 X1.0629 Y-2.4077
N6025 X1.056 Y-2.407
N6030 X1.0492 Y-2.4062
N6035 X1.0424 Y-2.4053
N6040 X1.0355 Y-2.4043
N6045 X1.0287 Y-2.4031
N6050 X1.0218 Y-2.4019
N6055 X1.015 Y-2.4005
N6060 X1.0082 Y-2.399
N6065 X1.0013 Y-2.3973
N6070 X0.9945 Y-2.3955
N6075 X0.9877 Y-2.3937
N6080 X0.9816 Y-2.3919
N6085 X0.9808 Y-2.3917
N6090 X0.974 Y-2.3895
N6095 X0.9672 Y-2.3872
N6100 X0.961 Y-2.3851
N6105 X0.9535 Y-2.3823
N6110 X0.9467 Y-2.3796
N6115 X0.9434 Y-2.3782
N6120 X0.9398 Y-2.3767
N6125 X0.933 Y-2.3738
N6130 X0.9262 Y-2.3706
N6135 X0.9193 Y-2.3673
N6140 X0.9138 Y-2.3646
N6145 X0.9125 Y-2.3639
N6150 X0.9057 Y-2.3603
N6155 X0.8988 Y-2.3566
N6160 X0.892 Y-2.3526
N6165 X0.8891 Y-2.3509
N6170 X0.8852 Y-2.3485
N6175 X0.8783 Y-2.3442
N6180 X0.8781 Y-2.3441
N6185 X0.8715 Y-2.3397
N6190 X0.8647 Y-2.335
N6195 X0.8582 Y-2.3304
N6200 X0.8578 Y-2.3301
N6205 X0.851 Y-2.325
N6210 X0.8491 Y-2.3236
N6215 X0.8442 Y-2.3196
N6220 X0.8405 Y-2.3167
N6225 X0.8373 Y-2.3141
N6230 X0.8324 Y-2.3099
N6235 X0.8305 Y-2.3082
N6240 X0.8246 Y-2.3031
N6245 X0.8236 Y-2.3021
N6250 X0.8173 Y-2.2962
N6255 X0.8168 Y-2.2958
N6260 X0.8103 Y-2.2894
N6265 X0.81 Y-2.2891
N6270 X0.8036 Y-2.2826
N6275 X0.8031 Y-2.2821
N6280 X0.7972 Y-2.2757
N6285 X0.7963 Y-2.2747
N6290 X0.7911 Y-2.2689
N6295 X0.7895 Y-2.267
N6300 X0.7853 Y-2.262
N6305 X0.7826 Y-2.2589
N6310 X0.7797 Y-2.2552
N6315 X0.7758 Y-2.2502
N6320 X0.7744 Y-2.2484
N6325 X0.7693 Y-2.2415
N6330 X0.769 Y-2.2411
N6335 X0.7643 Y-2.2347
N6340 X0.7597 Y-2.2279
N6345 X0.7553 Y-2.2212
N6350 X0.7552 Y-2.221
N6355 X0.7509 Y-2.2142
N6360 X0.7485 Y-2.2103
N6365 X0.7468 Y-2.2074
N6370 X0.7428 Y-2.2005
N6375 X0.739 Y-2.1937
N6380 X0.7355 Y-2.1869
N6385 X0.7348 Y-2.1856
N6390 X0.732 Y-2.18
N6395 X0.7287 Y-2.1732
N6400 X0.7256 Y-2.1664
N6405 X0.7226 Y-2.1595
N6410 X0.7211 Y-2.156
N6415 X0.7198 Y-2.1527
N6420 X0.7171 Y-2.1459
N6425 X0.7143 Y-2.1383
N6430 X0.7121 Y-2.1322
N6435 X0.7099 Y-2.1254
N6440 X0.7077 Y-2.1185
N6445 X0.7075 Y-2.1177
N6450 X0.7057 Y-2.1117
N6455 X0.7038 Y-2.1049
N6460 X0.702 Y-2.098
N6465 X0.7004 Y-2.0912
N6470 X0.699 Y-2.0848
N6475 X0.6989 Y-2.0844
N6480 X0.6975 Y-2.0775
N6485 X0.6962 Y-2.0707
N6490 X0.6951 Y-2.0638
N6495 X0.694 Y-2.057
N6500 X0.6938 Y-2.0551
N6505 X0.6931 Y-2.0502
N6510 X0.6923 Y-2.0433
N6515 X0.6916 Y-2.0365
N6520 X0.6911 Y-2.0297
N6525 X0.6906 Y-2.0228
N6530 X0.6903 Y-2.016
N6535 X0.69 Y-2.0092
N6540 X0.6899 Y-2.0023
N6545 Y-1.9955
N6550 Y-1.9272
N6555 Y-1.9135
N6560 Y-1.8998
N6565 Y-1.5034
N6570 Y-1.4966
N6575 Y-1.0933
N6580 Y-1.0797
N6585 Y-1.066
N6590 Y-1.0045
N6595 Y-0.9977
N6600 X0.69 Y-0.9908
N6605 X0.6903 Y-0.984
N6610 X0.6906 Y-0.9772
N6615 X0.6911 Y-0.9703
N6620 X0.6916 Y-0.9635
N6625 X0.6923 Y-0.9567
N6630 X0.6931 Y-0.9498
N6635 X0.694 Y-0.943
N6640 X0.6951 Y-0.9362
N6645 X0.6962 Y-0.9293
N6650 X0.6975 Y-0.9225
N6655 X0.6989 Y-0.9156
N6660 X0.7004 Y-0.9088
N6665 X0.702 Y-0.902
N6670 X0.7038 Y-0.8951
N6675 X0.7057 Y-0.8883
N6680 X0.7075 Y-0.8823
N6685 X0.7077 Y-0.8815
N6690 X0.7099 Y-0.8746
N6695 X0.7121 Y-0.8678
N6700 X0.7143 Y-0.8617
N6705 X0.7171 Y-0.8541
N6710 X0.7198 Y-0.8473
N6715 X0.7211 Y-0.844
N6720 X0.7226 Y-0.8405
N6725 X0.7256 Y-0.8336
N6730 X0.7287 Y-0.8268
N6735 X0.732 Y-0.82
N6740 X0.7348 Y-0.8144
N6745 X0.7355 Y-0.8131
N6750 X0.739 Y-0.8063
N6755 X0.7428 Y-0.7995
N6760 X0.7468 Y-0.7926
N6765 X0.7485 Y-0.7897
N6770 X0.7509 Y-0.7858
N6775 X0.7552 Y-0.779
N6780 X0.7553 Y-0.7788
N6785 X0.7597 Y-0.7721
N6790 X0.7643 Y-0.7653
N6795 X0.769 Y-0.7589
N6800 X0.7693 Y-0.7585
N6805 X0.7744 Y-0.7516
N6810 X0.7758 Y-0.7498
N6815 X0.7797 Y-0.7448
N6820 X0.7826 Y-0.7412
N6825 X0.7853 Y-0.738
N6830 X0.7895 Y-0.733
N6835 X0.7911 Y-0.7311
N6840 X0.7963 Y-0.7253
N6845 X0.7972 Y-0.7243
N6850 X0.8031 Y-0.7179
N6855 X0.8036 Y-0.7174
N6860 X0.81 Y-0.7109
N6865 X0.8103 Y-0.7106
N6870 X0.8168 Y-0.7042
N6875 X0.8173 Y-0.7038
N6880 X0.8236 Y-0.6979
N6885 X0.8246 Y-0.6969
N6890 X0.8305 Y-0.6918
N6895 X0.8324 Y-0.6901
N6900 X0.8373 Y-0.6859
N6905 X0.8405 Y-0.6833
N6910 X0.8442 Y-0.6804
N6915 X0.8491 Y-0.6764
N6920 X0.851 Y-0.675
N6925 X0.8578 Y-0.6699
N6930 X0.8582 Y-0.6696
N6935 X0.8647 Y-0.665
N6940 X0.8715 Y-0.6603
N6945 X0.8781 Y-0.6559
N6950 X0.8783 Y-0.6558
N6955 X0.8852 Y-0.6515
N6960 X0.8891 Y-0.6491
N6965 X0.892 Y-0.6474
N6970 X0.8988 Y-0.6434
N6975 X0.9057 Y-0.6397
N6980 X0.9125 Y-0.6361
N6985 X0.9138 Y-0.6354
N6990 X0.9193 Y-0.6327
N6995 X0.9262 Y-0.6294
N7000 X0.933 Y-0.6262
N7005 X0.9398 Y-0.6233
N7010 X0.9434 Y-0.6218
N7015 X0.9467 Y-0.6204
N7020 X0.9535 Y-0.6177
N7025 X0.961 Y-0.6149
N7030 X0.9672 Y-0.6128
N7035 X0.974 Y-0.6105
N7040 X0.9808 Y-0.6083
N7045 X0.9816 Y-0.6081
N7050 X0.9877 Y-0.6063
N7055 X0.9945 Y-0.6045
N7060 X1.0013 Y-0.6027
N7065 X1.0082 Y-0.601
N7070 X1.015 Y-0.5995
N7075 X1.0218 Y-0.5981
N7080 X1.0287 Y-0.5969
N7085 X1.0355 Y-0.5957
N7090 X1.0424 Y-0.5947
N7095 X1.0492 Y-0.5938
N7100 X1.056 Y-0.593
N7105 X1.0629 Y-0.5923
N7110 X1.0697 Y-0.5917
N7115 X1.0765 Y-0.5913
N7120 X1.0834 Y-0.5909
N7125 X1.0902 Y-0.5907
N7130 X1.097 Y-0.5906
N7135 X1.1039 Y-0.5905
N7140 X1.1722
N7145 X1.1859
N7150 X1.1995
N7155 X1.5959
N7160 X1.6028
N7165 X2.006
N7170 X2.0197
N7175 X2.0334
N7180 X2.0949
N7185 X2.1017 Y-0.5906
N7190 X2.1085 Y-0.5907
N7195 X2.1154 Y-0.5909
N7200 X2.1222 Y-0.5913
N7205 X2.129 Y-0.5917
N7210 X2.1359 Y-0.5923
N7215 X2.1427 Y-0.593
N7220 X2.1495 Y-0.5938
N7225 X2.1564 Y-0.5947
N7230 X2.1632 Y-0.5957
N7235 X2.17 Y-0.5969
N7240 X2.1769 Y-0.5981
N7245 X2.1837 Y-0.5995
N7250 X2.1906 Y-0.601
N7255 X2.1974 Y-0.6027
N7260 X2.2042 Y-0.6045
N7265 X2.2111 Y-0.6063
N7270 X2.2171 Y-0.6081
N7275 X2.2179 Y-0.6083
N7280 X2.2247 Y-0.6105
N7285 X2.2316 Y-0.6128
N7290 X2.2377 Y-0.6149
N7295 X2.2452 Y-0.6177
N7300 X2.2521 Y-0.6204
N7305 X2.2554 Y-0.6218
N7310 X2.2589 Y-0.6233
N7315 X2.2657 Y-0.6262
N7320 X2.2726 Y-0.6294
N7325 X2.2794 Y-0.6327
N7330 X2.285 Y-0.6354
N7335 X2.2862 Y-0.6361
N7340 X2.2931 Y-0.6397
N7345 X2.2999 Y-0.6434
N7350 X2.3067 Y-0.6474
N7355 X2.3097 Y-0.6491
N7360 X2.3136 Y-0.6515
N7365 X2.3204 Y-0.6558
N7370 X2.3206 Y-0.6559
N7375 X2.3272 Y-0.6603
N7380 X2.3341 Y-0.665
N7385 X2.3405 Y-0.6696
N7390 X2.3409 Y-0.6699
N7395 X2.3477 Y-0.675
N7400 X2.3496 Y-0.6764
N7405 X2.3546 Y-0.6804
N7410 X2.3582 Y-0.6833
N7415 X2.3614 Y-0.6859
N7420 X2.3664 Y-0.6901
N7425 X2.3682 Y-0.6918
N7430 X2.3741 Y-0.6969
N7435 X2.3751 Y-0.6979
N7440 X2.3814 Y-0.7038
N7445 X2.3819 Y-0.7042
N7450 X2.3885 Y-0.7106
N7455 X2.3888 Y-0.7109
N7460 X2.3951 Y-0.7174
N7465 X2.3956 Y-0.7179
N7470 X2.4015 Y-0.7243
N7475 X2.4024 Y-0.7253
N7480 X2.4076 Y-0.7311
N7485 X2.4093 Y-0.733
N7490 X2.4134 Y-0.738
N7495 X2.4161 Y-0.7411
N7500 X2.4181 Y-0.7436
N7505 X2.426 Y-0.7538
N7510 X2.4334 Y-0.7638
N7515 X2.4409 Y-0.7746 Z-0.1101
N7520 X2.4476 Y-0.7849 Z-0.1102
N7525 X2.4542 Y-0.7957
N7530 X2.4604 Y-0.8067 Z-0.1103
N7535 X2.4666 Y-0.8183 Z-0.1105
N7540 X2.472 Y-0.8294 Z-0.1106
N7545 X2.4774 Y-0.8411 Z-0.1108
N7550 X2.4823 Y-0.8527 Z-0.111
N7555 X2.4868 Y-0.8642 Z-0.1111
N7560 X2.4911 Y-0.8764 Z-0.1114
N7565 X2.4951 Y-0.8886 Z-0.1116
N7570 X2.4986 Y-0.9007 Z-0.1118
N7575 X2.5017 Y-0.9129 Z-0.1121
N7580 X2.5046 Y-0.9255 Z-0.1124
N7585 X2.5071 Y-0.9381 Z-0.1126
N7590 X2.5092 Y-0.9505 Z-0.1129
N7595 X2.5109 Y-0.9631 Z-0.1133
N7600 X2.5123 Y-0.9761 Z-0.1136
N7605 X2.5133 Y-0.989 Z-0.1139
N7610 X2.5138 Y-1.0018 Z-0.1143
N7615 X2.5143 Y-1.0157 Z-0.1147
N7620 X2.5148 Y-1.0297 Z-0.1151
N7625 X2.5153 Y-1.0437 Z-0.1155
N7630 X2.5158 Y-1.0577 Z-0.116
N7635 X2.5163 Y-1.0717 Z-0.1164
N7640 X2.5168 Y-1.0857 Z-0.1169
N7645 X2.5174 Y-1.0997 Z-0.1174
N7650 X2.5179 Y-1.1137 Z-0.1178
N7655 X2.5191 Y-1.1417 Z-0.1188
N7660 X2.5196 Y-1.1557 Z-0.1193
N7665 X2.5202 Y-1.1697 Z-0.1198
N7670 X2.5207 Y-1.1837 Z-0.1203
N7675 X2.5245 Y-1.2817 Z-0.1237
N7680 X2.5272 Y-1.3517 Z-0.1262
N7685 X2.5277 Y-1.3657 Z-0.1267
N7690 X2.5283 Y-1.3797 Z-0.1271
N7695 X2.5304 Y-1.4357 Z-0.1291
N7700 X2.531 Y-1.4497 Z-0.1296
N7705 X2.5315 Y-1.4637 Z-0.1301
N7710 X2.532 Y-1.4777 Z-0.1306
N7715 X2.5325 Y-1.4917 Z-0.1311
N7720 X2.533 Y-1.5057 Z-0.1316
N7725 X2.5382 Y-1.6457 Z-0.1364
N7730 X2.5397 Y-1.6877 Z-0.1379
N7735 X2.5403 Y-1.7017 Z-0.1384
N7740 X2.5408 Y-1.7157 Z-0.1389
N7745 X2.5443 Y-1.8137 Z-0.1423
N7750 X2.5448 Y-1.8277 Z-0.1428
N7755 X2.5452 Y-1.8417 Z-0.1433
N7760 X2.5457 Y-1.8557 Z-0.1437
N7765 X2.5462 Y-1.8697 Z-0.1442
N7770 X2.5466 Y-1.8837 Z-0.1446
N7775 X2.547 Y-1.8977 Z-0.145
N7780 X2.5475 Y-1.9117 Z-0.1454
N7785 X2.5479 Y-1.9257 Z-0.1458
N7790 X2.5483 Y-1.9397 Z-0.1462
N7795 X2.5486 Y-1.9537 Z-0.1466
N7800 X2.549 Y-1.9677 Z-0.1469
N7805 X2.5493 Y-1.9817 Z-0.1473
N7810 X2.5496 Y-1.9957 Z-0.1476
N7815 X2.5498 Y-2.0096 Z-0.1479
N7820 X2.5495 Y-2.0235 Z-0.1482
N7825 X2.5488 Y-2.0375 Z-0.1484
N7830 X2.5476 Y-2.0514 Z-0.1487
N7835 X2.546 Y-2.0653 Z-0.1489
N7840 X2.5439 Y-2.0791 Z-0.1491
N7845 X2.5414 Y-2.0928 Z-0.1493
N7850 X2.5385 Y-2.1065 Z-0.1494
N7855 X2.5351 Y-2.1201 Z-0.1496
N7860 X2.5313 Y-2.1335 Z-0.1497
N7865 X2.527 Y-2.1469 Z-0.1498
N7870 X2.5223 Y-2.16 Z-0.1499
N7875 X2.5172 Y-2.1731 Z-0.15
N7880 X2.5117 Y-2.1859
N7885 X2.5063 Y-2.1973
N7890 X2.5048 Y-2.2005
N7895 X2.5013 Y-2.2074
N7900 X2.4981 Y-2.2135
N7905 X2.4977 Y-2.2142
N7910 X2.4939 Y-2.221
N7915 X2.4913 Y-2.2257
N7920 X2.49 Y-2.2279
N7925 X2.4859 Y-2.2347
N7930 X2.4844 Y-2.2371
N7935 X2.4817 Y-2.2415
N7940 X2.4776 Y-2.2479
N7945 X2.4773 Y-2.2484
N7950 X2.4727 Y-2.2552
N7955 X2.4708 Y-2.258
N7960 X2.4679 Y-2.262
N7965 X2.4639 Y-2.2676
N7970 X2.463 Y-2.2689
N7975 X2.4578 Y-2.2757
N7980 X2.4571 Y-2.2766
N7985 X2.4524 Y-2.2826
N7990 X2.4503 Y-2.2852
N7995 X2.4468 Y-2.2894
N8000 X2.4434 Y-2.2934
N8005 X2.4411 Y-2.2962
N8010 X2.4366 Y-2.3013
N8015 X2.435 Y-2.3031
N8020 X2.4298 Y-2.3087
N8025 X2.4287 Y-2.3099
N8030 X2.4229 Y-2.3159
N8035 X2.4221 Y-2.3167
N8040 X2.4161 Y-2.3227
N8045 X2.4153 Y-2.3236
N8050 X2.4093 Y-2.3293
N8055 X2.4081 Y-2.3304
N8060 X2.4024 Y-2.3356
N8065 X2.4006 Y-2.3372
N8070 X2.3956 Y-2.3417
N8075 X2.3928 Y-2.3441
N8080 X2.3888 Y-2.3475
N8085 X2.3846 Y-2.3509
N8090 X2.3819 Y-2.3531
N8095 X2.376 Y-2.3577
N8100 X2.3751 Y-2.3584
N8105 X2.3682 Y-2.3636
N8110 X2.3669 Y-2.3646
N8115 X2.3614 Y-2.3686
N8120 X2.3574 Y-2.3714
N8125 X2.3546 Y-2.3733
N8130 X2.3477 Y-2.3779
N8135 X2.3472 Y-2.3782
N8140 X2.3409 Y-2.3823
N8145 X2.3365 Y-2.3851
N8150 X2.3341 Y-2.3866
N8155 X2.3272 Y-2.3906
N8160 X2.3251 Y-2.3919
N8165 X2.3204 Y-2.3946
N8170 X2.3136 Y-2.3983
N8175 X2.3128 Y-2.3987
N8180 X2.3067 Y-2.4019
N8185 X2.2999 Y-2.4054
N8190 X2.2931 Y-2.4087
N8195 X2.2862 Y-2.4119
N8200 X2.2851 Y-2.4124
N8205 X2.2794 Y-2.4149
N8210 X2.2726 Y-2.4178
N8215 X2.2691 Y-2.4192
N8220 X2.2657 Y-2.4206
N8225 X2.2589 Y-2.4233
N8230 X2.2521 Y-2.4258
N8235 X2.2513 Y-2.4261
N8240 X2.2452 Y-2.4282
N8245 X2.2384 Y-2.4305
N8250 X2.2316 Y-2.4326
N8255 X2.2307 Y-2.4329
N8260 X2.2247 Y-2.4346
N8265 X2.2179 Y-2.4366
N8270 X2.2111 Y-2.4384
N8275 X2.2056 Y-2.4397
N8280 X2.2042 Y-2.4401
N8285 X2.1974 Y-2.4417
N8290 X2.1906 Y-2.4431
N8295 X2.1837 Y-2.4445
N8300 X2.1769 Y-2.4458
N8305 X2.1721 Y-2.4466
N8310 X2.17 Y-2.4469
N8315 X2.1632 Y-2.448
N8320 X2.1564 Y-2.4489
N8325 X2.1495 Y-2.4497
N8330 X2.1427 Y-2.4505
N8335 X2.1359 Y-2.4511
N8340 X2.129 Y-2.4516
N8345 X2.1222 Y-2.452
N8350 X2.1154 Y-2.4523
N8355 X2.1085 Y-2.4525
N8360 X2.1017 Y-2.4526
N8365 X2.0949 Y-2.4527
N8370 X2.0402
N8375 X2.0129
N8380 X1.9855
N8385 X1.9582
N8390 X1.9308
N8395 X1.8557
N8400 X1.6028 Y-2.4526
N8405 X1.5959
N8410 X1.2747 Y-2.4527
N8415 X1.2474
N8420 X1.2201
N8425 X1.1927
N8430 X1.1654
N8435 X1.138
N8440 X1.1039
N8445 X1.097 Y-2.4526
N8450 X1.0902 Y-2.4525
N8455 X1.0834 Y-2.4523
N8460 X1.0765 Y-2.452
N8465 X1.0697 Y-2.4516
N8470 X1.0629 Y-2.4511
N8475 X1.056 Y-2.4505
N8480 X1.0492 Y-2.4497
N8485 X1.0424 Y-2.4489
N8490 X1.0355 Y-2.448
N8495 X1.0287 Y-2.4469
N8500 X1.0267 Y-2.4466
N8505 X1.0218 Y-2.4458
N8510 X1.015 Y-2.4445
N8515 X1.0082 Y-2.4431
N8520 X1.0013 Y-2.4417
N8525 X0.9945 Y-2.4401
N8530 X0.9931 Y-2.4397
N8535 X0.9877 Y-2.4384
N8540 X0.9808 Y-2.4366
N8545 X0.974 Y-2.4346
N8550 X0.9681 Y-2.4329
N8555 X0.9672 Y-2.4326
N8560 X0.9603 Y-2.4305
N8565 X0.9535 Y-2.4282
N8570 X0.9474 Y-2.4261
N8575 X0.9467 Y-2.4258
N8580 X0.9398 Y-2.4233
N8585 X0.933 Y-2.4206
N8590 X0.9296 Y-2.4192
N8595 X0.9262 Y-2.4178
N8600 X0.9193 Y-2.4149
N8605 X0.9137 Y-2.4124
N8610 X0.9125 Y-2.4119
N8615 X0.9057 Y-2.4087
N8620 X0.8988 Y-2.4054
N8625 X0.892 Y-2.4019
N8630 X0.8859 Y-2.3987
N8635 X0.8852 Y-2.3983
N8640 X0.8783 Y-2.3946
N8645 X0.8737 Y-2.3919
N8650 X0.8715 Y-2.3906
N8655 X0.8647 Y-2.3866
N8660 X0.8622 Y-2.3851
N8665 X0.8578 Y-2.3823
N8670 X0.8515 Y-2.3782
N8675 X0.851 Y-2.3779
N8680 X0.8442 Y-2.3733
N8685 X0.8414 Y-2.3714
N8690 X0.8373 Y-2.3686
N8695 X0.8318 Y-2.3646
N8700 X0.8305 Y-2.3636
N8705 X0.8236 Y-2.3584
N8710 X0.8227 Y-2.3577
N8715 X0.8168 Y-2.3531
N8720 X0.8141 Y-2.3509
N8725 X0.81 Y-2.3475
N8730 X0.8059 Y-2.3441
N8735 X0.8031 Y-2.3417
N8740 X0.7981 Y-2.3372
N8745 X0.7963 Y-2.3356
N8750 X0.7906 Y-2.3304
N8755 X0.7895 Y-2.3293
N8760 X0.7835 Y-2.3236
N8765 X0.7826 Y-2.3227
N8770 X0.7766 Y-2.3167
N8775 X0.7758 Y-2.3159
N8780 X0.77 Y-2.3099
N8785 X0.769 Y-2.3087
N8790 X0.7637 Y-2.3031
N8795 X0.7621 Y-2.3013
N8800 X0.7577 Y-2.2962
N8805 X0.7553 Y-2.2934
N8810 X0.7519 Y-2.2894
N8815 X0.7485 Y-2.2852
N8820 X0.7463 Y-2.2826
N8825 X0.7416 Y-2.2766
N8830 X0.7409 Y-2.2757
N8835 X0.7358 Y-2.2689
N8840 X0.7348 Y-2.2676
N8845 X0.7308 Y-2.262
N8850 X0.728 Y-2.258
N8855 X0.7261 Y-2.2552
N8860 X0.7215 Y-2.2484
N8865 X0.7211 Y-2.2479
N8870 X0.717 Y-2.2415
N8875 X0.7143 Y-2.2371
N8880 X0.7128 Y-2.2347
N8885 X0.7087 Y-2.2279
N8890 X0.7075 Y-2.2257
N8895 X0.7048 Y-2.221
N8900 X0.701 Y-2.2142
N8905 X0.7006 Y-2.2134
N8910 X0.6975 Y-2.2074
N8915 X0.694 Y-2.2005
N8920 X0.6906 Y-2.1937
N8925 X0.6875 Y-2.1869
N8930 X0.687 Y-2.1857
N8935 X0.6844 Y-2.18
N8940 X0.6815 Y-2.1732
N8945 X0.6801 Y-2.1698
N8950 X0.6788 Y-2.1664
N8955 X0.6761 Y-2.1595
N8960 X0.6736 Y-2.1527
N8965 X0.6733 Y-2.1519
N8970 X0.6712 Y-2.1459
N8975 X0.6689 Y-2.139
N8980 X0.6667 Y-2.1322
N8985 X0.6665 Y-2.1313
N8990 X0.6647 Y-2.1254
N8995 X0.6628 Y-2.1185
N9000 X0.661 Y-2.1117
N9005 X0.6596 Y-2.1063
N9010 X0.6593 Y-2.1049
N9015 X0.6577 Y-2.098
N9020 X0.6568 Y-2.0938
N9025 X0.6562 Y-2.0912
N9030 X0.6549 Y-2.0844
N9035 X0.6536 Y-2.0775
N9040 X0.6528 Y-2.0727
N9045 X0.6525 Y-2.0707
N9050 X0.6514 Y-2.0638
N9055 X0.6505 Y-2.057
N9060 X0.6497 Y-2.0502
N9065 X0.6489 Y-2.0433
N9070 X0.6483 Y-2.0365
N9075 X0.6478 Y-2.0297
N9080 X0.6474 Y-2.0228
N9085 X0.6471 Y-2.016
N9090 X0.6469 Y-2.0092
N9095 X0.6467 Y-2.0023
N9100 Y-1.9955
N9105 Y-1.9408
N9110 Y-1.9135
N9115 Y-1.8862
N9120 Y-1.8588
N9125 Y-1.8315
N9130 Y-1.7563
N9135 Y-1.5034
N9140 Y-1.4966
N9145 Y-1.1754
N9150 Y-1.148
N9155 Y-1.1207
N9160 Y-1.0933
N9165 Y-1.066
N9170 Y-1.0387
N9175 Y-1.0045
N9180 Y-0.9977
N9185 X0.6469 Y-0.9908
N9190 X0.6471 Y-0.984
N9195 X0.6474 Y-0.9772
N9200 X0.6478 Y-0.9703
N9205 X0.6483 Y-0.9635
N9210 X0.6489 Y-0.9567
N9215 X0.6497 Y-0.9498
N9220 X0.6505 Y-0.943
N9225 X0.6514 Y-0.9362
N9230 X0.6525 Y-0.9293
N9235 X0.6528 Y-0.9273
N9240 X0.6536 Y-0.9225
N9245 X0.6549 Y-0.9156
N9250 X0.6562 Y-0.9088
N9255 X0.6577 Y-0.902
N9260 X0.6593 Y-0.8951
N9265 X0.6596 Y-0.8937
N9270 X0.661 Y-0.8883
N9275 X0.6628 Y-0.8815
N9280 X0.6647 Y-0.8746
N9285 X0.6665 Y-0.8687
N9290 X0.6667 Y-0.8678
N9295 X0.6689 Y-0.861
N9300 X0.6712 Y-0.8541
N9305 X0.6733 Y-0.8481
N9310 X0.6736 Y-0.8473
N9315 X0.6761 Y-0.8405
N9320 X0.6788 Y-0.8336
N9325 X0.6801 Y-0.8302
N9330 X0.6815 Y-0.8268
N9335 X0.6844 Y-0.82
N9340 X0.687 Y-0.8143
N9345 X0.6875 Y-0.8131
N9350 X0.6906 Y-0.8063
N9355 X0.694 Y-0.7995
N9360 X0.6975 Y-0.7926
N9365 X0.7006 Y-0.7866
N9370 X0.701 Y-0.7858
N9375 X0.7048 Y-0.779
N9380 X0.7075 Y-0.7743
N9385 X0.7087 Y-0.7721
N9390 X0.7128 Y-0.7653
N9395 X0.7143 Y-0.7629
N9400 X0.717 Y-0.7585
N9405 X0.7211 Y-0.7521
N9410 X0.7215 Y-0.7516
N9415 X0.7261 Y-0.7448
N9420 X0.728 Y-0.742
N9425 X0.7308 Y-0.738
N9430 X0.7348 Y-0.7324
N9435 X0.7358 Y-0.7311
N9440 X0.7409 Y-0.7243
N9445 X0.7416 Y-0.7234
N9450 X0.7463 Y-0.7174
N9455 X0.7485 Y-0.7148
N9460 X0.7519 Y-0.7106
N9465 X0.7553 Y-0.7066
N9470 X0.7577 Y-0.7038
N9475 X0.7621 Y-0.6987
N9480 X0.7637 Y-0.6969
N9485 X0.769 Y-0.6913
N9490 X0.77 Y-0.6901
N9495 X0.7758 Y-0.6841
N9500 X0.7766 Y-0.6833
N9505 X0.7826 Y-0.6773
N9510 X0.7835 Y-0.6764
N9515 X0.7895 Y-0.6707
N9520 X0.7906 Y-0.6696
N9525 X0.7963 Y-0.6644
N9530 X0.7981 Y-0.6628
N9535 X0.8031 Y-0.6583
N9540 X0.8059 Y-0.6559
N9545 X0.81 Y-0.6525
N9550 X0.8141 Y-0.6491
N9555 X0.8168 Y-0.6469
N9560 X0.8227 Y-0.6423
N9565 X0.8236 Y-0.6416
N9570 X0.8305 Y-0.6364
N9575 X0.8318 Y-0.6354
N9580 X0.8373 Y-0.6314
N9585 X0.8414 Y-0.6286
N9590 X0.8442 Y-0.6267
N9595 X0.851 Y-0.6221
N9600 X0.8515 Y-0.6218
N9605 X0.8578 Y-0.6177
N9610 X0.8622 Y-0.6149
N9615 X0.8647 Y-0.6134
N9620 X0.8715 Y-0.6094
N9625 X0.8737 Y-0.6081
N9630 X0.8783 Y-0.6054
N9635 X0.8852 Y-0.6017
N9640 X0.8859 Y-0.6013
N9645 X0.892 Y-0.5981
N9650 X0.8988 Y-0.5946
N9655 X0.9057 Y-0.5913
N9660 X0.9125 Y-0.5881
N9665 X0.9137 Y-0.5876
N9670 X0.9193 Y-0.5851
N9675 X0.9262 Y-0.5822
N9680 X0.9296 Y-0.5808
N9685 X0.933 Y-0.5794
N9690 X0.9398 Y-0.5767
N9695 X0.9467 Y-0.5742
N9700 X0.9474 Y-0.5739
N9705 X0.9535 Y-0.5718
N9710 X0.9603 Y-0.5695
N9715 X0.9672 Y-0.5674
N9720 X0.9681 Y-0.5671
N9725 X0.974 Y-0.5654
N9730 X0.9808 Y-0.5634
N9735 X0.9877 Y-0.5616
N9740 X0.9931 Y-0.5603
N9745 X0.9945 Y-0.5599
N9750 X1.0013 Y-0.5583
N9755 X1.0082 Y-0.5569
N9760 X1.015 Y-0.5555
N9765 X1.0218 Y-0.5542
N9770 X1.0267 Y-0.5534
N9775 X1.0287 Y-0.5531
N9780 X1.0355 Y-0.552
N9785 X1.0424 Y-0.5511
N9790 X1.0492 Y-0.5503
N9795 X1.056 Y-0.5495
N9800 X1.0629 Y-0.5489
N9805 X1.0697 Y-0.5484
N9810 X1.0765 Y-0.548
N9815 X1.0834 Y-0.5477
N9820 X1.0902 Y-0.5475
N9825 X1.097 Y-0.5474
N9830 X1.1039 Y-0.5473
N9835 X1.1585
N9840 X1.1859
N9845 X1.2132
N9850 X1.2406
N9855 X1.2679
N9860 X1.3431
N9865 X1.5959 Y-0.5474
N9870 X1.6028
N9875 X1.924 Y-0.5473
N9880 X1.9513
N9885 X1.9787
N9890 X2.006
N9895 X2.0334
N9900 X2.0607
N9905 X2.0949
N9910 X2.1017 Y-0.5474
N9915 X2.1085 Y-0.5475
N9920 X2.1154 Y-0.5477
N9925 X2.1222 Y-0.548
N9930 X2.129 Y-0.5484
N9935 X2.1359 Y-0.5489
N9940 X2.1427 Y-0.5495
N9945 X2.1495 Y-0.5503
N9950 X2.1564 Y-0.5511
N9955 X2.1632 Y-0.552
N9960 X2.17 Y-0.5531
N9965 X2.1721 Y-0.5534
N9970 X2.1769 Y-0.5542
N9975 X2.1837 Y-0.5555
N9980 X2.1906 Y-0.5569
N9985 X2.1974 Y-0.5583
N9990 X2.2042 Y-0.5599
N9995 X2.2056 Y-0.5603
N10000 X2.2111 Y-0.5616
N10005 X2.2179 Y-0.5634
N10010 X2.2247 Y-0.5654
N10015 X2.2307 Y-0.5671
N10020 X2.2316 Y-0.5674
N10025 X2.2384 Y-0.5695
N10030 X2.2452 Y-0.5718
N10035 X2.2513 Y-0.5739
N10040 X2.2521 Y-0.5742
N10045 X2.2589 Y-0.5767
N10050 X2.2657 Y-0.5794
N10055 X2.2691 Y-0.5808
N10060 X2.2726 Y-0.5822
N10065 X2.2794 Y-0.5851
N10070 X2.2851 Y-0.5876
N10075 X2.2862 Y-0.5881
N10080 X2.2931 Y-0.5913
N10085 X2.2999 Y-0.5946
N10090 X2.3067 Y-0.5981
N10095 X2.3128 Y-0.6013
N10100 X2.3136 Y-0.6017
N10105 X2.3204 Y-0.6054
N10110 X2.3251 Y-0.6081
N10115 X2.3272 Y-0.6094
N10120 X2.3341 Y-0.6134
N10125 X2.3365 Y-0.6149
N10130 X2.3409 Y-0.6177
N10135 X2.3472 Y-0.6218
N10140 X2.3477 Y-0.6221
N10145 X2.3546 Y-0.6267
N10150 X2.3574 Y-0.6286
N10155 X2.3614 Y-0.6314
N10160 X2.3669 Y-0.6354
N10165 X2.3682 Y-0.6364
N10170 X2.3751 Y-0.6416
N10175 X2.376 Y-0.6423
N10180 X2.3819 Y-0.6469
N10185 X2.3846 Y-0.6491
N10190 X2.3888 Y-0.6525
N10195 X2.3928 Y-0.6559
N10200 X2.3956 Y-0.6583
N10205 X2.4006 Y-0.6628
N10210 X2.4024 Y-0.6644
N10215 X2.4081 Y-0.6696
N10220 X2.4093 Y-0.6707
N10225 X2.4153 Y-0.6764
N10230 X2.4161 Y-0.6773
N10235 X2.4221 Y-0.6833
N10240 X2.4229 Y-0.6841
N10245 X2.4287 Y-0.6901
N10250 X2.4298 Y-0.6913
N10255 X2.435 Y-0.6969
N10260 X2.4366 Y-0.6987
N10265 X2.4411 Y-0.7038
N10270 X2.4434 Y-0.7066
N10275 X2.4468 Y-0.7106
N10280 X2.4503 Y-0.7148
N10285 X2.4518 Y-0.7167
N10290 X2.4524 Y-0.7174
N10295 X2.4571 Y-0.7234
N10300 X2.4578 Y-0.7243
N10305 X2.463 Y-0.7311
N10310 X2.4639 Y-0.7324
N10315 X2.4679 Y-0.738
N10320 X2.4708 Y-0.742
N10325 X2.4727 Y-0.7448
N10330 X2.4773 Y-0.7516
N10335 X2.4776 Y-0.7521
N10340 X2.4817 Y-0.7585
N10345 X2.4844 Y-0.7629
N10350 X2.4859 Y-0.7653
N10355 X2.49 Y-0.7721
N10360 X2.4913 Y-0.7743
N10365 X2.4939 Y-0.779
N10370 X2.4977 Y-0.7858
N10375 X2.4981 Y-0.7865
N10380 X2.5013 Y-0.7926
N10385 X2.5048 Y-0.7995
N10390 X2.5081 Y-0.8063
N10395 X2.5112 Y-0.8131
N10400 X2.5118 Y-0.8143
N10405 X2.5143 Y-0.82
N10410 X2.5172 Y-0.8268
N10415 X2.5186 Y-0.8302
N10420 X2.52 Y-0.8336
N10425 X2.5226 Y-0.8405
N10430 X2.5252 Y-0.8473
N10435 X2.5254 Y-0.8481
N10440 X2.5275 Y-0.8541
N10445 X2.5298 Y-0.861
N10450 X2.532 Y-0.8678
N10455 X2.5323 Y-0.8687
N10460 X2.534 Y-0.8746
N10465 X2.536 Y-0.8815
N10470 X2.5378 Y-0.8883
N10475 X2.5391 Y-0.8937
N10480 X2.5394 Y-0.8951
N10485 X2.5411 Y-0.902
N10490 X2.5425 Y-0.9088
N10495 X2.5439 Y-0.9156
N10500 X2.5451 Y-0.9225
N10505 X2.5459 Y-0.9273
N10510 X2.5463 Y-0.9293
N10515 X2.5473 Y-0.9362
N10520 X2.5483 Y-0.943
N10525 X2.5491 Y-0.9498
N10530 X2.5498 Y-0.9567
N10535 X2.5504 Y-0.9635
N10540 X2.5509 Y-0.9703
N10545 X2.5514 Y-0.9772
N10550 X2.5517 Y-0.984
N10555 X2.5519 Y-0.9908
N10560 X2.552 Y-0.9977
N10565 Y-1.0045
N10570 Y-1.0592
N10575 Y-1.0865
N10580 Y-1.1138
N10585 Y-1.1412
N10590 Y-1.1685
N10595 Y-1.2437
N10600 Y-1.4966
N10605 Y-1.5034
N10610 Y-1.8246
N10615 Y-1.852
N10620 Y-1.8793
N10625 Y-1.9067
N10630 Y-1.934
N10635 Y-1.9613
N10640 Y-1.9955
N10645 Y-2.0023
N10650 X2.5519 Y-2.0092
N10655 X2.5517 Y-2.016
N10660 X2.5514 Y-2.0228
N10665 X2.5509 Y-2.0297
N10670 X2.5504 Y-2.0365
N10675 X2.5498 Y-2.0433
N10680 X2.5491 Y-2.0502
N10685 X2.5483 Y-2.057
N10690 X2.5473 Y-2.0638
N10695 X2.5463 Y-2.0707
N10700 X2.5459 Y-2.0727
N10705 X2.5451 Y-2.0775
N10710 X2.5439 Y-2.0844
N10715 X2.5425 Y-2.0912
N10720 X2.5411 Y-2.098
N10725 X2.5394 Y-2.1049
N10730 X2.5391 Y-2.1063
N10735 X2.5378 Y-2.1117
N10740 X2.536 Y-2.1185
N10745 X2.534 Y-2.1254
N10750 X2.5323 Y-2.1313
N10755 X2.532 Y-2.1322
N10760 X2.5298 Y-2.139
N10765 X2.5275 Y-2.1459
N10770 X2.5254 Y-2.1519
N10775 X2.5252 Y-2.1527
N10780 X2.5226 Y-2.1595
N10785 X2.52 Y-2.1664
N10790 X2.5186 Y-2.1698
N10795 X2.5172 Y-2.1732
N10800 X2.5143 Y-2.18
N10805 X2.5118 Y-2.1857
N10810 X2.5112 Y-2.1869
N10815 X2.5081 Y-2.1937
N10820 X2.5063 Y-2.1973
N10825 X2.5005 Y-2.2089
N10830 X2.4943 Y-2.2204
N10835 X2.4879 Y-2.2316 Z-0.1501
N10840 X2.4814 Y-2.2423 Z-0.1502
N10845 X2.4744 Y-2.2532 Z-0.1503
N10850 X2.467 Y-2.264 Z-0.1504
N10855 X2.4594 Y-2.2745 Z-0.1505
N10860 X2.4513 Y-2.285 Z-0.1506
N10865 X2.4433 Y-2.2948 Z-0.1508
N10870 X2.4347 Y-2.3048 Z-0.151
N10875 X2.4262 Y-2.3142 Z-0.1512
N10880 X2.4172 Y-2.3237 Z-0.1514
N10885 X2.4078 Y-2.3329 Z-0.1516
N10890 X2.3984 Y-2.3418 Z-0.1519
N10895 X2.3884 Y-2.3506 Z-0.1522
N10900 X2.3789 Y-2.3586 Z-0.1524
N10905 X2.3685 Y-2.3668 Z-0.1527
N10910 X2.358 Y-2.3746 Z-0.153
N10915 X2.3474 Y-2.3822 Z-0.1534
N10920 X2.3364 Y-2.3895 Z-0.1537
N10925 X2.3252 Y-2.3965 Z-0.1541
N10930 X2.3141 Y-2.4031 Z-0.1544
N10935 X2.3028 Y-2.4093 Z-0.1548
N10940 X2.2912 Y-2.4153 Z-0.1552
N10945 X2.2793 Y-2.421 Z-0.1556
N10950 X2.2675 Y-2.4263 Z-0.156
N10955 X2.2551 Y-2.4314 Z-0.1565
N10960 X2.2427 Y-2.4362 Z-0.1569
N10965 X2.2303 Y-2.4405 Z-0.1574
N10970 X2.2179 Y-2.4445 Z-0.1578
N10975 X2.2053 Y-2.4481 Z-0.1583
N10980 X2.1925 Y-2.4514 Z-0.1587
N10985 X2.1795 Y-2.4544 Z-0.1592
N10990 X2.1665 Y-2.457 Z-0.1597
N10995 X2.1535 Y-2.4592 Z-0.1601
N11000 X2.1405 Y-2.461 Z-0.1606
N11005 X2.1274 Y-2.4624 Z-0.161
N11010 X2.1143 Y-2.4635 Z-0.1615
N11015 X2.101 Y-2.4643 Z-0.162
N11020 X2.0871 Y-2.4648 Z-0.1624
N11025 X2.0731 Y-2.4652 Z-0.1629
N11030 X2.0591 Y-2.4657 Z-0.1634
N11035 X2.0451 Y-2.4662 Z-0.1639
N11040 X2.0311 Y-2.4666 Z-0.1644
N11045 X2.0171 Y-2.4671 Z-0.1649
N11050 X1.8211 Y-2.4734 Z-0.1717
N11055 X1.8071 Y-2.4738 Z-0.1722
N11060 X1.6811 Y-2.4778 Z-0.1766
N11065 X1.5971 Y-2.4805 Z-0.1796
N11070 X1.5831 Y-2.481 Z-0.1801
N11075 X1.5691 Y-2.4814 Z-0.1805
N11080 X1.5551 Y-2.4818 Z-0.181
N11085 X1.5411 Y-2.4823 Z-0.1815
N11090 X1.5131 Y-2.4831 Z-0.1825
N11095 X1.4991 Y-2.4835 Z-0.183
N11100 X1.4851 Y-2.4839 Z-0.1835
N11105 X1.4711 Y-2.4843 Z-0.1839
N11110 X1.4571 Y-2.4847 Z-0.1844
N11115 X1.4431 Y-2.4851 Z-0.1848
N11120 X1.4291 Y-2.4855 Z-0.1852
N11125 X1.4151 Y-2.4858 Z-0.1856
N11130 X1.4011 Y-2.4861 Z-0.186
N11135 X1.3871 Y-2.4865 Z-0.1864
N11140 X1.3731 Y-2.4868 Z-0.1867
N11145 X1.3591 Y-2.4871 Z-0.1871
N11150 X1.3451 Y-2.4874 Z-0.1874
N11155 X1.3311 Y-2.4876 Z-0.1877
N11160 X1.3171 Y-2.4879 Z-0.188
N11165 X1.3031 Y-2.4881 Z-0.1883
N11170 X1.2891 Y-2.4883 Z-0.1885
N11175 X1.2751 Y-2.4885 Z-0.1888
N11180 X1.2611 Y-2.4887 Z-0.189
N11185 X1.2471 Y-2.4889 Z-0.1892
N11190 X1.2331 Y-2.4891 Z-0.1894
N11195 X1.2191 Y-2.4892 Z-0.1895
N11200 X1.2051 Y-2.4893 Z-0.1897
N11205 X1.1911 Y-2.4894 Z-0.1898
N11210 X1.1771 Y-2.4895 Z-0.1899
N11215 X1.1631
N11220 X1.1491 Y-2.4896 Z-0.19
N11225 X1.1351
N11230 X1.1295
N11235 X1.1039
N11240 X1.097
N11245 X1.0902 Y-2.4895
N11250 X1.0834 Y-2.4893
N11255 X1.0765 Y-2.489
N11260 X1.0697 Y-2.4886
N11265 X1.0629 Y-2.4882
N11270 X1.056 Y-2.4876
N11275 X1.0492 Y-2.4869
N11280 X1.0424 Y-2.4862
N11285 X1.0355 Y-2.4853
N11290 X1.0287 Y-2.4843
N11295 X1.0218 Y-2.4833
N11300 X1.015 Y-2.4821
N11305 X1.0077 Y-2.4808
N11310 X1.0013 Y-2.4795
N11315 X0.9945 Y-2.478
N11320 X0.9877 Y-2.4765
N11325 X0.9808 Y-2.4748
N11330 X0.9774 Y-2.4739
N11335 X0.974 Y-2.473
N11340 X0.9672 Y-2.4712
N11345 X0.9603 Y-2.4692
N11350 X0.9535 Y-2.4671
N11355 X0.9467 Y-2.4649
N11360 X0.9398 Y-2.4626
N11365 X0.9332 Y-2.4602
N11370 X0.9262 Y-2.4576
N11375 X0.9193 Y-2.455
N11380 X0.9155 Y-2.4534
N11385 X0.9125 Y-2.4522
N11390 X0.9057 Y-2.4493
N11395 X0.8995 Y-2.4466
N11400 X0.892 Y-2.4432
N11405 X0.8852 Y-2.4399
N11410 X0.8849 Y-2.4397
N11415 X0.8783 Y-2.4365
N11420 X0.8715 Y-2.4329
N11425 X0.8647 Y-2.4292
N11430 X0.8589 Y-2.4261
N11435 X0.8578 Y-2.4255
N11440 X0.851 Y-2.4215
N11445 X0.8472 Y-2.4192
N11450 X0.8442 Y-2.4174
N11455 X0.8373 Y-2.4131
N11460 X0.8362 Y-2.4124
N11465 X0.8305 Y-2.4087
N11470 X0.8258 Y-2.4056
N11475 X0.8236 Y-2.4041
N11480 X0.8168 Y-2.3994
N11485 X0.81 Y-2.3944
N11490 X0.8066 Y-2.3919
N11495 X0.8031 Y-2.3893
N11500 X0.7976 Y-2.3851
N11505 X0.7963 Y-2.384
N11510 X0.7895 Y-2.3785
N11515 X0.7891 Y-2.3782
N11520 X0.7826 Y-2.3728
N11525 X0.781 Y-2.3714
N11530 X0.7758 Y-2.3669
N11535 X0.7732 Y-2.3646
N11540 X0.769 Y-2.3607
N11545 X0.7657 Y-2.3577
N11550 X0.7621 Y-2.3544
N11555 X0.7586 Y-2.3509
N11560 X0.7553 Y-2.3477
N11565 X0.7516 Y-2.3441
N11570 X0.7485 Y-2.3408
N11575 X0.745 Y-2.3372
N11580 X0.7416 Y-2.3336
N11585 X0.7386 Y-2.3304
N11590 X0.7348 Y-2.3262
N11595 X0.7325 Y-2.3236
N11600 X0.728 Y-2.3184
N11605 X0.7266 Y-2.3167
N11610 X0.7211 Y-2.3103
N11615 X0.7208 Y-2.3099
N11620 X0.7154 Y-2.3031
N11625 X0.7143 Y-2.3017
N11630 X0.7101 Y-2.2962
N11635 X0.7075 Y-2.2928
N11640 X0.7049 Y-2.2894
N11645 X0.7 Y-2.2826
N11650 X0.6953 Y-2.2757
N11655 X0.6938 Y-2.2736
N11660 X0.6907 Y-2.2689
N11665 X0.687 Y-2.2632
N11670 X0.6862 Y-2.262
N11675 X0.682 Y-2.2552
N11680 X0.6801 Y-2.2522
N11685 X0.6779 Y-2.2484
N11690 X0.6739 Y-2.2415
N11695 X0.6733 Y-2.2405
N11700 X0.6701 Y-2.2347
N11705 X0.6665 Y-2.2279
N11710 X0.6629 Y-2.221
N11715 X0.6596 Y-2.2144
N11720 X0.6595 Y-2.2142
N11725 X0.6562 Y-2.2074
N11730 X0.6528 Y-2.1999
N11735 X0.6501 Y-2.1937
N11740 X0.6472 Y-2.1869
N11745 X0.646 Y-2.1839
N11750 X0.6444 Y-2.18
N11755 X0.6417 Y-2.1732
N11760 X0.6391 Y-2.1661
N11765 X0.6368 Y-2.1595
N11770 X0.6345 Y-2.1527
N11775 X0.6323 Y-2.1459
N11780 X0.6302 Y-2.139
N11785 X0.6282 Y-2.1322
N11790 X0.6263 Y-2.1254
N11795 X0.6254 Y-2.122
N11800 X0.6245 Y-2.1185
N11805 X0.6229 Y-2.1117
N11810 X0.6213 Y-2.1049
N11815 X0.6206 Y-2.1014
N11820 X0.6199 Y-2.098
N11825 X0.6186 Y-2.0917
N11830 X0.6172 Y-2.0844
N11835 X0.6161 Y-2.0775
N11840 X0.615 Y-2.0707
N11845 X0.6141 Y-2.0638
N11850 X0.6132 Y-2.057
N11855 X0.6125 Y-2.0502
N11860 X0.6118 Y-2.0433
N11865 Y-2.0432
N11870 X0.6112 Y-2.0365
N11875 X0.6107 Y-2.0297
N11880 X0.6103 Y-2.0228
N11885 X0.6101 Y-2.016
N11890 X0.6099 Y-2.0092
N11895 X0.6098 Y-2.0023
N11900 Y-1.9955
N11905 Y-1.852
N11910 Y-1.8315
N11915 Y-1.4966
N11920 Y-1.1549
N11925 Y-1.1412
N11930 Y-1.0045
N11935 Y-0.9977
N11940 X0.6099 Y-0.9908
N11945 X0.6101 Y-0.984
N11950 X0.6103 Y-0.9772
N11955 X0.6107 Y-0.9703
N11960 X0.6112 Y-0.9635
N11965 X0.6118 Y-0.9567
N11970 X0.6125 Y-0.9498
N11975 X0.6132 Y-0.943
N11980 X0.6141 Y-0.9362
N11985 X0.615 Y-0.9293
N11990 X0.6161 Y-0.9225
N11995 X0.6172 Y-0.9156
N12000 X0.6186 Y-0.9083
N12005 X0.6199 Y-0.902
N12010 X0.6213 Y-0.8951
N12015 X0.6229 Y-0.8883
N12020 X0.6245 Y-0.8815
N12025 X0.6254 Y-0.878
N12030 X0.6263 Y-0.8746
N12035 X0.6282 Y-0.8678
N12040 X0.6302 Y-0.861
N12045 X0.6323 Y-0.8541
N12050 X0.6345 Y-0.8473
N12055 X0.6368 Y-0.8405
N12060 X0.6391 Y-0.8339
N12065 X0.6417 Y-0.8268
N12070 X0.6444 Y-0.82
N12075 X0.646 Y-0.8161
N12080 X0.6472 Y-0.8131
N12085 X0.6501 Y-0.8063
N12090 X0.6528 Y-0.8001
N12095 X0.6562 Y-0.7926
N12100 X0.6595 Y-0.7858
N12105 X0.6596 Y-0.7856
N12110 X0.6629 Y-0.779
N12115 X0.6665 Y-0.7721
N12120 X0.6701 Y-0.7653
N12125 X0.6733 Y-0.7595
N12130 X0.6739 Y-0.7585
N12135 X0.6779 Y-0.7516
N12140 X0.6801 Y-0.7478
N12145 X0.682 Y-0.7448
N12150 X0.6862 Y-0.738
N12155 X0.687 Y-0.7368
N12160 X0.6907 Y-0.7311
N12165 X0.6938 Y-0.7264
N12170 X0.6953 Y-0.7243
N12175 X0.7 Y-0.7174
N12180 X0.7049 Y-0.7106
N12185 X0.7075 Y-0.7072
N12190 X0.7101 Y-0.7038
N12195 X0.7143 Y-0.6983
N12200 X0.7154 Y-0.6969
N12205 X0.7208 Y-0.6901
N12210 X0.7211 Y-0.6897
N12215 X0.7266 Y-0.6833
N12220 X0.728 Y-0.6816
N12225 X0.7325 Y-0.6764
N12230 X0.7348 Y-0.6738
N12235 X0.7386 Y-0.6696
N12240 X0.7416 Y-0.6664
N12245 X0.745 Y-0.6628
N12250 X0.7485 Y-0.6592
N12255 X0.7516 Y-0.6559
N12260 X0.7553 Y-0.6523
N12265 X0.7586 Y-0.6491
N12270 X0.7621 Y-0.6456
N12275 X0.7657 Y-0.6423
N12280 X0.769 Y-0.6393
N12285 X0.7732 Y-0.6354
N12290 X0.7758 Y-0.6331
N12295 X0.781 Y-0.6286
N12300 X0.7826 Y-0.6272
N12305 X0.7891 Y-0.6218
N12310 X0.7895 Y-0.6215
N12315 X0.7963 Y-0.616
N12320 X0.7976 Y-0.6149
N12325 X0.8031 Y-0.6107
N12330 X0.8066 Y-0.6081
N12335 X0.81 Y-0.6056
N12340 X0.8168 Y-0.6006
N12345 X0.8236 Y-0.5959
N12350 X0.8258 Y-0.5944
N12355 X0.8305 Y-0.5913
N12360 X0.8362 Y-0.5876
N12365 X0.8373 Y-0.5869
N12370 X0.8442 Y-0.5826
N12375 X0.8472 Y-0.5808
N12380 X0.851 Y-0.5785
N12385 X0.8578 Y-0.5745
N12390 X0.8589 Y-0.5739
N12395 X0.8647 Y-0.5708
N12400 X0.8715 Y-0.5671
N12405 X0.8783 Y-0.5635
N12410 X0.8849 Y-0.5603
N12415 X0.8852 Y-0.5601
N12420 X0.892 Y-0.5568
N12425 X0.8995 Y-0.5534
N12430 X0.9057 Y-0.5507
N12435 X0.9125 Y-0.5478
N12440 X0.9155 Y-0.5466
N12445 X0.9193 Y-0.545
N12450 X0.9262 Y-0.5424
N12455 X0.9332 Y-0.5398
N12460 X0.9398 Y-0.5374
N12465 X0.9467 Y-0.5351
N12470 X0.9535 Y-0.5329
N12475 X0.9603 Y-0.5308
N12480 X0.9672 Y-0.5288
N12485 X0.974 Y-0.527
N12490 X0.9774 Y-0.5261
N12495 X0.9808 Y-0.5252
N12500 X0.9877 Y-0.5235
N12505 X0.9945 Y-0.522
N12510 X1.0013 Y-0.5205
N12515 X1.0077 Y-0.5192
N12520 X1.015 Y-0.5179
N12525 X1.0218 Y-0.5167
N12530 X1.0287 Y-0.5157
N12535 X1.0355 Y-0.5147
N12540 X1.0424 Y-0.5138
N12545 X1.0492 Y-0.5131
N12550 X1.056 Y-0.5124
N12555 X1.0629 Y-0.5118
N12560 X1.0697 Y-0.5114
N12565 X1.0765 Y-0.511
N12570 X1.0834 Y-0.5107
N12575 X1.0902 Y-0.5105
N12580 X1.097 Y-0.5104
N12585 X1.1039
N12590 X1.2474
N12595 X1.2679
N12600 X1.6028
N12605 X1.9445
N12610 X1.9582
N12615 X2.0949
N12620 X2.1017
N12625 X2.1085 Y-0.5105
N12630 X2.1154 Y-0.5107
N12635 X2.1222 Y-0.511
N12640 X2.129 Y-0.5114
N12645 X2.1359 Y-0.5118
N12650 X2.1427 Y-0.5124
N12655 X2.1495 Y-0.5131
N12660 X2.1564 Y-0.5138
N12665 X2.1632 Y-0.5147
N12670 X2.17 Y-0.5157
N12675 X2.1769 Y-0.5167
N12680 X2.1837 Y-0.5179
N12685 X2.1911 Y-0.5192
N12690 X2.1974 Y-0.5205
N12695 X2.2042 Y-0.522
N12700 X2.2111 Y-0.5235
N12705 X2.2179 Y-0.5252
N12710 X2.2213 Y-0.5261
N12715 X2.2247 Y-0.527
N12720 X2.2316 Y-0.5288
N12725 X2.2384 Y-0.5308
N12730 X2.2452 Y-0.5329
N12735 X2.2521 Y-0.5351
N12740 X2.2589 Y-0.5374
N12745 X2.2655 Y-0.5398
N12750 X2.2726 Y-0.5424
N12755 X2.2794 Y-0.545
N12760 X2.2833 Y-0.5466
N12765 X2.2862 Y-0.5478
N12770 X2.2931 Y-0.5507
N12775 X2.2992 Y-0.5534
N12780 X2.3067 Y-0.5568
N12785 X2.3136 Y-0.5601
N12790 X2.3138 Y-0.5603
N12795 X2.3204 Y-0.5635
N12800 X2.3273 Y-0.5671
N12805 X2.3341 Y-0.5708
N12810 X2.3398 Y-0.5739
N12815 X2.3409 Y-0.5745
N12820 X2.3477 Y-0.5785
N12825 X2.3515 Y-0.5808
N12830 X2.3546 Y-0.5826
N12835 X2.3614 Y-0.5869
N12840 X2.3625 Y-0.5876
N12845 X2.3682 Y-0.5913
N12850 X2.3729 Y-0.5944
N12855 X2.3751 Y-0.5959
N12860 X2.3819 Y-0.6006
N12865 X2.3888 Y-0.6056
N12870 X2.3922 Y-0.6081
N12875 X2.3956 Y-0.6107
N12880 X2.4011 Y-0.6149
N12885 X2.4024 Y-0.616
N12890 X2.4093 Y-0.6215
N12895 X2.4096 Y-0.6218
N12900 X2.4161 Y-0.6272
N12905 X2.4178 Y-0.6286
N12910 X2.4229 Y-0.6331
N12915 X2.4255 Y-0.6354
N12920 X2.4298 Y-0.6393
N12925 X2.433 Y-0.6423
N12930 X2.4366 Y-0.6456
N12935 X2.4402 Y-0.6491
N12940 X2.4434 Y-0.6523
N12945 X2.4471 Y-0.6559
N12950 X2.4503 Y-0.6592
N12955 X2.4538 Y-0.6628
N12960 X2.4571 Y-0.6664
N12965 X2.4601 Y-0.6696
N12970 X2.4639 Y-0.6738
N12975 X2.4662 Y-0.6764
N12980 X2.4708 Y-0.6816
N12985 X2.4722 Y-0.6833
N12990 X2.4776 Y-0.6897
N12995 X2.4779 Y-0.6901
N13000 X2.4834 Y-0.6969
N13005 X2.4844 Y-0.6983
N13010 X2.4887 Y-0.7038
N13015 X2.4913 Y-0.7072
N13020 X2.4938 Y-0.7106
N13025 X2.4987 Y-0.7174
N13030 X2.5035 Y-0.7243
N13035 X2.5049 Y-0.7264
N13040 X2.508 Y-0.7311
N13045 X2.5118 Y-0.7368
N13050 X2.5125 Y-0.738
N13055 X2.5167 Y-0.7448
N13060 X2.5186 Y-0.7478
N13065 X2.5208 Y-0.7516
N13070 X2.5248 Y-0.7585
N13075 X2.5254 Y-0.7595
N13080 X2.5286 Y-0.7653
N13085 X2.5323 Y-0.7721
N13090 X2.5358 Y-0.779
N13095 X2.5391 Y-0.7856
N13100 X2.5392 Y-0.7858
N13105 X2.5425 Y-0.7926
N13110 X2.5459 Y-0.8001
N13115 X2.5487 Y-0.8063
N13120 X2.5516 Y-0.8131
N13125 X2.5528 Y-0.8161
N13130 X2.5543 Y-0.82
N13135 X2.557 Y-0.8268
N13140 X2.5596 Y-0.8339
N13145 X2.5619 Y-0.8405
N13150 X2.5643 Y-0.8473
N13155 X2.5665 Y-0.8541
N13160 X2.5686 Y-0.861
N13165 X2.5705 Y-0.8678
N13170 X2.5724 Y-0.8746
N13175 X2.5733 Y-0.878
N13180 X2.5742 Y-0.8815
N13185 X2.5758 Y-0.8883
N13190 X2.5774 Y-0.8951
N13195 X2.5789 Y-0.902
N13200 X2.5801 Y-0.9083
N13205 X2.5815 Y-0.9156
N13210 X2.5826 Y-0.9225
N13215 X2.5837 Y-0.9293
N13220 X2.5846 Y-0.9362
N13225 X2.5855 Y-0.943
N13230 X2.5863 Y-0.9498
N13235 X2.5869 Y-0.9567
N13240 X2.5875 Y-0.9635
N13245 X2.588 Y-0.9703
N13250 X2.5884 Y-0.9772
N13255 X2.5887 Y-0.984
N13260 X2.5889 Y-0.9908
N13265 Y-0.9977
N13270 X2.589 Y-1.0045
N13275 Y-1.148
N13280 Y-1.1685
N13285 Y-1.5034
N13290 Y-1.8451
N13295 Y-1.8588
N13300 Y-1.9955
N13305 X2.5889 Y-2.0023
N13310 Y-2.0092
N13315 X2.5887 Y-2.016
N13320 X2.5884 Y-2.0228
N13325 X2.588 Y-2.0297
N13330 X2.5875 Y-2.0365
N13335 X2.5869 Y-2.0433
N13340 X2.5863 Y-2.0502
N13345 X2.5855 Y-2.057
N13350 X2.5846 Y-2.0638
N13355 X2.5837 Y-2.0707
N13360 X2.5826 Y-2.0775
N13365 X2.5815 Y-2.0844
N13370 X2.5801 Y-2.0917
N13375 X2.5789 Y-2.098
N13380 X2.5774 Y-2.1049
N13385 X2.5758 Y-2.1117
N13390 X2.5742 Y-2.1185
N13395 X2.5733 Y-2.122
N13400 X2.5724 Y-2.1254
N13405 X2.5705 Y-2.1322
N13410 X2.5686 Y-2.139
N13415 X2.5665 Y-2.1459
N13420 X2.5643 Y-2.1527
N13425 X2.5619 Y-2.1595
N13430 X2.5596 Y-2.1661
N13435 X2.557 Y-2.1732
N13440 X2.5543 Y-2.18
N13445 X2.5528 Y-2.1839
N13450 X2.5516 Y-2.1869
N13455 X2.5487 Y-2.1937
N13460 X2.5459 Y-2.1999
N13465 X2.5425 Y-2.2074
N13470 X2.5396 Y-2.2134
N13475 X2.5392 Y-2.2142
N13480 X2.5391 Y-2.2144
N13485 X2.5358 Y-2.221
N13490 X2.5323 Y-2.2279
N13495 X2.5286 Y-2.2347
N13500 X2.5254 Y-2.2405
N13505 X2.5248 Y-2.2415
N13510 X2.5208 Y-2.2484
N13515 X2.5186 Y-2.2522
N13520 X2.5167 Y-2.2552
N13525 X2.5125 Y-2.262
N13530 X2.5118 Y-2.2632
N13535 X2.508 Y-2.2689
N13540 X2.5049 Y-2.2736
N13545 X2.5035 Y-2.2757
N13550 X2.4987 Y-2.2826
N13555 X2.4938 Y-2.2894
N13560 X2.4913 Y-2.2928
N13565 X2.4887 Y-2.2962
N13570 X2.4844 Y-2.3017
N13575 X2.4834 Y-2.3031
N13580 X2.4779 Y-2.3099
N13585 X2.4776 Y-2.3103
N13590 X2.4722 Y-2.3167
N13595 X2.4708 Y-2.3184
N13600 X2.4662 Y-2.3236
N13605 X2.4639 Y-2.3262
N13610 X2.4601 Y-2.3304
N13615 X2.4571 Y-2.3336
N13620 X2.4538 Y-2.3372
N13625 X2.4503 Y-2.3408
N13630 X2.4471 Y-2.3441
N13635 X2.4434 Y-2.3477
N13640 X2.4402 Y-2.3509
N13645 X2.4366 Y-2.3544
N13650 X2.433 Y-2.3577
N13655 X2.4298 Y-2.3607
N13660 X2.4255 Y-2.3646
N13665 X2.4229 Y-2.3669
N13670 X2.4178 Y-2.3714
N13675 X2.4161 Y-2.3728
N13680 X2.4096 Y-2.3782
N13685 X2.4093 Y-2.3785
N13690 X2.4024 Y-2.384
N13695 X2.4011 Y-2.3851
N13700 X2.3956 Y-2.3893
N13705 X2.3922 Y-2.3919
N13710 X2.3888 Y-2.3944
N13715 X2.3819 Y-2.3994
N13720 X2.3751 Y-2.4041
N13725 X2.3729 Y-2.4056
N13730 X2.3682 Y-2.4087
N13735 X2.3625 Y-2.4124
N13740 X2.3614 Y-2.4131
N13745 X2.3546 Y-2.4174
N13750 X2.3515 Y-2.4192
N13755 X2.3477 Y-2.4215
N13760 X2.3409 Y-2.4255
N13765 X2.3398 Y-2.4261
N13770 X2.3341 Y-2.4292
N13775 X2.3273 Y-2.4329
N13780 X2.3204 Y-2.4365
N13785 X2.3138 Y-2.4397
N13790 X2.3136 Y-2.4399
N13795 X2.3067 Y-2.4432
N13800 X2.2993 Y-2.4466
N13805 X2.2931 Y-2.4493
N13810 X2.2862 Y-2.4522
N13815 X2.2833 Y-2.4534
N13820 X2.2794 Y-2.455
N13825 X2.2726 Y-2.4576
N13830 X2.2655 Y-2.4602
N13835 X2.2589 Y-2.4626
N13840 X2.2521 Y-2.4649
N13845 X2.2452 Y-2.4671
N13850 X2.2384 Y-2.4692
N13855 X2.2316 Y-2.4712
N13860 X2.2247 Y-2.473
N13865 X2.2214 Y-2.4739
N13870 X2.2179 Y-2.4748
N13875 X2.2111 Y-2.4765
N13880 X2.2042 Y-2.478
N13885 X2.1974 Y-2.4795
N13890 X2.1911 Y-2.4808
N13895 X2.1837 Y-2.4821
N13900 X2.1769 Y-2.4833
N13905 X2.17 Y-2.4843
N13910 X2.1632 Y-2.4853
N13915 X2.1564 Y-2.4862
N13920 X2.1495 Y-2.4869
N13925 X2.1427 Y-2.4876
N13930 X2.1359 Y-2.4882
N13935 X2.129 Y-2.4886
N13940 X2.1222 Y-2.489
N13945 X2.1154 Y-2.4893
N13950 X2.1085 Y-2.4895
N13955 X2.1017 Y-2.4896
N13960 X2.0949
N13965 X1.9513
N13970 X1.9308
N13975 X1.5959
N13980 X1.2542
N13985 X1.2406
N13990 X1.1295
N13995 G3 X1.121 Y-2.5381 J-0.025
N14000 G1 X1.4839 Y-2.6698
N14005 G3 X1.5252 Y-2.6465 I0.0107 J0.0294
N14010 X1.5253 Y-2.6457 I-0.0306 J0.0062
N14015 X1.4637 Y-2.6351 Z-0.1934 I-0.0308 J0.0053
N14020 X1.5253 Y-2.6457 Z-0.1969 I0.0308 J-0.0053
N14025 X1.4637 Y-2.6351 Z-0.2003 I-0.0308 J0.0053
N14030 X1.5253 Y-2.6457 Z-0.2037 I0.0308 J-0.0053
N14035 X1.4637 Y-2.6351 Z-0.2071 I-0.0308 J0.0053
N14040 X1.5253 Y-2.6457 Z-0.2106 I0.0308 J-0.0053
N14045 X1.4637 Y-2.6351 Z-0.214 I-0.0308 J0.0053
N14050 X1.5253 Y-2.6457 Z-0.2174 I0.0308 J-0.0053
N14055 X1.4637 Y-2.6351 Z-0.2209 I-0.0308 J0.0053
N14060 X1.5253 Y-2.6457 Z-0.2243 I0.0308 J-0.0053
N14065 X1.4637 Y-2.6351 Z-0.2277 I-0.0308 J0.0053
N14070 X1.505 Y-2.6698 Z-0.23 I0.0308 J-0.0053
N14075 X1.5058 Y-2.6695 I-0.0105 J0.0294
N14080 G1 X1.5177 Y-2.6649
N14085 G3 X1.5356 Y-2.6242 I-0.0114 J0.0293
N14090 G1 X1.5355 Y-2.6241
N14095 Y-2.6239
N14100 X1.5353 Y-2.6234
N14105 X1.535 Y-2.6226
N14110 X1.5344 Y-2.621
N14115 X1.5334 Y-2.6174
N14120 X1.5319 Y-2.6106
N14125 X1.5311 Y-2.6038
N14130 X1.5309 Y-2.5969
N14135 Y-2.5217
N14140 Y-2.5216
N14145 X1.1107 Y-2.5217
N14150 X1.1039
N14155 X1.097 Y-2.5216
N14160 X1.0902 Y-2.5215
N14165 X1.0834 Y-2.5213
N14170 X1.0765 Y-2.5211
N14175 X1.0697 Y-2.5207
N14180 X1.0629 Y-2.5203
N14185 X1.056 Y-2.5197
N14190 X1.0492 Y-2.5191
N14195 X1.0424 Y-2.5183
N14200 X1.0355 Y-2.5176
N14205 X1.0287 Y-2.5166
N14210 X1.0218 Y-2.5157
N14215 X1.015 Y-2.5146
N14220 X1.0082 Y-2.5134
N14225 X1.0013 Y-2.5121
N14230 X0.9945 Y-2.5108
N14235 X0.9877 Y-2.5093
N14240 X0.9824 Y-2.5081
N14245 X0.9808 Y-2.5077
N14250 X0.974 Y-2.5061
N14255 X0.9672 Y-2.5043
N14260 X0.9603 Y-2.5025
N14265 X0.956 Y-2.5013
N14270 X0.9535 Y-2.5005
N14275 X0.9467 Y-2.4985
N14280 X0.9398 Y-2.4963
N14285 X0.9341 Y-2.4944
N14290 X0.9262 Y-2.4917
N14295 X0.9193 Y-2.4892
N14300 X0.9149 Y-2.4876
N14305 X0.9125 Y-2.4867
N14310 X0.9057 Y-2.484
N14315 X0.8988 Y-2.4812
N14320 X0.892 Y-2.4782
N14325 X0.8852 Y-2.4752
N14330 X0.8783 Y-2.4721
N14335 X0.8715 Y-2.4688
N14340 X0.868 Y-2.4671
N14345 X0.8647 Y-2.4654
N14350 X0.8578 Y-2.4619
N14355 X0.8547 Y-2.4602
N14360 X0.851 Y-2.4582
N14365 X0.8442 Y-2.4545
N14370 X0.8422 Y-2.4534
N14375 X0.8373 Y-2.4505
N14380 X0.8306 Y-2.4466
N14385 X0.8236 Y-2.4423
N14390 X0.8196 Y-2.4397
N14395 X0.8168 Y-2.438
N14400 X0.81 Y-2.4335
N14405 X0.8091 Y-2.4329
N14410 X0.8031 Y-2.4288
N14415 X0.7992 Y-2.4261
N14420 X0.7963 Y-2.424
N14425 X0.7897 Y-2.4192
N14430 X0.7895 Y-2.4191
N14435 X0.7826 Y-2.4139
N14440 X0.7807 Y-2.4124
N14445 X0.7758 Y-2.4086
N14450 X0.7721 Y-2.4056
N14455 X0.769 Y-2.4031
N14460 X0.7638 Y-2.3987
N14465 X0.7621 Y-2.3974
N14470 X0.7558 Y-2.3919
N14475 X0.7553 Y-2.3915
N14480 X0.7485 Y-2.3854
N14485 X0.7408 Y-2.3782
N14490 X0.7348 Y-2.3724
N14495 X0.7337 Y-2.3714
N14500 X0.728 Y-2.3656
N14505 X0.7269 Y-2.3646
N14510 X0.7211 Y-2.3586
N14515 X0.714 Y-2.3509
N14520 X0.7079 Y-2.3441
N14525 X0.7075 Y-2.3436
N14530 X0.702 Y-2.3372
N14535 X0.7006 Y-2.3356
N14540 X0.6963 Y-2.3304
N14545 X0.6938 Y-2.3273
N14550 X0.6908 Y-2.3236
N14555 X0.687 Y-2.3187
N14560 X0.6855 Y-2.3167
N14565 X0.6803 Y-2.3099
N14570 X0.6801 Y-2.3097
N14575 X0.6753 Y-2.3031
N14580 X0.6733 Y-2.3002
N14585 X0.6705 Y-2.2962
N14590 X0.6665 Y-2.2903
N14595 X0.6659 Y-2.2894
N14600 X0.6614 Y-2.2826
N14605 X0.6596 Y-2.2798
N14610 X0.6571 Y-2.2757
N14615 X0.6528 Y-2.2688
N14620 X0.6488 Y-2.262
N14625 X0.646 Y-2.2571
N14630 X0.6449 Y-2.2552
N14635 X0.6411 Y-2.2484
N14640 X0.6391 Y-2.2447
N14645 X0.6375 Y-2.2415
N14650 X0.6339 Y-2.2347
N14655 X0.6323 Y-2.2314
N14660 X0.6306 Y-2.2279
N14665 X0.6273 Y-2.221
N14670 X0.6242 Y-2.2142
N14675 X0.6211 Y-2.2074
N14680 X0.6182 Y-2.2005
N14685 X0.6154 Y-2.1937
N14690 X0.6127 Y-2.1869
N14695 X0.6118 Y-2.1844
N14700 X0.6101 Y-2.18
N14705 X0.6077 Y-2.1732
N14710 X0.6049 Y-2.1653
N14715 X0.603 Y-2.1595
N14720 X0.6009 Y-2.1527
N14725 X0.5988 Y-2.1459
N14730 X0.5981 Y-2.1433
N14735 X0.5969 Y-2.139
N14740 X0.595 Y-2.1322
N14745 X0.5933 Y-2.1254
N14750 X0.5916 Y-2.1185
N14755 X0.5913 Y-2.117
N14760 X0.5901 Y-2.1117
N14765 X0.5886 Y-2.1049
N14770 X0.5872 Y-2.098
N14775 X0.586 Y-2.0912
N14780 X0.5848 Y-2.0844
N14785 X0.5837 Y-2.0775
N14790 X0.5827 Y-2.0707
N14795 X0.5818 Y-2.0638
N14800 X0.581 Y-2.057
N14805 X0.5803 Y-2.0502
N14810 X0.5797 Y-2.0433
N14815 X0.5791 Y-2.0365
N14820 X0.5787 Y-2.0297
N14825 X0.5783 Y-2.0228
N14830 X0.5781 Y-2.016
N14835 X0.5779 Y-2.0092
N14840 X0.5777 Y-2.0023
N14845 Y-1.9955
N14850 Y-1.8862
N14855 Y-1.5685
N14860 Y-1.5684
N14865 X0.5024
N14870 X0.4956 Y-1.5683
N14875 X0.4888 Y-1.5675
N14880 X0.4819 Y-1.566
N14885 X0.4784 Y-1.5649
N14890 X0.4767 Y-1.5644
N14895 X0.4759 Y-1.5641
N14900 X0.4755 Y-1.5639
N14905 X0.4752 Y-1.5638
N14910 G3 X0.4428 Y-1.578 I-0.0091 J-0.0233
N14915 G1 X0.4414 Y-1.5816 Z-0.2297
N14920 X0.44 Y-1.5852 Z-0.2288
N14925 X0.4387 Y-1.5886 Z-0.2273
N14930 X0.4375 Y-1.5917 Z-0.2252
N14935 X0.4364 Y-1.5945 Z-0.2227
N14940 X0.4354 Y-1.5968 Z-0.2197
N14945 X0.4347 Y-1.5987 Z-0.2163
N14950 X0.4342 Y-1.6001 Z-0.2127
N14955 X0.4338 Y-1.601 Z-0.2089
N14960 X0.4337 Y-1.6013 Z-0.205
N14965 G0 Z-0.1411
N14970 Y-1.3987
N14975 Z-0.1697
N14980 G1 Z-0.205 F40
N14985 X0.4339 Y-1.399 Z-0.2089
N14990 X0.4342 Y-1.3998 Z-0.2127
N14995 X0.4347 Y-1.4012 Z-0.2163
N15000 X0.4355 Y-1.4031 Z-0.2197
N15005 X0.4364 Y-1.4055 Z-0.2227
N15010 X0.4375 Y-1.4083 Z-0.2252
N15015 X0.4387 Y-1.4114 Z-0.2273
N15020 X0.44 Y-1.4148 Z-0.2288
N15025 X0.4414 Y-1.4183 Z-0.2297
N15030 X0.4428 Y-1.422 Z-0.23
N15035 G3 X0.4752 Y-1.4362 I0.0233 J0.0091
N15040 G1 X0.4753
N15045 X0.4755 Y-1.4361
N15050 X0.4759 Y-1.4359
N15055 X0.4767 Y-1.4356
N15060 X0.4784 Y-1.4351
N15065 X0.4819 Y-1.434
N15070 X0.4888 Y-1.4325
N15075 X0.4956 Y-1.4317
N15080 X0.5024 Y-1.4316
N15085 X0.5777
N15090 Y-1.4315
N15095 Y-1.0113
N15100 Y-1.0045
N15105 Y-0.9977
N15110 X0.5779 Y-0.9908
N15115 X0.5781 Y-0.984
N15120 X0.5783 Y-0.9772
N15125 X0.5787 Y-0.9703
N15130 X0.5791 Y-0.9635
N15135 X0.5797 Y-0.9567
N15140 X0.5803 Y-0.9498
N15145 X0.581 Y-0.943
N15150 X0.5818 Y-0.9362
N15155 X0.5827 Y-0.9293
N15160 X0.5837 Y-0.9225
N15165 X0.5848 Y-0.9156
N15170 X0.586 Y-0.9088
N15175 X0.5872 Y-0.902
N15180 X0.5886 Y-0.8951
N15185 X0.5901 Y-0.8883
N15190 X0.5913 Y-0.883
N15195 X0.5916 Y-0.8815
N15200 X0.5933 Y-0.8746
N15205 X0.595 Y-0.8678
N15210 X0.5969 Y-0.861
N15215 X0.5981 Y-0.8567
N15220 X0.5988 Y-0.8541
N15225 X0.6009 Y-0.8473
N15230 X0.603 Y-0.8405
N15235 X0.6049 Y-0.8347
N15240 X0.6077 Y-0.8268
N15245 X0.6101 Y-0.82
N15250 X0.6118 Y-0.8156
N15255 X0.6127 Y-0.8131
N15260 X0.6154 Y-0.8063
N15265 X0.6182 Y-0.7995
N15270 X0.6211 Y-0.7926
N15275 X0.6242 Y-0.7858
N15280 X0.6273 Y-0.779
N15285 X0.6306 Y-0.7721
N15290 X0.6323 Y-0.7686
N15295 X0.6339 Y-0.7653
N15300 X0.6375 Y-0.7585
N15305 X0.6391 Y-0.7553
N15310 X0.6411 Y-0.7516
N15315 X0.6449 Y-0.7448
N15320 X0.646 Y-0.7429
N15325 X0.6488 Y-0.738
N15330 X0.6528 Y-0.7312
N15335 X0.6571 Y-0.7243
N15340 X0.6596 Y-0.7202
N15345 X0.6614 Y-0.7174
N15350 X0.6659 Y-0.7106
N15355 X0.6665 Y-0.7097
N15360 X0.6705 Y-0.7038
N15365 X0.6733 Y-0.6998
N15370 X0.6753 Y-0.6969
N15375 X0.6801 Y-0.6903
N15380 X0.6803 Y-0.6901
N15385 X0.6855 Y-0.6833
N15390 X0.687 Y-0.6813
N15395 X0.6908 Y-0.6764
N15400 X0.6938 Y-0.6727
N15405 X0.6963 Y-0.6696
N15410 X0.7006 Y-0.6644
N15415 X0.702 Y-0.6628
N15420 X0.7075 Y-0.6564
N15425 X0.7079 Y-0.6559
N15430 X0.714 Y-0.6491
N15435 X0.7211 Y-0.6414
N15440 X0.7269 Y-0.6354
N15445 X0.728 Y-0.6344
N15450 X0.7337 Y-0.6286
N15455 X0.7348 Y-0.6276
N15460 X0.7408 Y-0.6218
N15465 X0.7485 Y-0.6146
N15470 X0.7553 Y-0.6085
N15475 X0.7558 Y-0.6081
N15480 X0.7621 Y-0.6026
N15485 X0.7638 Y-0.6013
N15490 X0.769 Y-0.5969
N15495 X0.7721 Y-0.5944
N15500 X0.7758 Y-0.5914
N15505 X0.7807 Y-0.5876
N15510 X0.7826 Y-0.5861
N15515 X0.7895 Y-0.5809
N15520 X0.7897 Y-0.5808
N15525 X0.7963 Y-0.576
N15530 X0.7992 Y-0.5739
N15535 X0.8031 Y-0.5712
N15540 X0.8091 Y-0.5671
N15545 X0.81 Y-0.5665
N15550 X0.8168 Y-0.562
N15555 X0.8196 Y-0.5603
N15560 X0.8236 Y-0.5577
N15565 X0.8306 Y-0.5534
N15570 X0.8373 Y-0.5495
N15575 X0.8422 Y-0.5466
N15580 X0.8442 Y-0.5455
N15585 X0.851 Y-0.5418
N15590 X0.8547 Y-0.5398
N15595 X0.8578 Y-0.5381
N15600 X0.8647 Y-0.5346
N15605 X0.868 Y-0.5329
N15610 X0.8715 Y-0.5312
N15615 X0.8783 Y-0.5279
N15620 X0.8852 Y-0.5248
N15625 X0.892 Y-0.5218
N15630 X0.8988 Y-0.5188
N15635 X0.9057 Y-0.516
N15640 X0.9125 Y-0.5133
N15645 X0.9149 Y-0.5124
N15650 X0.9193 Y-0.5108
N15655 X0.9262 Y-0.5083
N15660 X0.9341 Y-0.5056
N15665 X0.9398 Y-0.5037
N15670 X0.9467 Y-0.5015
N15675 X0.9535 Y-0.4995
N15680 X0.956 Y-0.4987
N15685 X0.9603 Y-0.4975
N15690 X0.9672 Y-0.4957
N15695 X0.974 Y-0.4939
N15700 X0.9808 Y-0.4923
N15705 X0.9824 Y-0.4919
N15710 X0.9877 Y-0.4907
N15715 X0.9945 Y-0.4892
N15720 X1.0013 Y-0.4879
N15725 X1.0082 Y-0.4866
N15730 X1.015 Y-0.4854
N15735 X1.0218 Y-0.4843
N15740 X1.0287 Y-0.4834
N15745 X1.0355 Y-0.4824
N15750 X1.0424 Y-0.4817
N15755 X1.0492 Y-0.4809
N15760 X1.056 Y-0.4803
N15765 X1.0629 Y-0.4797
N15770 X1.0697 Y-0.4793
N15775 X1.0765 Y-0.4789
N15780 X1.0834 Y-0.4787
N15785 X1.0902 Y-0.4785
N15790 X1.097 Y-0.4784
N15795 X1.1039 Y-0.4783
N15800 X1.2132
N15805 X1.5309 Y-0.4784
N15810 Y-0.4783
N15815 Y-0.4031
N15820 X1.5311 Y-0.3962
N15825 X1.5319 Y-0.3894
N15830 X1.5334 Y-0.3826
N15835 X1.5344 Y-0.379
N15840 X1.535 Y-0.3774
N15845 X1.5353 Y-0.3766
N15850 X1.5355 Y-0.3761
N15855 X1.5356 Y-0.3758
N15860 G3 X1.5214 Y-0.3434 I-0.0233 J0.0091
N15865 G1 X1.5177 Y-0.342 Z-0.2297
N15870 X1.5142 Y-0.3406 Z-0.2288
N15875 X1.5108 Y-0.3393 Z-0.2273
N15880 X1.5077 Y-0.3381 Z-0.2252
N15885 X1.5049 Y-0.337 Z-0.2227
N15890 X1.5025 Y-0.3361 Z-0.2197
N15895 X1.5006 Y-0.3353 Z-0.2163
N15900 X1.4992 Y-0.3348 Z-0.2127
N15905 X1.4984 Y-0.3345 Z-0.2089
N15910 X1.4981 Y-0.3344 Z-0.205
N15915 G0 Z-0.1411
N15920 X1.7007
N15925 Z-0.1697
N15930 G1 Z-0.205 F40
N15935 X1.7004 Y-0.3345 Z-0.2089
N15940 X1.6995 Y-0.3348 Z-0.2127
N15945 X1.6981 Y-0.3354 Z-0.2163
N15950 X1.6962 Y-0.3361 Z-0.2197
N15955 X1.6939 Y-0.337 Z-0.2227
N15960 X1.6911 Y-0.3381 Z-0.2252
N15965 X1.688 Y-0.3393 Z-0.2273
N15970 X1.6846 Y-0.3406 Z-0.2288
N15975 X1.681 Y-0.342 Z-0.2297
N15980 X1.6774 Y-0.3434 Z-0.23
N15985 G3 X1.6631 Y-0.3758 I0.009 J-0.0233
N15990 G1 X1.6632 Y-0.3759
N15995 X1.6633 Y-0.3761
N16000 X1.6634 Y-0.3766
N16005 X1.6637 Y-0.3774
N16010 X1.6643 Y-0.379
N16015 X1.6654 Y-0.3826
N16020 X1.6669 Y-0.3894
N16025 X1.6677 Y-0.3962
N16030 X1.6678 Y-0.4031
N16035 Y-0.4783
N16040 Y-0.4784
N16045 X2.088 Y-0.4783
N16050 X2.0949
N16055 X2.1017 Y-0.4784
N16060 X2.1085 Y-0.4785
N16065 X2.1154 Y-0.4787
N16070 X2.1222 Y-0.4789
N16075 X2.129 Y-0.4793
N16080 X2.1359 Y-0.4797
N16085 X2.1427 Y-0.4803
N16090 X2.1495 Y-0.4809
N16095 X2.1564 Y-0.4817
N16100 X2.1632 Y-0.4824
N16105 X2.17 Y-0.4834
N16110 X2.1769 Y-0.4843
N16115 X2.1837 Y-0.4854
N16120 X2.1906 Y-0.4866
N16125 X2.1974 Y-0.4879
N16130 X2.2042 Y-0.4892
N16135 X2.2111 Y-0.4907
N16140 X2.2164 Y-0.4919
N16145 X2.2179 Y-0.4923
N16150 X2.2247 Y-0.4939
N16155 X2.2316 Y-0.4957
N16160 X2.2384 Y-0.4975
N16165 X2.2427 Y-0.4987
N16170 X2.2452 Y-0.4995
N16175 X2.2521 Y-0.5015
N16180 X2.2589 Y-0.5037
N16185 X2.2647 Y-0.5056
N16190 X2.2726 Y-0.5083
N16195 X2.2794 Y-0.5108
N16200 X2.2838 Y-0.5124
N16205 X2.2862 Y-0.5133
N16210 X2.2931 Y-0.516
N16215 X2.2999 Y-0.5188
N16220 X2.3067 Y-0.5218
N16225 X2.3136 Y-0.5248
N16230 X2.3204 Y-0.5279
N16235 X2.3272 Y-0.5312
N16240 X2.3307 Y-0.5329
N16245 X2.3341 Y-0.5346
N16250 X2.3409 Y-0.5381
N16255 X2.3441 Y-0.5398
N16260 X2.3477 Y-0.5418
N16265 X2.3546 Y-0.5455
N16270 X2.3565 Y-0.5466
N16275 X2.3614 Y-0.5495
N16280 X2.3682 Y-0.5534
N16285 X2.3751 Y-0.5577
N16290 X2.3792 Y-0.5603
N16295 X2.3819 Y-0.562
N16300 X2.3888 Y-0.5665
N16305 X2.3896 Y-0.5671
N16310 X2.3956 Y-0.5712
N16315 X2.3996 Y-0.5739
N16320 X2.4024 Y-0.576
N16325 X2.409 Y-0.5808
N16330 X2.4093 Y-0.5809
N16335 X2.4161 Y-0.5861
N16340 X2.4181 Y-0.5876
N16345 X2.4229 Y-0.5914
N16350 X2.4267 Y-0.5944
N16355 X2.4298 Y-0.5969
N16360 X2.435 Y-0.6013
N16365 X2.4366 Y-0.6026
N16370 X2.4429 Y-0.6081
N16375 X2.4434 Y-0.6085
N16380 X2.4503 Y-0.6146
N16385 X2.4579 Y-0.6218
N16390 X2.4639 Y-0.6276
N16395 X2.465 Y-0.6286
N16400 X2.4708 Y-0.6344
N16405 X2.4718 Y-0.6354
N16410 X2.4776 Y-0.6414
N16415 X2.4847 Y-0.6491
N16420 X2.4908 Y-0.6559
N16425 X2.4913 Y-0.6564
N16430 X2.4967 Y-0.6628
N16435 X2.4981 Y-0.6644
N16440 X2.5025 Y-0.6696
N16445 X2.5049 Y-0.6727
N16450 X2.5079 Y-0.6764
N16455 X2.5118 Y-0.6813
N16460 X2.5133 Y-0.6833
N16465 X2.5184 Y-0.6901
N16470 X2.5186 Y-0.6903
N16475 X2.5234 Y-0.6969
N16480 X2.5254 Y-0.6998
N16485 X2.5282 Y-0.7038
N16490 X2.5323 Y-0.7097
N16495 X2.5329 Y-0.7106
N16500 X2.5373 Y-0.7174
N16505 X2.5391 Y-0.7202
N16510 X2.5417 Y-0.7243
N16515 X2.5459 Y-0.7312
N16520 X2.5499 Y-0.738
N16525 X2.5528 Y-0.7429
N16530 X2.5539 Y-0.7448
N16535 X2.5576 Y-0.7516
N16540 X2.5596 Y-0.7553
N16545 X2.5613 Y-0.7585
N16550 X2.5648 Y-0.7653
N16555 X2.5665 Y-0.7686
N16560 X2.5682 Y-0.7721
N16565 X2.5715 Y-0.779
N16570 X2.5746 Y-0.7858
N16575 X2.5776 Y-0.7926
N16580 X2.5805 Y-0.7995
N16585 X2.5833 Y-0.8063
N16590 X2.586 Y-0.8131
N16595 X2.587 Y-0.8156
N16600 X2.5886 Y-0.82
N16605 X2.5911 Y-0.8268
N16610 X2.5938 Y-0.8347
N16615 X2.5957 Y-0.8405
N16620 X2.5979 Y-0.8473
N16625 X2.5999 Y-0.8541
N16630 X2.6006 Y-0.8567
N16635 X2.6019 Y-0.861
N16640 X2.6037 Y-0.8678
N16645 X2.6055 Y-0.8746
N16650 X2.6071 Y-0.8815
N16655 X2.6075 Y-0.883
N16660 X2.6087 Y-0.8883
N16665 X2.6101 Y-0.8951
N16670 X2.6115 Y-0.902
N16675 X2.6128 Y-0.9088
N16680 X2.6139 Y-0.9156
N16685 X2.615 Y-0.9225
N16690 X2.616 Y-0.9293
N16695 X2.6169 Y-0.9362
N16700 X2.6177 Y-0.943
N16705 X2.6185 Y-0.9498
N16710 X2.6191 Y-0.9567
N16715 X2.6196 Y-0.9635
N16720 X2.62 Y-0.9703
N16725 X2.6204 Y-0.9772
N16730 X2.6207 Y-0.984
N16735 X2.6209 Y-0.9908
N16740 X2.621 Y-0.9977
N16745 Y-1.0045
N16750 Y-1.1138
N16755 Y-1.4315
N16760 X2.6211 Y-1.4316
N16765 X2.6963
N16770 X2.7031 Y-1.4317
N16775 X2.71 Y-1.4325
N16780 X2.7168 Y-1.434
N16785 X2.7203 Y-1.4351
N16790 X2.722 Y-1.4356
N16795 X2.7228 Y-1.4359
N16800 X2.7232 Y-1.4361
N16805 X2.7235 Y-1.4362
N16810 X2.7236
N16815 G3 X2.7559 Y-1.422 I0.0091 J0.0233
N16820 G1 X2.7574 Y-1.4184 Z-0.2297
N16825 X2.7587 Y-1.4148 Z-0.2288
N16830 X2.7601 Y-1.4114 Z-0.2273
N16835 X2.7613 Y-1.4083 Z-0.2252
N16840 X2.7624 Y-1.4055 Z-0.2227
N16845 X2.7633 Y-1.4032 Z-0.2197
N16850 X2.764 Y-1.4013 Z-0.2163
N16855 X2.7646 Y-1.3999 Z-0.2127
N16860 X2.7649 Y-1.399 Z-0.2089
N16865 X2.765 Y-1.3987 Z-0.205
N16870 G0 Z-0.1411
N16875 Y-1.6013
N16880 Z-0.1697
N16885 G1 Z-0.205 F40
N16890 X2.7649 Y-1.601 Z-0.2089
N16895 X2.7645 Y-1.6002 Z-0.2127
N16900 X2.764 Y-1.5988 Z-0.2163
N16905 X2.7633 Y-1.5969 Z-0.2197
N16910 X2.7623 Y-1.5945 Z-0.2227
N16915 X2.7613 Y-1.5917 Z-0.2252
N16920 X2.76 Y-1.5886 Z-0.2273
N16925 X2.7587 Y-1.5852 Z-0.2288
N16930 X2.7574 Y-1.5817 Z-0.2297
N16935 X2.7559 Y-1.578 Z-0.23
N16940 G3 X2.7236 Y-1.5638 I-0.0233 J-0.009
N16945 G1 X2.7234
N16950 X2.7232 Y-1.5639
N16955 X2.7228 Y-1.5641
N16960 X2.722 Y-1.5644
N16965 X2.7203 Y-1.5649
N16970 X2.7168 Y-1.566
N16975 X2.71 Y-1.5675
N16980 X2.7031 Y-1.5683
N16985 X2.6963 Y-1.5684
N16990 X2.6211
N16995 X2.621 Y-1.5685
N17000 Y-1.9887
N17005 Y-1.9955
N17010 Y-2.0023
N17015 X2.6209 Y-2.0092
N17020 X2.6207 Y-2.016
N17025 X2.6204 Y-2.0228
N17030 X2.62 Y-2.0297
N17035 X2.6196 Y-2.0365
N17040 X2.6191 Y-2.0433
N17045 X2.6185 Y-2.0502
N17050 X2.6177 Y-2.057
N17055 X2.6169 Y-2.0638
N17060 X2.616 Y-2.0707
N17065 X2.615 Y-2.0775
N17070 X2.6139 Y-2.0844
N17075 X2.6128 Y-2.0912
N17080 X2.6115 Y-2.098
N17085 X2.6101 Y-2.1049
N17090 X2.6087 Y-2.1117
N17095 X2.6075 Y-2.117
N17100 X2.6071 Y-2.1185
N17105 X2.6055 Y-2.1254
N17110 X2.6037 Y-2.1322
N17115 X2.6019 Y-2.139
N17120 X2.6006 Y-2.1433
N17125 X2.5999 Y-2.1459
N17130 X2.5979 Y-2.1527
N17135 X2.5957 Y-2.1595
N17140 X2.5938 Y-2.1653
N17145 X2.5911 Y-2.1732
N17150 X2.5886 Y-2.18
N17155 X2.587 Y-2.1844
N17160 X2.586 Y-2.1869
N17165 X2.5833 Y-2.1937
N17170 X2.5805 Y-2.2005
N17175 X2.5776 Y-2.2074
N17180 X2.5746 Y-2.2142
N17185 X2.5715 Y-2.221
N17190 X2.5682 Y-2.2279
N17195 X2.5665 Y-2.2314
N17200 X2.5648 Y-2.2347
N17205 X2.5613 Y-2.2415
N17210 X2.5596 Y-2.2447
N17215 X2.5576 Y-2.2484
N17220 X2.5539 Y-2.2552
N17225 X2.5528 Y-2.2571
N17230 X2.5499 Y-2.262
N17235 X2.5459 Y-2.2688
N17240 X2.5417 Y-2.2757
N17245 X2.5391 Y-2.2798
N17250 X2.5373 Y-2.2826
N17255 X2.5329 Y-2.2894
N17260 X2.5323 Y-2.2903
N17265 X2.5282 Y-2.2962
N17270 X2.5254 Y-2.3002
N17275 X2.5234 Y-2.3031
N17280 X2.5186 Y-2.3097
N17285 X2.5184 Y-2.3099
N17290 X2.5133 Y-2.3167
N17295 X2.5118 Y-2.3187
N17300 X2.5079 Y-2.3236
N17305 X2.5049 Y-2.3273
N17310 X2.5025 Y-2.3304
N17315 X2.4981 Y-2.3356
N17320 X2.4967 Y-2.3372
N17325 X2.4913 Y-2.3436
N17330 X2.4908 Y-2.3441
N17335 X2.4847 Y-2.3509
N17340 X2.4776 Y-2.3586
N17345 X2.4718 Y-2.3646
N17350 X2.4708 Y-2.3656
N17355 X2.465 Y-2.3714
N17360 X2.4639 Y-2.3724
N17365 X2.4579 Y-2.3782
N17370 X2.4503 Y-2.3854
N17375 X2.4434 Y-2.3915
N17380 X2.4429 Y-2.3919
N17385 X2.4366 Y-2.3974
N17390 X2.435 Y-2.3987
N17395 X2.4298 Y-2.4031
N17400 X2.4267 Y-2.4056
N17405 X2.4229 Y-2.4086
N17410 X2.4181 Y-2.4124
N17415 X2.4161 Y-2.4139
N17420 X2.4093 Y-2.4191
N17425 X2.409 Y-2.4192
N17430 X2.4024 Y-2.424
N17435 X2.3996 Y-2.4261
N17440 X2.3956 Y-2.4288
N17445 X2.3896 Y-2.4329
N17450 X2.3888 Y-2.4335
N17455 X2.3819 Y-2.438
N17460 X2.3792 Y-2.4397
N17465 X2.3751 Y-2.4423
N17470 X2.3682 Y-2.4466
N17475 X2.3614 Y-2.4505
N17480 X2.3565 Y-2.4534
N17485 X2.3546 Y-2.4545
N17490 X2.3477 Y-2.4582
N17495 X2.3441 Y-2.4602
N17500 X2.3409 Y-2.4619
N17505 X2.3341 Y-2.4654
N17510 X2.3307 Y-2.4671
N17515 X2.3272 Y-2.4688
N17520 X2.3204 Y-2.4721
N17525 X2.3136 Y-2.4752
N17530 X2.3067 Y-2.4782
N17535 X2.2999 Y-2.4812
N17540 X2.2931 Y-2.484
N17545 X2.2862 Y-2.4867
N17550 X2.2838 Y-2.4876
N17555 X2.2794 Y-2.4892
N17560 X2.2726 Y-2.4917
N17565 X2.2647 Y-2.4944
N17570 X2.2589 Y-2.4963
N17575 X2.2521 Y-2.4985
N17580 X2.2452 Y-2.5005
N17585 X2.2427 Y-2.5013
N17590 X2.2384 Y-2.5025
N17595 X2.2316 Y-2.5043
N17600 X2.2247 Y-2.5061
N17605 X2.2179 Y-2.5077
N17610 X2.2164 Y-2.5081
N17615 X2.2111 Y-2.5093
N17620 X2.2042 Y-2.5108
N17625 X2.1974 Y-2.5121
N17630 X2.1906 Y-2.5134
N17635 X2.1837 Y-2.5146
N17640 X2.1769 Y-2.5157
N17645 X2.17 Y-2.5166
N17650 X2.1632 Y-2.5176
N17655 X2.1564 Y-2.5183
N17660 X2.1495 Y-2.5191
N17665 X2.1427 Y-2.5197
N17670 X2.1359 Y-2.5203
N17675 X2.129 Y-2.5207
N17680 X2.1222 Y-2.5211
N17685 X2.1154 Y-2.5213
N17690 X2.1085 Y-2.5215
N17695 X2.1017 Y-2.5216
N17700 X2.0949 Y-2.5217
N17705 X1.9855
N17710 X1.6678 Y-2.5216
N17715 Y-2.5217
N17720 Y-2.5969
N17725 X1.6677 Y-2.6038
N17730 X1.6669 Y-2.6106
N17735 X1.6654 Y-2.6174
N17740 X1.6643 Y-2.621
N17745 X1.6637 Y-2.6226
N17750 X1.6634 Y-2.6234
N17755 X1.6633 Y-2.6239
N17760 X1.6631 Y-2.6242
N17765 G3 X1.6774 Y-2.6566 I0.0233 J-0.0091
N17770 G1 X1.681 Y-2.658 Z-0.2297
N17775 X1.6846 Y-2.6594 Z-0.2288
N17780 X1.6879 Y-2.6607 Z-0.2273
N17785 X1.691 Y-2.6619 Z-0.2252
N17790 X1.6938 Y-2.663 Z-0.2227
N17795 X1.6962 Y-2.6639 Z-0.2197
N17800 X1.6981 Y-2.6647 Z-0.2163
N17805 X1.6995 Y-2.6652 Z-0.2127
N17810 X1.7004 Y-2.6655 Z-0.2089
N17815 X1.7007 Y-2.6656 Z-0.205
N17820 G0 Z-0.1404
N17825 X1.4517 Y-2.661
N17830 Z-0.2073
N17835 G1 Z-0.245 F40
N17840 X1.452 Z-0.2489
N17845 X1.4529 Y-2.6607 Z-0.2527
N17850 X1.4543 Y-2.6604 Z-0.2563
N17855 X1.4563 Y-2.6598 Z-0.2597
N17860 X1.4588 Y-2.6592 Z-0.2627
N17865 X1.4617 Y-2.6584 Z-0.2652
N17870 X1.4649 Y-2.6576 Z-0.2673
N17875 X1.4684 Y-2.6567 Z-0.2688
N17880 X1.4721 Y-2.6557 Z-0.2697
N17885 X1.4759 Y-2.6547 Z-0.27
N17890 G3 X1.4937 Y-2.6242 I-0.0063 J0.0242
N17895 G1 Y-2.624
N17900 X1.4936 Y-2.6236
N17905 X1.4934 Y-2.623
N17910 X1.4922 Y-2.6174
N17915 X1.4912 Y-2.6106
N17920 X1.4906 Y-2.6038
N17925 X1.4905 Y-2.5969
N17930 Y-2.5495
N17935 X1.4904 Y-2.5494
N17940 X1.2406 Y-2.5495
N17945 X1.2201
N17950 X1.1995
N17955 X1.179
N17960 X1.1039
N17965 X1.097
N17970 X1.0902 Y-2.5493
N17975 X1.0834 Y-2.5491
N17980 X1.0765 Y-2.5489
N17985 X1.0697 Y-2.5485
N17990 X1.0629 Y-2.5481
N17995 X1.056 Y-2.5476
N18000 X1.0492 Y-2.547
N18005 X1.0424 Y-2.5463
N18010 X1.0355 Y-2.5456
N18015 X1.0287 Y-2.5447
N18020 X1.0218 Y-2.5438
N18025 X1.015 Y-2.5427
N18030 X1.0082 Y-2.5416
N18035 X1.0013 Y-2.5404
N18040 X0.9945 Y-2.5391
N18045 X0.9877 Y-2.5377
N18050 X0.9808 Y-2.5363
N18055 X0.9771 Y-2.5354
N18060 X0.974 Y-2.5347
N18065 X0.9672 Y-2.5331
N18070 X0.9603 Y-2.5313
N18075 X0.9535 Y-2.5295
N18080 X0.9504 Y-2.5286
N18085 X0.9467 Y-2.5275
N18090 X0.9398 Y-2.5255
N18095 X0.933 Y-2.5233
N18100 X0.9281 Y-2.5218
N18105 X0.9262 Y-2.5211
N18110 X0.9193 Y-2.5188
N18115 X0.9125 Y-2.5164
N18120 X0.9057 Y-2.5138
N18125 X0.8988 Y-2.5112
N18130 X0.8911 Y-2.5081
N18135 X0.8852 Y-2.5056
N18140 X0.8783 Y-2.5027
N18145 X0.8752 Y-2.5013
N18150 X0.8715 Y-2.4995
N18155 X0.8647 Y-2.4964
N18160 X0.8606 Y-2.4944
N18165 X0.8578 Y-2.4931
N18170 X0.851 Y-2.4897
N18175 X0.8442 Y-2.4861
N18180 X0.8373 Y-2.4825
N18185 X0.8305 Y-2.4787
N18190 X0.8236 Y-2.4748
N18195 X0.8222 Y-2.4739
N18200 X0.8168 Y-2.4708
N18205 X0.8108 Y-2.4671
N18210 X0.81 Y-2.4666
N18215 X0.8031 Y-2.4623
N18220 X0.7963 Y-2.4578
N18225 X0.7898 Y-2.4534
N18230 X0.7895 Y-2.4532
N18235 X0.7826 Y-2.4485
N18240 X0.78 Y-2.4466
N18245 X0.7758 Y-2.4435
N18250 X0.7707 Y-2.4397
N18255 X0.769 Y-2.4385
N18260 X0.7621 Y-2.4332
N18265 X0.7617 Y-2.4329
N18270 X0.7553 Y-2.4278
N18275 X0.7532 Y-2.4261
N18280 X0.7485 Y-2.4222
N18285 X0.7416 Y-2.4165
N18290 X0.737 Y-2.4124
N18295 X0.7348 Y-2.4105
N18300 X0.7293 Y-2.4056
N18305 X0.722 Y-2.3987
N18310 X0.7211 Y-2.3979
N18315 X0.7149 Y-2.3919
N18320 X0.7143 Y-2.3913
N18325 X0.7081 Y-2.3851
N18330 X0.7075 Y-2.3844
N18335 X0.7014 Y-2.3782
N18340 X0.7006 Y-2.3774
N18345 X0.6938 Y-2.37
N18350 X0.6889 Y-2.3646
N18355 X0.687 Y-2.3624
N18360 X0.6829 Y-2.3577
N18365 X0.6772 Y-2.3509
N18370 X0.6733 Y-2.3462
N18375 X0.6716 Y-2.3441
N18380 X0.6665 Y-2.3377
N18385 X0.6661 Y-2.3372
N18390 X0.6609 Y-2.3304
N18395 X0.6596 Y-2.3287
N18400 X0.6558 Y-2.3236
N18405 X0.6528 Y-2.3193
N18410 X0.6509 Y-2.3167
N18415 X0.6462 Y-2.3099
N18420 X0.646 Y-2.3095
N18425 X0.6416 Y-2.3031
N18430 X0.6371 Y-2.2962
N18435 X0.6328 Y-2.2894
N18440 X0.6323 Y-2.2885
N18445 X0.6286 Y-2.2826
N18450 X0.6254 Y-2.2772
N18455 X0.6246 Y-2.2757
N18460 X0.6207 Y-2.2689
N18465 X0.6169 Y-2.262
N18470 X0.6132 Y-2.2552
N18475 X0.6097 Y-2.2484
N18480 X0.6063 Y-2.2415
N18485 X0.6049 Y-2.2388
N18490 X0.603 Y-2.2347
N18495 X0.5998 Y-2.2279
N18500 X0.5981 Y-2.2241
N18505 X0.5967 Y-2.221
N18510 X0.5938 Y-2.2142
N18515 X0.5913 Y-2.2083
N18520 X0.5882 Y-2.2005
N18525 X0.5856 Y-2.1937
N18530 X0.583 Y-2.1869
N18535 X0.5806 Y-2.18
N18540 X0.5782 Y-2.1732
N18545 X0.5776 Y-2.1713
N18550 X0.576 Y-2.1664
N18555 X0.5739 Y-2.1595
N18560 X0.5719 Y-2.1527
N18565 X0.5708 Y-2.1489
N18570 X0.5699 Y-2.1459
N18575 X0.5681 Y-2.139
N18580 X0.5663 Y-2.1322
N18585 X0.5647 Y-2.1254
N18590 X0.5639 Y-2.1223
N18595 X0.5631 Y-2.1185
N18600 X0.5616 Y-2.1117
N18605 X0.5602 Y-2.1049
N18610 X0.559 Y-2.098
N18615 X0.5577 Y-2.0912
N18620 X0.5566 Y-2.0844
N18625 X0.5556 Y-2.0775
N18630 X0.5547 Y-2.0707
N18635 X0.5538 Y-2.0638
N18640 X0.553 Y-2.057
N18645 X0.5523 Y-2.0502
N18650 X0.5518 Y-2.0433
N18655 X0.5512 Y-2.0365
N18660 X0.5508 Y-2.0297
N18665 X0.5505 Y-2.0228
N18670 X0.5502 Y-2.016
N18675 X0.55 Y-2.0092
N18680 X0.5499 Y-2.0023
N18685 Y-1.9955
N18690 Y-1.9067
N18695 Y-1.8862
N18700 Y-1.8656
N18705 Y-1.8383
N18710 Y-1.6089
N18715 X0.5024
N18720 X0.4956 Y-1.6088
N18725 X0.4888 Y-1.6082
N18730 X0.4819 Y-1.6072
N18735 X0.4763 Y-1.6059
N18740 X0.4757 Y-1.6058
N18745 X0.4754 Y-1.6057
N18750 X0.4752 Y-1.6056
N18755 G3 X0.4447 Y-1.6235 I-0.0063 J-0.0242
N18760 G1 X0.4437 Y-1.6273 Z-0.2697
N18765 X0.4427 Y-1.631 Z-0.2688
N18770 X0.4418 Y-1.6345 Z-0.2673
N18775 X0.4409 Y-1.6377 Z-0.2652
N18780 X0.4402 Y-1.6406 Z-0.2627
N18785 X0.4395 Y-1.643 Z-0.2597
N18790 X0.439 Y-1.645 Z-0.2563
N18795 X0.4386 Y-1.6465 Z-0.2527
N18800 X0.4384 Y-1.6474 Z-0.2489
N18805 X0.4383 Y-1.6477 Z-0.245
N18810 G0 Z-0.1397
N18815 Y-1.3523
N18820 Z-0.2073
N18825 G1 Z-0.245 F40
N18830 X0.4384 Y-1.3526 Z-0.2489
N18835 X0.4386 Y-1.3535 Z-0.2527
N18840 X0.439 Y-1.355 Z-0.2563
N18845 X0.4395 Y-1.357 Z-0.2597
N18850 X0.4402 Y-1.3594 Z-0.2627
N18855 X0.4409 Y-1.3623 Z-0.2652
N18860 X0.4418 Y-1.3655 Z-0.2673
N18865 X0.4427 Y-1.369 Z-0.2688
N18870 X0.4437 Y-1.3727 Z-0.2697
N18875 X0.4447 Y-1.3765 Z-0.27
N18880 G3 X0.4752 Y-1.3944 I0.0242 J0.0063
N18885 G1 X0.4754 Y-1.3943
N18890 X0.4757 Y-1.3942
N18895 X0.4763 Y-1.3941
N18900 X0.4819 Y-1.3928
N18905 X0.4888 Y-1.3918
N18910 X0.4956 Y-1.3912
N18915 X0.5024 Y-1.3911
N18920 X0.5499
N18925 Y-1.1412
N18930 Y-1.1207
N18935 Y-1.1002
N18940 Y-1.0797
N18945 Y-1.0045
N18950 Y-0.9977
N18955 X0.55 Y-0.9908
N18960 X0.5502 Y-0.984
N18965 X0.5505 Y-0.9772
N18970 X0.5508 Y-0.9703
N18975 X0.5512 Y-0.9635
N18980 X0.5518 Y-0.9567
N18985 X0.5523 Y-0.9498
N18990 X0.553 Y-0.943
N18995 X0.5538 Y-0.9362
N19000 X0.5547 Y-0.9293
N19005 X0.5556 Y-0.9225
N19010 X0.5566 Y-0.9156
N19015 X0.5577 Y-0.9088
N19020 X0.559 Y-0.902
N19025 X0.5602 Y-0.8951
N19030 X0.5616 Y-0.8883
N19035 X0.5631 Y-0.8815
N19040 X0.5639 Y-0.8777
N19045 X0.5647 Y-0.8746
N19050 X0.5663 Y-0.8678
N19055 X0.5681 Y-0.861
N19060 X0.5699 Y-0.8541
N19065 X0.5708 Y-0.8511
N19070 X0.5719 Y-0.8473
N19075 X0.5739 Y-0.8405
N19080 X0.576 Y-0.8336
N19085 X0.5776 Y-0.8287
N19090 X0.5782 Y-0.8268
N19095 X0.5806 Y-0.82
N19100 X0.583 Y-0.8131
N19105 X0.5856 Y-0.8063
N19110 X0.5882 Y-0.7995
N19115 X0.5913 Y-0.7917
N19120 X0.5938 Y-0.7858
N19125 X0.5967 Y-0.779
N19130 X0.5981 Y-0.7759
N19135 X0.5998 Y-0.7721
N19140 X0.603 Y-0.7653
N19145 X0.6049 Y-0.7612
N19150 X0.6063 Y-0.7585
N19155 X0.6097 Y-0.7516
N19160 X0.6132 Y-0.7448
N19165 X0.6169 Y-0.738
N19170 X0.6207 Y-0.7311
N19175 X0.6246 Y-0.7243
N19180 X0.6254 Y-0.7228
N19185 X0.6286 Y-0.7174
N19190 X0.6323 Y-0.7115
N19195 X0.6328 Y-0.7106
N19200 X0.6371 Y-0.7038
N19205 X0.6416 Y-0.6969
N19210 X0.646 Y-0.6905
N19215 X0.6462 Y-0.6901
N19220 X0.6509 Y-0.6833
N19225 X0.6528 Y-0.6807
N19230 X0.6558 Y-0.6764
N19235 X0.6596 Y-0.6713
N19240 X0.6609 Y-0.6696
N19245 X0.6661 Y-0.6628
N19250 X0.6665 Y-0.6623
N19255 X0.6716 Y-0.6559
N19260 X0.6733 Y-0.6538
N19265 X0.6772 Y-0.6491
N19270 X0.6829 Y-0.6423
N19275 X0.687 Y-0.6376
N19280 X0.6889 Y-0.6354
N19285 X0.6938 Y-0.63
N19290 X0.7006 Y-0.6226
N19295 X0.7014 Y-0.6218
N19300 X0.7075 Y-0.6156
N19305 X0.7081 Y-0.6149
N19310 X0.7143 Y-0.6087
N19315 X0.7149 Y-0.6081
N19320 X0.7211 Y-0.6021
N19325 X0.722 Y-0.6013
N19330 X0.7293 Y-0.5944
N19335 X0.7348 Y-0.5895
N19340 X0.737 Y-0.5876
N19345 X0.7416 Y-0.5835
N19350 X0.7485 Y-0.5778
N19355 X0.7532 Y-0.5739
N19360 X0.7553 Y-0.5722
N19365 X0.7617 Y-0.5671
N19370 X0.7621 Y-0.5668
N19375 X0.769 Y-0.5615
N19380 X0.7707 Y-0.5603
N19385 X0.7758 Y-0.5565
N19390 X0.78 Y-0.5534
N19395 X0.7826 Y-0.5515
N19400 X0.7895 Y-0.5468
N19405 X0.7898 Y-0.5466
N19410 X0.7963 Y-0.5422
N19415 X0.8031 Y-0.5377
N19420 X0.81 Y-0.5334
N19425 X0.8108 Y-0.5329
N19430 X0.8168 Y-0.5292
N19435 X0.8222 Y-0.5261
N19440 X0.8236 Y-0.5252
N19445 X0.8305 Y-0.5213
N19450 X0.8373 Y-0.5175
N19455 X0.8442 Y-0.5139
N19460 X0.851 Y-0.5103
N19465 X0.8578 Y-0.5069
N19470 X0.8606 Y-0.5056
N19475 X0.8647 Y-0.5036
N19480 X0.8715 Y-0.5005
N19485 X0.8752 Y-0.4987
N19490 X0.8783 Y-0.4974
N19495 X0.8852 Y-0.4944
N19500 X0.8911 Y-0.4919
N19505 X0.8988 Y-0.4888
N19510 X0.9057 Y-0.4862
N19515 X0.9125 Y-0.4836
N19520 X0.9193 Y-0.4812
N19525 X0.9262 Y-0.4789
N19530 X0.9281 Y-0.4782
N19535 X0.933 Y-0.4767
N19540 X0.9398 Y-0.4745
N19545 X0.9467 Y-0.4725
N19550 X0.9504 Y-0.4714
N19555 X0.9535 Y-0.4705
N19560 X0.9603 Y-0.4687
N19565 X0.9672 Y-0.4669
N19570 X0.974 Y-0.4653
N19575 X0.9771 Y-0.4646
N19580 X0.9808 Y-0.4637
N19585 X0.9877 Y-0.4623
N19590 X0.9945 Y-0.4609
N19595 X1.0013 Y-0.4596
N19600 X1.0082 Y-0.4584
N19605 X1.015 Y-0.4573
N19610 X1.0218 Y-0.4562
N19615 X1.0287 Y-0.4553
N19620 X1.0355 Y-0.4544
N19625 X1.0424 Y-0.4537
N19630 X1.0492 Y-0.453
N19635 X1.056 Y-0.4524
N19640 X1.0629 Y-0.4519
N19645 X1.0697 Y-0.4515
N19650 X1.0765 Y-0.4511
N19655 X1.0834 Y-0.4509
N19660 X1.0902 Y-0.4507
N19665 X1.097 Y-0.4505
N19670 X1.1039
N19675 X1.1927
N19680 X1.2132
N19685 X1.2337
N19690 X1.2611
N19695 X1.4904 Y-0.4506
N19700 X1.4905 Y-0.4505
N19705 Y-0.4031
N19710 X1.4906 Y-0.3962
N19715 X1.4912 Y-0.3894
N19720 X1.4922 Y-0.3826
N19725 X1.4934 Y-0.377
N19730 X1.4936 Y-0.3764
N19735 X1.4937 Y-0.376
N19740 Y-0.3758
N19745 G3 X1.4759 Y-0.3453 I-0.0242 J0.0063
N19750 G1 X1.4721 Y-0.3443 Z-0.2697
N19755 X1.4684 Y-0.3433 Z-0.2688
N19760 X1.4649 Y-0.3424 Z-0.2673
N19765 X1.4617 Y-0.3416 Z-0.2652
N19770 X1.4588 Y-0.3408 Z-0.2627
N19775 X1.4563 Y-0.3402 Z-0.2597
N19780 X1.4543 Y-0.3396 Z-0.2563
N19785 X1.4529 Y-0.3393 Z-0.2527
N19790 X1.452 Y-0.339 Z-0.2489
N19795 X1.4517 Z-0.245
N19800 G0 Z-0.1397
N19805 X1.747
N19810 Z-0.2073
N19815 G1 Z-0.245 F40
N19820 X1.7467 Z-0.2489
N19825 X1.7459 Y-0.3393 Z-0.2527
N19830 X1.7444 Y-0.3396 Z-0.2563
N19835 X1.7424 Y-0.3402 Z-0.2597
N19840 X1.74 Y-0.3408 Z-0.2627
N19845 X1.7371 Y-0.3416 Z-0.2652
N19850 X1.7338 Y-0.3424 Z-0.2673
N19855 X1.7303 Y-0.3433 Z-0.2688
N19860 X1.7266 Y-0.3443 Z-0.2697
N19865 X1.7229 Y-0.3453 Z-0.27
N19870 G3 X1.705 Y-0.3758 I0.0063 J-0.0242
N19875 G1 X1.7051 Y-0.376
N19880 Y-0.3763
N19885 X1.7053 Y-0.377
N19890 X1.7065 Y-0.3826
N19895 X1.7076 Y-0.3894
N19900 X1.7081 Y-0.3962
N19905 X1.7082 Y-0.4031
N19910 Y-0.4505
N19915 X1.7083 Y-0.4506
N19920 X1.9582 Y-0.4505
N19925 X1.9787
N19930 X1.9992
N19935 X2.0197
N19940 X2.0949
N19945 X2.1017
N19950 X2.1085 Y-0.4507
N19955 X2.1154 Y-0.4509
N19960 X2.1222 Y-0.4511
N19965 X2.129 Y-0.4515
N19970 X2.1359 Y-0.4519
N19975 X2.1427 Y-0.4524
N19980 X2.1495 Y-0.453
N19985 X2.1564 Y-0.4537
N19990 X2.1632 Y-0.4544
N19995 X2.17 Y-0.4553
N20000 X2.1769 Y-0.4562
N20005 X2.1837 Y-0.4573
N20010 X2.1906 Y-0.4584
N20015 X2.1974 Y-0.4596
N20020 X2.2042 Y-0.4609
N20025 X2.2111 Y-0.4623
N20030 X2.2179 Y-0.4637
N20035 X2.2216 Y-0.4646
N20040 X2.2247 Y-0.4653
N20045 X2.2316 Y-0.4669
N20050 X2.2384 Y-0.4687
N20055 X2.2452 Y-0.4705
N20060 X2.2483 Y-0.4714
N20065 X2.2521 Y-0.4725
N20070 X2.2589 Y-0.4745
N20075 X2.2657 Y-0.4767
N20080 X2.2707 Y-0.4782
N20085 X2.2726 Y-0.4789
N20090 X2.2794 Y-0.4812
N20095 X2.2862 Y-0.4836
N20100 X2.2931 Y-0.4862
N20105 X2.2999 Y-0.4888
N20110 X2.3076 Y-0.4919
N20115 X2.3136 Y-0.4944
N20120 X2.3204 Y-0.4973
N20125 X2.3235 Y-0.4987
N20130 X2.3272 Y-0.5005
N20135 X2.3341 Y-0.5036
N20140 X2.3381 Y-0.5056
N20145 X2.3409 Y-0.5069
N20150 X2.3477 Y-0.5103
N20155 X2.3546 Y-0.5139
N20160 X2.3614 Y-0.5175
N20165 X2.3682 Y-0.5213
N20170 X2.3751 Y-0.5252
N20175 X2.3766 Y-0.5261
N20180 X2.3819 Y-0.5292
N20185 X2.3879 Y-0.5329
N20190 X2.3888 Y-0.5334
N20195 X2.3956 Y-0.5377
N20200 X2.4024 Y-0.5422
N20205 X2.4089 Y-0.5466
N20210 X2.4093 Y-0.5468
N20215 X2.4161 Y-0.5515
N20220 X2.4187 Y-0.5534
N20225 X2.4229 Y-0.5565
N20230 X2.4281 Y-0.5603
N20235 X2.4298 Y-0.5615
N20240 X2.4366 Y-0.5668
N20245 X2.437 Y-0.5671
N20250 X2.4434 Y-0.5722
N20255 X2.4456 Y-0.5739
