%
(1001)
(Bottom of workpiece)
(T4 D=0.25 CR=0 - ZMIN=-0.26 - flat end mill)
N10 G90
N15 G28 G91 Z0
N20 G90

(Pocket2)
N25 M9
N30 T4 M6
N35 S1000 M3
N40 M9
N45 G0 X1.541 Y1.3974
N50 Z0.6
N55 Z0.1894
N60 G1 Z0.1825 F40
N65 G3 X1.5416 Y1.3971 Z0.177 I0.0599 J0.1026
N70 X1.5431 Y1.3963 Z0.1719 I0.0594 J0.1029
N75 X1.5456 Y1.3949 Z0.1672 I0.0578 J0.1037
N80 X1.549 Y1.3932 Z0.1633 I0.0553 J0.1051
N85 X1.5531 Y1.3913 Z0.1602 I0.0519 J0.1068
N90 X1.5579 Y1.3893 Z0.1583 I0.0478 J0.1087
N95 X1.563 Y1.3875 Z0.1575 I0.043 J0.1107
N100 X1.6389 Y1.6125 Z0.1445 I0.0379 J0.1125
N105 X1.563 Y1.3875 Z0.1314 I-0.0379 J-0.1125
N110 X1.6389 Y1.6125 Z0.1184 I0.0379 J0.1125
N115 X1.563 Y1.3875 Z0.1054 I-0.0379 J-0.1125
N120 X1.6389 Y1.6125 Z0.0924 I0.0379 J0.1125
N125 X1.563 Y1.3875 Z0.0793 I-0.0379 J-0.1125
N130 X1.6389 Y1.6125 Z0.0663 I0.0379 J0.1125
N135 X1.563 Y1.3875 Z0.0533 I-0.0379 J-0.1125
N140 X1.6389 Y1.6125 Z0.0403 I0.0379 J0.1125
N145 X1.563 Y1.3875 Z0.0272 I-0.0379 J-0.1125
N150 X1.6389 Y1.6125 Z0.0142 I0.0379 J0.1125
N155 X1.563 Y1.3875 Z0.0012 I-0.0379 J-0.1125
N160 X1.6389 Y1.6125 Z-0.0119 I0.0379 J0.1125
N165 X1.563 Y1.3875 Z-0.0249 I-0.0379 J-0.1125
N170 X1.6389 Y1.6125 Z-0.0379 I0.0379 J0.1125
N175 X1.563 Y1.3875 Z-0.0509 I-0.0379 J-0.1125
N180 X1.6389 Y1.6125 Z-0.064 I0.0379 J0.1125
N185 X1.563 Y1.3875 Z-0.077 I-0.0379 J-0.1125
N190 X1.6389 Y1.6125 Z-0.09 I0.0379 J0.1125
N195 X1.563 Y1.3875 Z-0.1031 I-0.0379 J-0.1125
N200 X1.6389 Y1.6125 Z-0.1161 I0.0379 J0.1125
N205 X1.563 Y1.3875 Z-0.1291 I-0.0379 J-0.1125
N210 X1.6389 Y1.6125 Z-0.1421 I0.0379 J0.1125
N215 X1.4822 Y1.5 Z-0.15 I-0.0379 J-0.1125
N220 G1 Y1.4587
N225 G3 X1.558 Y1.3828 I0.0759
N230 G1 X1.6407
N235 G3 X1.7166 Y1.4587 J0.0759
N240 G1 Y1.5413
N245 G3 X1.6407 Y1.6172 I-0.0759
N250 G1 X1.557
N255 G3 X1.4822 Y1.5423 J-0.0749
N260 G1 Y1.5
N265 G2 X1.4005 Y1.3572 I-0.1655
N270 G3 X1.4436 Y1.1985 I0.0432 J-0.0735
N275 G1 X1.825
N280 G3 X1.9008 Y1.2744 J0.0759
N285 G1 X1.9009 Y1.7256
N290 G3 X1.825 Y1.8015 I-0.0759
N295 G1 X1.3728
N300 G3 X1.2979 Y1.7266 J-0.0749
N305 G1 Y1.2744
N310 G3 X1.3737 Y1.1985 I0.0759
N315 G1 X1.4436
N320 G2 X1.5818 Y1.1064 J-0.1497
N325 G3 X1.72 Y1.0142 I0.1382 J0.0576
N330 G1 X2.0092
N335 G3 X2.0851 Y1.0901 J0.0759
N340 G1 X2.0852 Y1.9098
N345 G3 X2.0093 Y1.9857 I-0.0759
N350 G1 X1.1885 Y1.9858
N355 G3 X1.1136 Y1.9109 J-0.0749
N360 G1 Y1.0902
N365 G3 X1.1894 Y1.0143 I0.0759
N370 G1 X1.72 Y1.0142
N375 G2 X1.8748 Y0.9111 J-0.1677
N380 G3 X2.0296 Y0.8079 I0.1547 J0.0645
N385 G1 X2.0867
N390 X2.1154 Y0.8085
N395 X2.1177 Y0.8087
N400 X2.1265 Y0.81
N405 X2.1467 Y0.8142
N410 X2.1662 Y0.8203
N415 X2.1846 Y0.8283
N420 X2.2043 Y0.8395
N425 X2.2131 Y0.8458
N430 X2.2225 Y0.853
N435 X2.227 Y0.857
N440 X2.2423 Y0.8724
N445 X2.2464 Y0.8769
N450 X2.2536 Y0.8862
N455 X2.26 Y0.8954
N460 X2.271 Y0.9147
N465 X2.2792 Y0.9337
N470 X2.2853 Y0.953
N475 X2.2894 Y0.9719
N480 X2.2913 Y0.9902
N485 X2.2915 Y1.4625
N490 X2.2914 Y1.9874
N495 X2.2908 Y2.016
N500 X2.2906 Y2.0183
N505 X2.2893 Y2.0272
N510 X2.2852 Y2.0474
N515 X2.279 Y2.0668
N520 X2.271 Y2.0852
N525 X2.2599 Y2.1049
N530 X2.2536 Y2.1137
N535 X2.2464 Y2.1231
N540 X2.2423 Y2.1276
N545 X2.227 Y2.143
N550 X2.2225 Y2.147
N555 X2.2132 Y2.1542
N560 X2.204 Y2.1607
N565 X2.1846 Y2.1716
N570 X2.1657 Y2.1799
N575 X2.1464 Y2.1859
N580 X2.1275 Y2.1901
N585 X2.1092 Y2.192
N590 X1.6369 Y2.1922
N595 X1.112 Y2.1921
N600 X1.0834 Y2.1915
N605 X1.081 Y2.1913
N610 X1.0722 Y2.19
N615 X1.052 Y2.1858
N620 X1.0326 Y2.1797
N625 X1.0141 Y2.1717
N630 X0.9944 Y2.1605
N635 X0.9856 Y2.1542
N640 X0.9762 Y2.147
N645 X0.9718 Y2.143
N650 X0.9564 Y2.1276
N655 X0.9524 Y2.1231
N660 X0.9452 Y2.1138
N665 X0.9387 Y2.1046
N670 X0.9277 Y2.0853
N675 X0.9195 Y2.0663
N680 X0.9135 Y2.047
N685 X0.9093 Y2.0281
N690 X0.9074 Y2.0098
N695 X0.9072 Y1.5375
N700 X0.9073 Y1.0126
N705 X0.9079 Y0.984
N710 X0.9081 Y0.9817
N715 X0.9094 Y0.9728
N720 X0.9136 Y0.9526
N725 X0.9197 Y0.9332
N730 X0.9277 Y0.9148
N735 X0.9389 Y0.8951
N740 X0.9451 Y0.8863
N745 X0.9524 Y0.8769
N750 X0.9564 Y0.8724
N755 X0.9718 Y0.857
N760 X0.9762 Y0.853
N765 X0.9856 Y0.8458
N770 X0.9947 Y0.8393
N775 X1.0141 Y0.8284
N780 X1.0331 Y0.8201
N785 X1.0524 Y0.8141
N790 X1.0713 Y0.8099
N795 X1.0896 Y0.808
N800 X1.5618 Y0.8078
N805 X2.0296 Y0.8079
N810 G3 X2.041 Y0.8255 J0.0125
N815 G1 X1.734 Y1.5151
N820 G3 X1.7311 Y1.5191 I-0.0114 J-0.0051
N825 X1.5693 Y1.3453 Z-0.163 I-0.0809 J-0.0869
N830 X1.7311 Y1.5191 Z-0.1761 I0.0809 J0.0869
N835 X1.5693 Y1.3453 Z-0.1891 I-0.0809 J-0.0869
N840 X1.7311 Y1.5191 Z-0.2021 I0.0809 J0.0869
N845 X1.5693 Y1.3453 Z-0.2151 I-0.0809 J-0.0869
N850 X1.7311 Y1.5191 Z-0.2282 I0.0809 J0.0869
N855 X1.5693 Y1.3453 Z-0.2412 I-0.0809 J-0.0869
N860 X1.7311 Y1.5191 Z-0.2542 I0.0809 J0.0869
N865 X1.5789 Y1.5272 Z-0.26 I-0.0809 J-0.0869
N870 X1.6198 Y1.4728 I0.0204 J-0.0272
N875 X1.5789 Y1.5272 I-0.0204 J0.0272
N880 G2 X1.5114 Y1.504 I-0.0697 J0.0929
N885 G3 X1.4614 Y1.4531 I0.0009 J-0.0509
N890 G1 Y1.4379
N895 G3 X1.5373 Y1.3621 I0.0759
N900 G1 X1.6615
N905 G3 X1.7373 Y1.4379 J0.0759
N910 G1 Y1.5621
N915 G3 X1.6615 Y1.6379 I-0.0759
N920 G1 X1.5363
N925 G3 X1.4614 Y1.563 J-0.0749
N930 G1 Y1.4531
N935 G2 X1.3753 Y1.3275 I-0.1346
N940 G3 X1.4032 Y1.1778 I0.0279 J-0.0722
N945 G1 X1.8451 Y1.1777
N950 G3 X1.9215 Y1.254 J0.0764
N955 G1 X1.9217 Y1.7457
N960 G3 X1.8454 Y1.8221 I-0.0764
N965 G1 X1.3521 Y1.8223
N970 G3 X1.2772 Y1.7475 J-0.0749
N975 G1 X1.2771 Y1.2543
N980 G3 X1.3534 Y1.1779 I0.0764
N985 G1 X1.4032 Y1.1778
N990 G2 X1.5435 Y1.0842 J-0.152
N995 G3 X1.6838 Y0.9907 I0.1403 J0.0583
N1000 G1 X1.8866
N1005 X1.9611 Y0.9919
N1010 X2.0849 Y0.9945
N1015 X2.0998 Y0.9954
N1020 X2.1 Y0.9955
N1025 X2.1039 Y0.9993
N1030 X2.104 Y0.9995
N1035 X2.1049 Y1.0145
N1040 X2.1085 Y1.1878
N1045 X2.1087 Y1.3874
N1050 Y1.7873
N1055 X2.1075 Y1.8617
N1060 X2.1049 Y1.9855
N1065 X2.104 Y2.0005
N1070 X2.1039 Y2.0007
N1075 X2.1 Y2.0045
N1080 X2.0998 Y2.0046
N1085 X2.0849 Y2.0055
N1090 X1.9115 Y2.0091
N1095 X1.712 Y2.0093
N1100 X1.3121
N1105 X1.2377 Y2.0081
N1110 X1.1139 Y2.0055
N1115 X1.0989 Y2.0046
N1120 X1.0987 Y2.0045
N1125 X1.0949 Y2.0007
N1130 X1.0948 Y2.0005
N1135 X1.0939 Y1.9855
N1140 X1.0902 Y1.8122
N1145 X1.09 Y1.6126
N1150 Y1.2127
N1155 X1.0913 Y1.1383
N1160 X1.0939 Y1.0145
N1165 X1.0948 Y0.9995
N1170 X1.0949 Y0.9993
N1175 X1.0987 Y0.9955
N1180 X1.0989 Y0.9954
N1185 X1.1139 Y0.9945
N1190 X1.2872 Y0.9909
N1195 X1.4868 Y0.9907
N1200 X1.6838
N1205 G3 X1.6893 Y0.9913 Z-0.2594 J0.025
N1210 X1.6943 Y0.993 Z-0.2575 I-0.0055 J0.0244
N1215 X1.6984 Y0.9954 Z-0.2545 I-0.0105 J0.0227
N1220 X1.7014 Y0.9979 Z-0.2506 I-0.0146 J0.0203
N1225 X1.7034 Y1.0001 Z-0.2458 I-0.0176 J0.0177
N1230 X1.7045 Y1.0016 Z-0.2406 I-0.0196 J0.0155
N1235 X1.7048 Y1.0021 Z-0.235 I-0.0207 J0.014
N1240 G0 Z0.6

(Contour1)
N1245 M9
N1250 X0.8716 Y0.9988
N1255 Z0.6
N1260 Z0.0643
N1265 G1 Z-0.0279 F40
N1270 X0.8713 Z-0.0306
N1275 X0.8704 Y0.9987 Z-0.0331
N1280 X0.869 Y0.9985 Z-0.0354
N1285 X0.867 Y0.9982 Z-0.0374
N1290 X0.8648 Y0.9979 Z-0.0388
N1295 X0.8622 Y0.9976 Z-0.0397
N1300 X0.8595 Y0.9972 Z-0.04
N1305 G3 X0.8381 Y0.9691 I0.0034 J-0.0248
N1310 G1 X0.8391 Y0.9619
N1315 X0.8404 Y0.954
N1320 X0.842 Y0.946
N1325 X0.8438 Y0.938
N1330 X0.8459 Y0.9301
N1335 X0.8461 Y0.9294
N1340 X0.8483 Y0.9221
N1345 X0.8509 Y0.9141
N1350 X0.8538 Y0.9061
N1355 X0.8541 Y0.9055
N1360 X0.857 Y0.8982
N1365 X0.8606 Y0.8902
N1370 X0.862 Y0.887
N1375 X0.8644 Y0.8822
N1380 X0.8686 Y0.8743
N1385 X0.87 Y0.8717
N1390 X0.8731 Y0.8663
N1395 X0.8738 Y0.8651
N1400 X0.8741 Y0.8646
N1405 X0.8742 Y0.8645
N1410 X0.8747 Y0.8643
N1415 X0.8755 Y0.8638
N1420 X0.878 Y0.8625
N1425 X0.885 Y0.8583
N1430 X0.8859 Y0.8577
N1435 X0.8939 Y0.852
N1440 X0.896 Y0.8504
N1445 X0.9019 Y0.8452
N1450 X0.9049 Y0.8424
N1455 X0.9099 Y0.8374
N1460 X0.9368 Y0.8105
N1465 X0.9417 Y0.8055
N1470 X0.9446 Y0.8025
N1475 X0.9497 Y0.7966
N1480 X0.9514 Y0.7946
N1485 X0.9571 Y0.7866
N1490 X0.9577 Y0.7856
N1495 X0.9619 Y0.7786
N1500 X0.9632 Y0.7762
N1505 X0.9636 Y0.7753
N1510 X0.9639 Y0.7748
N1515 X0.964 Y0.7747
N1520 X0.9644 Y0.7745
N1525 X0.9657 Y0.7738
N1530 X0.971 Y0.7706
N1535 X0.9736 Y0.7692
N1540 X0.9816 Y0.765
N1545 X0.9864 Y0.7627
N1550 X0.9896 Y0.7612
N1555 X0.9975 Y0.7577
N1560 X1.0048 Y0.7547
N1565 X1.0055 Y0.7544
N1570 X1.0135 Y0.7515
N1575 X1.0215 Y0.7489
N1580 X1.0287 Y0.7467
N1585 X1.0294 Y0.7465
N1590 X1.0374 Y0.7444
N1595 X1.0454 Y0.7426
N1600 X1.0533 Y0.741
N1605 X1.0613 Y0.7397
N1610 X1.0684 Y0.7388
N1615 X1.0693 Y0.7387
N1620 X1.0773 Y0.7378
N1625 X1.0852 Y0.7373
N1630 X1.0932 Y0.7369
N1635 X1.1012 Y0.7368
N1640 X1.4997
N1645 X1.5954
N1650 X1.6034
N1655 X1.699
N1660 X2.0976
N1665 X2.1055 Y0.7369
N1670 X2.1135 Y0.7373
N1675 X2.1215 Y0.7378
N1680 X2.1294 Y0.7387
N1685 X2.1303 Y0.7388
N1690 X2.1374 Y0.7397
N1695 X2.1454 Y0.741
N1700 X2.1534 Y0.7426
N1705 X2.1613 Y0.7444
N1710 X2.1693 Y0.7465
N1715 X2.17 Y0.7467
N1720 X2.1773 Y0.7489
N1725 X2.1852 Y0.7515
N1730 X2.1932 Y0.7544
N1735 X2.1939 Y0.7547
N1740 X2.2012 Y0.7577
N1745 X2.2092 Y0.7612
N1750 X2.2123 Y0.7627
N1755 X2.2171 Y0.765
N1760 X2.2251 Y0.7692
N1765 X2.2277 Y0.7706
N1770 X2.2331 Y0.7738
N1775 X2.2343 Y0.7745
N1780 X2.2347 Y0.7747
N1785 X2.2348 Y0.7748
N1790 X2.2351 Y0.7753
N1795 X2.2355 Y0.7762
N1800 X2.2368 Y0.7786
N1805 X2.241 Y0.7856
N1810 X2.2417 Y0.7866
N1815 X2.2474 Y0.7946
N1820 X2.249 Y0.7966
N1825 X2.2541 Y0.8025
N1830 X2.257 Y0.8055
N1835 X2.2619 Y0.8105
N1840 X2.2889 Y0.8374
N1845 X2.2938 Y0.8424
N1850 X2.2968 Y0.8452
N1855 X2.3027 Y0.8504
N1860 X2.3048 Y0.852
N1865 X2.3128 Y0.8577
N1870 X2.3138 Y0.8583
N1875 X2.3208 Y0.8625
N1880 X2.3232 Y0.8638
N1885 X2.324 Y0.8643
N1890 X2.3246 Y0.8645
N1895 Y0.8646
N1900 X2.3249 Y0.8651
N1905 X2.3256 Y0.8663
N1910 X2.3287 Y0.8717
N1915 X2.3301 Y0.8743
N1920 X2.3344 Y0.8822
N1925 X2.3367 Y0.887
N1930 X2.3382 Y0.8902
N1935 X2.3417 Y0.8982
N1940 X2.3447 Y0.9055
N1945 X2.3449 Y0.9061
N1950 X2.3478 Y0.9141
N1955 X2.3505 Y0.9221
N1960 X2.3526 Y0.9294
N1965 X2.3528 Y0.9301
N1970 X2.3549 Y0.938
N1975 X2.3567 Y0.946
N1980 X2.3583 Y0.954
N1985 X2.3596 Y0.9619
N1990 X2.3606 Y0.9691
N1995 X2.3607 Y0.9699
N2000 X2.3615 Y0.9779
N2005 X2.3621 Y0.9859
N2010 X2.3624 Y0.9938
N2015 X2.3626 Y1.0018
N2020 Y1.4004
N2025 Y1.496
N2030 Y1.504
N2035 Y1.5996
N2040 Y1.9982
N2045 X2.3624 Y2.0062
N2050 X2.3621 Y2.0141
N2055 X2.3615 Y2.0221
N2060 X2.3607 Y2.0301
N2065 X2.3606 Y2.0309
N2070 X2.3596 Y2.0381
N2075 X2.3583 Y2.046
N2080 X2.3567 Y2.054
N2085 X2.3549 Y2.062
N2090 X2.3528 Y2.0699
N2095 X2.3526 Y2.0706
N2100 X2.3505 Y2.0779
N2105 X2.3478 Y2.0859
N2110 X2.3449 Y2.0939
N2115 X2.3447 Y2.0945
N2120 X2.3417 Y2.1018
N2125 X2.3382 Y2.1098
N2130 X2.3367 Y2.113
N2135 X2.3344 Y2.1178
N2140 X2.3301 Y2.1257
N2145 X2.3287 Y2.1283
N2150 X2.3256 Y2.1337
N2155 X2.3208 Y2.1416
N2160 X2.3207 Y2.1417
N2165 X2.3154 Y2.1496
N2170 X2.3128 Y2.1533
N2175 X2.3096 Y2.1576
N2180 X2.3048 Y2.1638
N2185 X2.3034 Y2.1656
N2190 X2.2968 Y2.1733
N2195 X2.2966 Y2.1736
N2200 X2.2893 Y2.1815
N2205 X2.2889 Y2.182
N2210 X2.2814 Y2.1895
N2215 X2.2809 Y2.19
N2220 X2.2729 Y2.1973
N2225 X2.2727 Y2.1975
N2230 X2.265 Y2.204
N2235 X2.2632 Y2.2054
N2240 X2.257 Y2.2103
N2245 X2.2527 Y2.2134
N2250 X2.249 Y2.216
N2255 X2.241 Y2.2213
N2260 Y2.2214
N2265 X2.2331 Y2.2262
N2270 X2.2277 Y2.2294
N2275 X2.2251 Y2.2308
N2280 X2.2171 Y2.235
N2285 X2.2123 Y2.2373
N2290 X2.2092 Y2.2388
N2295 X2.2012 Y2.2423
N2300 X2.1939 Y2.2453
N2305 X2.1932 Y2.2456
N2310 X2.1852 Y2.2485
N2315 X2.1773 Y2.2511
N2320 X2.17 Y2.2533
N2325 X2.1693 Y2.2535
N2330 X2.1613 Y2.2556
N2335 X2.1534 Y2.2574
N2340 X2.1454 Y2.259
N2345 X2.1374 Y2.2603
N2350 X2.1303 Y2.2612
N2355 X2.1294 Y2.2613
N2360 X2.1215 Y2.2622
N2365 X2.1135 Y2.2627
N2370 X2.1055 Y2.2631
N2375 X2.0976 Y2.2632
N2380 X1.699
N2385 X1.6034
N2390 X1.5954
N2395 X1.4997
N2400 X1.1012
N2405 X1.0932 Y2.2631
N2410 X1.0852 Y2.2627
N2415 X1.0773 Y2.2622
N2420 X1.0693 Y2.2613
N2425 X1.0684 Y2.2612
N2430 X1.0613 Y2.2603
N2435 X1.0533 Y2.259
N2440 X1.0454 Y2.2574
N2445 X1.0374 Y2.2556
N2450 X1.0294 Y2.2535
N2455 X1.0287 Y2.2533
N2460 X1.0215 Y2.2511
N2465 X1.0135 Y2.2485
N2470 X1.0055 Y2.2456
N2475 X1.0048 Y2.2453
N2480 X0.9975 Y2.2423
N2485 X0.9896 Y2.2388
N2490 X0.9864 Y2.2373
N2495 X0.9816 Y2.235
N2500 X0.9736 Y2.2308
N2505 X0.971 Y2.2294
N2510 X0.9657 Y2.2262
N2515 X0.9644 Y2.2255
N2520 X0.964 Y2.2253
N2525 X0.9639 Y2.2252
N2530 X0.9636 Y2.2247
N2535 X0.9632 Y2.2238
N2540 X0.9619 Y2.2214
N2545 X0.9577 Y2.2144
N2550 X0.9571 Y2.2134
N2555 X0.9514 Y2.2054
N2560 X0.9497 Y2.2034
N2565 X0.9446 Y2.1975
N2570 X0.9417 Y2.1945
N2575 X0.9368 Y2.1895
N2580 X0.9099 Y2.1626
N2585 X0.9049 Y2.1576
N2590 X0.9019 Y2.1548
N2595 X0.896 Y2.1496
N2600 X0.8939 Y2.148
N2605 X0.8859 Y2.1423
N2610 X0.885 Y2.1417
N2615 X0.878 Y2.1375
N2620 X0.8755 Y2.1362
N2625 X0.8747 Y2.1357
N2630 X0.8742 Y2.1355
N2635 X0.8741 Y2.1354
N2640 X0.8738 Y2.1349
N2645 X0.8731 Y2.1337
N2650 X0.87 Y2.1283
N2655 X0.8686 Y2.1257
N2660 X0.8644 Y2.1178
N2665 X0.862 Y2.113
N2670 X0.8606 Y2.1098
N2675 X0.857 Y2.1018
N2680 X0.8541 Y2.0945
N2685 X0.8538 Y2.0939
N2690 X0.8509 Y2.0859
N2695 X0.8483 Y2.0779
N2700 X0.8461 Y2.0706
N2705 X0.8459 Y2.0699
N2710 X0.8438 Y2.062
N2715 X0.842 Y2.054
N2720 X0.8404 Y2.046
N2725 X0.8391 Y2.0381
N2730 X0.8381 Y2.0309
N2735 X0.838 Y2.0301
N2740 X0.8372 Y2.0221
N2745 X0.8366 Y2.0141
N2750 X0.8363 Y2.0062
N2755 X0.8362 Y1.9982
N2760 Y1.5996
N2765 Y1.504
N2770 Y1.496
N2775 Y1.4004
N2780 Y1.0018
N2785 X0.8363 Y0.9938
N2790 X0.8366 Y0.9859
N2795 X0.8372 Y0.9779
N2800 X0.838 Y0.9699
N2805 X0.8381 Y0.9691
N2810 X0.8392 Y0.9615
N2815 X0.8405 Y0.954
N2820 X0.842 Y0.9465
N2825 X0.8437 Y0.939 Z-0.0401
N2830 X0.8455 Y0.9319
N2835 X0.8475 Y0.9249
N2840 X0.8499 Y0.9175 Z-0.0402
N2845 X0.8525 Y0.9102
N2850 X0.8552 Y0.9031 Z-0.0403
N2855 X0.8581 Y0.8961
N2860 X0.8612 Y0.8894 Z-0.0404
N2865 X0.8644 Y0.8828 Z-0.0405
N2870 X0.868 Y0.8759 Z-0.0406
N2875 X0.8718 Y0.8692 Z-0.0407
N2880 X0.8738 Y0.8657
N2885 X0.8744 Y0.8648
N2890 X0.8747 Y0.8643
N2895 X0.8748 Y0.8642
N2900 X0.8751 Y0.8641
N2905 X0.8769 Y0.8631 Z-0.0408
N2910 X0.8838 Y0.8591 Z-0.0409
N2915 X0.8903 Y0.8547 Z-0.041
N2920 X0.8965 Y0.85 Z-0.0411
N2925 X0.902 Y0.8452 Z-0.0412
N2930 X0.9072 Y0.8401 Z-0.0413
N2935 X0.9123 Y0.835 Z-0.0415
N2940 X0.9175 Y0.8298 Z-0.0416
N2945 X0.9225 Y0.8248 Z-0.0417
N2950 X0.9275 Y0.8198 Z-0.0419
N2955 X0.9327 Y0.8146 Z-0.042
N2960 X0.9378 Y0.8095 Z-0.0422
N2965 X0.9429 Y0.8044 Z-0.0423
N2970 X0.9478 Y0.799 Z-0.0425
N2975 X0.9525 Y0.7931 Z-0.0426
N2980 X0.9569 Y0.7869 Z-0.0428
N2985 X0.9611 Y0.78 Z-0.043
N2990 X0.9621 Y0.7782 Z-0.0431
N2995 X0.9626 Y0.7773
N3000 X0.9627 Y0.7771
N3005 X0.9628 Y0.777
N3010 X0.9635 Y0.7766
N3015 X0.967 Y0.7745 Z-0.0432
N3020 X0.9735 Y0.7709 Z-0.0434
N3025 X0.98 Y0.7675 Z-0.0436
N3030 X0.9869 Y0.7642 Z-0.0438
N3035 X0.9904 Y0.7626 Z-0.0439
N3040 X0.9939 Y0.761 Z-0.044
N3045 X0.9974 Y0.7596 Z-0.0441
N3050 X1.0009 Y0.7582 Z-0.0442
N3055 X1.0044 Y0.7568 Z-0.0443
N3060 X1.0079 Y0.7555 Z-0.0444
N3065 X1.0114 Y0.7542 Z-0.0445
N3070 X1.0149 Y0.7531 Z-0.0446
N3075 X1.0183 Y0.7519 Z-0.0447
N3080 X1.0219 Y0.7508 Z-0.0448
N3085 X1.0255 Y0.7498 Z-0.0449
N3090 X1.0292 Y0.7488 Z-0.045
N3095 X1.0329 Y0.7478 Z-0.0452
N3100 X1.0366 Y0.7469 Z-0.0453
N3105 X1.0403 Y0.746 Z-0.0454
N3110 X1.044 Y0.7452 Z-0.0455
N3115 X1.0477 Y0.7445 Z-0.0456
N3120 X1.0514 Y0.7438 Z-0.0457
N3125 X1.055 Y0.7432 Z-0.0459
N3130 X1.0586 Y0.7427 Z-0.046
N3135 X1.0622 Y0.7421 Z-0.0461
N3140 X1.0658 Y0.7417 Z-0.0462
N3145 X1.0696 Y0.7413 Z-0.0463
N3150 X1.0734 Y0.7409 Z-0.0464
N3155 X1.0771 Y0.7406 Z-0.0466
N3160 X1.0809 Y0.7403 Z-0.0467
N3165 X1.0847 Y0.7401 Z-0.0468
N3170 X1.0884 Y0.74 Z-0.0469
N3175 X1.0922 Y0.7399 Z-0.0471
N3180 X1.096 Z-0.0472
N3185 X1.0995 Z-0.0473
N3190 X1.1031 Z-0.0474
N3195 X1.1066 Z-0.0476
N3200 X1.1102 Y0.74 Z-0.0477
N3205 X1.1137 Y0.7401 Z-0.0478
N3210 X1.1172 Z-0.0479
N3215 X1.1207 Y0.7402 Z-0.0481
N3220 X1.1242 Z-0.0482
N3225 X1.1277 Y0.7403 Z-0.0483
N3230 X1.1312 Z-0.0484
N3235 X1.1347 Y0.7404 Z-0.0485
N3240 X1.1382 Z-0.0487
N3245 X1.1452 Y0.7405 Z-0.0489
N3250 X1.1557 Y0.7407 Z-0.0493
N3255 X1.1627 Y0.7408 Z-0.0495
N3260 X1.1662 Y0.7409 Z-0.0496
N3265 X1.1732 Y0.741 Z-0.0499
N3270 X1.1837 Y0.7411 Z-0.0503
N3275 X1.1907 Y0.7413 Z-0.0505
N3280 X1.1942 Z-0.0506
N3285 X1.2012 Y0.7414 Z-0.0509
N3290 X1.2117 Y0.7416 Z-0.0512
N3295 X1.2187 Y0.7417 Z-0.0515
N3300 X1.2222 Y0.7418 Z-0.0516
N3305 X1.2292 Y0.7419 Z-0.0518
N3310 X1.2397 Y0.742 Z-0.0522
N3315 X1.2467 Y0.7421 Z-0.0525
N3320 X1.2502 Y0.7422 Z-0.0526
N3325 X1.2572 Y0.7423 Z-0.0528
N3330 X1.2782 Y0.7426 Z-0.0536
N3335 X1.2817 Y0.7427 Z-0.0537
N3340 X1.2887 Y0.7428 Z-0.0539
N3345 X1.2922 Y0.7429 Z-0.054
N3350 X1.2992 Y0.743 Z-0.0543
N3355 X1.3202 Y0.7433 Z-0.055
N3360 X1.3307 Y0.7435 Z-0.0554
N3365 X1.3377 Y0.7436 Z-0.0556
N3370 X1.3587 Y0.744 Z-0.0564
N3375 X1.3657 Y0.7441 Z-0.0566
N3380 X1.3972 Y0.7446 Z-0.0577
N3385 X1.4497 Y0.7455 Z-0.0595
N3390 X1.4672 Y0.7458 Z-0.0602
N3395 X1.5162 Y0.7466 Z-0.0619
N3400 X1.5197 Y0.7467 Z-0.062
N3405 X1.5407 Y0.7471 Z-0.0627
N3410 X1.5442 Z-0.0628
N3415 X1.5547 Y0.7473 Z-0.0632
N3420 X1.5617 Y0.7475 Z-0.0635
N3425 X1.5827 Y0.7479 Z-0.0642
N3430 X1.5897 Y0.748 Z-0.0644
N3435 X1.5967 Y0.7481 Z-0.0647
N3440 X1.6002 Y0.7482 Z-0.0648
N3445 X1.6107 Y0.7484 Z-0.0652
N3450 X1.6142 Z-0.0653
N3455 X1.6212 Y0.7486 Z-0.0655
N3460 X1.6422 Y0.7489 Z-0.0663
N3465 X1.6492 Y0.7491 Z-0.0665
N3470 X1.6702 Y0.7495 Z-0.0672
N3475 X1.6772 Y0.7496 Z-0.0675
N3480 X1.6877 Y0.7498 Z-0.0679
N3485 X1.6947 Y0.7499 Z-0.0681
N3490 X1.6982 Y0.75 Z-0.0682
N3495 X1.7052 Y0.7501 Z-0.0685
N3500 X1.7157 Y0.7503 Z-0.0688
N3505 X1.7227 Y0.7504 Z-0.0691
N3510 X1.7262 Y0.7505 Z-0.0692
N3515 X1.7332 Y0.7506 Z-0.0694
N3520 X1.7437 Y0.7508 Z-0.0698
N3525 X1.7507 Y0.7509 Z-0.0701
N3530 X1.7542 Y0.751 Z-0.0702
N3535 X1.7612 Y0.7511 Z-0.0704
N3540 X1.7682 Y0.7512 Z-0.0707
N3545 X1.7717 Y0.7513 Z-0.0708
N3550 X1.7752 Y0.7514 Z-0.0709
N3555 X1.7787 Z-0.071
N3560 X1.7822 Y0.7515 Z-0.0712
N3565 X1.7857 Y0.7516 Z-0.0713
N3570 X1.7892 Y0.7517 Z-0.0714
N3575 X1.7927 Z-0.0715
N3580 X1.7962 Y0.7518 Z-0.0716
N3585 X1.7997 Y0.7519 Z-0.0718
N3590 X1.8032 Z-0.0719
N3595 X1.8067 Y0.752 Z-0.072
N3600 X1.8102 Y0.7521 Z-0.0721
N3605 X1.8137 Z-0.0723
N3610 X1.8172 Y0.7522 Z-0.0724
N3615 X1.8207 Y0.7523 Z-0.0725
N3620 X1.8242 Z-0.0726
N3625 X1.8277 Y0.7524 Z-0.0727
N3630 X1.8312 Y0.7525 Z-0.0729
N3635 X1.8347 Y0.7526 Z-0.073
N3640 X1.8382 Z-0.0731
N3645 X1.8417 Y0.7527 Z-0.0732
N3650 X1.8452 Y0.7528 Z-0.0733
N3655 X1.8487 Z-0.0734
N3660 X1.8522 Y0.7529 Z-0.0736
N3665 X1.8557 Z-0.0737
N3670 X1.8592 Y0.753 Z-0.0738
N3675 X1.8627 Y0.7531 Z-0.0739
N3680 X1.8662 Z-0.074
N3685 X1.8697 Y0.7532 Z-0.0741
N3690 X1.8732 Y0.7533 Z-0.0742
N3695 X1.8767 Z-0.0743
N3700 X1.8802 Y0.7534 Z-0.0745
N3705 X1.8837 Y0.7535 Z-0.0746
N3710 X1.8872 Z-0.0747
N3715 X1.8907 Y0.7536 Z-0.0748
N3720 X1.8942 Z-0.0749
N3725 X1.8977 Y0.7537 Z-0.075
N3730 X1.9012 Y0.7538 Z-0.0751
N3735 X1.9047 Z-0.0752
N3740 X1.9082 Y0.7539 Z-0.0753
N3745 X1.9117 Z-0.0754
N3750 X1.9152 Y0.754 Z-0.0755
N3755 X1.9222 Y0.7541 Z-0.0757
N3760 X1.9292 Y0.7542 Z-0.0759
N3765 X1.9362 Y0.7543 Z-0.0761
N3770 X1.9432 Y0.7544 Z-0.0763
N3775 X1.9502 Y0.7545 Z-0.0765
N3780 X1.9572 Y0.7546 Z-0.0766
N3785 X1.9642 Y0.7547 Z-0.0768
N3790 X1.9712 Y0.7548 Z-0.077
N3795 X1.9782 Y0.7549 Z-0.0772
N3800 X1.9852 Y0.755 Z-0.0773
N3805 X1.9922 Y0.7551 Z-0.0775
N3810 X1.9992 Y0.7552 Z-0.0776
N3815 X2.0062 Y0.7553 Z-0.0778
N3820 X2.0132 Y0.7554 Z-0.0779
N3825 X2.0202 Z-0.0781
N3830 X2.0272 Y0.7555 Z-0.0782
N3835 X2.0342 Y0.7556 Z-0.0783
N3840 X2.0412 Y0.7557 Z-0.0785
N3845 X2.0482 Z-0.0786
N3850 X2.0552 Y0.7558 Z-0.0787
N3855 X2.0622 Y0.7559 Z-0.0788
N3860 X2.0692 Z-0.0789
N3865 X2.0762 Y0.756 Z-0.079
N3870 X2.0902 Y0.7561 Z-0.0792
N3875 X2.1042 Y0.7563 Z-0.0794
N3880 X2.1182 Y0.7571 Z-0.0796
N3885 X2.1321 Y0.7587 Z-0.0797
N3890 X2.1459 Y0.7611 Z-0.0798
N3895 X2.1596 Y0.7643 Z-0.0799
N3900 X2.173 Y0.7682
N3905 X2.1862 Y0.7729 Z-0.08
N3910 X2.1991 Y0.7783
N3915 X2.2008 Y0.7791
N3920 X2.2012 Y0.7792
N3925 X2.2092 Y0.7831
N3930 X2.2157 Y0.7866
N3935 X2.2171 Y0.7873
N3940 X2.2251 Y0.792
N3945 X2.2293 Y0.7946
N3950 X2.2331 Y0.797
N3955 X2.241 Y0.8025
N3960 X2.2411
N3965 X2.249 Y0.8085
N3970 X2.2515 Y0.8105
N3975 X2.257 Y0.815
N3980 X2.261 Y0.8185
N3985 X2.265 Y0.8221
N3990 X2.2695 Y0.8264
N3995 X2.2729 Y0.8299
N4000 X2.2773 Y0.8344
N4005 X2.2809 Y0.8384
N4010 X2.2844 Y0.8424
N4015 X2.2889 Y0.8478
N4020 X2.2909 Y0.8504
N4025 X2.2968 Y0.8583
N4030 X2.2969
N4035 X2.3024 Y0.8663
N4040 X2.3048 Y0.8701
N4045 X2.3074 Y0.8743
N4050 X2.312 Y0.8822
N4055 X2.3128 Y0.8836
N4060 X2.3163 Y0.8902
N4065 X2.3201 Y0.8982
N4070 X2.3208 Y0.8995
N4075 X2.3237 Y0.9061
N4080 X2.3269 Y0.9141
N4085 X2.3287 Y0.9192
N4090 X2.3297 Y0.9221
N4095 X2.3323 Y0.9301
N4100 X2.3346 Y0.938
N4105 X2.3365 Y0.946
N4110 X2.3367 Y0.9466
N4115 X2.3383 Y0.954
N4120 X2.3397 Y0.9619
N4125 X2.3408 Y0.9699
N4130 X2.3417 Y0.9779
N4135 X2.3423 Y0.9859
N4140 X2.3427 Y0.9938
N4145 X2.3428 Y1.0018
N4150 Y1.0895
N4155 Y1.0975
N4160 Y1.496
N4165 Y1.5279
N4170 Y1.9025
N4175 Y1.9105
N4180 Y1.9982
N4185 X2.3427 Y2.0062
N4190 X2.3423 Y2.0141
N4195 X2.3417 Y2.0221
N4200 X2.3408 Y2.0301
N4205 X2.3397 Y2.0381
N4210 X2.3383 Y2.046
N4215 X2.3367 Y2.0534
N4220 X2.3365 Y2.054
N4225 X2.3346 Y2.062
N4230 X2.3323 Y2.0699
N4235 X2.3297 Y2.0779
N4240 X2.3287 Y2.0808
N4245 X2.3269 Y2.0859
N4250 X2.3237 Y2.0939
N4255 X2.3208 Y2.1005
N4260 X2.3201 Y2.1018
N4265 X2.3163 Y2.1098
N4270 X2.3128 Y2.1164
N4275 X2.312 Y2.1178
N4280 X2.3074 Y2.1257
N4285 X2.3048 Y2.1299
N4290 X2.3024 Y2.1337
N4295 X2.2969 Y2.1417
N4300 X2.2968
N4305 X2.2909 Y2.1496
N4310 X2.2889 Y2.1522
N4315 X2.2844 Y2.1576
N4320 X2.2809 Y2.1616
N4325 X2.2773 Y2.1656
N4330 X2.2729 Y2.1701
N4335 X2.2695 Y2.1736
N4340 X2.265 Y2.1779
N4345 X2.261 Y2.1815
N4350 X2.257 Y2.185
N4355 X2.2515 Y2.1895
N4360 X2.249 Y2.1915
N4365 X2.2411 Y2.1975
N4370 X2.241
N4375 X2.2331 Y2.203
N4380 X2.2293 Y2.2054
N4385 X2.2251 Y2.208
N4390 X2.2171 Y2.2127
N4395 X2.2157 Y2.2134
N4400 X2.2092 Y2.2169
N4405 X2.2012 Y2.2208
N4410 X2.1998 Y2.2214
N4415 X2.1932 Y2.2243
N4420 X2.1852 Y2.2275
N4425 X2.1802 Y2.2294
N4430 X2.1773 Y2.2304
N4435 X2.1693 Y2.2329
N4440 X2.1613 Y2.2352
N4445 X2.1534 Y2.2372
N4450 X2.1527 Y2.2373
N4455 X2.1454 Y2.2389
N4460 X2.1374 Y2.2403
N4465 X2.1294 Y2.2415
N4470 X2.1215 Y2.2424
N4475 X2.1135 Y2.243
N4480 X2.1055 Y2.2433
N4485 X2.0976 Y2.2435
N4490 X2.0099
N4495 X2.0019
N4500 X1.6034
N4505 X1.5715
N4510 X1.1968
N4515 X1.1889
N4520 X1.1012
N4525 X1.0932 Y2.2433
N4530 X1.0852 Y2.243
N4535 X1.0773 Y2.2424
N4540 X1.0693 Y2.2415
N4545 X1.0613 Y2.2403
N4550 X1.0533 Y2.2389
N4555 X1.046 Y2.2373
N4560 X1.0454 Y2.2372
N4565 X1.0374 Y2.2352
N4570 X1.0294 Y2.2329
N4575 X1.0215 Y2.2304
N4580 X1.0186 Y2.2294
N4585 X1.0135 Y2.2275
N4590 X1.0055 Y2.2243
N4595 X0.9989 Y2.2214
N4600 X0.9975 Y2.2208
N4605 X0.9896 Y2.2169
N4610 X0.983 Y2.2134
N4615 X0.9816 Y2.2127
N4620 X0.9736 Y2.208
N4625 X0.9694 Y2.2054
N4630 X0.9657 Y2.203
N4635 X0.9577 Y2.1975
N4640 X0.9497 Y2.1915
N4645 X0.9472 Y2.1895
N4650 X0.9417 Y2.185
N4655 X0.9378 Y2.1815
N4660 X0.9338 Y2.1779
N4665 X0.9292 Y2.1736
N4670 X0.9258 Y2.1701
N4675 X0.9215 Y2.1656
N4680 X0.9178 Y2.1616
N4685 X0.9144 Y2.1576
N4690 X0.9099 Y2.1522
N4695 X0.9078 Y2.1496
N4700 X0.9019 Y2.1417
N4705 X0.8964 Y2.1337
N4710 X0.8939 Y2.1299
N4715 X0.8913 Y2.1257
N4720 X0.8867 Y2.1178
N4725 X0.8859 Y2.1164
N4730 X0.8825 Y2.1098
N4735 X0.8786 Y2.1018
N4740 X0.878 Y2.1005
N4745 X0.8751 Y2.0939
N4750 X0.8719 Y2.0859
N4755 X0.87 Y2.0808
N4760 X0.869 Y2.0779
N4765 X0.8664 Y2.0699
N4770 X0.8642 Y2.062
N4775 X0.8622 Y2.054
N4780 X0.862 Y2.0534
N4785 X0.8605 Y2.046
N4790 X0.8591 Y2.0381
N4795 X0.8579 Y2.0301
N4800 X0.857 Y2.0221
N4805 X0.8564 Y2.0141
N4810 X0.856 Y2.0062
N4815 X0.8559 Y1.9982
N4820 Y1.9105
N4825 Y1.9025
N4830 Y1.504
N4835 Y1.4721
N4840 Y1.0975
N4845 Y1.0895
N4850 Y1.0018
N4855 X0.856 Y0.9938
N4860 X0.8564 Y0.9859
N4865 X0.857 Y0.9779
N4870 X0.8577 Y0.9713
N4875 X0.8579 Y0.9699
N4880 X0.8591 Y0.9619
N4885 X0.8605 Y0.954
N4890 X0.862 Y0.9466
N4895 X0.8622 Y0.946
N4900 X0.8642 Y0.938
N4905 X0.8664 Y0.9301
N4910 X0.869 Y0.9221
N4915 X0.87 Y0.9192
N4920 X0.8719 Y0.9141
N4925 X0.8751 Y0.9061
N4930 X0.878 Y0.8995
N4935 X0.8786 Y0.8982
N4940 X0.8825 Y0.8902
N4945 X0.8859 Y0.8836
N4950 X0.8867 Y0.8822
N4955 X0.8913 Y0.8743
N4960 X0.8939 Y0.8701
N4965 X0.8964 Y0.8663
N4970 X0.9019 Y0.8583
N4975 X0.9078 Y0.8504
N4980 X0.9099 Y0.8478
N4985 X0.9144 Y0.8424
N4990 X0.9178 Y0.8384
N4995 X0.9215 Y0.8344
N5000 X0.9258 Y0.8299
N5005 X0.9292 Y0.8264
N5010 X0.9338 Y0.8221
N5015 X0.9378 Y0.8185
N5020 X0.9417 Y0.815
N5025 X0.9472 Y0.8105
N5030 X0.9497 Y0.8085
N5035 X0.9577 Y0.8025
N5040 X0.9657 Y0.797
N5045 X0.9694 Y0.7946
N5050 X0.9736 Y0.792
N5055 X0.9816 Y0.7873
N5060 X0.983 Y0.7866
N5065 X0.9896 Y0.7831
N5070 X0.9975 Y0.7792
N5075 X0.9989 Y0.7786
N5080 X1.0055 Y0.7757
N5085 X1.0135 Y0.7725
N5090 X1.0186 Y0.7706
N5095 X1.0215 Y0.7696
N5100 X1.0294 Y0.7671
N5105 X1.0374 Y0.7648
N5110 X1.0454 Y0.7628
N5115 X1.046 Y0.7627
N5120 X1.0533 Y0.7611
N5125 X1.0613 Y0.7597
N5130 X1.0693 Y0.7585
N5135 X1.0773 Y0.7576
N5140 X1.0852 Y0.757
N5145 X1.0932 Y0.7567
N5150 X1.1012 Y0.7565
N5155 X1.1889
N5160 X1.1968
N5165 X1.5954
N5170 X1.6273
N5175 X2.0019
N5180 X2.0099
N5185 X2.0976
N5190 X2.1055 Y0.7567
N5195 X2.1135 Y0.757
N5200 X2.1215 Y0.7576
N5205 X2.1294 Y0.7585
N5210 X2.1374 Y0.7597
N5215 X2.1454 Y0.7611
N5220 X2.1527 Y0.7627
N5225 X2.1534 Y0.7628
N5230 X2.1613 Y0.7648
N5235 X2.1693 Y0.7671
N5240 X2.1773 Y0.7696
N5245 X2.1802 Y0.7706
N5250 X2.1852 Y0.7725
N5255 X2.1932 Y0.7757
N5260 X2.1998 Y0.7786
N5265 X2.2008 Y0.7791
N5270 X2.2079 Y0.7825
N5275 X2.2149 Y0.7861
N5280 X2.2216 Y0.7899
N5285 X2.2282 Y0.7939 Z-0.0801
N5290 X2.2349 Y0.7983
N5295 X2.2414 Y0.8029
N5300 X2.2476 Y0.8075 Z-0.0802
N5305 X2.2536 Y0.8123
N5310 X2.2594 Y0.8173 Z-0.0803
N5315 X2.2651 Y0.8225 Z-0.0804
N5320 X2.271 Y0.8283
N5325 X2.2768 Y0.8344 Z-0.0805
N5330 X2.2819 Y0.8401 Z-0.0806
N5335 X2.2868 Y0.8459 Z-0.0807
N5340 X2.2916 Y0.852 Z-0.0808
N5345 X2.2961 Y0.8583 Z-0.0809
N5350 X2.3007 Y0.8648 Z-0.081
N5355 X2.3049 Y0.8715 Z-0.0812
N5360 X2.3088 Y0.8781 Z-0.0813
N5365 X2.3125 Y0.8849 Z-0.0814
N5370 X2.3161 Y0.8919 Z-0.0815
N5375 X2.3194 Y0.899 Z-0.0817
N5380 X2.3226 Y0.9064 Z-0.0818
N5385 X2.3256 Y0.914 Z-0.082
N5390 X2.3281 Y0.9211 Z-0.0822
N5395 X2.3303 Y0.9283 Z-0.0823
N5400 X2.3325 Y0.9359 Z-0.0825
N5405 X2.3344 Y0.9436 Z-0.0827
N5410 X2.336 Y0.9514 Z-0.0828
N5415 X2.3374 Y0.9592 Z-0.083
N5420 X2.3385 Y0.9666 Z-0.0832
N5425 X2.3393 Y0.974 Z-0.0834
N5430 X2.3397 Y0.9779 Z-0.0835
N5435 X2.3399 Y0.9818 Z-0.0836
N5440 X2.3402 Y0.9858 Z-0.0837
N5445 X2.3403 Y0.9897 Z-0.0838
N5450 X2.3404 Y0.9935 Z-0.0839
N5455 Y0.9974 Z-0.084
N5460 Y1.0012 Z-0.0841
N5465 X2.3403 Y1.005 Z-0.0842
N5470 X2.3402 Y1.012 Z-0.0844
N5475 X2.3401 Y1.0155 Z-0.0845
N5480 Y1.019 Z-0.0846
N5485 X2.34 Y1.0225 Z-0.0847
N5490 X2.3399 Y1.026 Z-0.0848
N5495 Y1.0295 Z-0.0849
N5500 X2.3398 Y1.033 Z-0.085
N5505 X2.3397 Y1.0365 Z-0.0851
N5510 Y1.04 Z-0.0852
N5515 X2.3396 Y1.0435 Z-0.0853
N5520 X2.3395 Y1.047 Z-0.0855
N5525 Y1.0505 Z-0.0856
N5530 X2.3394 Y1.054 Z-0.0857
N5535 X2.3393 Y1.0575 Z-0.0858
N5540 Y1.061 Z-0.0859
N5545 X2.3392 Y1.0645 Z-0.086
N5550 X2.3391 Y1.068 Z-0.0861
N5555 Y1.0715 Z-0.0862
N5560 X2.339 Y1.075 Z-0.0863
N5565 X2.3389 Y1.0785 Z-0.0865
N5570 Y1.082 Z-0.0866
N5575 X2.3388 Y1.0855 Z-0.0867
N5580 X2.3387 Y1.089 Z-0.0868
N5585 X2.3386 Y1.0925 Z-0.0869
N5590 Y1.096 Z-0.087
N5595 X2.3385 Y1.0995 Z-0.0872
N5600 X2.3384 Y1.103 Z-0.0873
N5605 X2.3383 Y1.1065 Z-0.0874
N5610 Y1.11 Z-0.0875
N5615 X2.3382 Y1.1135 Z-0.0876
N5620 X2.3381 Y1.117 Z-0.0878
N5625 X2.338 Y1.1205 Z-0.0879
N5630 Y1.124 Z-0.088
N5635 X2.3379 Y1.1275 Z-0.0881
N5640 X2.3378 Y1.131 Z-0.0883
N5645 X2.3377 Y1.1345 Z-0.0884
N5650 Y1.138 Z-0.0885
N5655 X2.3376 Y1.1415 Z-0.0886
N5660 X2.3375 Y1.145 Z-0.0887
N5665 X2.3374 Y1.1485 Z-0.0889
N5670 Y1.152 Z-0.089
N5675 X2.3373 Y1.1555 Z-0.0891
N5680 X2.3372 Y1.159 Z-0.0892
N5685 X2.3371 Y1.166 Z-0.0895
N5690 X2.3368 Y1.1765 Z-0.0898
N5695 X2.3367 Y1.1835 Z-0.0901
N5700 X2.3366 Y1.187 Z-0.0902
N5705 X2.3365 Y1.194 Z-0.0905
N5710 X2.3362 Y1.2045 Z-0.0908
N5715 X2.3361 Y1.2115 Z-0.0911
N5720 X2.336 Y1.215 Z-0.0912
N5725 X2.3359 Y1.222 Z-0.0914
N5730 X2.3356 Y1.2325 Z-0.0918
N5735 X2.3355 Y1.2395 Z-0.092
N5740 X2.3354 Y1.243 Z-0.0922
N5745 X2.3353 Y1.25 Z-0.0924
N5750 X2.335 Y1.2605 Z-0.0928
N5755 X2.3349 Y1.2675 Z-0.093
N5760 X2.3348 Y1.271 Z-0.0931
N5765 X2.3347 Y1.278 Z-0.0934
N5770 X2.3345 Y1.285 Z-0.0936
N5775 X2.3344 Y1.2885 Z-0.0938
N5780 X2.3343 Y1.2955 Z-0.094
N5785 X2.3342 Y1.299 Z-0.0941
N5790 X2.334 Y1.306 Z-0.0944
N5795 X2.3335 Y1.327 Z-0.0951
N5800 X2.3333 Y1.3375 Z-0.0955
N5805 X2.3331 Y1.3445 Z-0.0957
N5810 X2.3326 Y1.3655 Z-0.0964
N5815 X2.3325 Y1.3725 Z-0.0967
N5820 X2.332 Y1.3935 Z-0.0974
N5825 X2.3318 Y1.404 Z-0.0978
N5830 X2.3305 Y1.4565 Z-0.0996
N5835 X2.3295 Y1.502 Z-0.1012
N5840 X2.3289 Y1.5265 Z-0.1021
N5845 Y1.53 Z-0.1022
N5850 X2.3282 Y1.558 Z-0.1032
N5855 X2.3279 Y1.5685 Z-0.1035
N5860 X2.3274 Y1.5895 Z-0.1043
N5865 X2.3273 Y1.5965 Z-0.1045
N5870 X2.3271 Y1.6035 Z-0.1048
N5875 X2.327 Y1.607 Z-0.1049
N5880 X2.3268 Y1.614 Z-0.1051
N5885 X2.3263 Y1.635 Z-0.1059
N5890 X2.3262 Y1.642 Z-0.1061
N5895 X2.3256 Y1.663 Z-0.1068
N5900 X2.3255 Y1.67 Z-0.1071
N5905 X2.3252 Y1.6805 Z-0.1075
N5910 X2.325 Y1.6875 Z-0.1077
N5915 Y1.691 Z-0.1078
N5920 X2.3248 Y1.698 Z-0.1081
N5925 X2.3245 Y1.7085 Z-0.1084
N5930 X2.3244 Y1.7155 Z-0.1087
N5935 X2.3243 Y1.719 Z-0.1088
N5940 X2.3241 Y1.726 Z-0.109
N5945 X2.3239 Y1.7365 Z-0.1094
N5950 X2.3237 Y1.7435 Z-0.1097
N5955 X2.3236 Y1.747 Z-0.1098
N5960 X2.3234 Y1.754 Z-0.11
N5965 X2.3233 Y1.7575 Z-0.1101
N5970 Y1.761 Z-0.1103
N5975 X2.3231 Y1.768 Z-0.1105
N5980 X2.323 Y1.7715 Z-0.1106
N5985 X2.3229 Y1.775 Z-0.1108
N5990 X2.3228 Y1.7785 Z-0.1109
N5995 X2.3227 Y1.782 Z-0.111
N6000 X2.3226 Y1.7855 Z-0.1111
N6005 X2.3225 Y1.789 Z-0.1112
N6010 Y1.7925 Z-0.1114
N6015 X2.3224 Y1.796 Z-0.1115
N6020 X2.3223 Y1.7995 Z-0.1116
N6025 X2.3222 Y1.803 Z-0.1117
N6030 X2.3221 Y1.8065 Z-0.1119
N6035 X2.322 Y1.81 Z-0.112
N6040 X2.3219 Y1.8135 Z-0.1121
N6045 X2.3218 Y1.817 Z-0.1122
N6050 X2.3217 Y1.8205 Z-0.1123
N6055 Y1.824 Z-0.1125
N6060 X2.3216 Y1.8275 Z-0.1126
N6065 X2.3215 Y1.831 Z-0.1127
N6070 X2.3214 Y1.8345 Z-0.1128
N6075 X2.3213 Y1.838 Z-0.1129
N6080 X2.3212 Y1.8415 Z-0.1131
N6085 X2.3211 Y1.845 Z-0.1132
N6090 X2.321 Y1.8485 Z-0.1133
N6095 Y1.852 Z-0.1134
N6100 X2.3209 Y1.8555 Z-0.1135
N6105 X2.3208 Y1.859 Z-0.1136
N6110 X2.3207 Y1.8625 Z-0.1138
N6115 X2.3206 Y1.866 Z-0.1139
N6120 X2.3205 Y1.8695 Z-0.114
N6125 Y1.873 Z-0.1141
N6130 X2.3204 Y1.8765 Z-0.1142
N6135 X2.3203 Y1.88 Z-0.1143
N6140 X2.3202 Y1.8835 Z-0.1144
N6145 X2.3201 Y1.887 Z-0.1145
N6150 Y1.8905 Z-0.1146
N6155 X2.32 Y1.894 Z-0.1147
N6160 X2.3199 Y1.8975 Z-0.1149
N6165 X2.3198 Y1.901 Z-0.115
N6170 Y1.9045 Z-0.1151
N6175 X2.3197 Y1.908 Z-0.1152
N6180 X2.3196 Y1.9115 Z-0.1153
N6185 X2.3195 Y1.915 Z-0.1154
N6190 Y1.9185 Z-0.1155
N6195 X2.3194 Y1.922 Z-0.1156
N6200 X2.3192 Y1.929 Z-0.1158
N6205 X2.3191 Y1.936 Z-0.116
N6210 X2.319 Y1.943 Z-0.1162
N6215 X2.3188 Y1.95 Z-0.1163
N6220 X2.3187 Y1.957 Z-0.1165
N6225 X2.3186 Y1.964 Z-0.1167
N6230 X2.3184 Y1.971 Z-0.1169
N6235 X2.3183 Y1.978 Z-0.117
N6240 X2.3182 Y1.985 Z-0.1172
N6245 X2.3181 Y1.992 Z-0.1174
N6250 X2.3179 Y1.999 Z-0.1175
N6255 X2.3177 Y2.006 Z-0.1177
N6260 X2.3173 Y2.013 Z-0.1178
N6265 X2.3166 Y2.0201 Z-0.118
N6270 X2.3157 Y2.0271 Z-0.1181
N6275 X2.3146 Y2.034 Z-0.1183
N6280 X2.3133 Y2.0409 Z-0.1184
N6285 X2.3117 Y2.0478 Z-0.1185
N6290 X2.31 Y2.0546 Z-0.1186
N6295 X2.308 Y2.0614 Z-0.1188
N6300 X2.3058 Y2.068 Z-0.1189
N6305 X2.3034 Y2.0746 Z-0.119
N6310 X2.3008 Y2.0812 Z-0.1191
N6315 X2.295 Y2.0939 Z-0.1193
N6320 X2.2884 Y2.1063 Z-0.1194
N6325 X2.281 Y2.1182 Z-0.1196
N6330 X2.2729 Y2.1297 Z-0.1197
N6335 X2.264 Y2.1406 Z-0.1198
N6340 X2.2546 Y2.1509 Z-0.1199
N6345 X2.2445 Y2.1606 Z-0.12
N6350 X2.2338 Y2.1696
N6355 X2.2243 Y2.1766
N6360 X2.2171 Y2.1815
N6365 X2.2092 Y2.1865
N6370 X2.2039 Y2.1895
N6375 X2.2012 Y2.191
N6380 X2.1932 Y2.195
N6385 X2.188 Y2.1975
N6390 X2.1852 Y2.1987
N6395 X2.1773 Y2.202
N6400 X2.1693 Y2.2049
N6405 X2.1677 Y2.2054
N6410 X2.1613 Y2.2075
N6415 X2.1534 Y2.2097
N6420 X2.1454 Y2.2116
N6425 X2.1374 Y2.2132
N6430 X2.1365 Y2.2134
N6435 X2.1294 Y2.2145
N6440 X2.1215 Y2.2155
N6445 X2.1135 Y2.2162
N6450 X2.1055 Y2.2167
N6455 X2.0976 Y2.2168
N6460 X2.0577
N6465 X2.0497
N6470 X1.6034
N6475 X1.5794
N6480 X1.149
N6485 X1.141
N6490 X1.1012
N6495 X1.0932 Y2.2167
N6500 X1.0852 Y2.2162
N6505 X1.0773 Y2.2155
N6510 X1.0693 Y2.2145
N6515 X1.0623 Y2.2134
N6520 X1.0613 Y2.2132
N6525 X1.0533 Y2.2116
N6530 X1.0454 Y2.2097
N6535 X1.0374 Y2.2075
N6540 X1.031 Y2.2054
N6545 X1.0294 Y2.2049
N6550 X1.0215 Y2.202
N6555 X1.0135 Y2.1987
N6560 X1.0107 Y2.1975
N6565 X1.0055 Y2.195
N6570 X0.9975 Y2.191
N6575 X0.9949 Y2.1895
N6580 X0.9896 Y2.1865
N6585 X0.9816 Y2.1815
N6590 X0.9736 Y2.1761
N6595 X0.9702 Y2.1736
N6600 X0.9657 Y2.1701
N6605 X0.9601 Y2.1656
N6610 X0.9577 Y2.1635
N6615 X0.9512 Y2.1576
N6620 X0.9497 Y2.1563
N6625 X0.9431 Y2.1496
N6630 X0.9417 Y2.1482
N6635 X0.9358 Y2.1417
N6640 X0.9338 Y2.1392
N6645 X0.9293 Y2.1337
N6650 X0.9258 Y2.1292
N6655 X0.9233 Y2.1257
N6660 X0.9178 Y2.1178
N6665 X0.9129 Y2.1098
N6670 X0.9099 Y2.1045
N6675 X0.9084 Y2.1018
N6680 X0.9043 Y2.0939
N6685 X0.9019 Y2.0886
N6690 X0.9007 Y2.0859
N6695 X0.8974 Y2.0779
N6700 X0.8945 Y2.0699
N6705 X0.8939 Y2.0683
N6710 X0.8919 Y2.062
N6715 X0.8897 Y2.054
N6720 X0.8877 Y2.046
N6725 X0.8861 Y2.0381
N6730 X0.8859 Y2.0371
N6735 X0.8848 Y2.0301
N6740 X0.8838 Y2.0221
N6745 X0.8831 Y2.0141
N6750 X0.8827 Y2.0062
N6755 X0.8826 Y1.9982
N6760 Y1.9583
N6765 Y1.9504
N6770 Y1.504
N6775 Y1.4801
N6780 Y1.0496
N6785 Y1.0417
N6790 Y1.0018
N6795 X0.8827 Y0.9938
N6800 X0.8831 Y0.9859
N6805 X0.8838 Y0.9779
N6810 X0.8848 Y0.9699
N6815 X0.8859 Y0.9629
N6820 X0.8861 Y0.9619
N6825 X0.8877 Y0.954
N6830 X0.8897 Y0.946
N6835 X0.8919 Y0.938
N6840 X0.8939 Y0.9317
N6845 X0.8945 Y0.9301
N6850 X0.8974 Y0.9221
N6855 X0.9007 Y0.9141
N6860 X0.9019 Y0.9114
N6865 X0.9043 Y0.9061
N6870 X0.9084 Y0.8982
N6875 X0.9099 Y0.8955
N6880 X0.9129 Y0.8902
N6885 X0.9178 Y0.8822
N6890 X0.9233 Y0.8743
N6895 X0.9258 Y0.8708
N6900 X0.9293 Y0.8663
N6905 X0.9338 Y0.8608
N6910 X0.9358 Y0.8583
N6915 X0.9417 Y0.8518
N6920 X0.9431 Y0.8504
N6925 X0.9497 Y0.8437
N6930 X0.9512 Y0.8424
N6935 X0.9577 Y0.8365
N6940 X0.9601 Y0.8344
N6945 X0.9657 Y0.8299
N6950 X0.9702 Y0.8264
N6955 X0.9736 Y0.8239
N6960 X0.9816 Y0.8185
N6965 X0.9896 Y0.8135
N6970 X0.9949 Y0.8105
N6975 X0.9975 Y0.809
N6980 X1.0055 Y0.805
N6985 X1.0107 Y0.8025
N6990 X1.0135 Y0.8013
N6995 X1.0215 Y0.798
N7000 X1.0294 Y0.7951
N7005 X1.031 Y0.7946
N7010 X1.0374 Y0.7925
N7015 X1.0454 Y0.7903
N7020 X1.0533 Y0.7884
N7025 X1.0613 Y0.7868
N7030 X1.0623 Y0.7866
N7035 X1.0693 Y0.7855
N7040 X1.0773 Y0.7845
N7045 X1.0852 Y0.7838
N7050 X1.0932 Y0.7833
N7055 X1.1012 Y0.7832
N7060 X1.141
N7065 X1.149
N7070 X1.5954
N7075 X1.6193
N7080 X2.0497
N7085 X2.0577
N7090 X2.0976
N7095 X2.1055 Y0.7833
N7100 X2.1135 Y0.7838
N7105 X2.1215 Y0.7845
N7110 X2.1294 Y0.7855
N7115 X2.1365 Y0.7866
N7120 X2.1374 Y0.7868
N7125 X2.1454 Y0.7884
N7130 X2.1534 Y0.7903
N7135 X2.1613 Y0.7925
N7140 X2.1677 Y0.7946
N7145 X2.1693 Y0.7951
N7150 X2.1773 Y0.798
N7155 X2.1852 Y0.8013
N7160 X2.188 Y0.8025
N7165 X2.1932 Y0.805
N7170 X2.2012 Y0.809
N7175 X2.2039 Y0.8105
N7180 X2.2092 Y0.8135
N7185 X2.2171 Y0.8185
N7190 X2.2251 Y0.8239
N7195 X2.2286 Y0.8264
N7200 X2.2331 Y0.8299
N7205 X2.2386 Y0.8344
N7210 X2.241 Y0.8365
N7215 X2.2476 Y0.8424
N7220 X2.249 Y0.8437
N7225 X2.2556 Y0.8504
N7230 X2.257 Y0.8518
N7235 X2.2629 Y0.8583
N7240 X2.265 Y0.8607
N7245 X2.2695 Y0.8663
N7250 X2.2729 Y0.8708
N7255 X2.2755 Y0.8743
N7260 X2.2809 Y0.8822
N7265 X2.2858 Y0.8902
N7270 X2.2889 Y0.8955
N7275 X2.2903 Y0.8982
N7280 X2.2944 Y0.9061
N7285 X2.2968 Y0.9114
N7290 X2.2981 Y0.9141
N7295 X2.3013 Y0.9221
N7300 X2.3043 Y0.9301
N7305 X2.3048 Y0.9317
N7310 X2.3068 Y0.938
N7315 X2.3091 Y0.946
N7320 X2.311 Y0.954
N7325 X2.3126 Y0.9619
N7330 X2.3128 Y0.9629
N7335 X2.3139 Y0.9699
N7340 X2.3149 Y0.9779
N7345 X2.3156 Y0.9859
N7350 X2.316 Y0.9938
N7355 X2.3162 Y1.0018
N7360 Y1.0417
N7365 Y1.0496
N7370 Y1.496
N7375 Y1.5199
N7380 Y1.9504
N7385 Y1.9583
N7390 Y1.9982
N7395 X2.316 Y2.0062
N7400 X2.3156 Y2.0141
N7405 X2.3149 Y2.0221
N7410 X2.3139 Y2.0301
N7415 X2.3128 Y2.0371
N7420 X2.3126 Y2.0381
N7425 X2.311 Y2.046
N7430 X2.3091 Y2.054
N7435 X2.3068 Y2.062
N7440 X2.3048 Y2.0683
N7445 X2.3043 Y2.0699
N7450 X2.3013 Y2.0779
N7455 X2.2981 Y2.0859
N7460 X2.2968 Y2.0886
N7465 X2.2944 Y2.0939
N7470 X2.2903 Y2.1018
N7475 X2.2889 Y2.1045
N7480 X2.2858 Y2.1098
N7485 X2.2809 Y2.1178
N7490 X2.2755 Y2.1257
N7495 X2.2729 Y2.1292
N7500 X2.2695 Y2.1337
N7505 X2.265 Y2.1393
N7510 X2.2629 Y2.1417
N7515 X2.257 Y2.1482
N7520 X2.2556 Y2.1496
N7525 X2.249 Y2.1563
N7530 X2.2476 Y2.1576
N7535 X2.241 Y2.1635
N7540 X2.2386 Y2.1656
N7545 X2.2331 Y2.1701
N7550 X2.2286 Y2.1736
N7555 X2.2251 Y2.1761
N7560 X2.2243 Y2.1766
N7565 X2.2178 Y2.1811
N7570 X2.2112 Y2.1853
N7575 X2.2037 Y2.1896
N7580 X2.1961 Y2.1936 Z-0.1201
N7585 X2.1883 Y2.1973
N7590 X2.1804 Y2.2006 Z-0.1202
N7595 X2.173 Y2.2034
N7600 X2.1655 Y2.2059 Z-0.1203
N7605 X2.1575 Y2.2083
N7610 X2.1495 Y2.2104 Z-0.1204
N7615 X2.1414 Y2.2121 Z-0.1205
N7620 X2.1333 Y2.2135 Z-0.1206
N7625 X2.1254 Y2.2146 Z-0.1207
N7630 X2.1175 Y2.2153 Z-0.1208
N7635 X2.1091 Y2.2158 Z-0.1209
N7640 X2.1008 Y2.216 Z-0.121
N7645 X2.0935 Z-0.1211
N7650 X2.0862 Y2.2159 Z-0.1212
N7655 X2.0792 Y2.2158 Z-0.1213
N7660 X2.0722 Y2.2157 Z-0.1215
N7665 X2.0652 Y2.2156 Z-0.1216
N7670 X2.0582 Y2.2155 Z-0.1217
N7675 X2.0512 Y2.2154 Z-0.1219
N7680 X2.0442 Y2.2153 Z-0.122
N7685 X2.0372 Y2.2152 Z-0.1221
N7690 X2.0302 Y2.2151 Z-0.1223
N7695 X2.0232 Y2.2149 Z-0.1224
N7700 X2.0162 Y2.2148 Z-0.1226
N7705 X2.0092 Y2.2147 Z-0.1228
N7710 X2.0022 Y2.2146 Z-0.1229
N7715 X1.9952 Y2.2144 Z-0.1231
N7720 X1.9882 Y2.2143 Z-0.1233
N7725 X1.9812 Y2.2142 Z-0.1235
N7730 X1.9742 Y2.214 Z-0.1236
N7735 X1.9672 Y2.2139 Z-0.1238
N7740 X1.9602 Y2.2137 Z-0.124
N7745 X1.9532 Y2.2136 Z-0.1242
N7750 X1.9462 Y2.2134 Z-0.1244
N7755 X1.9427 Z-0.1245
N7760 X1.9392 Y2.2133 Z-0.1246
N7765 X1.9357 Y2.2132 Z-0.1247
N7770 X1.9322 Y2.2131 Z-0.1248
N7775 X1.9287 Y2.213 Z-0.1249
N7780 X1.9252 Z-0.125
N7785 X1.9217 Y2.2129 Z-0.1251
N7790 X1.9182 Y2.2128 Z-0.1252
N7795 X1.9147 Y2.2127 Z-0.1253
N7800 X1.9112 Y2.2126 Z-0.1254
N7805 X1.9077 Z-0.1255
N7810 X1.9042 Y2.2125 Z-0.1256
N7815 X1.9007 Y2.2124 Z-0.1258
N7820 X1.8972 Y2.2123 Z-0.1259
N7825 X1.8937 Y2.2122 Z-0.126
N7830 X1.8902 Y2.2121 Z-0.1261
N7835 X1.8867 Y2.212 Z-0.1262
N7840 X1.8832 Z-0.1263
N7845 X1.8797 Y2.2119 Z-0.1264
N7850 X1.8762 Y2.2118 Z-0.1265
N7855 X1.8727 Y2.2117 Z-0.1267
N7860 X1.8692 Y2.2116 Z-0.1268
N7865 X1.8657 Y2.2115 Z-0.1269
N7870 X1.8622 Y2.2114 Z-0.127
N7875 X1.8587 Y2.2113 Z-0.1271
N7880 X1.8552 Y2.2112 Z-0.1273
N7885 X1.8517 Y2.2111 Z-0.1274
N7890 X1.8447 Y2.211 Z-0.1276
N7895 X1.8412 Y2.2109 Z-0.1277
N7900 X1.8377 Y2.2108 Z-0.1279
N7905 X1.8342 Y2.2107 Z-0.128
N7910 X1.8307 Y2.2106 Z-0.1281
N7915 X1.8272 Y2.2105 Z-0.1282
N7920 X1.8237 Y2.2104 Z-0.1284
N7925 X1.8202 Y2.2103 Z-0.1285
N7930 X1.8167 Y2.2102 Z-0.1286
N7935 X1.8132 Y2.2101 Z-0.1287
N7940 X1.8097 Y2.21 Z-0.1288
N7945 X1.8062 Y2.2099 Z-0.129
N7950 X1.8027 Y2.2098 Z-0.1291
N7955 X1.7992 Y2.2097 Z-0.1292
N7960 X1.7957 Y2.2096 Z-0.1293
N7965 X1.7922 Y2.2095 Z-0.1295
N7970 X1.7887 Y2.2094 Z-0.1296
N7975 X1.7817 Y2.2093 Z-0.1298
N7980 X1.7782 Y2.2092 Z-0.1299
N7985 X1.7712 Y2.209 Z-0.1302
N7990 X1.7607 Y2.2087 Z-0.1306
N7995 X1.7537 Y2.2085 Z-0.1308
N8000 X1.7502 Y2.2084 Z-0.1309
N8005 X1.7432 Y2.2082 Z-0.1312
N8010 X1.7327 Y2.2079 Z-0.1315
N8015 X1.7292 Y2.2078 Z-0.1317
N8020 X1.7257 Y2.2077 Z-0.1318
N8025 X1.7222 Y2.2076 Z-0.1319
N8030 X1.7152 Y2.2074 Z-0.1321
N8035 X1.7047 Y2.2071 Z-0.1325
N8040 X1.6977 Y2.2069 Z-0.1328
N8045 X1.6942 Y2.2068 Z-0.1329
N8050 X1.6872 Y2.2066 Z-0.1331
N8055 X1.6767 Y2.2063 Z-0.1335
N8060 X1.6697 Y2.2061 Z-0.1337
N8065 X1.6662 Y2.206 Z-0.1339
N8070 X1.6592 Y2.2059 Z-0.1341
N8075 X1.6382 Y2.2053 Z-0.1348
N8080 X1.6312 Y2.2051 Z-0.1351
N8085 X1.6102 Y2.2045 Z-0.1358
N8090 X1.5997 Y2.2042 Z-0.1362
N8095 X1.5927 Y2.204 Z-0.1364
N8100 X1.5717 Y2.2034 Z-0.1372
N8105 X1.5647 Y2.2032 Z-0.1374
N8110 X1.5297 Y2.2022 Z-0.1386
N8115 X1.5157 Y2.2018 Z-0.1391
N8120 X1.4807 Y2.2008 Z-0.1403
N8125 X1.4387 Y2.1996 Z-0.1418
N8130 X1.4037 Y2.1985 Z-0.143
N8135 X1.3967 Y2.1983 Z-0.1433
N8140 X1.3757 Y2.1977 Z-0.144
N8145 X1.3687 Y2.1975 Z-0.1443
N8150 X1.3617 Y2.1973 Z-0.1445
N8155 X1.3582 Y2.1972 Z-0.1446
N8160 X1.3512 Y2.197 Z-0.1449
N8165 X1.3302 Y2.1964 Z-0.1456
N8170 X1.3232 Y2.1962 Z-0.1458
N8175 X1.3127 Y2.1958 Z-0.1462
N8180 X1.3057 Y2.1956 Z-0.1465
N8185 X1.3022 Y2.1955 Z-0.1466
N8190 X1.2987 Y2.1954 Z-0.1467
N8195 X1.2917 Y2.1952 Z-0.1469
N8200 X1.2882 Y2.1951 Z-0.1471
N8205 X1.2812 Y2.1949 Z-0.1473
N8210 X1.2707 Y2.1946 Z-0.1477
N8215 X1.2637 Y2.1944 Z-0.1479
N8220 X1.2602 Y2.1943 Z-0.148
N8225 X1.2532 Y2.194 Z-0.1483
N8230 X1.2427 Y2.1937 Z-0.1487
N8235 X1.2357 Y2.1935 Z-0.1489
N8240 X1.2322 Y2.1934 Z-0.149
N8245 X1.2252 Y2.1932 Z-0.1493
N8250 X1.2147 Y2.1929 Z-0.1496
N8255 X1.2077 Y2.1927 Z-0.1499
N8260 X1.2042 Y2.1925 Z-0.15
N8265 X1.2007 Y2.1924 Z-0.1501
N8270 X1.1972 Y2.1923 Z-0.1502
N8275 X1.1937 Y2.1922 Z-0.1504
N8280 X1.1902 Y2.1921 Z-0.1505
N8285 X1.1867 Y2.192 Z-0.1506
N8290 X1.1832 Y2.1919 Z-0.1507
N8295 X1.1797 Y2.1918 Z-0.1509
N8300 X1.1762 Y2.1917 Z-0.151
N8305 X1.1727 Y2.1916 Z-0.1511
N8310 X1.1692 Y2.1915 Z-0.1512
N8315 X1.1657 Y2.1914 Z-0.1513
N8320 X1.1622 Y2.1913 Z-0.1515
N8325 X1.1587 Y2.1912 Z-0.1516
N8330 X1.1552 Y2.191 Z-0.1517
N8335 X1.1517 Y2.1909 Z-0.1518
N8340 X1.1482 Y2.1908 Z-0.152
N8345 X1.1447 Y2.1907 Z-0.1521
N8350 X1.1412 Y2.1906 Z-0.1522
N8355 X1.1377 Y2.1905 Z-0.1523
N8360 X1.1307 Y2.1903 Z-0.1526
N8365 X1.1272 Y2.1902 Z-0.1527
N8370 X1.1237 Y2.1901 Z-0.1528
N8375 X1.1202 Y2.19 Z-0.1529
N8380 X1.1167 Y2.1899 Z-0.153
N8385 X1.1132 Y2.1898 Z-0.1532
N8390 X1.1097 Y2.1897 Z-0.1533
N8395 X1.1062 Y2.1896 Z-0.1534
N8400 X1.1026 Y2.1895 Z-0.1535
N8405 X1.099 Y2.1893 Z-0.1536
N8410 X1.0955 Y2.1892 Z-0.1538
N8415 X1.0919 Y2.1889 Z-0.1539
N8420 X1.0883 Y2.1886 Z-0.154
N8425 X1.0848 Y2.1883 Z-0.1541
N8430 X1.0813 Y2.1878 Z-0.1542
N8435 X1.0777 Y2.1874 Z-0.1543
N8440 X1.0742 Y2.1868 Z-0.1544
N8445 X1.0706 Y2.1862 Z-0.1546
N8450 X1.0671 Y2.1855 Z-0.1547
N8455 X1.0635 Y2.1847 Z-0.1548
N8460 X1.06 Y2.1839 Z-0.1549
N8465 X1.0566 Y2.183 Z-0.155
N8470 X1.0531 Y2.182 Z-0.1551
N8475 X1.0496 Y2.181 Z-0.1552
N8480 X1.0462 Y2.1799 Z-0.1553
N8485 X1.0429 Y2.1788 Z-0.1554
N8490 X1.0395 Y2.1776 Z-0.1555
N8495 X1.0362 Y2.1763 Z-0.1556
N8500 X1.0329 Y2.175 Z-0.1557
N8505 X1.0296 Y2.1736 Z-0.1558
N8510 X1.0231 Y2.1706 Z-0.156
N8515 X1.0167 Y2.1674 Z-0.1562
N8520 X1.0104 Y2.1639 Z-0.1564
N8525 X1.0043 Y2.1603 Z-0.1566
N8530 X0.9984 Y2.1564 Z-0.1568
N8535 X0.9926 Y2.1523 Z-0.157
N8540 X0.9869 Y2.1479 Z-0.1571
N8545 X0.9815 Y2.1434 Z-0.1573
N8550 X0.9762 Y2.1387 Z-0.1575
N8555 X0.9711 Y2.1338 Z-0.1576
N8560 X0.9662 Y2.1287 Z-0.1578
N8565 X0.9614 Y2.1235 Z-0.1579
N8570 X0.9569 Y2.118 Z-0.1581
N8575 X0.9526 Y2.1124 Z-0.1582
N8580 X0.9485 Y2.1067 Z-0.1584
N8585 X0.9446 Y2.1008 Z-0.1585
N8590 X0.941 Y2.0948 Z-0.1586
N8595 X0.9376 Y2.0886 Z-0.1587
N8600 X0.9344 Y2.0823 Z-0.1588
N8605 X0.9314 Y2.0759 Z-0.159
N8610 X0.9287 Y2.0694 Z-0.1591
N8615 X0.9241 Y2.0561 Z-0.1593
N8620 X0.9204 Y2.0426 Z-0.1594
N8625 X0.9177 Y2.0288 Z-0.1596
N8630 X0.9161 Y2.0149 Z-0.1597
N8635 X0.9156 Y2.0009 Z-0.1598
N8640 Y1.9869 Z-0.1599
N8645 X0.9157 Y1.9729 Z-0.16
N8650 Y1.9589
N8655 Y1.9453
N8660 Y1.775
N8665 Y1.504
N8670 Y1.488
N8675 Y1.225
N8680 Y1.0018
N8685 X0.9159 Y0.9938
N8690 X0.9163 Y0.9859
N8695 X0.9172 Y0.978
N8700 Y0.9779
N8705 X0.9178 Y0.9732
N8710 X0.9184 Y0.9699
N8715 X0.9199 Y0.9619
N8720 X0.9218 Y0.954
N8725 X0.9241 Y0.946
N8730 X0.9258 Y0.9408
N8735 X0.9268 Y0.938
N8740 X0.9299 Y0.9301
N8745 X0.9334 Y0.9221
N8750 X0.9338 Y0.9214
N8755 X0.9374 Y0.9141
N8760 X0.9417 Y0.9065
N8765 X0.9419 Y0.9061
N8770 X0.947 Y0.8982
N8775 X0.9497 Y0.8942
N8780 X0.9527 Y0.8902
N8785 X0.9577 Y0.8838
N8790 X0.959 Y0.8822
N8795 X0.9657 Y0.8747
N8800 X0.9661 Y0.8743
N8805 X0.9736 Y0.8667
N8810 X0.9741 Y0.8663
N8815 X0.9816 Y0.8596
N8820 X0.9832 Y0.8583
N8825 X0.9896 Y0.8533
N8830 X0.9936 Y0.8504
N8835 X0.9975 Y0.8476
N8840 X1.0055 Y0.8426
N8845 X1.0058 Y0.8424
N8850 X1.0135 Y0.8381
N8855 X1.0207 Y0.8344
N8860 X1.0215 Y0.8341
N8865 X1.0294 Y0.8305
N8870 X1.0374 Y0.8274
N8875 X1.0402 Y0.8264
N8880 X1.0454 Y0.8247
N8885 X1.0533 Y0.8225
N8890 X1.0613 Y0.8205
N8895 X1.0693 Y0.819
N8900 X1.0725 Y0.8185
N8905 X1.0773 Y0.8178
N8910 X1.0852 Y0.817
N8915 X1.0932 Y0.8165
N8920 X1.1012 Y0.8164
N8925 X1.3244 Y0.8163
N8930 X1.5954
N8935 X1.6113
N8940 X1.8744
N8945 X2.0976 Y0.8164
N8950 X2.1055 Y0.8165
N8955 X2.1135 Y0.817
N8960 X2.1215 Y0.8178
N8965 X2.1262 Y0.8185
N8970 X2.1294 Y0.819
N8975 X2.1374 Y0.8205
N8980 X2.1454 Y0.8225
N8985 X2.1534 Y0.8247
N8990 X2.1585 Y0.8264
N8995 X2.1613 Y0.8274
N9000 X2.1693 Y0.8305
N9005 X2.1773 Y0.8341
N9010 X2.178 Y0.8344
N9015 X2.1852 Y0.8381
N9020 X2.1929 Y0.8424
N9025 X2.1932 Y0.8426
N9030 X2.2012 Y0.8476
N9035 X2.2051 Y0.8504
N9040 X2.2092 Y0.8533
N9045 X2.2156 Y0.8583
N9050 X2.2171 Y0.8596
N9055 X2.2246 Y0.8663
N9060 X2.2251 Y0.8667
N9065 X2.2326 Y0.8743
N9070 X2.2331 Y0.8747
N9075 X2.2397 Y0.8822
N9080 X2.241 Y0.8838
N9085 X2.2461 Y0.8902
N9090 X2.249 Y0.8942
N9095 X2.2517 Y0.8982
N9100 X2.2568 Y0.9061
N9105 X2.257 Y0.9065
N9110 X2.2613 Y0.9141
N9115 X2.265 Y0.9214
N9120 X2.2653 Y0.9221
N9125 X2.2688 Y0.9301
N9130 X2.2719 Y0.938
N9135 X2.2729 Y0.9408
N9140 X2.2746 Y0.946
N9145 X2.2769 Y0.954
N9150 X2.2788 Y0.9619
N9155 X2.2804 Y0.9699
N9160 X2.2809 Y0.9731
N9165 X2.2816 Y0.9779
N9170 X2.2824 Y0.9859
N9175 X2.2829 Y0.9938
N9180 X2.283 Y1.0018
N9185 Y1.225
N9190 Y1.496
N9195 Y1.512
N9200 Y1.775
N9205 Y1.9982
N9210 X2.2829 Y2.0062
N9215 X2.2824 Y2.0141
N9220 X2.2816 Y2.0221
N9225 X2.2809 Y2.0269
N9230 X2.2804 Y2.0301
N9235 X2.2788 Y2.0381
N9240 X2.2769 Y2.046
N9245 X2.2746 Y2.054
N9250 X2.2729 Y2.0592
N9255 X2.2719 Y2.062
N9260 X2.2688 Y2.0699
N9265 X2.2653 Y2.0779
N9270 X2.265 Y2.0786
N9275 X2.2613 Y2.0859
N9280 X2.257 Y2.0935
N9285 X2.2568 Y2.0939
N9290 X2.2517 Y2.1018
N9295 X2.249 Y2.1058
N9300 X2.2461 Y2.1098
N9305 X2.241 Y2.1162
N9310 X2.2397 Y2.1178
N9315 X2.2331 Y2.1253
N9320 X2.2326 Y2.1257
N9325 X2.2251 Y2.1333
N9330 X2.2246 Y2.1337
N9335 X2.2171 Y2.1404
N9340 X2.2156 Y2.1417
N9345 X2.2092 Y2.1467
N9350 X2.2051 Y2.1496
N9355 X2.2012 Y2.1524
N9360 X2.1932 Y2.1574
N9365 X2.1929 Y2.1576
N9370 X2.1852 Y2.1619
N9375 X2.178 Y2.1656
N9380 X2.1773 Y2.1659
N9385 X2.1693 Y2.1695
N9390 X2.1613 Y2.1726
N9395 X2.1585 Y2.1736
N9400 X2.1534 Y2.1753
N9405 X2.1454 Y2.1776
N9410 X2.1374 Y2.1795
N9415 X2.1294 Y2.181
N9420 X2.1262 Y2.1815
N9425 X2.1215 Y2.1822
N9430 X2.1135 Y2.183
N9435 X2.1055 Y2.1835
N9440 X2.0976 Y2.1836
N9445 X1.8744 Y2.1837
N9450 X1.6034
N9455 X1.5874
N9460 X1.3244
N9465 X1.1012 Y2.1836
N9470 X1.0932 Y2.1835
N9475 X1.0852 Y2.183
N9480 X1.0773 Y2.1822
N9485 X1.0725 Y2.1815
N9490 X1.0693 Y2.181
N9495 X1.0613 Y2.1795
N9500 X1.0533 Y2.1775
N9505 X1.0454 Y2.1753
N9510 X1.0402 Y2.1736
N9515 X1.0374 Y2.1726
N9520 X1.0294 Y2.1695
N9525 X1.0215 Y2.1659
N9530 X1.0207 Y2.1656
N9535 X1.0135 Y2.1619
N9540 X1.0058 Y2.1576
N9545 X1.0055 Y2.1574
N9550 X0.9975 Y2.1524
N9555 X0.9936 Y2.1496
N9560 X0.9896 Y2.1467
N9565 X0.9832 Y2.1417
N9570 X0.9816 Y2.1404
N9575 X0.9741 Y2.1337
N9580 X0.9736 Y2.1333
N9585 X0.9661 Y2.1257
N9590 X0.9657 Y2.1253
N9595 X0.959 Y2.1178
N9600 X0.9577 Y2.1162
N9605 X0.9527 Y2.1098
N9610 X0.9497 Y2.1058
N9615 X0.947 Y2.1018
N9620 X0.9419 Y2.0939
N9625 X0.9417 Y2.0935
N9630 X0.9374 Y2.0859
N9635 X0.9338 Y2.0786
N9640 X0.9334 Y2.0779
N9645 X0.9299 Y2.0699
N9650 X0.9268 Y2.062
N9655 X0.9258 Y2.0592
N9660 X0.9241 Y2.054
N9665 X0.9218 Y2.046
N9670 X0.9199 Y2.0381
N9675 X0.9184 Y2.0301
N9680 X0.9178 Y2.0268
N9685 X0.9172 Y2.0221
N9690 X0.9163 Y2.0141
N9695 X0.9159 Y2.0062
N9700 X0.9157 Y1.9982
N9705 Y1.9453
N9710 Y1.9313
N9715 X0.9158 Y1.9173
N9720 Y1.9033 Z-0.1601
N9725 X0.9159 Y1.8893 Z-0.1602
N9730 X0.916 Y1.8753 Z-0.1603
N9735 X0.9161 Y1.8613 Z-0.1604
N9740 X0.9162 Y1.8473 Z-0.1606
N9745 X0.9164 Y1.8333 Z-0.1607
N9750 X0.9166 Y1.8193 Z-0.1609
N9755 X0.9167 Y1.8123 Z-0.161
N9760 X0.9168 Y1.8053 Z-0.1611
N9765 X0.9169 Y1.7983 Z-0.1613
N9770 X0.917 Y1.7913 Z-0.1614
N9775 X0.9171 Y1.7843 Z-0.1615
N9780 X0.9172 Y1.7773 Z-0.1616
N9785 X0.9173 Y1.7703 Z-0.1618
N9790 X0.9174 Y1.7633 Z-0.1619
N9795 X0.9176 Y1.7563 Z-0.162
N9800 X0.9177 Y1.7493 Z-0.1622
N9805 X0.9178 Y1.7423 Z-0.1623
N9810 X0.918 Y1.7353 Z-0.1625
N9815 X0.9181 Y1.7283 Z-0.1626
N9820 X0.9183 Y1.7213 Z-0.1628
N9825 X0.9184 Y1.7143 Z-0.163
N9830 X0.9186 Y1.7073 Z-0.1631
N9835 X0.9187 Y1.7003 Z-0.1633
N9840 X0.9189 Y1.6933 Z-0.1635
N9845 X0.9191 Y1.6863 Z-0.1637
N9850 X0.9192 Y1.6793 Z-0.1639
N9855 X0.9194 Y1.6723 Z-0.164
N9860 X0.9196 Y1.6653 Z-0.1642
N9865 X0.9198 Y1.6583 Z-0.1644
N9870 X0.9199 Y1.6548 Z-0.1645
N9875 X0.92 Y1.6513 Z-0.1646
N9880 X0.9201 Y1.6478 Z-0.1647
N9885 X0.9202 Y1.6443 Z-0.1648
N9890 Y1.6408 Z-0.1649
N9895 X0.9203 Y1.6373 Z-0.165
N9900 X0.9204 Y1.6338 Z-0.1652
N9905 X0.9205 Y1.6303 Z-0.1653
N9910 X0.9206 Y1.6268 Z-0.1654
N9915 X0.9207 Y1.6233 Z-0.1655
N9920 X0.9208 Y1.6198 Z-0.1656
N9925 X0.9209 Y1.6163 Z-0.1657
N9930 X0.9211 Y1.6128 Z-0.1658
N9935 X0.9212 Y1.6093 Z-0.1659
N9940 X0.9213 Y1.6058 Z-0.166
N9945 X0.9214 Y1.6023 Z-0.1661
N9950 X0.9215 Y1.5988 Z-0.1663
N9955 X0.9216 Y1.5953 Z-0.1664
N9960 X0.9217 Y1.5918 Z-0.1665
N9965 X0.9218 Y1.5883 Z-0.1666
N9970 X0.9219 Y1.5848 Z-0.1667
N9975 X0.922 Y1.5813 Z-0.1668
N9980 X0.9221 Y1.5778 Z-0.1669
N9985 X0.9223 Y1.5743 Z-0.1671
N9990 X0.9224 Y1.5708 Z-0.1672
N9995 X0.9225 Y1.5673 Z-0.1673
N10000 X0.9226 Y1.5638 Z-0.1674
N10005 X0.9227 Y1.5603 Z-0.1675
N10010 X0.9228 Y1.5568 Z-0.1677
N10015 X0.9229 Y1.5533 Z-0.1678
N10020 X0.9231 Y1.5498 Z-0.1679
N10025 X0.9232 Y1.5463 Z-0.168
N10030 X0.9233 Y1.5428 Z-0.1682
N10035 X0.9234 Y1.5393 Z-0.1683
N10040 X0.9235 Y1.5358 Z-0.1684
N10045 X0.9236 Y1.5323 Z-0.1685
N10050 X0.9238 Y1.5288 Z-0.1686
N10055 X0.9239 Y1.5253 Z-0.1688
N10060 X0.924 Y1.5218 Z-0.1689
N10065 X0.9241 Y1.5183 Z-0.169
N10070 X0.9242 Y1.5148 Z-0.1691
N10075 X0.9243 Y1.5113 Z-0.1693
N10080 X0.9245 Y1.5078 Z-0.1694
N10085 X0.9246 Y1.5043 Z-0.1695
N10090 X0.9248 Y1.4973 Z-0.1697
N10095 X0.9249 Y1.4938 Z-0.1699
N10100 X0.925 Y1.4903 Z-0.17
N10105 X0.9252 Y1.4868 Z-0.1701
N10110 X0.9253 Y1.4833 Z-0.1702
N10115 X0.9255 Y1.4763 Z-0.1705
N10120 X0.9257 Y1.4693 Z-0.1707
N10125 X0.9258 Y1.4658 Z-0.1708
N10130 X0.9261 Y1.4588 Z-0.1711
N10135 X0.9262 Y1.4553 Z-0.1712
N10140 X0.9264 Y1.4483 Z-0.1715
N10145 X0.9268 Y1.4378 Z-0.1718
N10150 X0.9269 Y1.4343 Z-0.1719
N10155 X0.9273 Y1.4238 Z-0.1723
N10160 X0.9275 Y1.4168 Z-0.1726
N10165 X0.9276 Y1.4133 Z-0.1727
N10170 X0.9279 Y1.4063 Z-0.1729
N10175 X0.9282 Y1.3958 Z-0.1733
N10180 X0.9285 Y1.3888 Z-0.1735
N10185 X0.9286 Y1.3853 Z-0.1737
N10190 X0.9288 Y1.3783 Z-0.1739
N10195 X0.9296 Y1.3573 Z-0.1746
N10200 X0.9298 Y1.3503 Z-0.1749
N10205 X0.9305 Y1.3293 Z-0.1756
N10210 X0.9308 Y1.3223 Z-0.1759
N10215 X0.9316 Y1.2978 Z-0.1767
N10220 X0.9323 Y1.2768 Z-0.1775
N10225 X0.9324 Y1.2733 Z-0.1776
N10230 X0.9328 Y1.2628 Z-0.1779
N10235 X0.9333 Y1.2488 Z-0.1784
N10240 X0.9339 Y1.2313 Z-0.179
N10245 X0.9349 Y1.2033 Z-0.18
N10250 X0.9383 Y1.1088 Z-0.1833
N10255 X0.9386 Y1.1018 Z-0.1836
N10260 X0.9393 Y1.0808 Z-0.1843
N10265 X0.9395 Y1.0773 Z-0.1844
N10270 X0.9397 Y1.0703 Z-0.1847
N10275 X0.9405 Y1.0493 Z-0.1854
N10280 X0.9407 Y1.0423 Z-0.1856
N10285 X0.9411 Y1.0318 Z-0.186
N10290 X0.9414 Y1.0248 Z-0.1863
N10295 X0.9415 Y1.0213 Z-0.1864
N10300 X0.9417 Y1.0143 Z-0.1866
N10305 X0.9421 Y1.0035 Z-0.187
N10310 X0.9423 Y0.9998 Z-0.1871
N10315 X0.9426 Y0.996 Z-0.1873
N10320 X0.9429 Y0.9922 Z-0.1874
N10325 X0.9433 Y0.9885 Z-0.1875
N10330 X0.9438 Y0.9848 Z-0.1877
N10335 X0.9443 Y0.9811 Z-0.1878
N10340 X0.945 Y0.9775 Z-0.1879
N10345 X0.9457 Y0.9737 Z-0.1881
N10350 X0.9466 Y0.97 Z-0.1882
N10355 X0.9475 Y0.9663 Z-0.1883
N10360 X0.9485 Y0.9626 Z-0.1885
N10365 X0.9497 Y0.9589 Z-0.1886
N10370 X0.9509 Y0.9553 Z-0.1887
N10375 X0.9522 Y0.9517 Z-0.1889
N10380 X0.9535 Y0.9482 Z-0.189
N10385 X0.955 Y0.9447 Z-0.1891
N10390 X0.9565 Y0.9413 Z-0.1892
N10395 X0.9581 Y0.9379 Z-0.1894
N10400 X0.9598 Y0.9346 Z-0.1895
N10405 X0.9616 Y0.9312 Z-0.1896
N10410 X0.9635 Y0.9278 Z-0.1898
N10415 X0.9655 Y0.9245 Z-0.1899
N10420 X0.9675 Y0.9213 Z-0.19
N10425 X0.9696 Y0.9182 Z-0.1902
N10430 X0.9717 Y0.9151 Z-0.1903
N10435 X0.9739 Y0.9122 Z-0.1904
N10440 X0.9762 Y0.9092 Z-0.1906
N10445 X0.9786 Y0.9063 Z-0.1907
N10450 X0.9811 Y0.9034 Z-0.1908
N10455 X0.9837 Y0.9006 Z-0.191
N10460 X0.9863 Y0.8978 Z-0.1911
N10465 X0.9889 Y0.8952 Z-0.1912
N10470 X0.9916 Y0.8926 Z-0.1914
N10475 X0.9943 Y0.8902 Z-0.1915
N10480 X0.9971 Y0.8877 Z-0.1916
N10485 X1 Y0.8853 Z-0.1917
N10490 X1.003 Y0.883 Z-0.1919
N10495 X1.006 Y0.8807 Z-0.192
N10500 X1.0091 Y0.8786 Z-0.1921
N10505 X1.0121 Y0.8765 Z-0.1923
N10510 X1.0152 Y0.8745 Z-0.1924
N10515 X1.0184 Y0.8727 Z-0.1925
N10520 X1.0215 Y0.8708 Z-0.1927
N10525 X1.0249 Y0.8691 Z-0.1928
N10530 X1.0282 Y0.8674 Z-0.1929
N10535 X1.0316 Y0.8658 Z-0.193
N10540 X1.035 Y0.8642 Z-0.1932
N10545 X1.0384 Y0.8628 Z-0.1933
N10550 X1.0418 Y0.8615 Z-0.1934
N10555 X1.0452 Y0.8603 Z-0.1935
N10560 X1.0487 Y0.8591 Z-0.1937
N10565 X1.0522 Y0.858 Z-0.1938
N10570 X1.0557 Y0.857 Z-0.1939
N10575 X1.0593 Y0.8561 Z-0.194
N10580 X1.0628 Y0.8553 Z-0.1941
N10585 X1.0664 Y0.8545 Z-0.1943
N10590 X1.07 Y0.8539 Z-0.1944
N10595 X1.0736 Y0.8533 Z-0.1945
N10600 X1.0773 Y0.8528 Z-0.1946
N10605 X1.0808 Y0.8525 Z-0.1947
N10610 X1.0844 Y0.8522 Z-0.1948
N10615 X1.088 Y0.8519 Z-0.1949
N10620 X1.0916 Y0.8518 Z-0.1951
N10625 X1.0952 Z-0.1952
N10630 X1.0988 Z-0.1953
N10635 X1.1025 Z-0.1954
N10640 X1.1061 Y0.852 Z-0.1955
N10645 X1.1131 Y0.8522 Z-0.1957
N10650 X1.1201 Y0.8524 Z-0.1959
N10655 X1.1271 Y0.8526 Z-0.1961
N10660 X1.1341 Y0.8528 Z-0.1963
N10665 X1.1411 Y0.853 Z-0.1964
N10670 X1.1481 Y0.8532 Z-0.1966
N10675 X1.1551 Y0.8534 Z-0.1968
N10680 X1.1621 Y0.8536 Z-0.197
N10685 X1.1691 Y0.8538 Z-0.1971
N10690 X1.1761 Y0.854 Z-0.1973
N10695 X1.1831 Y0.8542 Z-0.1975
N10700 X1.1901 Y0.8543 Z-0.1976
N10705 X1.1971 Y0.8545 Z-0.1978
N10710 X1.2041 Y0.8547 Z-0.1979
N10715 X1.2111 Y0.8548 Z-0.1981
N10720 X1.2181 Y0.855 Z-0.1982
N10725 X1.2251 Y0.8552 Z-0.1983
N10730 X1.2321 Y0.8553 Z-0.1985
N10735 X1.2391 Y0.8554 Z-0.1986
N10740 X1.2461 Y0.8556 Z-0.1987
N10745 X1.2531 Y0.8557 Z-0.1988
N10750 X1.2601 Y0.8558 Z-0.1989
N10755 X1.2671 Y0.856 Z-0.199
N10760 X1.2741 Y0.8561 Z-0.1991
N10765 X1.2881 Y0.8563 Z-0.1993
N10770 X1.3021 Y0.8565 Z-0.1995
N10775 X1.3161 Y0.8566 Z-0.1996
N10780 X1.3301 Y0.8568 Z-0.1997
N10785 X1.3441 Y0.8569 Z-0.1998
N10790 X1.3581 Y0.857 Z-0.1999
N10795 X1.3721 Z-0.2
N10800 X1.3861 Y0.8571
N10805 X1.3958
N10810 X1.5236 Y0.857
N10815 X1.5396
N10820 X1.5954
N10825 X1.6113
N10830 X1.6671
N10835 X1.6751
N10840 X2.0976 Y0.8571
N10845 X2.1055 Y0.8573
N10850 X2.1135 Y0.8579
N10855 X2.117 Y0.8583
N10860 X2.1215 Y0.859
N10865 X2.1294 Y0.8605
N10870 X2.1374 Y0.8625
N10875 X2.1454 Y0.865
N10880 X2.1489 Y0.8663
N10885 X2.1534 Y0.868
N10890 X2.1613 Y0.8716
N10895 X2.1665 Y0.8743
N10900 X2.1693 Y0.8758
N10905 X2.1773 Y0.8807
N10910 X2.1796 Y0.8822
N10915 X2.1852 Y0.8863
N10920 X2.1902 Y0.8902
N10925 X2.1932 Y0.8928
N10930 X2.199 Y0.8982
N10935 X2.2012 Y0.9003
N10940 X2.2066 Y0.9061
N10945 X2.2092 Y0.9092
N10950 X2.2131 Y0.9141
N10955 X2.2171 Y0.9198
N10960 X2.2187 Y0.9221
N10965 X2.2236 Y0.9301
N10970 X2.2251 Y0.9329
N10975 X2.2277 Y0.938
N10980 X2.2313 Y0.946
N10985 X2.2331 Y0.9504
N10990 X2.2344 Y0.954
N10995 X2.2369 Y0.9619
N11000 X2.2389 Y0.9699
N11005 X2.2404 Y0.9779
N11010 X2.241 Y0.9824
N11015 X2.2415 Y0.9859
N11020 X2.2421 Y0.9938
N11025 X2.2423 Y1.0018
N11030 Y1.4243
N11035 Y1.4402
N11040 Y1.496
N11045 Y1.512
N11050 Y1.5678
N11055 Y1.5757
N11060 Y1.9982
N11065 X2.2421 Y2.0062
N11070 X2.2415 Y2.0141
N11075 X2.241 Y2.0176
N11080 X2.2404 Y2.0221
N11085 X2.2389 Y2.0301
N11090 X2.2369 Y2.0381
N11095 X2.2344 Y2.046
N11100 X2.2331 Y2.0496
N11105 X2.2313 Y2.054
N11110 X2.2277 Y2.062
N11115 X2.2251 Y2.0671
N11120 X2.2236 Y2.0699
N11125 X2.2187 Y2.0779
N11130 X2.2171 Y2.0802
N11135 X2.2131 Y2.0859
N11140 X2.2092 Y2.0908
N11145 X2.2066 Y2.0939
N11150 X2.2012 Y2.0997
N11155 X2.199 Y2.1018
N11160 X2.1932 Y2.1072
N11165 X2.1902 Y2.1098
N11170 X2.1852 Y2.1137
N11175 X2.1796 Y2.1178
N11180 X2.1773 Y2.1193
N11185 X2.1693 Y2.1242
N11190 X2.1665 Y2.1257
N11195 X2.1613 Y2.1284
N11200 X2.1534 Y2.132
N11205 X2.1489 Y2.1337
N11210 X2.1454 Y2.135
N11215 X2.1374 Y2.1375
N11220 X2.1294 Y2.1395
N11225 X2.1215 Y2.141
N11230 X2.117 Y2.1417
N11235 X2.1135 Y2.1421
N11240 X2.1055 Y2.1427
N11245 X2.0976 Y2.1429
N11250 X1.6751 Y2.143
N11255 X1.6591
N11260 X1.6034
N11265 X1.5874
N11270 X1.5316
N11275 X1.5236
N11280 X1.1012 Y2.1429
N11285 X1.0932 Y2.1427
N11290 X1.0852 Y2.1421
N11295 X1.0817 Y2.1417
N11300 X1.0773 Y2.141
N11305 X1.0693 Y2.1395
N11310 X1.0613 Y2.1375
N11315 X1.0533 Y2.135
N11320 X1.0498 Y2.1337
N11325 X1.0454 Y2.132
N11330 X1.0374 Y2.1284
N11335 X1.0322 Y2.1257
N11340 X1.0294 Y2.1242
N11345 X1.0215 Y2.1193
N11350 X1.0191 Y2.1178
N11355 X1.0135 Y2.1137
N11360 X1.0086 Y2.1098
N11365 X1.0055 Y2.1072
N11370 X0.9997 Y2.1018
N11375 X0.9975 Y2.0997
N11380 X0.9922 Y2.0939
N11385 X0.9896 Y2.0908
N11390 X0.9857 Y2.0859
N11395 X0.9816 Y2.0802
N11400 X0.98 Y2.0779
N11405 X0.9752 Y2.0699
N11410 X0.9736 Y2.0671
N11415 X0.971 Y2.062
N11420 X0.9674 Y2.054
N11425 X0.9657 Y2.0496
N11430 X0.9644 Y2.046
N11435 X0.9619 Y2.0381
N11440 X0.9599 Y2.0301
N11445 X0.9583 Y2.0221
N11450 X0.9577 Y2.0176
N11455 X0.9573 Y2.0141
N11460 X0.9567 Y2.0062
N11465 X0.9565 Y1.9982
N11470 X0.9564 Y1.5757
N11475 Y1.5598
N11480 Y1.504
N11485 Y1.488
N11490 Y1.4322
N11495 Y1.4243
N11500 X0.9565 Y1.0018
N11505 X0.9567 Y0.9938
N11510 X0.9573 Y0.9859
N11515 X0.9576 Y0.9828
N11520 X0.9577 Y0.9824
N11525 X0.9583 Y0.9779
N11530 X0.9599 Y0.9699
N11535 X0.9619 Y0.9619
N11540 X0.9644 Y0.954
N11545 X0.9657 Y0.9504
N11550 X0.9674 Y0.946
N11555 X0.971 Y0.938
N11560 X0.9736 Y0.9329
N11565 X0.9752 Y0.9301
N11570 X0.98 Y0.9221
N11575 X0.9816 Y0.9198
N11580 X0.9857 Y0.9141
N11585 X0.9896 Y0.9092
N11590 X0.9922 Y0.9061
N11595 X0.9975 Y0.9003
N11600 X0.9997 Y0.8982
N11605 X1.0055 Y0.8928
N11610 X1.0086 Y0.8902
N11615 X1.0135 Y0.8863
N11620 X1.0191 Y0.8822
N11625 X1.0215 Y0.8807
N11630 X1.0294 Y0.8758
N11635 X1.0322 Y0.8743
N11640 X1.0374 Y0.8716
N11645 X1.0454 Y0.868
N11650 X1.0498 Y0.8663
N11655 X1.0533 Y0.865
N11660 X1.0613 Y0.8625
N11665 X1.0693 Y0.8605
N11670 X1.0773 Y0.859
N11675 X1.0817 Y0.8583
N11680 X1.0852 Y0.8579
N11685 X1.0932 Y0.8573
N11690 X1.1012 Y0.8571
N11695 X1.3958
N11700 X1.4099
N11705 X1.4239
N11710 X1.4379 Y0.8572 Z-0.2001
N11715 X1.4519 Y0.8573 Z-0.2002
N11720 X1.4659 Y0.8574 Z-0.2003
N11725 X1.4799 Y0.8575 Z-0.2004
N11730 X1.4939 Y0.8577 Z-0.2006
N11735 X1.5079 Y0.8579 Z-0.2007
N11740 X1.5219 Y0.8581 Z-0.2009
N11745 X1.5289 Y0.8582 Z-0.201
N11750 X1.5359 Y0.8584 Z-0.2011
N11755 X1.5429 Y0.8585 Z-0.2013
N11760 X1.5499 Y0.8586 Z-0.2014
N11765 X1.5569 Y0.8588 Z-0.2015
N11770 X1.5639 Y0.8589 Z-0.2016
N11775 X1.5709 Y0.8591 Z-0.2018
N11780 X1.5779 Y0.8592 Z-0.2019
N11785 X1.5849 Y0.8594 Z-0.202
N11790 X1.5919 Y0.8596 Z-0.2022
N11795 X1.5989 Y0.8597 Z-0.2023
N11800 X1.6059 Y0.8599 Z-0.2025
N11805 X1.6129 Y0.8601 Z-0.2026
N11810 X1.6199 Y0.8603 Z-0.2028
N11815 X1.6269 Y0.8605 Z-0.203
N11820 X1.6339 Y0.8607 Z-0.2031
N11825 X1.6409 Y0.8609 Z-0.2033
N11830 X1.6479 Y0.8611 Z-0.2035
N11835 X1.6549 Y0.8613 Z-0.2037
N11840 X1.6619 Y0.8615 Z-0.2039
N11845 X1.6689 Y0.8618 Z-0.204
N11850 X1.6759 Y0.862 Z-0.2042
N11855 X1.6829 Y0.8622 Z-0.2044
N11860 X1.6864 Y0.8623 Z-0.2045
N11865 X1.6899 Y0.8625 Z-0.2046
N11870 X1.6934 Y0.8626 Z-0.2047
N11875 X1.6969 Y0.8627 Z-0.2048
N11880 X1.7004 Y0.8628 Z-0.2049
N11885 X1.7039 Y0.8629 Z-0.205
N11890 X1.7074 Y0.8631 Z-0.2052
N11895 X1.7109 Y0.8632 Z-0.2053
N11900 X1.7144 Y0.8633 Z-0.2054
N11905 X1.7179 Y0.8634 Z-0.2055
N11910 X1.7214 Y0.8636 Z-0.2056
N11915 X1.7249 Y0.8637 Z-0.2057
N11920 X1.7284 Y0.8638 Z-0.2058
N11925 X1.7319 Y0.864 Z-0.2059
N11930 X1.7354 Y0.8641 Z-0.206
N11935 X1.7389 Y0.8642 Z-0.2061
N11940 X1.7424 Y0.8644 Z-0.2063
N11945 X1.7459 Y0.8645 Z-0.2064
N11950 X1.7494 Y0.8647 Z-0.2065
N11955 X1.7529 Y0.8648 Z-0.2066
N11960 X1.7564 Y0.8649 Z-0.2067
N11965 X1.7599 Y0.8651 Z-0.2068
N11970 X1.7634 Y0.8652 Z-0.2069
N11975 X1.7669 Y0.8654 Z-0.2071
N11980 X1.7704 Y0.8655 Z-0.2072
N11985 X1.7739 Y0.8657 Z-0.2073
N11990 X1.7774 Y0.8658 Z-0.2074
N11995 X1.7809 Y0.866 Z-0.2075
N12000 X1.7844 Y0.8661 Z-0.2077
N12005 X1.7879 Y0.8663 Z-0.2078
N12010 X1.7914 Y0.8664 Z-0.2079
N12015 X1.7949 Y0.8666 Z-0.208
N12020 X1.7984 Y0.8667 Z-0.2082
N12025 X1.8019 Y0.8669 Z-0.2083
N12030 X1.8054 Y0.867 Z-0.2084
N12035 X1.8089 Y0.8672 Z-0.2085
N12040 X1.8124 Y0.8673 Z-0.2086
N12045 X1.8159 Y0.8675 Z-0.2088
N12050 X1.8194 Y0.8676 Z-0.2089
N12055 X1.8229 Y0.8678 Z-0.209
N12060 X1.8264 Y0.8679 Z-0.2091
N12065 X1.8299 Y0.8681 Z-0.2093
N12070 X1.8334 Y0.8682 Z-0.2094
N12075 X1.8369 Y0.8684 Z-0.2095
N12080 X1.8404 Y0.8685 Z-0.2096
N12085 X1.8439 Y0.8687 Z-0.2097
N12090 X1.8474 Y0.8688 Z-0.2099
N12095 X1.8509 Y0.869 Z-0.21
N12100 X1.8544 Y0.8691 Z-0.2101
N12105 X1.8579 Y0.8693 Z-0.2102
N12110 X1.8614 Y0.8694 Z-0.2104
N12115 X1.8649 Y0.8696 Z-0.2105
N12120 X1.8684 Y0.8697 Z-0.2106
N12125 X1.8719 Y0.8699 Z-0.2107
N12130 X1.8754 Y0.87 Z-0.2108
N12135 X1.8789 Y0.8702 Z-0.211
N12140 X1.8894 Y0.8706 Z-0.2113
N12145 X1.8964 Y0.8709 Z-0.2116
N12150 X1.8999 Y0.8711 Z-0.2117
N12155 X1.9069 Y0.8714 Z-0.2119
N12160 X1.9104 Y0.8715 Z-0.2121
N12165 X1.9139 Y0.8717 Z-0.2122
N12170 X1.9209 Y0.872 Z-0.2124
N12175 X1.9314 Y0.8725 Z-0.2128
N12180 X1.9384 Y0.8728 Z-0.2131
N12185 X1.9419 Y0.8729 Z-0.2132
N12190 X1.9489 Y0.8732 Z-0.2134
N12195 X1.9559 Y0.8736 Z-0.2137
N12200 X1.9594 Y0.8737 Z-0.2138
N12205 X1.9664 Y0.874 Z-0.214
N12210 X1.9699 Y0.8742 Z-0.2142
N12215 X1.9769 Y0.8745 Z-0.2144
N12220 X1.9874 Y0.875 Z-0.2148
N12225 X1.9944 Y0.8753 Z-0.215
N12230 X1.9979 Y0.8755 Z-0.2151
N12235 X2.0049 Y0.8758 Z-0.2154
N12240 X2.0259 Y0.8768 Z-0.2161
N12245 X2.0329 Y0.8771 Z-0.2164
N12250 X2.0574 Y0.8782 Z-0.2172
N12255 X2.0784 Y0.8792 Z-0.2179
N12260 X2.0889 Y0.8797 Z-0.2183
N12265 X2.1005 Y0.8802 Z-0.2187
N12270 X2.1052 Y0.8806 Z-0.2189
N12275 X2.1099 Y0.8812 Z-0.219
N12280 X2.1145 Y0.882 Z-0.2192
N12285 X2.1193 Y0.883 Z-0.2194
N12290 X2.124 Y0.8842 Z-0.2196
N12295 X2.1287 Y0.8855 Z-0.2197
N12300 X2.1333 Y0.8871 Z-0.2199
N12305 X2.1376 Y0.8887 Z-0.2201
N12310 X2.1418 Y0.8905 Z-0.2202
N12315 X2.146 Y0.8925 Z-0.2204
N12320 X2.15 Y0.8946 Z-0.2205
N12325 X2.154 Y0.8969 Z-0.2207
N12330 X2.1579 Y0.8993 Z-0.2209
N12335 X2.1617 Y0.9019 Z-0.221
N12340 X2.1654 Y0.9047 Z-0.2212
N12345 X2.1692 Y0.9077 Z-0.2213
N12350 X2.1729 Y0.9109 Z-0.2215
N12355 X2.1764 Y0.9143 Z-0.2217
N12360 X2.1798 Y0.9178 Z-0.2219
N12365 X2.1828 Y0.9212 Z-0.222
N12370 X2.1856 Y0.9246 Z-0.2222
N12375 X2.1883 Y0.9281 Z-0.2223
N12380 X2.1909 Y0.9318 Z-0.2225
N12385 X2.1933 Y0.9355 Z-0.2226
N12390 X2.1956 Y0.9394 Z-0.2228
N12395 X2.1977 Y0.9433 Z-0.2229
N12400 X2.1997 Y0.9473 Z-0.2231
N12405 X2.2017 Y0.9517 Z-0.2233
N12410 X2.2034 Y0.9562 Z-0.2234
N12415 X2.205 Y0.9608 Z-0.2236
N12420 X2.2064 Y0.9654 Z-0.2238
N12425 X2.2076 Y0.9699 Z-0.2239
N12430 X2.2085 Y0.9744 Z-0.2241
N12435 X2.2093 Y0.979 Z-0.2243
N12440 X2.2099 Y0.9835 Z-0.2244
N12445 X2.2103 Y0.9877 Z-0.2246
N12450 X2.2105 Y0.992 Z-0.2247
N12455 Y0.9962 Z-0.2249
N12460 X2.2103 Y1.0004 Z-0.225
N12465 X2.2102 Y1.0041 Z-0.2251
N12470 X2.2098 Y1.0114 Z-0.2254
N12475 X2.2096 Y1.0151 Z-0.2255
N12480 X2.2093 Y1.0221 Z-0.2258
N12485 X2.2087 Y1.0326 Z-0.2261
N12490 X2.2084 Y1.0396 Z-0.2264
N12495 X2.2082 Y1.0431 Z-0.2265
N12500 X2.208 Y1.0466 Z-0.2266
N12505 X2.2077 Y1.0536 Z-0.2269
N12510 X2.2075 Y1.0571 Z-0.227
N12515 X2.2071 Y1.0641 Z-0.2272
N12520 X2.2066 Y1.0746 Z-0.2276
N12525 X2.2062 Y1.0816 Z-0.2278
N12530 X2.206 Y1.0851 Z-0.228
N12535 X2.2058 Y1.0886 Z-0.2281
N12540 X2.2056 Y1.0921 Z-0.2282
N12545 X2.2054 Y1.0956 Z-0.2283
N12550 X2.2052 Y1.0991 Z-0.2285
N12555 X2.205 Y1.1026 Z-0.2286
N12560 X2.2048 Y1.1061 Z-0.2287
N12565 X2.2047 Y1.1096 Z-0.2288
N12570 X2.2045 Y1.1131 Z-0.2289
N12575 X2.2043 Y1.1166 Z-0.2291
N12580 X2.2041 Y1.1201 Z-0.2292
N12585 X2.2039 Y1.1236 Z-0.2293
N12590 X2.2037 Y1.1271 Z-0.2294
N12595 X2.2035 Y1.1306 Z-0.2296
N12600 X2.2033 Y1.1341 Z-0.2297
N12605 X2.2031 Y1.1376 Z-0.2298
N12610 X2.203 Y1.1411 Z-0.2299
N12615 X2.2028 Y1.1446 Z-0.2301
N12620 X2.2026 Y1.1481 Z-0.2302
N12625 X2.2024 Y1.1516 Z-0.2303
N12630 X2.2022 Y1.1551 Z-0.2304
N12635 X2.202 Y1.1586 Z-0.2305
N12640 X2.2018 Y1.1621 Z-0.2307
N12645 X2.2016 Y1.1656 Z-0.2308
N12650 X2.2014 Y1.1691 Z-0.2309
N12655 X2.2012 Y1.1726 Z-0.231
N12660 X2.2011 Y1.1761 Z-0.2312
N12665 X2.2009 Y1.1796 Z-0.2313
N12670 X2.2007 Y1.1831 Z-0.2314
N12675 X2.2005 Y1.1866 Z-0.2315
N12680 X2.2003 Y1.1901 Z-0.2316
N12685 X2.2001 Y1.1936 Z-0.2318
N12690 X2.1999 Y1.1971 Z-0.2319
N12695 X2.1997 Y1.2006 Z-0.232
N12700 X2.1995 Y1.2041 Z-0.2321
N12705 X2.1994 Y1.2076 Z-0.2323
N12710 X2.1992 Y1.2111 Z-0.2324
N12715 X2.199 Y1.2146 Z-0.2325
N12720 X2.1988 Y1.2181 Z-0.2326
N12725 X2.1986 Y1.2216 Z-0.2327
N12730 X2.1984 Y1.2251 Z-0.2329
N12735 X2.1982 Y1.2286 Z-0.233
N12740 X2.198 Y1.2321 Z-0.2331
N12745 X2.1978 Y1.2356 Z-0.2332
N12750 X2.1976 Y1.2391 Z-0.2333
N12755 X2.1974 Y1.2426 Z-0.2334
N12760 X2.1972 Y1.2461 Z-0.2336
N12765 X2.197 Y1.2496 Z-0.2337
N12770 X2.1968 Y1.2531 Z-0.2338
N12775 X2.1966 Y1.2566 Z-0.2339
N12780 X2.1965 Y1.2601 Z-0.234
N12785 X2.1963 Y1.2636 Z-0.2341
N12790 X2.1961 Y1.2671 Z-0.2342
N12795 X2.1959 Y1.2706 Z-0.2343
N12800 X2.1957 Y1.2741 Z-0.2345
N12805 X2.1955 Y1.2776 Z-0.2346
N12810 X2.1953 Y1.2811 Z-0.2347
N12815 X2.1952 Y1.2846 Z-0.2348
N12820 X2.195 Y1.2881 Z-0.2349
N12825 X2.1948 Y1.2916 Z-0.235
N12830 X2.1946 Y1.2951 Z-0.2351
N12835 X2.1944 Y1.2986 Z-0.2352
N12840 X2.1943 Y1.3021 Z-0.2353
N12845 X2.1941 Y1.3056 Z-0.2354
N12850 X2.1939 Y1.3091 Z-0.2355
N12855 X2.1936 Y1.3161 Z-0.2357
N12860 X2.1933 Y1.3231 Z-0.2359
N12865 X2.1929 Y1.3301 Z-0.2361
N12870 X2.1926 Y1.3371 Z-0.2363
N12875 X2.1923 Y1.3441 Z-0.2365
N12880 X2.192 Y1.3511 Z-0.2366
N12885 X2.1917 Y1.3581 Z-0.2368
N12890 X2.1914 Y1.3651 Z-0.237
N12895 X2.1911 Y1.3721 Z-0.2372
N12900 X2.1908 Y1.3791 Z-0.2373
N12905 X2.1905 Y1.3861 Z-0.2375
N12910 X2.1902 Y1.3931 Z-0.2376
N12915 X2.19 Y1.4001 Z-0.2378
N12920 X2.1897 Y1.4071 Z-0.2379
N12925 X2.1895 Y1.4141 Z-0.2381
N12930 X2.1892 Y1.4211 Z-0.2382
N12935 X2.189 Y1.4281 Z-0.2383
N12940 X2.1887 Y1.4351 Z-0.2385
N12945 X2.1885 Y1.4421 Z-0.2386
N12950 X2.1883 Y1.4491 Z-0.2387
N12955 X2.1881 Y1.4561 Z-0.2388
N12960 X2.1879 Y1.4631 Z-0.2389
N12965 X2.1877 Y1.4701 Z-0.239
N12970 X2.1875 Y1.4771 Z-0.2391
N12975 X2.1871 Y1.4911 Z-0.2393
N12980 X2.1868 Y1.5051 Z-0.2395
N12985 X2.1866 Y1.5191 Z-0.2396
N12990 X2.1863 Y1.5331 Z-0.2397
N12995 X2.1861 Y1.5471 Z-0.2398
N13000 X2.186 Y1.5611 Z-0.2399
N13005 X2.1859 Y1.5751 Z-0.24
N13010 Y1.5891
N13015 X2.1858 Y1.5984
N13020 Y1.7033
N13025 Y1.7112
N13030 Y1.9982
N13035 X2.1855 Y2.0062
N13040 X2.1852 Y2.0091
N13045 X2.1845 Y2.0141
N13050 X2.1827 Y2.0221
N13055 X2.1801 Y2.0301
N13060 X2.1773 Y2.0367
N13065 X2.1766 Y2.0381
N13070 X2.1721 Y2.046
N13075 X2.1693 Y2.0502
N13080 X2.1664 Y2.054
N13085 X2.1613 Y2.0597
N13090 X2.1591 Y2.062
N13095 X2.1534 Y2.067
N13100 X2.1495 Y2.0699
N13105 X2.1454 Y2.0728
N13110 X2.1374 Y2.0773
N13115 X2.1361 Y2.0779
N13120 X2.1294 Y2.0808
N13125 X2.1215 Y2.0834
N13130 X2.1135 Y2.0851
N13135 X2.1085 Y2.0859
N13140 X2.1055 Y2.0862
N13145 X2.0976 Y2.0864
N13150 X1.8106 Y2.0865
N13155 X1.8026
N13160 X1.6034
N13165 X1.5874
N13170 X1.3961
N13175 X1.3881
N13180 X1.1012 Y2.0864
N13185 X1.0932 Y2.0862
N13190 X1.0903 Y2.0859
N13195 X1.0852 Y2.0851
N13200 X1.0773 Y2.0834
N13205 X1.0693 Y2.0808
N13210 X1.0626 Y2.0779
N13215 X1.0613 Y2.0773
N13220 X1.0533 Y2.0728
N13225 X1.0492 Y2.0699
N13230 X1.0454 Y2.067
N13235 X1.0397 Y2.062
N13240 X1.0374 Y2.0597
N13245 X1.0324 Y2.054
N13250 X1.0294 Y2.0502
N13255 X1.0266 Y2.046
N13260 X1.0221 Y2.0381
N13265 X1.0215 Y2.0367
N13270 X1.0186 Y2.0301
N13275 X1.016 Y2.0221
N13280 X1.0142 Y2.0141
N13285 X1.0135 Y2.0091
N13290 X1.0132 Y2.0062
N13295 X1.013 Y1.9982
N13300 X1.0129 Y1.7112
N13305 Y1.7033
N13310 Y1.504
N13315 Y1.488
N13320 Y1.2967
N13325 Y1.2888
N13330 X1.013 Y1.0018
N13335 X1.0132 Y0.9938
N13340 X1.0135 Y0.9909
N13345 X1.0142 Y0.9859
N13350 X1.016 Y0.9779
N13355 X1.0186 Y0.9699
N13360 X1.0215 Y0.9633
N13365 X1.0221 Y0.9619
N13370 X1.0266 Y0.954
N13375 X1.0294 Y0.9498
N13380 X1.0324 Y0.946
N13385 X1.0374 Y0.9403
N13390 X1.0397 Y0.938
N13395 X1.0454 Y0.933
N13400 X1.0492 Y0.9301
N13405 X1.0533 Y0.9272
N13410 X1.0613 Y0.9227
N13415 X1.0626 Y0.9221
N13420 X1.0693 Y0.9192
N13425 X1.0773 Y0.9166
N13430 X1.0852 Y0.9149
N13435 X1.0903 Y0.9141
N13440 X1.0932 Y0.9138
N13445 X1.1012 Y0.9136
N13450 X1.3881 Y0.9135
N13455 X1.3959
N13460 X1.3961
N13465 X1.5954
N13470 X1.6113
N13475 X1.8026
N13480 X1.8106
N13485 X2.0976 Y0.9136
N13490 X2.1055 Y0.9138
N13495 X2.1085 Y0.9141
N13500 X2.1135 Y0.9149
N13505 X2.1215 Y0.9166
N13510 X2.1294 Y0.9192
N13515 X2.1361 Y0.9221
N13520 X2.1374 Y0.9227
N13525 X2.1454 Y0.9272
N13530 X2.1495 Y0.9301
N13535 X2.1534 Y0.933
N13540 X2.1591 Y0.938
N13545 X2.1613 Y0.9403
N13550 X2.1664 Y0.946
N13555 X2.1693 Y0.9498
N13560 X2.1721 Y0.954
N13565 X2.1766 Y0.9619
N13570 X2.1773 Y0.9633
N13575 X2.1801 Y0.9699
N13580 X2.1827 Y0.9779
N13585 X2.1845 Y0.9859
N13590 X2.1852 Y0.9909
N13595 X2.1855 Y0.9938
N13600 X2.1858 Y1.0018
N13605 Y1.2888
N13610 Y1.2967
N13615 Y1.496
N13620 Y1.512
N13625 Y1.5984
N13630 Y1.6123
N13635 X2.1857 Y1.6261 Z-0.2401
N13640 X2.1855 Y1.64 Z-0.2402
N13645 X2.1852 Y1.6538 Z-0.2404
N13650 X2.1848 Y1.6677 Z-0.2406
N13655 X2.1846 Y1.6746 Z-0.2407
N13660 X2.1843 Y1.6816 Z-0.2408
N13665 X2.1841 Y1.6885 Z-0.2409
N13670 X2.1838 Y1.6954 Z-0.2411
N13675 X2.1835 Y1.7023 Z-0.2412
N13680 X2.1832 Y1.7093 Z-0.2414
N13685 X2.1829 Y1.7162 Z-0.2415
N13690 X2.1826 Y1.7231 Z-0.2417
N13695 X2.1822 Y1.7301 Z-0.2419
N13700 X2.1818 Y1.737 Z-0.2421
N13705 X2.1814 Y1.7439 Z-0.2423
N13710 X2.1812 Y1.7474 Z-0.2424
N13715 X2.181 Y1.7509 Z-0.2425
N13720 X2.1808 Y1.7544 Z-0.2426
N13725 X2.1806 Y1.7579 Z-0.2427
N13730 X2.1804 Y1.7614 Z-0.2428
N13735 X2.1802 Y1.7649 Z-0.2429
N13740 X2.1799 Y1.7684 Z-0.243
N13745 X2.1797 Y1.7718 Z-0.2431
N13750 X2.1795 Y1.7753 Z-0.2432
N13755 X2.1792 Y1.7787 Z-0.2434
N13760 X2.179 Y1.7822 Z-0.2435
N13765 X2.1787 Y1.7857 Z-0.2436
N13770 X2.1785 Y1.7891 Z-0.2437
N13775 X2.1782 Y1.7926 Z-0.2438
N13780 X2.1779 Y1.7961 Z-0.244
N13785 X2.1777 Y1.7995 Z-0.2441
N13790 X2.1774 Y1.803 Z-0.2442
N13795 X2.1771 Y1.8065 Z-0.2443
N13800 X2.1769 Y1.8099 Z-0.2444
N13805 X2.1766 Y1.8134 Z-0.2446
N13810 X2.1763 Y1.8169 Z-0.2447
N13815 X2.1761 Y1.8203 Z-0.2448
N13820 X2.1758 Y1.8238 Z-0.2449
N13825 X2.1756 Y1.8273 Z-0.245
N13830 X2.1753 Y1.8307 Z-0.2452
N13835 X2.175 Y1.8342 Z-0.2453
N13840 X2.1748 Y1.8376 Z-0.2454
N13845 X2.1745 Y1.8411 Z-0.2455
N13850 X2.1742 Y1.8446 Z-0.2457
N13855 X2.174 Y1.848 Z-0.2458
N13860 X2.1737 Y1.8515 Z-0.2459
N13865 X2.1734 Y1.855 Z-0.246
N13870 X2.1732 Y1.8584 Z-0.2461
N13875 X2.1729 Y1.8619 Z-0.2463
N13880 X2.1726 Y1.8654 Z-0.2464
N13885 X2.1723 Y1.8688 Z-0.2465
N13890 X2.1721 Y1.8723 Z-0.2466
N13895 X2.1718 Y1.8758 Z-0.2467
N13900 X2.1715 Y1.8792 Z-0.2469
N13905 X2.1712 Y1.8827 Z-0.247
N13910 X2.1709 Y1.8861 Z-0.2471
N13915 X2.1706 Y1.8896 Z-0.2472
N13920 X2.1703 Y1.8931 Z-0.2473
N13925 X2.17 Y1.8965 Z-0.2475
N13930 X2.1697 Y1.9 Z-0.2476
N13935 X2.1694 Y1.9035 Z-0.2477
N13940 X2.1691 Y1.9069 Z-0.2478
N13945 X2.1688 Y1.9104 Z-0.248
N13950 X2.1685 Y1.9139 Z-0.2481
N13955 X2.1681 Y1.9173 Z-0.2482
N13960 X2.1678 Y1.9208 Z-0.2483
N13965 X2.1672 Y1.9277 Z-0.2486
N13970 X2.1669 Y1.9312 Z-0.2487
N13975 X2.1663 Y1.9381 Z-0.2489
N13980 X2.165 Y1.952 Z-0.2494
N13985 X2.1632 Y1.9728 Z-0.2501
N13990 X2.1629 Y1.9762 Z-0.2503
N13995 X2.1625 Y1.9797 Z-0.2504
N14000 X2.1606 Y1.9976 Z-0.251
N14005 X2.1602 Y2.0012 Z-0.2511
N14010 X2.1597 Y2.0049 Z-0.2513
N14015 X2.1589 Y2.0085 Z-0.2514
N14020 X2.1578 Y2.012 Z-0.2515
N14025 X2.1565 Y2.0154 Z-0.2517
N14030 X2.1551 Y2.0187 Z-0.2518
N14035 X2.1534 Y2.022 Z-0.2519
N14040 X2.1516 Y2.0251 Z-0.252
N14045 X2.1495 Y2.0281 Z-0.2521
N14050 X2.1473 Y2.0309 Z-0.2523
N14055 X2.145 Y2.0337 Z-0.2524
N14060 X2.1424 Y2.0362 Z-0.2525
N14065 X2.1397 Y2.0386 Z-0.2526
N14070 X2.1369 Y2.0409 Z-0.2527
N14075 X2.1339 Y2.0429 Z-0.2529
N14080 X2.1308 Y2.0448 Z-0.253
N14085 X2.1276 Y2.0465 Z-0.2531
N14090 X2.1243 Y2.0479 Z-0.2532
N14095 X2.1209 Y2.0492 Z-0.2533
N14100 X2.1174 Y2.0501 Z-0.2535
N14105 X2.1138 Y2.0509 Z-0.2536
N14110 X2.1105 Y2.0513 Z-0.2537
N14115 X2.1071 Y2.0515 Z-0.2538
N14120 X2.1037 Y2.0516 Z-0.2539
N14125 X2.1004 Y2.0513 Z-0.254
N14130 X2.097 Y2.0509 Z-0.2542
N14135 X2.0937 Y2.0505 Z-0.2543
N14140 X2.0903 Y2.05 Z-0.2544
N14145 X2.087 Y2.0496 Z-0.2545
N14150 X2.0835 Y2.0491 Z-0.2546
N14155 X2.08 Y2.0487 Z-0.2547
N14160 X2.0766 Y2.0482 Z-0.2549
N14165 X2.0731 Y2.0478 Z-0.255
N14170 X2.0696 Y2.0473 Z-0.2551
N14175 X2.0662 Y2.0468 Z-0.2552
N14180 X2.0627 Y2.0464 Z-0.2553
N14185 X2.0593 Y2.0458 Z-0.2555
N14190 X2.0558 Y2.0452 Z-0.2556
N14195 X2.0523 Y2.0446 Z-0.2557
N14200 X2.0489 Y2.044 Z-0.2558
N14205 X2.0454 Y2.0434 Z-0.256
N14210 X2.0419 Y2.0428 Z-0.2561
N14215 X2.0385 Y2.0422 Z-0.2562
N14220 X2.035 Y2.0416 Z-0.2563
N14225 X2.0315 Y2.0411 Z-0.2564
N14230 X2.0281 Y2.0405 Z-0.2566
N14235 X2.0246 Y2.0399 Z-0.2567
N14240 X2.0211 Y2.0393 Z-0.2568
N14245 X2.0177 Y2.0388 Z-0.2569
N14250 X2.0142 Y2.0382 Z-0.257
N14255 X2.0107 Y2.0377 Z-0.2571
N14260 X2.0073 Y2.0371 Z-0.2572
N14265 X2.0038 Y2.0364 Z-0.2573
N14270 X2.0003 Y2.0357 Z-0.2574
N14275 X1.9969 Y2.035 Z-0.2575
N14280 X1.9934 Y2.0343 Z-0.2576
N14285 X1.9899 Y2.0336 Z-0.2577
N14290 X1.983 Y2.0323 Z-0.2579
N14295 X1.9761 Y2.031 Z-0.2581
N14300 X1.9691 Y2.0298 Z-0.2583
N14305 X1.9622 Y2.0284 Z-0.2585
N14310 X1.9552 Y2.027 Z-0.2586
N14315 X1.9483 Y2.0254 Z-0.2588
N14320 X1.9414 Y2.0239 Z-0.259
N14325 X1.9345 Y2.0224 Z-0.2591
N14330 X1.9275 Y2.0211 Z-0.2592
N14335 X1.9206 Y2.0193 Z-0.2593
N14340 X1.9137 Y2.0176 Z-0.2595
N14345 X1.9068 Y2.0159 Z-0.2596
N14350 X1.8998 Y2.0141
N14355 X1.8929 Y2.0125 Z-0.2597
N14360 X1.8859 Y2.0111 Z-0.2598
N14365 X1.879 Y2.0093 Z-0.2599
N14370 X1.872 Y2.007
N14375 X1.8652 Y2.0044 Z-0.26
N14380 X1.8583 Y2.0023
N14385 X1.8566 Y2.0017
N14390 X1.8548 Y2.0013
N14395 X1.8513 Y2.0005
N14400 X1.8483 Y2.0001
N14405 X1.8452 Y2.011
N14410 X1.8425
N14415 X1.6034 Y2.0107
N14420 X1.5954
N14425 X1.3562 Y2.011
N14430 X1.3483
N14435 X1.1091 Y2.0107
N14440 X1.1012 Y2.0105
N14445 X1.0932 Y2.008
N14450 X1.0914 Y2.0062
N14455 X1.0888 Y1.9982
N14460 X1.0887 Y1.9902
N14465 X1.0884 Y1.7511
N14470 Y1.7431
N14475 X1.0886 Y1.504
N14480 Y1.496
N14485 X1.0884 Y1.2569
N14490 Y1.2489
N14495 X1.0887 Y1.0098
N14500 X1.0888 Y1.0018
N14505 X1.0914 Y0.9938
N14510 X1.0932 Y0.992
N14515 X1.1012 Y0.9895
N14520 X1.1091 Y0.9893
N14525 X1.3483 Y0.989
N14530 X1.3562
N14535 X1.5954 Y0.9893
N14540 X1.6034
N14545 X1.8425 Y0.989
N14550 X1.8505
N14555 X2.0896 Y0.9893
N14560 X2.0976 Y0.9895
N14565 X2.1055 Y0.992
N14570 X2.1073 Y0.9938
N14575 X2.1099 Y1.0018
N14580 X2.11 Y1.0098
N14585 X2.1104 Y1.2489
N14590 Y1.2569
N14595 X2.1101 Y1.496
N14600 Y1.504
N14605 X2.1104 Y1.7431
N14610 Y1.7511
N14615 X2.11 Y1.9902
N14620 X2.1099 Y1.9982
N14625 X2.1073 Y2.0062
N14630 X2.1055 Y2.008
N14635 X2.0976 Y2.0105
N14640 X2.0896 Y2.0107
N14645 X1.8505 Y2.011
N14650 X1.8452
N14655 G3 X1.8202 Y1.986 J-0.025
N14660 G1 Y1.9821 Z-0.2597
N14665 Y1.9783 Z-0.2588
N14670 Y1.9746 Z-0.2573
N14675 Y1.9713 Z-0.2552
N14680 Y1.9683 Z-0.2527
N14685 Y1.9658 Z-0.2497
N14690 Y1.9637 Z-0.2463
N14695 Y1.9622 Z-0.2427
N14700 Y1.9613 Z-0.2389
N14705 Y1.961 Z-0.235
N14710 G0 Z0.6
N14715 M9
N14720 G28 G91 Z0
N14725 M30
%
