%
(1002)
(Bottom of workpiece)
(T2 D=0.0312 CR=0.0156 - ZMIN=-0.26 - ball end mill)
N10 G90
N15 G28 G91 Z0
N20 G90

(Ramp4)
N25 M9
N30 T2 M6
N35 S1000 M3
N40 M8
N45 G0 X0.723 Y0.961
N50 Z0.6
N55 Z0.0777
N60 G1 Z0.0031 F40
N65 X0.7227 Z0.0019
N70 X0.7221 Y0.9609 Z0.0009
N75 X0.721 Y0.9608 Z0.0002
N80 X0.7199 Y0.9607 Z0
N85 G3 X0.7171 Y0.9572 I0.0003 J-0.0031
N90 G1 X0.7174 Y0.9549
N95 X0.7177 Y0.9522
N100 X0.7184 Y0.9467
N105 X0.7188 Y0.944
N110 X0.7201 Y0.9358
N115 X0.7206 Y0.9331
N120 X0.7216 Y0.9277
N125 X0.7222 Y0.925 Z-0.0001
N130 X0.7239 Y0.9168
N135 X0.7245 Y0.9141
N140 X0.7258 Y0.9086
N145 X0.7265 Y0.9059
N150 X0.728 Y0.9003
N155 X0.7287 Y0.8978
N160 X0.731 Y0.8896
N165 X0.7319 Y0.8869
N170 X0.7336 Y0.8815
N175 X0.7345 Y0.8787
N180 X0.7363 Y0.8733
N185 X0.7373 Y0.8706
N190 X0.7403 Y0.8624 Z-0.0002
N195 X0.7414 Y0.8597
N200 X0.7436 Y0.8543
N205 X0.7443 Y0.8526
N210 X0.7471 Y0.8461
N215 X0.7483 Y0.8434
N220 X0.7507 Y0.838
N225 X0.752 Y0.8352
N230 X0.7552 Y0.8288
N235 X0.756 Y0.8271
N240 X0.7588 Y0.8216
N245 X0.7603 Y0.8189
N250 X0.7633 Y0.8134
N255 X0.7647 Y0.8108
N260 X0.7688 Y0.8039 Z-0.0003
N265 X0.7695 Y0.8026
N270 X0.7742 Y0.795
N275 X0.7745 Y0.7945
N280 X0.7781 Y0.789
N285 X0.7796 Y0.7866
N290 X0.7836 Y0.7809
N295 X0.7851 Y0.7787
N300 X0.7894 Y0.7727
N305 X0.7905 Y0.7712
N310 X0.7959 Y0.764
N315 X0.7977 Y0.7618
N320 X0.8019 Y0.7565
N325 X0.802
N330 X0.8559 Y0.7026 Z-0.0005
N335 X0.8612 Y0.6983
N340 X0.8634 Y0.6966
N345 X0.8694 Y0.692
N350 X0.8705 Y0.6911
N355 X0.8781 Y0.6857
N360 X0.8857 Y0.6805
N365 X0.886 Y0.6803
N370 X0.8911 Y0.6769
N375 X0.8938 Y0.6752
N380 X0.8993 Y0.6718
N385 X0.902 Y0.6701 Z-0.0006
N390 X0.9079 Y0.6667
N395 X0.9101 Y0.6654
N400 X0.9177 Y0.6612
N405 X0.9183 Y0.6609
N410 X0.9264 Y0.6566
N415 X0.9282 Y0.6558
N420 X0.9346 Y0.6526
N425 X0.9373 Y0.6514
N430 X0.9428 Y0.6489
N435 X0.9455 Y0.6477
N440 X0.9519 Y0.6449
N445 X0.9536 Y0.6442
N450 X0.9591 Y0.642 Z-0.0007
N455 X0.9618 Y0.641
N460 X0.97 Y0.6379
N465 X0.9727 Y0.637
N470 X0.9781 Y0.6351
N475 X0.9808 Y0.6342
N480 X0.9863 Y0.6325
N485 X0.989 Y0.6317
N490 X0.9971 Y0.6293
N495 X0.9997 Y0.6286
N500 X1.0053 Y0.6271
N505 X1.008 Y0.6264
N510 X1.0135 Y0.6252
N515 X1.0162 Y0.6245
N520 X1.0243 Y0.6228 Z-0.0008
N525 X1.027 Y0.6223
N530 X1.0325 Y0.6212
N535 X1.0352 Y0.6208
N540 X1.0434 Y0.6195
N545 X1.0461 Y0.6191
N550 X1.0515 Y0.6183
N555 X1.0542 Y0.618
N560 X1.0624 Y0.6171
N565 X1.0651 Y0.6168
N570 X1.0705 Y0.6164
N575 X1.0733 Y0.6162
N580 X1.0787 Y0.6158
N585 X1.0814 Y0.6157
N590 X1.0896 Y0.6154 Z-0.0009
N595 X1.0923 Y0.6153
N600 X1.1005 Y0.6152
N605 X2.0983 Z-0.0024
N610 X2.1064 Y0.6153
N615 X2.1092 Y0.6154
N620 X2.1173 Y0.6157 Z-0.0025
N625 X2.12 Y0.6158
N630 X2.1255 Y0.6162
N635 X2.1282 Y0.6164
N640 X2.1336 Y0.6168
N645 X2.1363 Y0.6171
N650 X2.1445 Y0.618
N655 X2.1472 Y0.6183
N660 X2.1527 Y0.6191
N665 X2.1554 Y0.6195
N670 X2.1635 Y0.6208
N675 X2.1662 Y0.6212
N680 X2.1717 Y0.6223
N685 X2.1744 Y0.6228 Z-0.0026
N690 X2.1826 Y0.6245
N695 X2.1853 Y0.6252
N700 X2.1907 Y0.6264
N705 X2.1934 Y0.6271
N710 X2.1991 Y0.6286
N715 X2.2016 Y0.6293
N720 X2.2097 Y0.6316
N725 X2.2125 Y0.6325
N730 X2.2179 Y0.6342
N735 X2.2206 Y0.6351
N740 X2.2261 Y0.637
N745 X2.2288 Y0.6379
N750 X2.2369 Y0.641 Z-0.0027
N755 X2.2397 Y0.642
N760 X2.2451 Y0.6442
N765 X2.2468 Y0.6449
N770 X2.2533 Y0.6477
N775 X2.256 Y0.6489
N780 X2.2614 Y0.6514
N785 X2.2641 Y0.6526
N790 X2.2706 Y0.6558
N795 X2.2723 Y0.6566
N800 X2.2777 Y0.6595
N805 X2.2804 Y0.6609
N810 X2.286 Y0.664
N815 X2.2886 Y0.6654
N820 X2.2955 Y0.6694 Z-0.0028
N825 X2.2968 Y0.6701
N830 X2.3044 Y0.6748
N835 X2.3049 Y0.6752
N840 X2.3103 Y0.6787
N845 X2.3128 Y0.6803
N850 X2.3185 Y0.6842
N855 X2.3207 Y0.6857
N860 X2.3267 Y0.69
N865 X2.3282 Y0.6911
N870 X2.3353 Y0.6966
N875 X2.3375 Y0.6983
N880 X2.3428 Y0.7025
N885 X2.3429 Y0.7026
N890 X2.3968 Y0.7565 Z-0.003
N895 X2.401 Y0.7618
N900 X2.4028 Y0.764
N905 X2.4073 Y0.77
N910 X2.4082 Y0.7712
N915 X2.4137 Y0.7787
N920 X2.4189 Y0.7863
N925 X2.4191 Y0.7866
N930 X2.4224 Y0.7917
N935 X2.4242 Y0.7945
N940 X2.4276 Y0.7999
N945 X2.4292 Y0.8026 Z-0.0031
N950 X2.4327 Y0.8085
N955 X2.434 Y0.8108
N960 X2.4381 Y0.8183
N965 X2.4385 Y0.8189
N970 X2.4427 Y0.8271
N975 X2.4436 Y0.8288
N980 X2.4467 Y0.8352
N985 X2.448 Y0.838
N990 X2.4505 Y0.8434
N995 X2.4517 Y0.8461
N1000 X2.4544 Y0.8526
N1005 X2.4551 Y0.8543
N1010 X2.4573 Y0.8597 Z-0.0032
N1015 X2.4584 Y0.8624
N1020 X2.4614 Y0.8706
N1025 X2.4624 Y0.8733
N1030 X2.4643 Y0.8787
N1035 X2.4651 Y0.8815
N1040 X2.4669 Y0.8869
N1045 X2.4677 Y0.8896
N1050 X2.4701 Y0.8978
N1055 X2.4708 Y0.9003
N1060 X2.4722 Y0.9059
N1065 X2.4729 Y0.9086
N1070 X2.4742 Y0.9141
N1075 X2.4749 Y0.9168
N1080 X2.4766 Y0.925 Z-0.0033
N1085 X2.4771 Y0.9277
N1090 X2.4781 Y0.9331
N1095 X2.4786 Y0.9358
N1100 X2.4799 Y0.944
N1105 X2.4803 Y0.9467
N1110 X2.481 Y0.9522
N1115 X2.4814 Y0.9549
N1120 X2.4823 Y0.963
N1125 X2.4825 Y0.9657
N1130 X2.483 Y0.9712
N1135 X2.4832 Y0.9739
N1140 X2.4835 Y0.9793
N1145 X2.4837 Y0.9821
N1150 X2.484 Y0.9902 Z-0.0034
N1155 X2.4841 Y0.9929
N1160 X2.4842 Y1.0011
N1165 Y1.9989 Z-0.0049
N1170 X2.4841 Y2.0071
N1175 X2.484 Y2.0098
N1180 X2.4837 Y2.0179 Z-0.005
N1185 X2.4834 Y2.0234
N1190 X2.4832 Y2.0261
N1195 X2.483 Y2.0288
N1200 X2.4825 Y2.0343
N1205 X2.4823 Y2.037
N1210 X2.4814 Y2.0451
N1215 X2.481 Y2.0478
N1220 X2.4803 Y2.0533
N1225 X2.4799 Y2.056
N1230 X2.4786 Y2.0642
N1235 X2.4781 Y2.0669
N1240 X2.4771 Y2.0723
N1245 X2.4766 Y2.075 Z-0.0051
N1250 X2.4749 Y2.0832
N1255 X2.4742 Y2.0859
N1260 X2.4729 Y2.0914
N1265 X2.4722 Y2.0941
N1270 X2.4708 Y2.0997
N1275 X2.4701 Y2.1022
N1280 X2.4677 Y2.1104
N1285 X2.4669 Y2.1131
N1290 X2.4652 Y2.1185
N1295 X2.4643 Y2.1213
N1300 X2.4624 Y2.1267
N1305 X2.4614 Y2.1294
N1310 X2.4584 Y2.1376 Z-0.0052
N1315 X2.4573 Y2.1403
N1320 X2.4552 Y2.1457
N1325 X2.4544 Y2.1474
N1330 X2.4517 Y2.1539
N1335 X2.4505 Y2.1566
N1340 X2.448 Y2.162
N1345 X2.4467 Y2.1648
N1350 X2.4436 Y2.1712
N1355 X2.4427 Y2.1729
N1360 X2.4399 Y2.1784
N1365 X2.4385 Y2.1811
N1370 X2.4354 Y2.1867
N1375 X2.434 Y2.1892
N1380 X2.43 Y2.1961 Z-0.0053
N1385 X2.4292 Y2.1974
N1390 X2.4245 Y2.205
N1395 X2.4242 Y2.2055
N1400 X2.4207 Y2.211
N1405 X2.4191 Y2.2134
N1410 X2.4152 Y2.2191
N1415 X2.4137 Y2.2213
N1420 X2.4093 Y2.2273
N1425 X2.4082 Y2.2288
N1430 X2.4028 Y2.236
N1435 X2.401 Y2.2382
N1440 X2.3974 Y2.2428
N1445 X2.3967 Y2.2436
N1450 X2.3919 Y2.2493 Z-0.0054
N1455 X2.3898 Y2.2518
N1460 X2.385 Y2.2572
N1465 X2.3838 Y2.2586
N1470 X2.3783 Y2.2644
N1475 X2.3774 Y2.2654
N1480 X2.3721 Y2.2708
N1485 X2.3702 Y2.2728
N1490 X2.3647 Y2.2781
N1495 X2.3638 Y2.279
N1500 X2.3579 Y2.2844
N1505 X2.3566 Y2.2856
N1510 X2.3511 Y2.2904
N1515 X2.3487 Y2.2925 Z-0.0055
N1520 X2.3454 Y2.2953
N1525 X2.343 Y2.2973
N1530 X2.3375 Y2.3017
N1535 X2.3353 Y2.3034
N1540 X2.3294 Y2.308
N1545 X2.3282 Y2.3089
N1550 X2.3207 Y2.3143
N1555 X2.3131 Y2.3195
N1560 X2.3128 Y2.3197
N1565 X2.3076 Y2.3231
N1570 X2.3049 Y2.3248
N1575 X2.2995 Y2.3282
N1580 X2.2968 Y2.3299 Z-0.0056
N1585 X2.2908 Y2.3333
N1590 X2.2886 Y2.3346
N1595 X2.2811 Y2.3388
N1600 X2.2804 Y2.3391
N1605 X2.2723 Y2.3434
N1610 X2.2706 Y2.3442
N1615 X2.2641 Y2.3474
N1620 X2.2614 Y2.3486
N1625 X2.256 Y2.3511
N1630 X2.2533 Y2.3523
N1635 X2.2468 Y2.3551
N1640 X2.2451 Y2.3558
N1645 X2.2397 Y2.358 Z-0.0057
N1650 X2.2369 Y2.359
N1655 X2.2288 Y2.3621
N1660 X2.2261 Y2.363
N1665 X2.2206 Y2.3649
N1670 X2.2179 Y2.3658
N1675 X2.2125 Y2.3675
N1680 X2.2097 Y2.3684
N1685 X2.2016 Y2.3707
N1690 X2.1991 Y2.3714
N1695 X2.1934 Y2.3729
N1700 X2.1907 Y2.3736
N1705 X2.1853 Y2.3748
N1710 X2.1826 Y2.3755
N1715 X2.1744 Y2.3772 Z-0.0058
N1720 X2.1717 Y2.3777
N1725 X2.1662 Y2.3788
N1730 X2.1635 Y2.3792
N1735 X2.1554 Y2.3806
N1740 X2.1527 Y2.3809
N1745 X2.1472 Y2.3817
N1750 X2.1445 Y2.382
N1755 X2.1363 Y2.3829
N1760 X2.1336 Y2.3832
N1765 X2.1282 Y2.3836
N1770 X2.1255 Y2.3838
N1775 X2.12 Y2.3842
N1780 X2.1173 Y2.3843
N1785 X2.1092 Y2.3846 Z-0.0059
N1790 X2.1064 Y2.3847
N1795 X2.0983 Y2.3848
N1800 X1.1005 Z-0.0074
N1805 X1.0923 Y2.3847
N1810 X1.0896 Y2.3846
N1815 X1.0814 Y2.3843 Z-0.0075
N1820 X1.076 Y2.384
N1825 X1.0733 Y2.3838
N1830 X1.0705 Y2.3836
N1835 X1.0651 Y2.3832
N1840 X1.0624 Y2.3829
N1845 X1.0542 Y2.382
N1850 X1.0515 Y2.3817
N1855 X1.0461 Y2.3809
N1860 X1.0434 Y2.3805
N1865 X1.0352 Y2.3792
N1870 X1.0325 Y2.3787
N1875 X1.027 Y2.3777
N1880 X1.0243 Y2.3772 Z-0.0076
N1885 X1.0162 Y2.3755
N1890 X1.0135 Y2.3748
N1895 X1.008 Y2.3736
N1900 X1.0053 Y2.3729
N1905 X0.9997 Y2.3714
N1910 X0.9971 Y2.3707
N1915 X0.989 Y2.3684
N1920 X0.9863 Y2.3675
N1925 X0.9808 Y2.3658
N1930 X0.9781 Y2.3649
N1935 X0.9727 Y2.363
N1940 X0.97 Y2.3621
N1945 X0.9618 Y2.359 Z-0.0077
N1950 X0.9591 Y2.358
N1955 X0.9536 Y2.3558
N1960 X0.9519 Y2.3551
N1965 X0.9455 Y2.3523
N1970 X0.9428 Y2.3511
N1975 X0.9373 Y2.3486
N1980 X0.9346 Y2.3474
N1985 X0.9282 Y2.3442
N1990 X0.9264 Y2.3434
N1995 X0.921 Y2.3405
N2000 X0.9183 Y2.3391
N2005 X0.9127 Y2.336
N2010 X0.9101 Y2.3346
N2015 X0.9032 Y2.3306 Z-0.0078
N2020 X0.902 Y2.3299
N2025 X0.8944 Y2.3252
N2030 X0.8938 Y2.3248
N2035 X0.8884 Y2.3213
N2040 X0.886 Y2.3197
N2045 X0.8802 Y2.3158
N2050 X0.8781 Y2.3143
N2055 X0.8721 Y2.31
N2060 X0.8705 Y2.3089
N2065 X0.8634 Y2.3034
N2070 X0.8612 Y2.3017
N2075 X0.8559 Y2.2975
N2080 Y2.2974
N2085 X0.802 Y2.2435 Z-0.008
N2090 X0.8019
N2095 X0.7977 Y2.2382
N2100 X0.7959 Y2.236
N2105 X0.7914 Y2.23
N2110 X0.7905 Y2.2288
N2115 X0.7851 Y2.2213
N2120 X0.7798 Y2.2137
N2125 X0.7796 Y2.2134
N2130 X0.7763 Y2.2083
N2135 X0.7745 Y2.2055
N2140 X0.7712 Y2.2001
N2145 X0.7695 Y2.1974 Z-0.0081
N2150 X0.766 Y2.1915
N2155 X0.7647 Y2.1892
N2160 X0.7606 Y2.1817
N2165 X0.7602 Y2.1811
N2170 X0.756 Y2.1729
N2175 X0.7552 Y2.1712
N2180 X0.752 Y2.1648
N2185 X0.7507 Y2.162
N2190 X0.7483 Y2.1566
N2195 X0.7471 Y2.1539
N2200 X0.7443 Y2.1474
N2205 X0.7436 Y2.1457
N2210 X0.7414 Y2.1403 Z-0.0082
N2215 X0.7403 Y2.1376
N2220 X0.7373 Y2.1294
N2225 X0.7363 Y2.1267
N2230 X0.7345 Y2.1213
N2235 X0.7336 Y2.1185
N2240 X0.7319 Y2.1131
N2245 X0.731 Y2.1104
N2250 X0.7286 Y2.1022
N2255 X0.728 Y2.0997
N2260 X0.7265 Y2.0941
N2265 X0.7258 Y2.0914
N2270 X0.7245 Y2.0859
N2275 X0.7239 Y2.0832
N2280 X0.7222 Y2.075 Z-0.0083
N2285 X0.7216 Y2.0723
N2290 X0.7206 Y2.0669
N2295 X0.7201 Y2.0642
N2300 X0.7188 Y2.056
N2305 X0.7184 Y2.0533
N2310 X0.7177 Y2.0478
N2315 X0.7174 Y2.0451
N2320 X0.7165 Y2.037
N2325 X0.7162 Y2.0343
N2330 X0.7157 Y2.0288
N2335 X0.7155 Y2.0261
N2340 X0.7152 Y2.0207
N2345 X0.715 Y2.0179
N2350 X0.7147 Y2.0098 Z-0.0084
N2355 Y2.0071
N2360 X0.7146 Y1.9989
N2365 Y1.0011 Z-0.0099
N2370 X0.7147 Y0.9929
N2375 Y0.9902
N2380 X0.715 Y0.9821 Z-0.01
N2385 X0.7154 Y0.9766
N2390 X0.7155 Y0.9739
N2395 X0.7157 Y0.9712
N2400 X0.7162 Y0.9657
N2405 X0.7165 Y0.963
N2410 X0.7171 Y0.9572
N2415 X0.7174 Y0.9547
N2420 X0.7177 Y0.9522
N2425 X0.7187 Y0.9448
N2430 X0.7191 Y0.9423
N2435 X0.7199 Y0.9374
N2440 X0.7203 Y0.9349
N2445 X0.7217 Y0.9275
N2450 X0.7222 Y0.9251 Z-0.0101
N2455 X0.7237 Y0.9177
N2460 X0.7243 Y0.9153
N2465 X0.726 Y0.908
N2470 X0.7266 Y0.9055
N2475 X0.7285 Y0.8983
N2480 X0.7292 Y0.8959
N2485 X0.7306 Y0.8911
N2490 X0.7314 Y0.8886
N2495 X0.7336 Y0.8815
N2500 X0.7344 Y0.8791
N2505 X0.7368 Y0.872
N2510 X0.7377 Y0.8697
N2515 X0.7403 Y0.8626 Z-0.0102
N2520 X0.7412 Y0.8603
N2525 X0.7431 Y0.8557
N2530 X0.744 Y0.8533
N2535 X0.747 Y0.8464
N2540 X0.748 Y0.8441
N2545 X0.7511 Y0.8373
N2550 X0.7522 Y0.8351
N2555 X0.7555 Y0.8283
N2560 X0.7566 Y0.8261
N2565 X0.7601 Y0.8194
N2570 X0.7613 Y0.8172
N2575 X0.7637 Y0.8128
N2580 X0.7649 Y0.8106
N2585 X0.7687 Y0.8041 Z-0.0103
N2590 X0.77 Y0.802
N2595 X0.7739 Y0.7956
N2600 X0.7753 Y0.7935
N2605 X0.7794 Y0.7872
N2610 X0.7808 Y0.7851
N2615 X0.7836 Y0.781
N2620 X0.785 Y0.7789
N2625 X0.7894 Y0.7729
N2630 X0.7909 Y0.7708
N2635 X0.7947 Y0.7659
N2640 X0.797 Y0.7629
N2645 X0.8008 Y0.7582
N2650 X0.8009 Y0.7581
N2655 X0.8116 Y0.7474 Z-0.0104
N2660 X0.8581 Y0.7011 Z-0.0105
N2665 X0.8582 Y0.701
N2670 X0.8624 Y0.6976
N2675 X0.8653 Y0.6953
N2680 X0.8703 Y0.6916
N2685 X0.8723 Y0.6901
N2690 X0.8764 Y0.6872
N2695 X0.8784 Y0.6857
N2700 X0.8846 Y0.6815
N2705 X0.8867 Y0.6801
N2710 X0.8929 Y0.676
N2715 X0.8951 Y0.6746
N2720 X0.9014 Y0.6707 Z-0.0106
N2725 X0.9036 Y0.6694
N2730 X0.9079 Y0.6669
N2735 X0.9101 Y0.6656
N2740 X0.9167 Y0.662
N2745 X0.9189 Y0.6608
N2750 X0.9255 Y0.6574
N2755 X0.9278 Y0.6562
N2760 X0.9345 Y0.6529
N2765 X0.9368 Y0.6519
N2770 X0.9436 Y0.6487
N2775 X0.9459 Y0.6477
N2780 X0.9505 Y0.6458
N2785 X0.9528 Y0.6448
N2790 X0.9598 Y0.642 Z-0.0107
N2795 X0.9621 Y0.6411
N2800 X0.9691 Y0.6385
N2805 X0.9715 Y0.6376
N2810 X0.9786 Y0.6352
N2815 X0.981 Y0.6344
N2820 X0.9881 Y0.6322
N2825 X0.9905 Y0.6315
N2830 X0.9954 Y0.6301
N2835 X0.9978 Y0.6294
N2840 X1.005 Y0.6275
N2845 X1.0074 Y0.6269
N2850 X1.0148 Y0.6251
N2855 X1.0172 Y0.6246
N2860 X1.0245 Y0.623 Z-0.0108
N2865 X1.027 Y0.6225
N2870 X1.0319 Y0.6216
N2875 X1.0344 Y0.6212
N2880 X1.0418 Y0.62
N2885 X1.0443 Y0.6196
N2890 X1.0517 Y0.6186
N2895 X1.0542 Y0.6183
N2900 X1.0616 Y0.6175
N2905 X1.0641 Y0.6172
N2910 X1.0716 Y0.6166
N2915 X1.0741 Y0.6164
N2920 X1.0791 Y0.6161
N2925 X1.0816 Y0.616
N2930 X1.0891 Y0.6157 Z-0.0109
N2935 X1.0916 Y0.6156
N2940 X1.0991 Y0.6155
N2945 X1.1016
N2950 X1.1813 Y0.6156 Z-0.011
N2955 X1.261 Z-0.0111
N2960 X1.3457 Z-0.0113
N2965 X1.4303 Y0.6157 Z-0.0114
N2970 X1.515 Z-0.0115
N2975 X1.5997 Z-0.0117
N2980 X1.6844 Y0.6158 Z-0.0118
N2985 X1.769 Z-0.0119
N2990 X1.8537 Z-0.0121
N2995 X1.9384 Y0.6159 Z-0.0122
N3000 X2.0231 Z-0.0123
N3005 X2.0978 Z-0.0124
N3010 X2.1003 Y0.616
N3015 X2.1078
N3020 X2.1103 Y0.6161 Z-0.0125
N3025 X2.1153 Y0.6163
N3030 X2.1178 Y0.6164
N3035 X2.1253 Y0.6169
N3040 X2.1277 Y0.6171
N3045 X2.1352 Y0.6177
N3050 X2.1377 Y0.618
N3055 X2.1452 Y0.6188
N3060 X2.1476 Y0.6191
N3065 X2.1526 Y0.6198
N3070 X2.1551 Y0.6201
N3075 X2.1625 Y0.6213
N3080 X2.1649 Y0.6218
N3085 X2.1723 Y0.6231
N3090 X2.1748 Y0.6236 Z-0.0126
N3095 X2.1821 Y0.6252
N3100 X2.1845 Y0.6257
N3105 X2.1918 Y0.6275
N3110 X2.1966 Y0.6287
N3115 X2.1991 Y0.6294
N3120 X2.2015 Y0.63
N3125 X2.2087 Y0.6321
N3130 X2.2111 Y0.6328
N3135 X2.2182 Y0.6351
N3140 X2.2206 Y0.6359
N3145 X2.2277 Y0.6383
N3150 X2.23 Y0.6392
N3155 X2.2347 Y0.6409
N3160 X2.237 Y0.6418 Z-0.0127
N3165 X2.244 Y0.6446
N3170 X2.2463 Y0.6455
N3175 X2.2532 Y0.6485
N3180 X2.2555 Y0.6495
N3185 X2.2623 Y0.6526
N3190 X2.2646 Y0.6537
N3195 X2.2713 Y0.657
N3200 X2.2735 Y0.6582
N3205 X2.278 Y0.6605
N3210 X2.2802 Y0.6616
N3215 X2.2867 Y0.6652
N3220 X2.2889 Y0.6665
N3225 X2.2954 Y0.6702 Z-0.0128
N3230 X2.2975 Y0.6715
N3235 X2.3039 Y0.6755
N3240 X2.306 Y0.6768
N3245 X2.3102 Y0.6795
N3250 X2.3123 Y0.6809
N3255 X2.3185 Y0.6851
N3260 X2.3205 Y0.6866
N3265 X2.3266 Y0.691
N3270 X2.3286 Y0.6925
N3275 X2.3346 Y0.697
N3280 X2.3347 Y0.6971
N3285 X2.3348 Y0.6973
N3290 X2.335 Y0.6977
N3295 X2.3355 Y0.6984
N3300 X2.3361 Y0.6994
N3305 X2.3368 Y0.7003
N3310 X2.3375 Y0.7012
N3315 X2.3383 Y0.702
N3320 X2.3577 Y0.7215 Z-0.0129
N3325 X2.3965 Y0.7605 Z-0.013
N3330 X2.3981 Y0.762
N3335 X2.399 Y0.7627
N3340 X2.4 Y0.7634
N3345 X2.401 Y0.764
N3350 X2.402 Y0.7646
N3355 X2.4022 Y0.7647
N3360 X2.4023 Y0.7648
N3365 X2.4024 Y0.7649
N3370 X2.4061 Y0.7698
N3375 X2.4076 Y0.7718
N3380 X2.412 Y0.7779
N3385 X2.4135 Y0.7799
N3390 X2.4177 Y0.7861
N3395 X2.4191 Y0.7882
N3400 X2.4232 Y0.7944
N3405 X2.4245 Y0.7966
N3410 X2.4272 Y0.8008
N3415 X2.4285 Y0.8029 Z-0.0131
N3420 X2.4322 Y0.8094
N3425 X2.4335 Y0.8116
N3430 X2.4371 Y0.8181
N3435 X2.4383 Y0.8203
N3440 X2.4417 Y0.827
N3445 X2.4428 Y0.8292
N3450 X2.4461 Y0.836
N3455 X2.4472 Y0.8383
N3460 X2.4493 Y0.8428
N3465 X2.4503 Y0.8451
N3470 X2.4533 Y0.8519
N3475 X2.4542 Y0.8543
N3480 X2.457 Y0.8612 Z-0.0132
N3485 X2.4579 Y0.8635
N3490 X2.4605 Y0.8706
N3495 X2.4613 Y0.8729
N3500 X2.4638 Y0.88
N3505 X2.4645 Y0.8824
N3510 X2.4661 Y0.8872
N3515 X2.4668 Y0.8896
N3520 X2.4689 Y0.8967
N3525 X2.4696 Y0.8992
N3530 X2.4715 Y0.9064
N3535 X2.4721 Y0.9088
N3540 X2.4738 Y0.9161
N3545 X2.4743 Y0.9186
N3550 X2.4754 Y0.9234 Z-0.0133
N3555 X2.4759 Y0.9259
N3560 X2.4773 Y0.9332
N3565 X2.4777 Y0.9357
N3570 X2.4789 Y0.9431
N3575 X2.4793 Y0.9456
N3580 X2.4803 Y0.953
N3585 X2.4806 Y0.9555
N3590 X2.4814 Y0.963
N3595 X2.4816 Y0.9654
N3600 X2.482 Y0.9704
N3605 X2.4822 Y0.9729
N3610 X2.4827 Y0.9804
N3615 X2.4828 Y0.9829
N3620 X2.4831 Y0.9904 Z-0.0134
N3625 X2.4832 Y0.9929
N3630 X2.4833 Y1.0004
N3635 Y1.0028
N3640 X2.4832 Y1.0327
N3645 Y1.0427
N3650 Y1.1274 Z-0.0136
N3655 X2.483 Y1.9965 Z-0.0149
N3660 Y1.999
N3665 X2.4829 Y2.004
N3670 Y2.0065
N3675 X2.4828 Y2.009
N3680 X2.4826 Y2.0165 Z-0.015
N3685 X2.4824 Y2.019
N3690 X2.482 Y2.0265
N3695 X2.4818 Y2.029
N3700 X2.4811 Y2.0364
N3705 X2.4809 Y2.0389
N3710 X2.4803 Y2.0438
N3715 X2.48 Y2.0463
N3720 X2.479 Y2.0538
N3725 X2.4787 Y2.0562
N3730 X2.4775 Y2.0636
N3735 X2.477 Y2.0661
N3740 X2.4757 Y2.0734
N3745 X2.4752 Y2.0759 Z-0.0151
N3750 X2.4736 Y2.0832
N3755 X2.4719 Y2.0905
N3760 X2.4713 Y2.0929
N3765 X2.4694 Y2.1002
N3770 X2.4687 Y2.1026
N3775 X2.4666 Y2.1098
N3780 X2.4659 Y2.1122
N3785 X2.4644 Y2.1169
N3790 X2.4636 Y2.1193
N3795 X2.4628 Y2.1217
N3800 X2.4612 Y2.1264
N3805 X2.4604 Y2.1287
N3810 X2.4578 Y2.1357
N3815 X2.4569 Y2.1381 Z-0.0152
N3820 X2.4541 Y2.145
N3825 X2.4532 Y2.1473
N3830 X2.4502 Y2.1542
N3835 X2.4492 Y2.1565
N3840 X2.4461 Y2.1633
N3845 X2.445 Y2.1655
N3850 X2.4428 Y2.17
N3855 X2.4417 Y2.1723
N3860 X2.4382 Y2.1789
N3865 X2.4371 Y2.1811
N3870 X2.4334 Y2.1877
N3875 X2.4322 Y2.1899
N3880 X2.4284 Y2.1963 Z-0.0153
N3885 X2.4271 Y2.1985
N3890 X2.4245 Y2.2027
N3895 X2.4232 Y2.2048
N3900 X2.4191 Y2.2111
N3905 X2.4177 Y2.2132
N3910 X2.4163 Y2.2152
N3915 X2.4135 Y2.2193
N3920 X2.4121 Y2.2214
N3925 X2.4106 Y2.2234
N3930 X2.4077 Y2.2275
N3935 X2.4062 Y2.2295
N3940 X2.4032 Y2.2334
N3945 X2.4016 Y2.2354
N3950 X2.4001 Y2.2374
N3955 X2.397 Y2.2413
N3960 X2.3954 Y2.2432
N3965 X2.3922 Y2.247 Z-0.0154
N3970 X2.3906 Y2.2489
N3975 X2.3889 Y2.2508
N3980 X2.3856 Y2.2546
N3985 X2.384 Y2.2564
N3990 X2.3823 Y2.2583
N3995 X2.3789 Y2.2619
N4000 X2.3772 Y2.2638
N4005 X2.3755 Y2.2656
N4010 X2.372 Y2.2691
N4015 X2.3702 Y2.2709
N4020 X2.3649 Y2.2761
N4025 X2.3631 Y2.2779
N4030 X2.3613 Y2.2796
N4035 X2.3576 Y2.283
N4040 X2.3558 Y2.2847
N4045 X2.3539 Y2.2863
N4050 X2.3501 Y2.2896
N4055 X2.3482 Y2.2912
N4060 X2.3444 Y2.2944 Z-0.0155
N4065 X2.3425 Y2.2961
N4070 X2.3406 Y2.2976
N4075 X2.3367 Y2.3007
N4080 X2.3347 Y2.3023
N4085 X2.3307 Y2.3053
N4090 X2.3288 Y2.3068
N4095 X2.3268 Y2.3083
N4100 X2.3227 Y2.3112
N4105 X2.3207 Y2.3127
N4110 X2.3186 Y2.3141
N4115 X2.3145 Y2.317
N4120 X2.3125 Y2.3184
N4125 X2.3104 Y2.3197
N4130 X2.3062 Y2.3225
N4135 X2.3041 Y2.3238
N4140 X2.302 Y2.3251
N4145 X2.2977 Y2.3277
N4150 X2.2956 Y2.329 Z-0.0156
N4155 X2.2934 Y2.3303
N4160 X2.2891 Y2.3328
N4165 X2.287 Y2.334
N4170 X2.2826 Y2.3365
N4175 X2.2804 Y2.3377
N4180 X2.2782 Y2.3388
N4185 X2.2738 Y2.3411
N4190 X2.2716 Y2.3423
N4195 X2.2693 Y2.3434
N4200 X2.2671 Y2.3445
N4205 X2.2648 Y2.3456
N4210 X2.2626 Y2.3466
N4215 X2.258 Y2.3487
N4220 X2.2558 Y2.3498
N4225 X2.2535 Y2.3508
N4230 X2.2489 Y2.3528
N4235 X2.2466 Y2.3537
N4240 X2.2443 Y2.3547
N4245 X2.2397 Y2.3565
N4250 X2.2374 Y2.3575 Z-0.0157
N4255 X2.235 Y2.3584
N4260 X2.2327 Y2.3592
N4265 X2.2304 Y2.3601
N4270 X2.228 Y2.361
N4275 X2.2256 Y2.3618
N4280 X2.2209 Y2.3634
N4285 X2.2186 Y2.3642
N4290 X2.2162 Y2.365
N4295 X2.2114 Y2.3665
N4300 X2.209 Y2.3672
N4305 X2.2066 Y2.3679
N4310 X2.2019 Y2.3693
N4315 X2.1994 Y2.3699
N4320 X2.1946 Y2.3712
N4325 X2.1922 Y2.3718
N4330 X2.1898 Y2.3724
N4335 X2.1849 Y2.3736
N4340 X2.1825 Y2.3741
N4345 X2.1776 Y2.3752
N4350 X2.1752 Y2.3757 Z-0.0158
N4355 X2.1727 Y2.3762
N4360 X2.1678 Y2.3771
N4365 X2.1654 Y2.3776
N4370 X2.1629 Y2.378
N4375 X2.1555 Y2.3792
N4380 X2.153 Y2.3795
N4385 X2.1456 Y2.3805
N4390 X2.1431 Y2.3808
N4395 X2.1382 Y2.3814
N4400 X2.1357 Y2.3816
N4405 X2.1282 Y2.3823
N4410 X2.1258 Y2.3825
N4415 X2.1183 Y2.3829
N4420 X2.1158 Y2.383
N4425 X2.1083 Y2.3833 Z-0.0159
N4430 X2.1058 Y2.3834
N4435 X2.1033
N4440 X2.0983
N4445 X2.0958
N4450 X1.934 Z-0.0161
N4455 X1.924
N4460 X1.4907 Y2.3833 Z-0.0168
N4465 X1.1022 Y2.3832 Z-0.0174
N4470 X1.0997
N4475 X1.0972 Y2.3831
N4480 X1.0922
N4485 X1.0897 Y2.383
N4490 X1.0822 Y2.3827 Z-0.0175
N4495 X1.0797 Y2.3826
N4500 X1.0723 Y2.3821
N4505 X1.0698 Y2.3819
N4510 X1.0648 Y2.3815
N4515 X1.0623 Y2.3813
N4520 X1.0549 Y2.3804
N4525 X1.0524 Y2.3801
N4530 X1.045 Y2.3791
N4535 X1.0425 Y2.3787
N4540 X1.0352 Y2.3776
N4545 X1.0327 Y2.3771
N4550 X1.0278 Y2.3762
N4555 X1.0253 Y2.3757
N4560 X1.018 Y2.3742 Z-0.0176
N4565 X1.0156 Y2.3737
N4570 X1.0083 Y2.3719
N4575 X1.0059 Y2.3713
N4580 X0.9987 Y2.3694
N4585 X0.9963 Y2.3687
N4590 X0.9939 Y2.368
N4595 X0.9891 Y2.3666
N4600 X0.9867 Y2.3659
N4605 X0.9819 Y2.3644
N4610 X0.9796 Y2.3636
N4615 X0.9725 Y2.3612
N4620 X0.9702 Y2.3604
N4625 X0.9678 Y2.3595
N4630 X0.9631 Y2.3578
N4635 X0.9608 Y2.3569 Z-0.0177
N4640 X0.9539 Y2.3541
N4645 X0.9516 Y2.3531
N4650 X0.947 Y2.3511
N4655 X0.9447 Y2.3502
N4660 X0.9379 Y2.347
N4665 X0.9356 Y2.346
N4670 X0.9289 Y2.3427
N4675 X0.9267 Y2.3416
N4680 X0.9201 Y2.3381
N4685 X0.9179 Y2.337
N4690 X0.9113 Y2.3333
N4695 X0.9092 Y2.3321
N4700 X0.907 Y2.3308
N4705 X0.9027 Y2.3283 Z-0.0178
N4710 X0.8985 Y2.3257
N4715 X0.8963 Y2.3244
N4720 X0.8942 Y2.3231
N4725 X0.8921 Y2.3217
N4730 X0.888 Y2.319
N4735 X0.8859 Y2.3176
N4740 X0.8838 Y2.3162
N4745 X0.8797 Y2.3134
N4750 X0.8777 Y2.3119
N4755 X0.8736 Y2.309
N4760 X0.8716 Y2.3075
N4765 X0.8696 Y2.306
N4770 X0.8671 Y2.3041
N4775 X0.867 Y2.304
N4780 Y2.3038
N4785 Y2.3036
N4790 X0.8669 Y2.3033
N4795 X0.8665 Y2.302
N4800 X0.8662 Y2.3009
N4805 X0.8658 Y2.2997
N4810 X0.8653 Y2.2986
N4815 X0.8648 Y2.2974
N4820 X0.8643 Y2.2964
N4825 X0.8637 Y2.2953
N4830 X0.8631 Y2.2943
N4835 X0.8625 Y2.2933
N4840 X0.8618 Y2.2924
N4845 X0.8611 Y2.2915
N4850 X0.8595 Y2.2899
N4855 X0.8087 Y2.239 Z-0.018
N4860 X0.8079 Y2.2382
N4865 X0.807 Y2.2375
N4870 X0.806 Y2.2368
N4875 X0.805 Y2.2361
N4880 X0.804 Y2.2355
N4885 X0.8029 Y2.2349
N4890 X0.8018 Y2.2344
N4895 X0.8007 Y2.2339
N4900 X0.7996 Y2.2335
N4905 X0.7984 Y2.2331
N4910 X0.7972 Y2.2327
N4915 X0.796 Y2.2324
N4920 X0.7956 Y2.2323
N4925 X0.7954
N4930 X0.7953 Y2.2322
N4935 X0.7925 Y2.2286
N4940 X0.7911 Y2.2266
N4945 X0.7867 Y2.2206
N4950 X0.7853 Y2.2185
N4955 X0.7824 Y2.2144
N4960 X0.781 Y2.2124
N4965 X0.7797 Y2.2103
N4970 X0.777 Y2.2061
N4975 X0.7756 Y2.204
N4980 X0.7743 Y2.2019
N4985 X0.7717 Y2.1976
N4990 X0.7704 Y2.1955 Z-0.0181
N4995 X0.7692 Y2.1933
N5000 X0.7666 Y2.189
N5005 X0.7654 Y2.1868
N5010 X0.7642 Y2.1847
N5015 X0.7618 Y2.1803
N5020 X0.7607 Y2.1781
N5025 X0.7584 Y2.1737
N5030 X0.7572 Y2.1714
N5035 X0.755 Y2.167
N5040 X0.7529 Y2.1625
N5045 X0.7518 Y2.1602
N5050 X0.7498 Y2.1557
N5055 X0.7488 Y2.1534
N5060 X0.7458 Y2.1465
N5065 X0.7449 Y2.1442
N5070 X0.7421 Y2.1373 Z-0.0182
N5075 X0.7412 Y2.1349
N5080 X0.7395 Y2.1303
N5085 X0.7386 Y2.1279
N5090 X0.7378 Y2.1256
N5095 X0.7362 Y2.1208
N5100 X0.7354 Y2.1185
N5105 X0.7347 Y2.1161
N5110 X0.7332 Y2.1114
N5115 X0.7325 Y2.109
N5120 X0.7311 Y2.1042
N5125 X0.7304 Y2.1018
N5130 X0.7291 Y2.097
N5135 X0.7278 Y2.0921
N5140 X0.7273 Y2.0897
N5145 X0.7261 Y2.0849
N5150 X0.7255 Y2.0824
N5155 X0.724 Y2.0751 Z-0.0183
N5160 X0.7235 Y2.0727
N5165 X0.7226 Y2.0678
N5170 X0.7221 Y2.0653
N5175 X0.7217 Y2.0629
N5180 X0.7205 Y2.0555
N5185 X0.7202 Y2.053
N5190 X0.7195 Y2.0481
N5195 X0.7192 Y2.0456
N5200 X0.7184 Y2.0382
N5205 X0.7181 Y2.0357
N5210 X0.7175 Y2.0282
N5215 X0.7173 Y2.0258
N5220 X0.7169 Y2.0183
N5225 X0.7168 Y2.0158
N5230 X0.7166 Y2.0108 Z-0.0184
N5235 X0.7165 Y2.0083
N5240 X0.7164 Y2.0008
N5245 Y1.9984
N5250 X0.7165 Y1.7045 Z-0.0188
N5255 Y1.6945
N5260 X0.7166 Y1.0869 Z-0.0198
N5265 X0.7167 Y1.0022 Z-0.0199
N5270 Y0.9972
N5275 X0.7168 Y0.9922
N5280 X0.7169 Y0.9872
N5285 X0.7171 Y0.9823 Z-0.02
N5290 X0.7174 Y0.9773
N5295 X0.7178 Y0.9723
N5300 X0.7182 Y0.9674
N5305 X0.7186 Y0.9624
N5310 X0.7192 Y0.9575
N5315 X0.7195 Y0.9548
N5320 X0.7198 Y0.9523
N5325 X0.7208 Y0.9448
N5330 X0.7212 Y0.9423
N5335 X0.722 Y0.9374
N5340 X0.7224 Y0.9349
N5345 X0.7238 Y0.9275
N5350 X0.7243 Y0.925
N5355 X0.7259 Y0.9177 Z-0.0201
N5360 X0.7264 Y0.9152
N5365 X0.7282 Y0.9079
N5370 X0.7288 Y0.9055
N5375 X0.7301 Y0.9007
N5380 X0.7307 Y0.8982
N5385 X0.7328 Y0.891
N5390 X0.7336 Y0.8886
N5395 X0.7358 Y0.8815
N5400 X0.7366 Y0.8791
N5405 X0.7391 Y0.872
N5410 X0.7399 Y0.8696
N5415 X0.7417 Y0.8649
N5420 X0.7426 Y0.8625
N5425 X0.7454 Y0.8556 Z-0.0202
N5430 X0.7463 Y0.8532
N5435 X0.7493 Y0.8463
N5440 X0.7503 Y0.844
N5445 X0.7535 Y0.8372
N5450 X0.7546 Y0.8349
N5455 X0.7567 Y0.8305
N5460 X0.7579 Y0.8282
N5465 X0.7613 Y0.8215
N5470 X0.7625 Y0.8193
N5475 X0.7661 Y0.8127
N5480 X0.7674 Y0.8106
N5485 X0.7712 Y0.804 Z-0.0203
N5490 X0.7725 Y0.8019
N5495 X0.7751 Y0.7976
N5500 X0.7764 Y0.7955
N5505 X0.7805 Y0.7892
N5510 X0.7819 Y0.7871
N5515 X0.7862 Y0.7809
N5520 X0.7876 Y0.7789
N5525 X0.792 Y0.7728
N5530 X0.7935 Y0.7708
N5535 X0.7953 Y0.7684
N5540 X0.7954
N5545 X0.7956 Y0.7683
N5550 X0.7972 Y0.7681
N5555 X0.7988 Y0.7677
N5560 X0.8 Y0.7674
N5565 X0.8013 Y0.767
N5570 X0.8025 Y0.7666
N5575 X0.8037 Y0.7662
N5580 X0.8048 Y0.7657
N5585 X0.8059 Y0.7652
N5590 X0.807 Y0.7647
N5595 X0.8081 Y0.7641
N5600 X0.8091 Y0.7634
N5605 X0.8101 Y0.7627
N5610 X0.8111 Y0.7619
N5615 X0.812 Y0.7611
N5620 X0.8303 Y0.7429 Z-0.0204
N5625 X0.8593 Y0.7139 Z-0.0205
N5630 X0.861 Y0.7122
N5635 X0.8617 Y0.7114
N5640 X0.8624 Y0.7104
N5645 X0.8631 Y0.7094
N5650 X0.8638 Y0.7083
N5655 X0.8644 Y0.7073
N5660 X0.8649 Y0.7061
N5665 X0.8654 Y0.705
N5670 X0.8658 Y0.7038
N5675 X0.8663 Y0.7026
N5680 X0.8666 Y0.7014
N5685 X0.867 Y0.6999
N5690 X0.8674 Y0.6984
N5695 X0.8677 Y0.6968
N5700 Y0.6963
N5705 X0.8678 Y0.6961
N5710 Y0.696
N5715 X0.8706 Y0.6939
N5720 X0.8726 Y0.6924
N5725 X0.8787 Y0.688
N5730 X0.8807 Y0.6866
N5735 X0.8869 Y0.6823
N5740 X0.889 Y0.6809
N5745 X0.8932 Y0.6782
N5750 X0.8953 Y0.6768
N5755 X0.9017 Y0.6729
N5760 X0.9039 Y0.6716
N5765 X0.9103 Y0.6678 Z-0.0206
N5770 X0.9125 Y0.6666
N5775 X0.9191 Y0.663
N5780 X0.9214 Y0.6618
N5785 X0.9258 Y0.6595
N5790 X0.928 Y0.6584
N5795 X0.9348 Y0.655
N5800 X0.9371 Y0.654
N5805 X0.9439 Y0.6508
N5810 X0.9462 Y0.6498
N5815 X0.9531 Y0.6469
N5820 X0.9554 Y0.6459
N5825 X0.9601 Y0.6441
N5830 X0.9624 Y0.6431 Z-0.0207
N5835 X0.9694 Y0.6405
N5840 X0.9718 Y0.6397
N5845 X0.9789 Y0.6372
N5850 X0.9813 Y0.6364
N5855 X0.9885 Y0.6342
N5860 X0.9909 Y0.6335
N5865 X0.9981 Y0.6314
N5870 X1.0054 Y0.6294
N5875 X1.0078 Y0.6288
N5880 X1.0151 Y0.6271
N5885 X1.0176 Y0.6265
N5890 X1.0249 Y0.625 Z-0.0208
N5895 X1.0274 Y0.6245
N5900 X1.0348 Y0.6231
N5905 X1.0373 Y0.6227
N5910 X1.0422 Y0.622
N5915 X1.0447 Y0.6216
N5920 X1.0521 Y0.6206
N5925 X1.0546 Y0.6203
N5930 X1.0621 Y0.6194
N5935 X1.0646 Y0.6192
N5940 X1.0721 Y0.6186
N5945 X1.0746 Y0.6184
N5950 X1.0796 Y0.6181
N5955 X1.0821 Y0.618
N5960 X1.0896 Y0.6177 Z-0.0209
N5965 X1.0921 Y0.6176
N5970 X1.0946
N5975 X1.0996 Y0.6175
N5980 X1.1021
N5985 X1.3911 Y0.6176 Z-0.0213
N5990 X1.5257 Y0.6177 Z-0.0215
N5995 X1.5306
N6000 X1.5456 Z-0.0216
N6005 X1.72 Z-0.0218
N6010 X2.0962 Y0.6179 Z-0.0224
N6015 X2.0987
N6020 X2.1012
N6025 X2.1037
N6030 X2.1062 Y0.618
N6035 X2.1087
N6040 X2.1162 Y0.6183 Z-0.0225
N6045 X2.1187 Y0.6184
N6050 X2.1262 Y0.6189
N6055 X2.1287 Y0.6191
N6060 X2.1337 Y0.6195
N6065 X2.1362 Y0.6198
N6070 X2.1436 Y0.6206
N6075 X2.1461 Y0.6209
N6080 X2.1536 Y0.6219
N6085 X2.1561 Y0.6223
N6090 X2.1635 Y0.6235
N6095 X2.1659 Y0.6239
N6100 X2.1709 Y0.6248
N6105 X2.1733 Y0.6253
N6110 X2.1807 Y0.6269 Z-0.0226
N6115 X2.1831 Y0.6274
N6120 X2.1904 Y0.6291
N6125 X2.1929 Y0.6298
N6130 X2.2001 Y0.6317
N6135 X2.2025 Y0.6324
N6140 X2.2073 Y0.6338
N6145 X2.2097 Y0.6345
N6150 X2.2169 Y0.6367
N6155 X2.2193 Y0.6375
N6160 X2.2264 Y0.6399
N6165 X2.2287 Y0.6408
N6170 X2.2358 Y0.6434
N6175 X2.2381 Y0.6443 Z-0.0227
N6180 X2.2427 Y0.6462
N6185 X2.2451 Y0.6471
N6190 X2.252 Y0.6501
N6195 X2.2543 Y0.6511
N6200 X2.2611 Y0.6542
N6205 X2.2634 Y0.6553
N6210 X2.2701 Y0.6586
N6215 X2.2723 Y0.6597
N6220 X2.2768 Y0.662
N6225 X2.279 Y0.6632
N6230 X2.2856 Y0.6668
N6235 X2.2877 Y0.668
N6240 X2.2942 Y0.6718
N6245 X2.2964 Y0.6731 Z-0.0228
N6250 X2.3028 Y0.677
N6255 X2.3049 Y0.6784
N6260 X2.3112 Y0.6825
N6265 X2.3153 Y0.6853
N6270 X2.3174 Y0.6868
N6275 X2.3194 Y0.6882
N6280 X2.3255 Y0.6926
N6285 X2.3275 Y0.6941
N6290 X2.3305 Y0.6964
N6295 X2.3306 Y0.6965
N6300 X2.3307 Y0.6967
N6305 X2.3308 Y0.6982
N6310 X2.331 Y0.6995
N6315 X2.3312 Y0.7008
N6320 X2.3315 Y0.7022
N6325 X2.3318 Y0.7035
N6330 X2.3321 Y0.7047
N6335 X2.3324 Y0.7059
N6340 X2.3328 Y0.707
N6345 X2.3333 Y0.7082
N6350 X2.3337 Y0.7093
N6355 X2.3342 Y0.7103
N6360 X2.3348 Y0.7114
N6365 X2.3354 Y0.7124
N6370 X2.336 Y0.7134
N6375 X2.3367 Y0.7144
N6380 X2.3375 Y0.7153
N6385 X2.3383 Y0.7162 Z-0.0229
N6390 X2.3436 Y0.7215
N6395 X2.3825 Y0.7605
N6400 X2.384 Y0.762 Z-0.023
N6405 X2.3849 Y0.7627
N6410 X2.3859 Y0.7634
N6415 X2.3868 Y0.764
N6420 X2.3879 Y0.7646
N6425 X2.3889 Y0.7652
N6430 X2.39 Y0.7657
N6435 X2.3911 Y0.7661
N6440 X2.3922 Y0.7666
N6445 X2.3934 Y0.767
N6450 X2.3946 Y0.7673
N6455 X2.3958 Y0.7676
N6460 X2.3971 Y0.7679
N6465 X2.3985 Y0.7682
N6470 X2.4 Y0.7684
N6475 X2.4015 Y0.7686
N6480 X2.4022 Y0.7687
N6485 X2.4026
N6490 X2.4028
N6495 X2.4029 Y0.7688
N6500 X2.406 Y0.7728
N6505 X2.4074 Y0.7748
N6510 X2.4104 Y0.7789
N6515 X2.4118 Y0.7809
N6520 X2.4161 Y0.7871
N6525 X2.4175 Y0.7892
N6530 X2.4215 Y0.7955
N6535 X2.4229 Y0.7976
N6540 X2.4268 Y0.804
N6545 X2.4281 Y0.8062 Z-0.0231
N6550 X2.4306 Y0.8105
N6555 X2.4318 Y0.8127
N6560 X2.4355 Y0.8192
N6565 X2.4366 Y0.8215
N6570 X2.4401 Y0.8281
N6575 X2.4412 Y0.8304
N6580 X2.4445 Y0.8371
N6585 X2.4455 Y0.8394
N6590 X2.4476 Y0.8439
N6595 X2.4487 Y0.8462
N6600 X2.4516 Y0.8531
N6605 X2.4526 Y0.8554
N6610 X2.4554 Y0.8624 Z-0.0232
N6615 X2.4563 Y0.8648
N6620 X2.4589 Y0.8718
N6625 X2.4597 Y0.8742
N6630 X2.4613 Y0.8789
N6635 X2.4621 Y0.8812
N6640 X2.4644 Y0.8884
N6645 X2.4651 Y0.8908
N6650 X2.4672 Y0.898
N6655 X2.4679 Y0.9004
N6660 X2.4698 Y0.9077
N6665 X2.4703 Y0.9101
N6670 X2.4715 Y0.915
N6675 X2.4721 Y0.9174
N6680 X2.4736 Y0.9248 Z-0.0233
N6685 X2.4741 Y0.9272
N6690 X2.4755 Y0.9346
N6695 X2.4759 Y0.9371
N6700 X2.4771 Y0.9445
N6705 X2.4774 Y0.947
N6710 X2.4781 Y0.9519
N6715 X2.4784 Y0.9544
N6720 X2.4793 Y0.9619
N6725 X2.4795 Y0.9644
N6730 X2.4802 Y0.9718
N6735 X2.4803 Y0.9743
N6740 X2.4808 Y0.9818
N6745 X2.4809 Y0.9843
N6750 X2.4811 Y0.9893 Z-0.0234
N6755 X2.4812 Y0.9918
N6760 Y0.9968
N6765 X2.4813 Y0.9993
N6770 Y1.0018
N6775 X2.4812 Y1.2659 Z-0.0238
N6780 Y1.2809
N6785 X2.4811 Y1.5001 Z-0.0242
N6790 X2.481 Y1.8788 Z-0.0247
N6795 X2.4809 Y1.9984 Z-0.0249
N6800 Y2.0009
N6805 X2.4808 Y2.0059
N6810 Y2.0084
N6815 X2.4805 Y2.0159 Z-0.025
N6820 X2.4804 Y2.0184
N6825 X2.48 Y2.0259
N6830 X2.4798 Y2.0284
N6835 X2.4791 Y2.0359
N6840 X2.4789 Y2.0384
N6845 X2.478 Y2.0458
N6850 X2.4777 Y2.0483
N6855 X2.477 Y2.0532
N6860 X2.4767 Y2.0557
N6865 X2.4755 Y2.0631
N6870 X2.475 Y2.0656
N6875 X2.4737 Y2.073
N6880 X2.4732 Y2.0754
N6885 X2.4716 Y2.0827 Z-0.0251
N6890 X2.4705 Y2.0876
N6895 X2.4699 Y2.09
N6900 X2.4693 Y2.0925
N6905 X2.4674 Y2.0997
N6910 X2.4667 Y2.1021
N6915 X2.4646 Y2.1093
N6920 X2.4639 Y2.1117
N6925 X2.4616 Y2.1189
N6930 X2.4608 Y2.1212
N6935 X2.4592 Y2.126
N6940 X2.4583 Y2.1283
N6945 X2.4557 Y2.1353
N6950 X2.4548 Y2.1377
N6955 X2.452 Y2.1446 Z-0.0252
N6960 X2.4511 Y2.1469
N6965 X2.4481 Y2.1538
N6970 X2.4471 Y2.1561
N6975 X2.445 Y2.1607
N6980 X2.4439 Y2.1629
N6985 X2.4407 Y2.1697
N6990 X2.4395 Y2.1719
N6995 X2.4361 Y2.1786
N7000 X2.4349 Y2.1808
N7005 X2.4313 Y2.1873
N7010 X2.43 Y2.1895
N7015 X2.4275 Y2.1938
N7020 X2.4262 Y2.196 Z-0.0253
N7025 X2.4223 Y2.2023
N7030 X2.421 Y2.2044
N7035 X2.4169 Y2.2107
N7040 X2.4155 Y2.2128
N7045 X2.4112 Y2.219
N7050 X2.4098 Y2.221
N7055 X2.4068 Y2.2251
N7060 X2.4054 Y2.2271
N7065 X2.4008 Y2.2331
N7070 X2.3993 Y2.235
N7075 X2.3946 Y2.2409
N7080 X2.393 Y2.2428
N7085 X2.3882 Y2.2485 Z-0.0254
N7090 X2.3865 Y2.2504
N7095 X2.3832 Y2.2542
N7100 X2.3816 Y2.256
N7105 X2.3765 Y2.2615
N7110 X2.3747 Y2.2633
N7115 X2.3695 Y2.2687
N7120 X2.3677 Y2.2705
N7125 X2.3624 Y2.2757
N7130 X2.3605 Y2.2774
N7135 X2.3569 Y2.2808
N7140 X2.355 Y2.2825
N7145 X2.3494 Y2.2875
N7150 X2.3475 Y2.2891
N7155 X2.3418 Y2.2939 Z-0.0255
N7160 X2.3399 Y2.2955
N7165 X2.334 Y2.3002
N7170 X2.332 Y2.3017
N7175 X2.328 Y2.3047
N7180 X2.3261 Y2.3063
N7185 X2.32 Y2.3106
N7190 X2.3179 Y2.3121
N7195 X2.3118 Y2.3163
N7200 X2.3097 Y2.3177
N7205 X2.3034 Y2.3218
N7210 X2.3013 Y2.3231
N7215 X2.297 Y2.3257
N7220 X2.2949 Y2.3271
N7225 X2.2884 Y2.3308 Z-0.0256
N7230 X2.2862 Y2.3321
N7235 X2.2797 Y2.3357
N7240 X2.2774 Y2.3369
N7245 X2.2708 Y2.3403
N7250 X2.2686 Y2.3414
N7255 X2.2641 Y2.3436
N7260 X2.2618 Y2.3447
N7265 X2.255 Y2.3478
N7270 X2.2527 Y2.3488
N7275 X2.2458 Y2.3518
N7280 X2.2435 Y2.3528
N7285 X2.2366 Y2.3555
N7290 X2.2342 Y2.3564
N7295 X2.2272 Y2.359 Z-0.0257
N7300 X2.2201 Y2.3615
N7305 X2.2177 Y2.3623
N7310 X2.2106 Y2.3645
N7315 X2.2082 Y2.3653
N7320 X2.201 Y2.3673
N7325 X2.1986 Y2.368
N7330 X2.1913 Y2.3699
N7335 X2.1889 Y2.3705
N7340 X2.1841 Y2.3716
N7345 X2.1816 Y2.3722
N7350 X2.1743 Y2.3737
N7355 X2.1718 Y2.3742 Z-0.0258
N7360 X2.1645 Y2.3756
N7365 X2.162 Y2.376
N7370 X2.1546 Y2.3772
N7375 X2.1521 Y2.3775
N7380 X2.1472 Y2.3782
N7385 X2.1447 Y2.3785
N7390 X2.1372 Y2.3794
N7395 X2.1347 Y2.3796
N7400 X2.1273 Y2.3802
N7405 X2.1248 Y2.3804
N7410 X2.1173 Y2.3809
N7415 X2.1148 Y2.381
N7420 X2.1098 Y2.3812
N7425 X2.1073 Z-0.0259
N7430 X2.1023 Y2.3813
N7435 X2.0998
N7440 X2.0973 Y2.3814
N7445 X2.045 Y2.3813
N7450 X1.6015 Y2.3811 Z-0.0266
N7455 X1.5965
N7460 X1.2378 Y2.381 Z-0.0272
N7465 X1.1007 Y2.3809 Z-0.0274
N7470 X1.0982
N7475 X1.0932
N7480 X1.0907 Y2.3808
N7485 X1.0833 Y2.3805
N7490 X1.0808 Y2.3804 Z-0.0275
N7495 X1.0733 Y2.38
N7500 X1.0708 Y2.3798
N7505 X1.0634 Y2.3791
N7510 X1.0609 Y2.3789
N7515 X1.0559 Y2.3783
N7520 X1.0534 Y2.378
N7525 X1.046 Y2.377
N7530 X1.0435 Y2.3767
N7535 X1.0361 Y2.3755
N7540 X1.0337 Y2.375
N7545 X1.0263 Y2.3737
N7550 X1.0239 Y2.3732
N7555 X1.019 Y2.3721
N7560 X1.0166 Y2.3716 Z-0.0276
N7565 X1.0093 Y2.3699
N7570 X1.0068 Y2.3693
N7575 X0.9996 Y2.3674
N7580 X0.9972 Y2.3667
N7585 X0.99 Y2.3646
N7590 X0.9876 Y2.3639
N7595 X0.9829 Y2.3624
N7600 X0.9805 Y2.3616
N7605 X0.9734 Y2.3592
N7610 X0.9711 Y2.3583
N7615 X0.964 Y2.3557
N7620 X0.9617 Y2.3548
N7625 X0.9548 Y2.352 Z-0.0277
N7630 X0.9525 Y2.3511
N7635 X0.9479 Y2.3491
N7640 X0.9456 Y2.3481
N7645 X0.9388 Y2.345
N7650 X0.9365 Y2.3439
N7655 X0.9298 Y2.3407
N7660 X0.9276 Y2.3395
N7665 X0.9209 Y2.3361
N7670 X0.9187 Y2.3349
N7675 X0.9144 Y2.3325
N7680 X0.9122 Y2.3313
N7685 X0.9057 Y2.3275
N7690 X0.9035 Y2.3262
N7695 X0.8972 Y2.3223 Z-0.0278
N7700 X0.8951 Y2.321
N7705 X0.8888 Y2.3169
N7710 X0.8867 Y2.3155
N7715 X0.8806 Y2.3112
N7720 X0.8785 Y2.3098
N7725 X0.8745 Y2.3069
N7730 X0.8725 Y2.3054
N7735 X0.8683 Y2.3022
N7740 X0.8682 Y2.302
N7745 Y2.301
N7750 Y2.2997
N7755 Y2.2985
N7760 X0.8681 Y2.2972
N7765 Y2.296
N7770 X0.8679 Y2.2947
N7775 X0.8678 Y2.2935
N7780 X0.8676 Y2.2923
N7785 X0.8673 Y2.2911
N7790 X0.8671 Y2.2899
N7795 X0.8668 Y2.2887
N7800 X0.8664 Y2.2875
N7805 X0.866 Y2.2863
N7810 X0.8656 Y2.2852
N7815 X0.8652 Y2.2841
N7820 X0.8647 Y2.283
N7825 X0.8641 Y2.2819
N7830 X0.8635 Y2.2808
N7835 X0.8629 Y2.2798
N7840 X0.8623 Y2.2789
N7845 X0.8615 Y2.278 Z-0.0279
N7850 X0.8608 Y2.2771
N7855 X0.8575 Y2.2738
N7860 X0.8258 Y2.242
N7865 X0.8225 Y2.2387
N7870 X0.8216 Y2.2379
N7875 X0.8207 Y2.2372
N7880 X0.8197 Y2.2365
N7885 X0.8187 Y2.2359
N7890 X0.8177 Y2.2353
N7895 X0.8166 Y2.2347
N7900 X0.8155 Y2.2342
N7905 X0.8144 Y2.2338 Z-0.028
N7910 X0.8133 Y2.2333
N7915 X0.8121 Y2.233
N7920 X0.8109 Y2.2326
N7925 X0.8097 Y2.2323
N7930 X0.8085 Y2.232
N7935 X0.8073 Y2.2318
N7940 X0.8061 Y2.2316
N7945 X0.8049 Y2.2314
N7950 X0.8036 Y2.2313
N7955 X0.8024 Y2.2312
N7960 X0.8011
N7965 X0.7999 Y2.2311
N7970 X0.7986
N7975 X0.7974
N7980 X0.7973
N7985 X0.7942 Y2.227
N7990 X0.7927 Y2.225
N7995 X0.7883 Y2.219
N8000 X0.7869 Y2.2169
N8005 X0.7841 Y2.2128
N8010 X0.7827 Y2.2107
N8015 X0.7786 Y2.2044
N8020 X0.7772 Y2.2023
N8025 X0.7733 Y2.196
N8030 X0.772 Y2.1938
N8035 X0.7683 Y2.1873 Z-0.0281
N8040 X0.7671 Y2.1852
N8045 X0.7647 Y2.1808
N8050 X0.7635 Y2.1786
N8055 X0.76 Y2.1719
N8060 X0.7589 Y2.1697
N8065 X0.7556 Y2.163
N8070 X0.7546 Y2.1607
N8075 X0.7515 Y2.1539
N8080 X0.7505 Y2.1516
N8085 X0.7485 Y2.1471
N8090 X0.7475 Y2.1448
N8095 X0.7448 Y2.1378
N8100 X0.7439 Y2.1355 Z-0.0282
N8105 X0.7413 Y2.1285
N8110 X0.7404 Y2.1261
N8115 X0.738 Y2.119
N8120 X0.7372 Y2.1167
N8125 X0.7357 Y2.1119
N8130 X0.735 Y2.1095
N8135 X0.7329 Y2.1023
N8140 X0.7322 Y2.0999
N8145 X0.7303 Y2.0927
N8150 X0.7297 Y2.0903
N8155 X0.728 Y2.083
N8160 X0.7275 Y2.0805
N8165 X0.7264 Y2.0757
N8170 X0.7259 Y2.0732 Z-0.0283
N8175 X0.7246 Y2.0659
N8180 X0.7241 Y2.0634
N8185 X0.7229 Y2.056
N8190 X0.7226 Y2.0535
N8195 X0.7216 Y2.0461
N8200 X0.7213 Y2.0437
N8205 X0.7207 Y2.0387
N8210 X0.7205 Y2.0362
N8215 X0.7198 Y2.0288
N8220 X0.7196 Y2.0263
N8225 X0.7192 Y2.0188
N8230 X0.7191 Y2.0163
N8235 X0.7188 Y2.0088 Z-0.0284
N8240 Y2.0063
N8245 X0.7187 Y2.0038
N8250 Y2.0014
N8255 Y1.9989
N8260 X0.7188 Y1.7472 Z-0.0288
N8265 X0.7189 Y1.4981 Z-0.0291
N8270 X0.719 Y1.2987 Z-0.0295
N8275 X0.7191 Y1.0048 Z-0.0299
N8280 Y0.9998
N8285 X0.7192 Y0.9948
N8290 X0.7193 Y0.9898
N8295 X0.7195 Y0.9848
N8300 X0.7197 Y0.9798 Z-0.03
N8305 X0.72 Y0.9749
N8310 X0.7204 Y0.9699
N8315 X0.7208 Y0.9649
N8320 X0.7214 Y0.96
N8325 X0.7219 Y0.955
N8330 X0.7222 Y0.9524
N8335 X0.7226 Y0.95
N8340 X0.7229 Y0.9475
N8345 X0.7233 Y0.945
N8350 X0.7245 Y0.9376
N8355 X0.7249 Y0.9351
N8360 X0.7263 Y0.9277
N8365 X0.7268 Y0.9252
N8370 X0.7283 Y0.9178 Z-0.0301
N8375 X0.7289 Y0.9154
N8380 X0.7301 Y0.9105
N8385 X0.7307 Y0.908
N8390 X0.7326 Y0.9008
N8395 X0.7332 Y0.8984
N8400 X0.7353 Y0.8911
N8405 X0.7361 Y0.8887
N8410 X0.7383 Y0.8816
N8415 X0.7392 Y0.8792
N8420 X0.7408 Y0.8745
N8425 X0.7416 Y0.8721
N8430 X0.7442 Y0.865
N8435 X0.7452 Y0.8627
N8440 X0.748 Y0.8557 Z-0.0302
N8445 X0.7489 Y0.8534
N8450 X0.7509 Y0.8487
N8455 X0.7519 Y0.8464
N8460 X0.755 Y0.8396
N8465 X0.7561 Y0.8373
N8470 X0.7594 Y0.8305
N8475 X0.7606 Y0.8283
N8480 X0.764 Y0.8216
N8485 X0.7652 Y0.8194
N8490 X0.7676 Y0.815
N8495 X0.7689 Y0.8128
N8500 X0.7727 Y0.8063
N8505 X0.774 Y0.8042
N8510 X0.7779 Y0.7978 Z-0.0303
N8515 X0.7793 Y0.7956
N8520 X0.7834 Y0.7893
N8525 X0.7848 Y0.7873
N8530 X0.7876 Y0.7831
N8535 X0.7891 Y0.7811
N8540 X0.7935 Y0.775
N8545 X0.795 Y0.7729
N8550 X0.798 Y0.769
N8555 X0.7981 Y0.7689
N8560 X0.8012
N8565 X0.8044 Y0.7688
N8570 X0.8056
N8575 X0.8069 Y0.7687
N8580 X0.8081 Y0.7686
N8585 X0.8094 Y0.7684
N8590 X0.8106 Y0.7682
N8595 X0.8119 Y0.768
N8600 X0.8131 Y0.7677
N8605 X0.8143 Y0.7674
N8610 X0.8155 Y0.767
N8615 X0.8167 Y0.7666
N8620 X0.8178 Y0.7662
N8625 X0.8189 Y0.7658
N8630 X0.8207 Y0.7649
N8635 X0.8216 Y0.7644 Z-0.0304
N8640 X0.8225 Y0.7639
N8645 X0.824 Y0.7629
N8650 X0.8248 Y0.7623
N8655 X0.8254 Y0.7617
N8660 X0.829 Y0.7582
N8665 X0.8607 Y0.7266
N8670 X0.8614 Y0.7259
N8675 X0.862 Y0.7251
N8680 X0.8626 Y0.7243
N8685 X0.8631 Y0.7235
N8690 X0.8636 Y0.7227
N8695 X0.8641 Y0.7218
N8700 X0.865 Y0.72
N8705 X0.8655 Y0.7189
N8710 X0.8659 Y0.7178 Z-0.0305
N8715 X0.8663 Y0.7167
N8720 X0.8666 Y0.7156
N8725 X0.8669 Y0.7144
N8730 X0.8672 Y0.7131
N8735 X0.8675 Y0.7119
N8740 X0.8677 Y0.7106
N8745 X0.8679 Y0.7094
N8750 X0.868 Y0.7081
N8755 X0.8681 Y0.7069
N8760 X0.8682 Y0.7056
N8765 Y0.7026
N8770 Y0.6988
N8775 X0.8683 Y0.6987
N8780 X0.8698 Y0.6976
N8785 X0.8718 Y0.696
N8790 X0.8738 Y0.6945
N8795 X0.8799 Y0.6901
N8800 X0.882 Y0.6887
N8805 X0.8882 Y0.6844
N8810 X0.8903 Y0.683
N8815 X0.8945 Y0.6803
N8820 X0.8966 Y0.6789
N8825 X0.903 Y0.675
N8830 X0.9052 Y0.6737 Z-0.0306
N8835 X0.9117 Y0.6699
N8840 X0.9139 Y0.6687
N8845 X0.9205 Y0.665
N8850 X0.9227 Y0.6639
N8855 X0.9272 Y0.6616
N8860 X0.9294 Y0.6604
N8865 X0.9362 Y0.6571
N8870 X0.9384 Y0.656
N8875 X0.9453 Y0.6529
N8880 X0.9476 Y0.6519
N8885 X0.9545 Y0.649
N8890 X0.9568 Y0.648
N8895 X0.9615 Y0.6462
N8900 X0.9639 Y0.6452 Z-0.0307
N8905 X0.9709 Y0.6426
N8910 X0.9733 Y0.6418
N8915 X0.9804 Y0.6393
N8920 X0.9828 Y0.6386
N8925 X0.9875 Y0.6371
N8930 X0.9899 Y0.6363
N8935 X0.9972 Y0.6342
N8940 X0.9996 Y0.6335
N8945 X1.0068 Y0.6316
N8950 X1.0093 Y0.631
N8955 X1.0166 Y0.6293
N8960 X1.0191 Y0.6287
N8965 X1.024 Y0.6277 Z-0.0308
N8970 X1.0264 Y0.6272
N8975 X1.0339 Y0.6258
N8980 X1.0363 Y0.6254
N8985 X1.0438 Y0.6242
N8990 X1.0463 Y0.6238
N8995 X1.0512 Y0.6232
N9000 X1.0537 Y0.6228
N9005 X1.0612 Y0.622
N9010 X1.0637 Y0.6218
N9015 X1.0712 Y0.6211
N9020 X1.0737 Y0.6209
N9025 X1.0812 Y0.6205
N9030 X1.0837 Y0.6204
N9035 X1.0887 Y0.6202 Z-0.0309
N9040 X1.0912 Y0.6201
N9045 X1.0963 Y0.62
N9050 X1.0988
N9055 X1.1013
N9060 X1.5547 Y0.6202 Z-0.0316
N9065 X1.5995
N9070 X1.6394 Z-0.0317
N9075 X1.744 Z-0.0319
N9080 X2.0978 Y0.6204 Z-0.0324
N9085 X2.1003
N9090 X2.1028 Y0.6205
N9095 X2.1053
N9100 X2.1078
N9105 X2.1153 Y0.6208 Z-0.0325
N9110 X2.1178 Y0.6209
N9115 X2.1253 Y0.6214
N9120 X2.1278 Y0.6216
N9125 X2.1353 Y0.6222
N9130 X2.1378 Y0.6225
N9135 X2.1428 Y0.6231
N9140 X2.1453 Y0.6233
N9145 X2.1527 Y0.6244
N9150 X2.1552 Y0.6247
N9155 X2.1626 Y0.6259
N9160 X2.1651 Y0.6264
N9165 X2.1725 Y0.6277
N9170 X2.1749 Y0.6283
N9175 X2.1798 Y0.6293 Z-0.0326
N9180 X2.1823 Y0.6298
N9185 X2.1896 Y0.6316
N9190 X2.192 Y0.6322
N9195 X2.1993 Y0.6341
N9200 X2.2017 Y0.6348
N9205 X2.2065 Y0.6362
N9210 X2.2089 Y0.6369
N9215 X2.2161 Y0.6392
N9220 X2.2185 Y0.6399
N9225 X2.2256 Y0.6424
N9230 X2.2279 Y0.6432
N9235 X2.235 Y0.6458
N9240 X2.2373 Y0.6468
N9245 X2.242 Y0.6486 Z-0.0327
N9250 X2.2443 Y0.6496
N9255 X2.2512 Y0.6525
N9260 X2.2535 Y0.6536
N9265 X2.2603 Y0.6567
N9270 X2.2626 Y0.6578
N9275 X2.2693 Y0.6611
N9280 X2.2716 Y0.6622
N9285 X2.276 Y0.6645
N9290 X2.2782 Y0.6657
N9295 X2.2848 Y0.6693
N9300 X2.287 Y0.6706
N9305 X2.2935 Y0.6744
N9310 X2.2956 Y0.6757 Z-0.0328
N9315 X2.2999 Y0.6783
N9320 X2.302 Y0.6796
N9325 X2.3083 Y0.6837
N9330 X2.3104 Y0.6851
N9335 X2.3166 Y0.6893
N9340 X2.3187 Y0.6908
N9345 X2.3247 Y0.6952
N9350 X2.3268 Y0.6967
N9355 X2.3304 Y0.6995
N9360 X2.3305 Y0.6997
N9365 Y0.7059
N9370 Y0.7084
N9375 X2.3306 Y0.7097
N9380 X2.3307 Y0.7109
N9385 X2.3308 Y0.7122
N9390 X2.331 Y0.7134
N9395 X2.3311 Y0.7147
N9400 X2.3314 Y0.7159
N9405 X2.3316 Y0.7171
N9410 X2.3319 Y0.7182
N9415 X2.3323 Y0.7194
N9420 X2.3326 Y0.7205
N9425 X2.333 Y0.7216 Z-0.0329
N9430 X2.3334 Y0.7226
N9435 X2.3338 Y0.7236
N9440 X2.3343 Y0.7246
N9445 X2.3349 Y0.7255
N9450 X2.3355 Y0.7264
N9455 X2.3362 Y0.7272
N9460 X2.337 Y0.728
N9465 X2.3687 Y0.7597
N9470 X2.3722 Y0.7632
N9475 X2.373 Y0.7639
N9480 X2.3738 Y0.7645
N9485 X2.3748 Y0.7651
N9490 X2.3757 Y0.7656
N9495 X2.3767 Y0.766
N9500 X2.3778 Y0.7664
N9505 X2.3788 Y0.7668 Z-0.033
N9510 X2.3799 Y0.7671
N9515 X2.381 Y0.7675
N9520 X2.3823 Y0.7678
N9525 X2.3835 Y0.768
N9530 X2.3847 Y0.7682
N9535 X2.3859 Y0.7684
N9540 X2.3872 Y0.7686
N9545 X2.3884 Y0.7687
N9550 X2.3897 Y0.7688
N9555 X2.3909 Y0.7689
N9560 X2.3922
N9565 X2.3997
N9570 X2.3998
N9575 X2.4003 Y0.7696
N9580 X2.4033 Y0.7736
N9585 X2.4048 Y0.7756
N9590 X2.4092 Y0.7817
N9595 X2.4107 Y0.7838
N9600 X2.4135 Y0.7879
N9605 X2.4149 Y0.79
N9610 X2.419 Y0.7963
N9615 X2.4203 Y0.7984
N9620 X2.4243 Y0.8048 Z-0.0331
N9625 X2.4256 Y0.807
N9630 X2.4293 Y0.8135
N9635 X2.4305 Y0.8157
N9640 X2.4329 Y0.82
N9645 X2.4341 Y0.8223
N9650 X2.4376 Y0.8289
N9655 X2.4387 Y0.8312
N9660 X2.442 Y0.8379
N9665 X2.4431 Y0.8402
N9670 X2.4452 Y0.8448
N9675 X2.4462 Y0.847
N9680 X2.4492 Y0.854
N9685 X2.4501 Y0.8563
N9690 X2.4529 Y0.8632 Z-0.0332
N9695 X2.4538 Y0.8656
N9700 X2.4564 Y0.8726
N9705 X2.4572 Y0.875
N9710 X2.4589 Y0.8797
N9715 X2.4597 Y0.8821
N9720 X2.4619 Y0.8893
N9725 X2.4627 Y0.8917
N9730 X2.4648 Y0.8989
N9735 X2.4654 Y0.9013
N9740 X2.4673 Y0.9086
N9745 X2.4679 Y0.911
N9750 X2.4691 Y0.9159
N9755 X2.4696 Y0.9183
N9760 X2.4712 Y0.9257 Z-0.0333
N9765 X2.4717 Y0.9282
N9770 X2.473 Y0.9355
N9775 X2.4734 Y0.938
N9780 X2.4742 Y0.9429
N9785 X2.4746 Y0.9454
N9790 X2.4756 Y0.9528
N9795 X2.4759 Y0.9553
N9800 X2.4768 Y0.9628
N9805 X2.477 Y0.9653
N9810 X2.4776 Y0.9728
N9815 X2.4778 Y0.9753
N9820 X2.4781 Y0.9803
N9825 X2.4783 Y0.9828
N9830 X2.4785 Y0.9903 Z-0.0334
N9835 X2.4786 Y0.9928
N9840 Y0.9953
N9845 X2.4787 Y1.0003
N9850 Y1.0028
N9855 X2.4785 Y1.3267 Z-0.0339
N9860 X2.4784 Y1.5011 Z-0.0342
N9865 X2.4783 Y1.7203 Z-0.0345
N9870 X2.4782 Y1.9968 Z-0.0349
N9875 Y1.9993
N9880 X2.4781 Y2.0043
N9885 Y2.0068
N9890 Y2.0093
N9895 X2.4778 Y2.0168 Z-0.035
N9900 X2.4776 Y2.0193
N9905 X2.4772 Y2.0268
N9910 X2.477 Y2.0293
N9915 X2.4765 Y2.0343
N9920 X2.4763 Y2.0368
N9925 X2.4755 Y2.0442
N9930 X2.4752 Y2.0467
N9935 X2.4741 Y2.0542
N9940 X2.4738 Y2.0566
N9945 X2.473 Y2.0616
N9950 X2.4726 Y2.064
N9955 X2.4712 Y2.0714
N9960 X2.4707 Y2.0739
N9965 X2.4692 Y2.0812 Z-0.0351
N9970 X2.4686 Y2.0836
N9975 X2.4669 Y2.0909
N9980 X2.4662 Y2.0934
N9985 X2.465 Y2.0982
N9990 X2.4643 Y2.1006
N9995 X2.4622 Y2.1078
N10000 X2.4615 Y2.1102
N10005 X2.4592 Y2.1174
N10010 X2.4584 Y2.1197
N10015 X2.456 Y2.1268
N10020 X2.4551 Y2.1292
N10025 X2.4534 Y2.1339
N10030 X2.4525 Y2.1362
N10035 X2.4497 Y2.1432 Z-0.0352
N10040 X2.4487 Y2.1455
N10045 X2.4458 Y2.1524
N10050 X2.4447 Y2.1547
N10055 X2.4427 Y2.1592
N10060 X2.4416 Y2.1615
N10065 X2.4383 Y2.1682
N10070 X2.4372 Y2.1705
N10075 X2.4337 Y2.1771
N10080 X2.4326 Y2.1793
N10085 X2.4289 Y2.1859
N10090 X2.4277 Y2.188
N10095 X2.4252 Y2.1924
N10100 X2.4239 Y2.1945
N10105 X2.42 Y2.2009 Z-0.0353
N10110 X2.4186 Y2.203
N10115 X2.4145 Y2.2093
N10120 X2.4131 Y2.2114
N10125 X2.4089 Y2.2176
N10130 X2.4074 Y2.2196
N10135 X2.4045 Y2.2236
N10140 X2.403 Y2.2257
N10145 X2.3985 Y2.2316
N10150 X2.3969 Y2.2336
N10155 X2.3922 Y2.2395
N10160 X2.3906 Y2.2414
N10165 X2.3874 Y2.2452
N10170 X2.3858 Y2.2471 Z-0.0354
N10175 X2.3808 Y2.2527
N10180 X2.3791 Y2.2546
N10185 X2.374 Y2.2601
N10190 X2.3723 Y2.2619
N10195 X2.3671 Y2.2673
N10200 X2.3653 Y2.269
N10205 X2.3617 Y2.2725
N10210 X2.3599 Y2.2742
N10215 X2.3544 Y2.2793
N10220 X2.3526 Y2.281
N10225 X2.3469 Y2.286
N10230 X2.345 Y2.2876
N10235 X2.3393 Y2.2924 Z-0.0355
N10240 X2.3373 Y2.294
N10245 X2.3334 Y2.2971
N10250 X2.3315 Y2.2987
N10255 X2.3255 Y2.3032
N10260 X2.3235 Y2.3047
N10265 X2.3174 Y2.3091
N10270 X2.3153 Y2.3105
N10275 X2.3112 Y2.3133
N10280 X2.3092 Y2.3148
N10285 X2.3029 Y2.3188
N10290 X2.3008 Y2.3202
N10295 X2.2944 Y2.3241
N10300 X2.2922 Y2.3254
N10305 X2.2857 Y2.3292 Z-0.0356
N10310 X2.2836 Y2.3304
N10315 X2.2792 Y2.3328
N10320 X2.277 Y2.334
N10325 X2.2703 Y2.3374
N10330 X2.2681 Y2.3386
N10335 X2.2613 Y2.3419
N10340 X2.2591 Y2.3429
N10345 X2.2523 Y2.346
N10350 X2.25 Y2.347
N10355 X2.2454 Y2.349
N10360 X2.2431 Y2.35
N10365 X2.2361 Y2.3527
N10370 X2.2338 Y2.3536
N10375 X2.2267 Y2.3562 Z-0.0357
N10380 X2.2244 Y2.3571
N10385 X2.2196 Y2.3587
N10390 X2.2173 Y2.3595
N10395 X2.2101 Y2.3618
N10400 X2.2077 Y2.3625
N10405 X2.2005 Y2.3646
N10410 X2.1981 Y2.3652
N10415 X2.1909 Y2.3671
N10420 X2.1884 Y2.3677
N10425 X2.1836 Y2.3689
N10430 X2.1811 Y2.3694
N10435 X2.1738 Y2.371
N10440 X2.1713 Y2.3715
N10445 X2.164 Y2.3729 Z-0.0358
N10450 X2.1615 Y2.3733
N10455 X2.1566 Y2.3741
N10460 X2.1541 Y2.3745
N10465 X2.1467 Y2.3755
N10470 X2.1442 Y2.3758
N10475 X2.1367 Y2.3766
N10480 X2.1342 Y2.3768
N10485 X2.1268 Y2.3775
N10490 X2.1243 Y2.3777
N10495 X2.1193 Y2.378
N10500 X2.1168 Y2.3781
N10505 X2.1093 Y2.3784
N10510 X2.1068
N10515 X2.1043 Y2.3785 Z-0.0359
N10520 X2.1018
N10525 X2.0993
N10530 X2.0968
N10535 X1.9399 Z-0.0361
N10540 X1.6011 Y2.3783 Z-0.0366
N10545 X1.5911 Z-0.0367
N10550 X1.1676 Y2.3781 Z-0.0373
N10555 X1.1028 Z-0.0374
N10560 X1.1003
N10565 X1.0978 Y2.378
N10570 X1.0928
N10575 X1.0903 Y2.3779
N10580 X1.0829 Y2.3776
N10585 X1.0804 Y2.3775
N10590 X1.0729 Y2.377 Z-0.0375
N10595 X1.0704 Y2.3768
N10600 X1.0654 Y2.3764
N10605 X1.0629 Y2.3762
N10610 X1.0555 Y2.3753
N10615 X1.053 Y2.375
N10620 X1.0456 Y2.374
N10625 X1.0431 Y2.3737
N10630 X1.0357 Y2.3725
N10635 X1.0333 Y2.372
N10640 X1.0284 Y2.3711
N10645 X1.0259 Y2.3706
N10650 X1.0186 Y2.3691
N10655 X1.0162 Y2.3685
N10660 X1.0089 Y2.3668 Z-0.0376
N10665 X1.0065 Y2.3662
N10670 X1.0016 Y2.3649
N10675 X0.9992 Y2.3643
N10680 X0.992 Y2.3622
N10685 X0.9896 Y2.3614
N10690 X0.9825 Y2.3592
N10695 X0.9801 Y2.3584
N10700 X0.9731 Y2.356
N10705 X0.9707 Y2.3551
N10710 X0.966 Y2.3534
N10715 X0.9637 Y2.3525
N10720 X0.9568 Y2.3497
N10725 X0.9544 Y2.3487
N10730 X0.9476 Y2.3458 Z-0.0377
N10735 X0.9453 Y2.3448
N10740 X0.9385 Y2.3416
N10745 X0.9362 Y2.3406
N10750 X0.9317 Y2.3384
N10755 X0.9295 Y2.3373
N10760 X0.9229 Y2.3338
N10765 X0.9207 Y2.3326
N10770 X0.9141 Y2.329
N10775 X0.9119 Y2.3278
N10780 X0.9076 Y2.3253
N10785 X0.9055 Y2.324
N10790 X0.8991 Y2.3201
N10795 X0.897 Y2.3187 Z-0.0378
N10800 X0.8907 Y2.3146
N10805 X0.8886 Y2.3133
N10810 X0.8825 Y2.309
N10815 X0.8804 Y2.3076
N10820 X0.8764 Y2.3046
N10825 X0.8744 Y2.3032
N10830 X0.8683 Y2.2985
N10835 X0.8682 Y2.2984
N10840 Y2.2859
N10845 Y2.2847
N10850 Y2.2835
N10855 X0.8681 Y2.2822
N10860 X0.868 Y2.281
N10865 X0.8678 Y2.2798
N10870 X0.8676 Y2.2786
N10875 X0.8672 Y2.2774
N10880 X0.8668 Y2.2762
N10885 X0.8663 Y2.2751
N10890 X0.8657 Y2.274
N10895 X0.865 Y2.273
N10900 X0.8643 Y2.2721
N10905 X0.8634 Y2.2711
N10910 X0.8361 Y2.2438 Z-0.0379
N10915 X0.8282 Y2.2359
N10920 X0.8273 Y2.2351
N10925 X0.8263 Y2.2343
N10930 X0.8253 Y2.2336
N10935 X0.8242 Y2.233
N10940 X0.8231 Y2.2325
N10945 X0.822 Y2.2321
N10950 X0.8208 Y2.2318
N10955 X0.8196 Y2.2315
N10960 X0.8184 Y2.2314
N10965 X0.8171 Y2.2313
N10970 X0.8159 Y2.2312
N10975 X0.8146 Y2.2311
N10980 X0.8134 Z-0.038
N10985 X0.801
N10990 X0.8009 Y2.231
N10995 X0.8008 Y2.2309
N11000 X0.7962 Y2.2249
N11005 X0.7948 Y2.2229
N11010 X0.7918 Y2.2189
N11015 X0.7904 Y2.2168
N11020 X0.7862 Y2.2107
N11025 X0.7848 Y2.2086
N11030 X0.7807 Y2.2023
N11035 X0.7794 Y2.2002
N11040 X0.7754 Y2.1938
N11045 X0.7742 Y2.1917
N11050 X0.7717 Y2.1873 Z-0.0381
N11055 X0.7704 Y2.1852
N11060 X0.7668 Y2.1786
N11065 X0.7657 Y2.1764
N11070 X0.7622 Y2.1698
N11075 X0.7611 Y2.1675
N11080 X0.7589 Y2.1631
N11085 X0.7578 Y2.1608
N11090 X0.7547 Y2.154
N11095 X0.7537 Y2.1517
N11100 X0.7508 Y2.1448
N11105 X0.7498 Y2.1425
N11110 X0.747 Y2.1356
N11115 X0.7462 Y2.1333
N11120 X0.7444 Y2.1286 Z-0.0382
N11125 X0.7436 Y2.1262
N11130 X0.7411 Y2.1192
N11135 X0.7403 Y2.1168
N11140 X0.7381 Y2.1096
N11145 X0.7374 Y2.1073
N11150 X0.7353 Y2.1001
N11155 X0.7347 Y2.0977
N11160 X0.7334 Y2.0928
N11165 X0.7328 Y2.0904
N11170 X0.731 Y2.0831
N11175 X0.7305 Y2.0807
N11180 X0.729 Y2.0734
N11185 X0.7285 Y2.0709
N11190 X0.7276 Y2.066 Z-0.0383
N11195 X0.7271 Y2.0636
N11200 X0.7259 Y2.0562
N11205 X0.7256 Y2.0537
N11210 X0.7246 Y2.0463
N11215 X0.7243 Y2.0438
N11220 X0.7235 Y2.0364
N11225 X0.7232 Y2.0339
N11230 X0.7228 Y2.0289
N11235 X0.7226 Y2.0264
N11240 X0.7221 Y2.019
N11245 X0.722 Y2.0165
N11250 X0.7218 Y2.009
N11255 X0.7217 Y2.0065
N11260 Y2.004 Z-0.0384
N11265 X0.7216 Y1.999
N11270 Y1.9965
N11275 Y1.9293 Z-0.0385
N11280 X0.7219 Y1.5008 Z-0.0391
N11285 Y1.4858 Z-0.0392
N11290 X0.722 Y1.2168 Z-0.0396
N11295 X0.7221 Y1.0025 Z-0.0399
N11300 X0.7222 Y0.9975
N11305 Y0.9926
N11310 X0.7224 Y0.9876
N11315 X0.7226 Y0.9826
N11320 X0.7229 Y0.9776 Z-0.04
N11325 X0.7232 Y0.9727
N11330 X0.7236 Y0.9677
N11335 X0.7241 Y0.9627
N11340 X0.7246 Y0.9578
N11345 X0.7252 Y0.9528
N11350 X0.7259 Y0.9479
N11355 Y0.9477
N11360 X0.7263 Y0.9452
N11365 X0.7275 Y0.9377
N11370 X0.7279 Y0.9353
N11375 X0.7293 Y0.9279
N11380 X0.7298 Y0.9254
N11385 X0.7309 Y0.9205
N11390 X0.7314 Y0.918
N11395 X0.7331 Y0.9107 Z-0.0401
N11400 X0.7337 Y0.9082
N11405 X0.7357 Y0.9009
N11410 X0.7363 Y0.8985
N11415 X0.7384 Y0.8913
N11420 X0.7392 Y0.8889
N11425 X0.7407 Y0.8841
N11430 X0.7415 Y0.8817
N11435 X0.744 Y0.8745
N11440 X0.7448 Y0.8722
N11445 X0.7474 Y0.8651
N11450 X0.7484 Y0.8628
N11455 X0.7502 Y0.8581
N11460 X0.7512 Y0.8558
N11465 X0.7542 Y0.8488 Z-0.0402
N11470 X0.7552 Y0.8465
N11475 X0.7583 Y0.8397
N11480 X0.7594 Y0.8374
N11485 X0.7616 Y0.8329
N11490 X0.7627 Y0.8307
N11495 X0.7662 Y0.824
N11500 X0.7674 Y0.8218
N11505 X0.771 Y0.8152
N11510 X0.7723 Y0.813
N11515 X0.7748 Y0.8086
N11520 X0.7761 Y0.8065
N11525 X0.7801 Y0.8
N11530 X0.7814 Y0.7979 Z-0.0403
N11535 X0.7855 Y0.7916
N11540 X0.7869 Y0.7895
N11545 X0.7912 Y0.7833
N11550 X0.7927 Y0.7812
N11555 X0.7956 Y0.7772
N11560 X0.7971 Y0.7752
N11565 X0.8018 Y0.769
N11570 X0.8019 Y0.7689
N11575 X0.8033
N11580 X0.817
N11585 X0.8182 Y0.7688
N11590 X0.8195 Y0.7687
N11595 X0.8207 Y0.7685
N11600 X0.8219 Y0.7682
N11605 X0.8231 Y0.7678
N11610 X0.8242 Y0.7673
N11615 X0.8253 Y0.7667
N11620 X0.8263 Y0.766
N11625 X0.8273 Y0.7652
N11630 X0.8282 Y0.7644
N11635 X0.8291 Y0.7635 Z-0.0404
N11640 X0.8635 Y0.7291
N11645 X0.8643 Y0.7282
N11650 X0.8651 Y0.7273
N11655 X0.8658 Y0.7263
N11660 X0.8664 Y0.7252
N11665 X0.867 Y0.7241
N11670 X0.8674 Y0.7229
N11675 X0.8678 Y0.7217
N11680 X0.868 Y0.7205
N11685 X0.8682 Y0.7192
N11690 Y0.718
N11695 Y0.7168
N11700 Y0.7026 Z-0.0405
N11705 X0.8683 Y0.7025
N11710 X0.8702 Y0.7011
N11715 X0.8742 Y0.698
N11720 X0.8763 Y0.6965
N11725 X0.8824 Y0.6921
N11730 X0.8844 Y0.6907
N11735 X0.8886 Y0.6878
N11740 X0.8907 Y0.6864
N11745 X0.897 Y0.6823
N11750 X0.8991 Y0.681
N11755 X0.9055 Y0.677
N11760 X0.9077 Y0.6757
N11765 X0.912 Y0.6732 Z-0.0406
N11770 X0.9142 Y0.672
N11775 X0.9208 Y0.6683
N11780 X0.923 Y0.6671
N11785 X0.9297 Y0.6637
N11790 X0.932 Y0.6626
N11795 X0.9365 Y0.6603
N11800 X0.9388 Y0.6592
N11805 X0.9456 Y0.6561
N11810 X0.948 Y0.6551
N11815 X0.9549 Y0.6521
N11820 X0.9572 Y0.6512
N11825 X0.9642 Y0.6484
N11830 X0.9666 Y0.6475
N11835 X0.9712 Y0.6457 Z-0.0407
N11840 X0.9736 Y0.6449
N11845 X0.9807 Y0.6424
N11850 X0.9831 Y0.6416
N11855 X0.9903 Y0.6394
N11860 X0.9927 Y0.6387
N11865 X0.9976 Y0.6373
N11870 X1 Y0.6366
N11875 X1.0073 Y0.6347
N11880 X1.0097 Y0.6341
N11885 X1.017 Y0.6323
N11890 X1.0195 Y0.6318
N11895 X1.0244 Y0.6307
N11900 X1.0269 Y0.6302
N11905 X1.0343 Y0.6289 Z-0.0408
N11910 X1.0368 Y0.6284
N11915 X1.0442 Y0.6272
N11920 X1.0467 Y0.6269
N11925 X1.0517 Y0.6262
N11930 X1.0542 Y0.6259
N11935 X1.0617 Y0.625
N11940 X1.0642 Y0.6248
N11945 X1.0717 Y0.6241
N11950 X1.0742 Y0.624
N11955 X1.0817 Y0.6235
N11960 X1.0842 Y0.6234
N11965 X1.0892 Y0.6232
N11970 X1.0917
N11975 X1.0993 Y0.6231 Z-0.0409
N11980 X1.1018
N11985 X1.5576 Y0.6233 Z-0.0416
N11990 X1.5975
N11995 X1.6074 Z-0.0417
N12000 X1.6722 Y0.6234 Z-0.0418
N12005 X2.0981 Y0.6236 Z-0.0424
N12010 X2.1007
N12015 X2.1032 Y0.6237
N12020 X2.1057
N12025 X2.1082 Y0.6238
N12030 X2.1157 Y0.624
N12035 X2.1182 Y0.6242 Z-0.0425
N12040 X2.1257 Y0.6246
N12045 X2.1282 Y0.6248
N12050 X2.1332 Y0.6253
N12055 X2.1357 Y0.6255
N12060 X2.1432 Y0.6263
N12065 X2.1457 Y0.6266
N12070 X2.1531 Y0.6276
N12075 X2.1556 Y0.628
N12080 X2.1606 Y0.6288
N12085 X2.163 Y0.6292
N12090 X2.1704 Y0.6306
N12095 X2.1729 Y0.6311
N12100 X2.1802 Y0.6327
N12105 X2.1827 Y0.6332 Z-0.0426
N12110 X2.1876 Y0.6344
N12115 X2.19 Y0.635
N12120 X2.1973 Y0.6369
N12125 X2.1998 Y0.6376
N12130 X2.207 Y0.6397
N12135 X2.2094 Y0.6404
N12140 X2.2165 Y0.6427
N12145 X2.2189 Y0.6435
N12150 X2.2236 Y0.6451
N12155 X2.226 Y0.6459
N12160 X2.2331 Y0.6486
N12165 X2.2354 Y0.6495
N12170 X2.2424 Y0.6523 Z-0.0427
N12175 X2.2447 Y0.6533
N12180 X2.2493 Y0.6552
N12185 X2.2516 Y0.6562
N12190 X2.2585 Y0.6594
N12195 X2.2607 Y0.6605
N12200 X2.2675 Y0.6637
N12205 X2.2697 Y0.6649
N12210 X2.2742 Y0.6672
N12215 X2.2764 Y0.6684
N12220 X2.283 Y0.672
N12225 X2.2852 Y0.6732
N12230 X2.2917 Y0.677
N12235 X2.2938 Y0.6783
N12240 X2.3002 Y0.6823 Z-0.0428
N12245 X2.3065 Y0.6864
N12250 X2.3086 Y0.6878
N12255 X2.3148 Y0.692
N12260 X2.3169 Y0.6935
N12265 X2.323 Y0.6979
N12270 X2.325 Y0.6994
N12275 X2.3304 Y0.7035
N12280 X2.3305 Y0.7036
N12285 Y0.7037
N12290 Y0.705
N12295 Y0.713
N12300 Y0.7179
N12305 Y0.7192
N12310 X2.3307 Y0.7204
N12315 X2.3309 Y0.7216
N12320 X2.3313 Y0.7228
N12325 X2.3317 Y0.724
N12330 X2.3323 Y0.7251
N12335 X2.3329 Y0.7262
N12340 X2.3336 Y0.7272
N12345 X2.3344 Y0.7282 Z-0.0429
N12350 X2.3352 Y0.7291
N12355 X2.3705 Y0.7643
N12360 X2.3714 Y0.7652
N12365 X2.3724 Y0.7659
N12370 X2.3734 Y0.7666
N12375 X2.3745 Y0.7672
N12380 X2.3756 Y0.7677
N12385 X2.3768 Y0.7682
N12390 X2.378 Y0.7685
N12395 X2.3792 Y0.7687
N12400 X2.3805 Y0.7688
N12405 X2.3817 Y0.7689
N12410 X2.3956 Z-0.043
N12415 X2.3957
N12420 X2.3961 Y0.7695
N12425 X2.4001 Y0.7747
N12430 X2.4016 Y0.7767
N12435 X2.406 Y0.7828
N12440 X2.4074 Y0.7848
N12445 X2.4117 Y0.791
N12450 X2.4131 Y0.7931
N12455 X2.4158 Y0.7973
N12460 X2.4172 Y0.7995
N12465 X2.4211 Y0.8059
N12470 X2.4224 Y0.808
N12475 X2.4262 Y0.8145 Z-0.0431
N12480 X2.4274 Y0.8167
N12485 X2.4298 Y0.8211
N12490 X2.431 Y0.8233
N12495 X2.4345 Y0.8299
N12500 X2.4356 Y0.8322
N12505 X2.4389 Y0.8389
N12510 X2.44 Y0.8412
N12515 X2.4431 Y0.848
N12520 X2.4441 Y0.8504
N12525 X2.4461 Y0.855
N12530 X2.447 Y0.8573
N12535 X2.4498 Y0.8643
N12540 X2.4507 Y0.8666
N12545 X2.4533 Y0.8737 Z-0.0432
N12550 X2.4542 Y0.8761
N12555 X2.4558 Y0.8808
N12560 X2.4566 Y0.8832
N12565 X2.4589 Y0.8903
N12570 X2.4596 Y0.8927
N12575 X2.4617 Y0.9
N12580 X2.4623 Y0.9024
N12585 X2.4636 Y0.9072
N12590 X2.4642 Y0.9097
N12595 X2.466 Y0.917
N12600 X2.4665 Y0.9195
N12605 X2.4681 Y0.9268
N12610 X2.4685 Y0.9293
N12615 X2.4695 Y0.9342 Z-0.0433
N12620 X2.4699 Y0.9366
N12625 X2.4711 Y0.9441
N12630 X2.4715 Y0.9466
N12635 X2.4725 Y0.954
N12640 X2.4728 Y0.9565
N12645 X2.4736 Y0.964
N12650 X2.4743 Y0.9715
N12655 X2.4745 Y0.974
N12660 X2.4749 Y0.9815
N12665 X2.475 Y0.984
N12670 X2.4753 Y0.9915
N12675 Y0.994 Z-0.0434
N12680 X2.4754 Y0.9965
N12685 Y0.999
N12690 Y1.0015
N12695 Y1.1385 Z-0.0436
N12700 X2.4751 Y1.5022 Z-0.0441
N12705 X2.4749 Y1.9555 Z-0.0449
N12710 Y1.9979
N12715 Y2.0004
N12720 X2.4748 Y2.0029
N12725 X2.4747 Y2.0079
N12730 Y2.0104
N12735 X2.4745 Y2.0154
N12740 X2.4744 Y2.0179 Z-0.045
N12745 X2.4739 Y2.0254
N12750 X2.4737 Y2.0279
N12755 X2.4731 Y2.0353
N12760 X2.4728 Y2.0378
N12765 X2.4722 Y2.0428
N12770 X2.472 Y2.0453
N12775 X2.4709 Y2.0527
N12780 X2.4706 Y2.0552
N12785 X2.4694 Y2.0626
N12790 X2.4689 Y2.0651
N12795 X2.468 Y2.07
N12800 X2.4676 Y2.0725
N12805 X2.466 Y2.0798
N12810 X2.4655 Y2.0823 Z-0.0451
N12815 X2.4637 Y2.0896
N12820 X2.4631 Y2.092
N12825 X2.4612 Y2.0992
N12830 X2.4605 Y2.1016
N12835 X2.4591 Y2.1065
N12840 X2.4584 Y2.1089
N12845 X2.4561 Y2.116
N12850 X2.4553 Y2.1184
N12855 X2.4529 Y2.1255
N12860 X2.452 Y2.1278
N12865 X2.4503 Y2.1325
N12870 X2.4494 Y2.1349
N12875 X2.4466 Y2.1418
N12880 X2.4456 Y2.1442 Z-0.0452
N12885 X2.4427 Y2.151
N12890 X2.4416 Y2.1533
N12895 X2.4396 Y2.1579
N12900 X2.4385 Y2.1602
N12905 X2.4352 Y2.1669
N12910 X2.4341 Y2.1691
N12915 X2.4306 Y2.1758
N12920 X2.4294 Y2.178
N12925 X2.427 Y2.1824
N12930 X2.4258 Y2.1846
N12935 X2.422 Y2.191
N12940 X2.4208 Y2.1932
N12945 X2.4168 Y2.1996 Z-0.0453
N12950 X2.4155 Y2.2017
N12955 X2.4114 Y2.208
N12960 X2.41 Y2.2101
N12965 X2.4071 Y2.2142
N12970 X2.4057 Y2.2162
N12975 X2.4013 Y2.2223
N12980 X2.3998 Y2.2243
N12985 X2.3952 Y2.2303
N12990 X2.3937 Y2.2323
N12995 X2.3906 Y2.2362
N13000 X2.389 Y2.2381
N13005 X2.3842 Y2.2438
N13010 X2.3825 Y2.2457
N13015 X2.3775 Y2.2514 Z-0.0454
N13020 X2.3758 Y2.2532
N13025 X2.3724 Y2.2569
N13030 X2.3707 Y2.2587
N13035 X2.3655 Y2.2641
N13040 X2.3637 Y2.2658
N13045 X2.3583 Y2.2711
N13050 X2.3565 Y2.2728
N13055 X2.3528 Y2.2762
N13060 X2.351 Y2.2779
N13065 X2.3454 Y2.2829
N13070 X2.3435 Y2.2845
N13075 X2.3377 Y2.2893
N13080 X2.3358 Y2.2909
N13085 X2.3299 Y2.2956 Z-0.0455
N13090 X2.3279 Y2.2971
N13095 X2.324 Y2.3001
N13100 X2.3219 Y2.3016
N13105 X2.3159 Y2.306
N13110 X2.3138 Y2.3075
N13115 X2.3076 Y2.3117
N13120 X2.3055 Y2.3131
N13125 X2.3014 Y2.3158
N13130 X2.2992 Y2.3172
N13135 X2.2929 Y2.3211
N13140 X2.2907 Y2.3224
N13145 X2.2842 Y2.3261
N13150 X2.282 Y2.3274
N13155 X2.2776 Y2.3298 Z-0.0456
N13160 X2.2754 Y2.331
N13165 X2.2688 Y2.3344
N13170 X2.2665 Y2.3356
N13175 X2.2598 Y2.3388
N13180 X2.2575 Y2.3399
N13185 X2.253 Y2.342
N13190 X2.2507 Y2.343
N13195 X2.2438 Y2.346
N13200 X2.2415 Y2.3469
N13205 X2.2345 Y2.3497
N13210 X2.2322 Y2.3506
N13215 X2.2252 Y2.3532
N13220 X2.2228 Y2.354
N13225 X2.2181 Y2.3556 Z-0.0457
N13230 X2.2157 Y2.3564
N13235 X2.2085 Y2.3587
N13240 X2.2061 Y2.3594
N13245 X2.1989 Y2.3615
N13250 X2.1965 Y2.3622
N13255 X2.1917 Y2.3634
N13260 X2.1893 Y2.3641
N13265 X2.182 Y2.3658
N13270 X2.1795 Y2.3663
N13275 X2.1722 Y2.3679
N13280 X2.1697 Y2.3683
N13285 X2.1648 Y2.3693
N13290 X2.1623 Y2.3697
N13295 X2.1549 Y2.3709 Z-0.0458
N13300 X2.1524 Y2.3713
N13305 X2.145 Y2.3723
N13310 X2.1425 Y2.3726
N13315 X2.1376 Y2.3731
N13320 X2.1351 Y2.3734
N13325 X2.1276 Y2.374
N13330 X2.1251 Y2.3742
N13335 X2.1176 Y2.3747
N13340 X2.1151 Y2.3748
N13345 X2.1076 Y2.375
N13350 X2.1051 Y2.3751
N13355 X2.1026
N13360 X2.1001
N13365 X2.0976 Y2.3752
N13370 X1.9681 Y2.3751 Z-0.046
N13375 X1.5994 Y2.3748 Z-0.0466
N13380 X1.435 Y2.3747 Z-0.0469
N13385 X1.2956 Z-0.0471
N13390 X1.1013 Y2.3746 Z-0.0474
N13395 X1.0988
N13400 X1.0938 Y2.3745
N13405 X1.0913
N13410 X1.0888 Y2.3744
N13415 X1.0838 Y2.3742
N13420 X1.0813 Y2.3741
N13425 X1.0738 Y2.3736
N13430 X1.0713 Y2.3734
N13435 X1.0639 Y2.3728 Z-0.0475
N13440 X1.0614 Y2.3725
N13445 X1.0564 Y2.372
N13450 X1.0539 Y2.3717
N13455 X1.0465 Y2.3707
N13460 X1.0441 Y2.3703
N13465 X1.0367 Y2.3691
N13470 X1.0342 Y2.3687
N13475 X1.0293 Y2.3677
N13480 X1.0268 Y2.3673
N13485 X1.0195 Y2.3657
N13490 X1.0171 Y2.3652
N13495 X1.0098 Y2.3634
N13500 X1.0074 Y2.3628
N13505 X1.0025 Y2.3615 Z-0.0476
N13510 X1.0001 Y2.3609
N13515 X0.9929 Y2.3588
N13520 X0.9905 Y2.3581
N13525 X0.9834 Y2.3558
N13530 X0.981 Y2.355
N13535 X0.974 Y2.3526
N13540 X0.9716 Y2.3517
N13545 X0.9669 Y2.35
N13550 X0.9646 Y2.3491
N13555 X0.9576 Y2.3463
N13560 X0.9553 Y2.3453
N13565 X0.9485 Y2.3424
N13570 X0.9462 Y2.3414 Z-0.0477
N13575 X0.9417 Y2.3393
N13580 X0.9394 Y2.3382
N13585 X0.9327 Y2.3349
N13590 X0.9304 Y2.3338
N13595 X0.9238 Y2.3304
N13600 X0.9216 Y2.3292
N13605 X0.9172 Y2.3268
N13610 X0.915 Y2.3255
N13615 X0.9086 Y2.3218
N13620 X0.9064 Y2.3205
N13625 X0.9 Y2.3166
N13630 X0.8979 Y2.3152
N13635 X0.8938 Y2.3125
N13640 X0.8917 Y2.3111
N13645 X0.8855 Y2.3069 Z-0.0478
N13650 X0.8835 Y2.3054
N13655 X0.8774 Y2.3011
N13660 X0.8754 Y2.2996
N13665 X0.8694 Y2.295
N13670 X0.8689 Y2.2946
N13675 X0.8683 Y2.2942
N13680 X0.8682 Y2.294
N13685 Y2.2928
N13690 Y2.2827
N13695 Y2.2815
N13700 X0.8681 Y2.2802
N13705 X0.8679 Y2.279
N13710 X0.8676 Y2.2778
N13715 X0.8673 Y2.2766
N13720 X0.8668 Y2.2755
N13725 X0.8662 Y2.2744
N13730 X0.8655 Y2.2733
N13735 X0.8648 Y2.2723
N13740 X0.864 Y2.2714
N13745 X0.8605 Y2.2678
N13750 X0.8288 Y2.2361 Z-0.0479
N13755 X0.8279 Y2.2353
N13760 X0.8269 Y2.2345
N13765 X0.8259 Y2.2337
N13770 X0.8248 Y2.2331
N13775 X0.8237 Y2.2325
N13780 X0.8226 Y2.2321
N13785 X0.8214 Y2.2317
N13790 X0.8202 Y2.2314
N13795 X0.8189 Y2.2312
N13800 X0.8177 Y2.2311
N13805 X0.8152
N13810 X0.8054
N13815 X0.8053 Y2.231
N13820 X0.8051 Y2.2307
N13825 X0.8035 Y2.2288 Z-0.048
N13830 X0.799 Y2.2228
N13835 X0.7975 Y2.2208
N13840 X0.7946 Y2.2167
N13845 X0.7932 Y2.2147
N13850 X0.7889 Y2.2085
N13855 X0.7875 Y2.2064
N13860 X0.7835 Y2.2002
N13865 X0.7821 Y2.198
N13870 X0.7795 Y2.1938
N13875 X0.7782 Y2.1917
N13880 X0.7745 Y2.1852
N13885 X0.7732 Y2.183
N13890 X0.7696 Y2.1765
N13895 X0.7685 Y2.1743 Z-0.0481
N13900 X0.7662 Y2.1698
N13905 X0.765 Y2.1676
N13910 X0.7617 Y2.1609
N13915 X0.7607 Y2.1586
N13920 X0.7576 Y2.1518
N13925 X0.7566 Y2.1495
N13930 X0.7536 Y2.1426
N13935 X0.7508 Y2.1357
N13940 X0.7499 Y2.1334
N13945 X0.7473 Y2.1263
N13950 X0.7465 Y2.124
N13955 X0.7441 Y2.1169 Z-0.0482
N13960 X0.7433 Y2.1145
N13965 X0.7418 Y2.1098
N13970 X0.7411 Y2.1074
N13975 X0.739 Y2.1002
N13980 X0.7383 Y2.0978
N13985 X0.7364 Y2.0906
N13990 X0.7358 Y2.0881
N13995 X0.7347 Y2.0833
N14000 X0.7341 Y2.0808
N14005 X0.7326 Y2.0735
N14010 X0.7321 Y2.0711
N14015 X0.7307 Y2.0637
N14020 X0.7303 Y2.0612
N14025 X0.7295 Y2.0563
N14030 X0.7291 Y2.0539 Z-0.0483
N14035 X0.7281 Y2.0464
N14040 X0.7278 Y2.044
N14045 X0.727 Y2.0365
N14050 X0.7268 Y2.034
N14055 X0.7263 Y2.0291
N14060 X0.7261 Y2.0266
N14065 X0.7257 Y2.0191
N14070 X0.7255 Y2.0166
N14075 X0.7253 Y2.0091
N14080 X0.7252 Y2.0066
N14085 Y1.9992
N14090 Y1.9967
N14095 X0.7253 Y1.6753 Z-0.0488
N14100 X0.7255 Y1.501 Z-0.0491
N14105 Y1.486
N14110 Y1.3515 Z-0.0493
N14115 X0.7257 Y1.0028 Z-0.0499
N14120 X0.7258 Y0.9978
N14125 X0.7259 Y0.9928
N14130 X0.726 Y0.9879
N14135 X0.7262 Y0.9829
N14140 X0.7265 Y0.9779
N14145 X0.7268 Y0.9729
N14150 X0.7273 Y0.968
N14155 X0.7277 Y0.963 Z-0.05
N14160 X0.7283 Y0.9581
N14165 X0.7289 Y0.9531
N14170 X0.7296 Y0.9482
N14175 X0.7303 Y0.9433
N14180 X0.7311 Y0.9384
N14185 X0.7315 Y0.9355
N14190 X0.7321 Y0.933
N14195 X0.733 Y0.9281
N14200 X0.7335 Y0.9256
N14205 X0.7345 Y0.9207
N14210 X0.7351 Y0.9182
N14215 X0.7368 Y0.9109
N14220 X0.7375 Y0.9084
N14225 X0.7394 Y0.9011 Z-0.0501
N14230 X0.7415 Y0.8939
N14235 X0.7422 Y0.8915
N14240 X0.7445 Y0.8842
N14245 X0.7453 Y0.8818
N14250 X0.7469 Y0.8771
N14255 X0.7478 Y0.8747
N14260 X0.7504 Y0.8677
N14265 X0.7513 Y0.8653
N14270 X0.7541 Y0.8583
N14275 X0.7551 Y0.856
N14280 X0.7571 Y0.8513
N14285 X0.7581 Y0.849
N14290 X0.7612 Y0.8422 Z-0.0502
N14295 X0.7623 Y0.8399
N14300 X0.7656 Y0.8331
N14305 X0.7668 Y0.8308
N14310 X0.7691 Y0.8264
N14315 X0.7703 Y0.8242
N14320 X0.7739 Y0.8176
N14325 X0.7752 Y0.8154
N14330 X0.7789 Y0.8089
N14335 X0.7803 Y0.8067
N14340 X0.7829 Y0.8024
N14345 X0.7843 Y0.8002
N14350 X0.7884 Y0.7939
N14355 X0.7898 Y0.7918
N14360 X0.7941 Y0.7856 Z-0.0503
N14365 X0.7955 Y0.7835
N14370 X0.7985 Y0.7795
N14375 X0.8 Y0.7775
N14380 X0.8045 Y0.7715
N14385 X0.8064 Y0.7691
N14390 X0.8065 Y0.7689
N14395 X0.8066
N14400 X0.8094
N14405 X0.8153
N14410 X0.8178
N14415 X0.819 Y0.7688
N14420 X0.8202 Y0.7686
N14425 X0.8215 Y0.7683
N14430 X0.8226 Y0.7679
N14435 X0.8238 Y0.7674
N14440 X0.8249 Y0.7669
N14445 X0.826 Y0.7662
N14450 X0.827 Y0.7655
N14455 X0.8279 Y0.7647
N14460 X0.8288 Y0.7638
N14465 X0.8605 Y0.7321 Z-0.0504
N14470 X0.864 Y0.7286
N14475 X0.8648 Y0.7276
N14480 X0.8656 Y0.7266
N14485 X0.8662 Y0.7256
N14490 X0.8668 Y0.7245
N14495 X0.8673 Y0.7233
N14500 X0.8677 Y0.7221
N14505 X0.8679 Y0.7209
N14510 X0.8681 Y0.7197
N14515 X0.8682 Y0.7185
N14520 Y0.7172
N14525 Y0.7074
N14530 X0.8683 Y0.7072
N14535 X0.8698 Y0.7061
N14540 X0.8718 Y0.7045
N14545 X0.8758 Y0.7015 Z-0.0505
N14550 X0.8778 Y0.6999
N14555 X0.884 Y0.6955
N14560 X0.886 Y0.6941
N14565 X0.8923 Y0.6898
N14570 X0.8944 Y0.6884
N14575 X0.8986 Y0.6857
N14580 X0.9007 Y0.6843
N14585 X0.9071 Y0.6804
N14590 X0.9093 Y0.6791
N14595 X0.9158 Y0.6753
N14600 X0.918 Y0.6741
N14605 X0.9224 Y0.6717
N14610 X0.9246 Y0.6705
N14615 X0.9313 Y0.667 Z-0.0506
N14620 X0.9336 Y0.6659
N14625 X0.9381 Y0.6637
N14630 X0.9404 Y0.6626
N14635 X0.9473 Y0.6594
N14640 X0.9496 Y0.6584
N14645 X0.9565 Y0.6554
N14650 X0.9589 Y0.6545
N14655 X0.9635 Y0.6526
N14660 X0.9659 Y0.6517
N14665 X0.9729 Y0.6491
N14670 X0.9753 Y0.6482
N14675 X0.9825 Y0.6458
N14680 X0.9849 Y0.645
N14685 X0.9896 Y0.6435 Z-0.0507
N14690 X0.992 Y0.6427
N14695 X0.9993 Y0.6406
N14700 X1.0018 Y0.6399
N14705 X1.009 Y0.638
N14710 X1.0115 Y0.6374
N14715 X1.0163 Y0.6363
N14720 X1.0188 Y0.6357
N14725 X1.0262 Y0.6342
N14730 X1.0287 Y0.6337
N14735 X1.0361 Y0.6323
N14740 X1.0386 Y0.6319
N14745 X1.0436 Y0.6311
N14750 X1.0461 Y0.6307
N14755 X1.0535 Y0.6297 Z-0.0508
N14760 X1.056 Y0.6294
N14765 X1.0635 Y0.6286
N14770 X1.066 Y0.6283
N14775 X1.071 Y0.6279
N14780 X1.0735 Y0.6277
N14785 X1.081 Y0.6273
N14790 X1.0836 Y0.6272
N14795 X1.0911 Y0.6269
N14800 X1.0936 Y0.6268
N14805 X1.0987
N14810 X1.1012 Y0.6267
N14815 X1.5495 Y0.627 Z-0.0515
N14820 X1.5993 Y0.6271 Z-0.0516
N14825 X1.669 Z-0.0517
N14830 X2.0974 Y0.6274 Z-0.0524
N14835 X2.0999
N14840 X2.1024
N14845 X2.1074 Y0.6275
N14850 X2.1099 Y0.6276
N14855 X2.1149 Y0.6278
N14860 X2.1174 Y0.6279
N14865 X2.125 Y0.6284
N14870 X2.1275 Y0.6286
N14875 X2.135 Y0.6292 Z-0.0525
N14880 X2.1375 Y0.6295
N14885 X2.1425 Y0.6301
N14890 X2.145 Y0.6304
N14895 X2.1524 Y0.6314
N14900 X2.1549 Y0.6318
N14905 X2.1599 Y0.6326
N14910 X2.1624 Y0.633
N14915 X2.1697 Y0.6343
N14920 X2.1722 Y0.6348
N14925 X2.1796 Y0.6364
N14930 X2.1821 Y0.637
N14935 X2.1869 Y0.6381
N14940 X2.1894 Y0.6387
N14945 X2.1966 Y0.6406 Z-0.0526
N14950 X2.1991 Y0.6413
N14955 X2.2063 Y0.6434
N14960 X2.2087 Y0.6442
N14965 X2.2135 Y0.6457
N14970 X2.2159 Y0.6464
N14975 X2.223 Y0.6489
N14980 X2.2254 Y0.6498
N14985 X2.2324 Y0.6524
N14990 X2.2348 Y0.6533
N14995 X2.2394 Y0.6552
N15000 X2.2417 Y0.6561
N15005 X2.2486 Y0.6591
N15010 X2.251 Y0.6601
N15015 X2.2578 Y0.6633 Z-0.0527
N15020 X2.2601 Y0.6643
N15025 X2.2646 Y0.6666
N15030 X2.2668 Y0.6677
N15035 X2.2735 Y0.6711
N15040 X2.2758 Y0.6723
N15045 X2.2823 Y0.676
N15050 X2.2845 Y0.6772
N15055 X2.2888 Y0.6798
N15060 X2.291 Y0.681
N15065 X2.2974 Y0.685
N15070 X2.2995 Y0.6863
N15075 X2.3058 Y0.6905
N15080 X2.3079 Y0.6919
N15085 X2.312 Y0.6947 Z-0.0528
N15090 X2.3141 Y0.6962
N15095 X2.3202 Y0.7006
N15100 X2.3222 Y0.7021
N15105 X2.3262 Y0.7051
N15110 X2.3282 Y0.7067
N15115 X2.3304 Y0.7084
N15120 X2.3305 Y0.7085
N15125 Y0.7114
N15130 Y0.717
N15135 Y0.7183
N15140 X2.3306 Y0.7195
N15145 X2.3308 Y0.7208
N15150 X2.331 Y0.722
N15155 X2.3314 Y0.7232
N15160 X2.3319 Y0.7243
N15165 X2.3324 Y0.7254
N15170 X2.3331 Y0.7265
N15175 X2.3338 Y0.7275
N15180 X2.3346 Y0.7285
N15185 X2.3381 Y0.732
N15190 X2.3698 Y0.7637 Z-0.0529
N15195 X2.3707 Y0.7646
N15200 X2.3716 Y0.7654
N15205 X2.3726 Y0.7661
N15210 X2.3737 Y0.7668
N15215 X2.3748 Y0.7674
N15220 X2.3759 Y0.7679
N15225 X2.3771 Y0.7683
N15230 X2.3783 Y0.7686
N15235 X2.3795 Y0.7688
N15240 X2.3808 Y0.7689
N15245 X2.3833
N15250 X2.3907
N15255 X2.3909 Y0.769
N15260 X2.3916 Y0.7698
N15265 X2.3932 Y0.772
N15270 X2.3978 Y0.778 Z-0.053
N15275 X2.3993 Y0.78
N15280 X2.4022 Y0.784
N15285 X2.4037 Y0.7861
N15290 X2.4079 Y0.7923
N15295 X2.4093 Y0.7944
N15300 X2.4134 Y0.8007
N15305 X2.4148 Y0.8028
N15310 X2.4174 Y0.8071
N15315 X2.4187 Y0.8092
N15320 X2.4225 Y0.8158
N15325 X2.4238 Y0.818
N15330 X2.4274 Y0.8245
N15335 X2.4285 Y0.8268
N15340 X2.4308 Y0.8312 Z-0.0531
N15345 X2.432 Y0.8335
N15350 X2.4353 Y0.8402
N15355 X2.4364 Y0.8425
N15360 X2.4395 Y0.8493
N15365 X2.4405 Y0.8516
N15370 X2.4425 Y0.8562
N15375 X2.4434 Y0.8585
N15380 X2.4462 Y0.8656
N15385 X2.4471 Y0.8679
N15390 X2.4498 Y0.875
N15395 X2.4506 Y0.8773
N15400 X2.4522 Y0.8821
N15405 X2.453 Y0.8845
N15410 X2.4553 Y0.8917 Z-0.0532
N15415 X2.456 Y0.8941
N15420 X2.4581 Y0.9013
N15425 X2.4587 Y0.9037
N15430 X2.46 Y0.9086
N15435 X2.4606 Y0.911
N15440 X2.4624 Y0.9183
N15445 X2.4629 Y0.9208
N15450 X2.4645 Y0.9281
N15455 X2.4649 Y0.9306
N15460 X2.4658 Y0.9355
N15465 X2.4663 Y0.938
N15470 X2.4675 Y0.9454
N15475 X2.4678 Y0.9479
N15480 X2.4685 Y0.9529 Z-0.0533
N15485 X2.4688 Y0.9554
N15490 X2.4696 Y0.9629
N15495 X2.4699 Y0.9654
N15500 X2.4705 Y0.9729
N15505 X2.4707 Y0.9754
N15510 X2.471 Y0.9804
N15515 X2.4712 Y0.9829
N15520 X2.4714 Y0.9904
N15525 X2.4715 Y0.9929
N15530 Y0.9954
N15535 X2.4716 Y1.0004
N15540 Y1.0029
N15545 X2.4714 Y1.2794 Z-0.0538
N15550 X2.4712 Y1.4985 Z-0.0541
N15555 Y1.5085
N15560 X2.4711 Y1.7874 Z-0.0546
N15565 X2.4709 Y1.9966 Z-0.0549
N15570 Y1.9991
N15575 Y2.0066
N15580 X2.4708 Y2.0091
N15585 X2.4705 Y2.0166
N15590 X2.4704 Y2.0191
N15595 X2.4701 Y2.0242
N15600 X2.4699 Y2.0267
N15605 X2.4693 Y2.0341 Z-0.055
N15610 X2.469 Y2.0366
N15615 X2.4682 Y2.0441
N15620 X2.4679 Y2.0466
N15625 X2.4672 Y2.0515
N15630 X2.4668 Y2.054
N15635 X2.4656 Y2.0614
N15640 X2.4652 Y2.0639
N15645 X2.4638 Y2.0713
N15650 X2.4633 Y2.0737
N15655 X2.4623 Y2.0787
N15660 X2.4617 Y2.0811
N15665 X2.46 Y2.0884
N15670 X2.4594 Y2.0908
N15675 X2.4575 Y2.0981 Z-0.0551
N15680 X2.4568 Y2.1005
N15685 X2.4554 Y2.1053
N15690 X2.4547 Y2.1077
N15695 X2.4524 Y2.1149
N15700 X2.4516 Y2.1173
N15705 X2.4492 Y2.1243
N15710 X2.4483 Y2.1267
N15715 X2.4465 Y2.1314
N15720 X2.4456 Y2.1338
N15725 X2.4428 Y2.1407
N15730 X2.4419 Y2.143
N15735 X2.4399 Y2.1476
N15740 X2.4389 Y2.1499
N15745 X2.4358 Y2.1567 Z-0.0552
N15750 X2.4347 Y2.159
N15755 X2.4314 Y2.1658
N15760 X2.4303 Y2.168
N15765 X2.428 Y2.1725
N15770 X2.4268 Y2.1747
N15775 X2.4232 Y2.1813
N15780 X2.4219 Y2.1834
N15785 X2.4182 Y2.1899
N15790 X2.4169 Y2.1921
N15795 X2.4142 Y2.1963
N15800 X2.4129 Y2.1985
N15805 X2.4088 Y2.2047
N15810 X2.4074 Y2.2068
N15815 X2.4032 Y2.213 Z-0.0553
N15820 X2.4017 Y2.2151
N15825 X2.3988 Y2.2191
N15830 X2.3973 Y2.2212
N15835 X2.3927 Y2.2271
N15840 X2.3912 Y2.2291
N15845 X2.3865 Y2.235
N15850 X2.3849 Y2.2369
N15855 X2.3817 Y2.2407
N15860 X2.3801 Y2.2426
N15865 X2.3751 Y2.2482
N15870 X2.3734 Y2.2501
N15875 X2.3683 Y2.2556
N15880 X2.3665 Y2.2574
N15885 X2.363 Y2.261 Z-0.0554
N15890 X2.3613 Y2.2627
N15895 X2.3559 Y2.268
N15900 X2.3541 Y2.2697
N15905 X2.3486 Y2.2748
N15910 X2.3467 Y2.2765
N15915 X2.3429 Y2.2798
N15920 X2.341 Y2.2814
N15925 X2.3353 Y2.2863
N15930 X2.3333 Y2.2879
N15935 X2.3275 Y2.2925
N15940 X2.3215 Y2.2971
N15945 X2.3195 Y2.2986
N15950 X2.3134 Y2.303 Z-0.0555
N15955 X2.3113 Y2.3044
N15960 X2.3072 Y2.3072
N15965 X2.3052 Y2.3086
N15970 X2.2989 Y2.3127
N15975 X2.2967 Y2.3141
N15980 X2.2904 Y2.318
N15985 X2.2882 Y2.3193
N15990 X2.2839 Y2.3218
N15995 X2.2817 Y2.3231
N16000 X2.2751 Y2.3267
N16005 X2.2729 Y2.3279
N16010 X2.2662 Y2.3313
N16015 X2.264 Y2.3324
N16020 X2.2595 Y2.3346 Z-0.0556
N16025 X2.2572 Y2.3357
N16030 X2.2504 Y2.3388
N16035 X2.2481 Y2.3398
N16040 X2.2412 Y2.3428
N16045 X2.2389 Y2.3437
N16050 X2.2342 Y2.3456
N16055 X2.2319 Y2.3465
N16060 X2.2249 Y2.3491
N16065 X2.2225 Y2.35
N16070 X2.2154 Y2.3524
N16075 X2.213 Y2.3532
N16080 X2.2083 Y2.3547
N16085 X2.2059 Y2.3554
N16090 X2.1987 Y2.3575 Z-0.0557
N16095 X2.1962 Y2.3582
N16100 X2.189 Y2.3601
N16105 X2.1865 Y2.3606
N16110 X2.1817 Y2.3618
N16115 X2.1792 Y2.3624
N16120 X2.1719 Y2.3639
N16125 X2.1694 Y2.3644
N16130 X2.162 Y2.3658
N16135 X2.1596 Y2.3662
N16140 X2.1546 Y2.3669
N16145 X2.1522 Y2.3673
N16150 X2.1447 Y2.3683
N16155 X2.1422 Y2.3686
N16160 X2.1373 Y2.3692 Z-0.0558
N16165 X2.1348 Y2.3694
N16170 X2.1273 Y2.3701
N16175 X2.1248 Y2.3703
N16180 X2.1173 Y2.3707
N16185 X2.1148 Y2.3708
N16190 X2.1098 Y2.371
N16195 X2.1073 Y2.3711
N16200 X2.1048
N16205 X2.1023 Y2.3712
N16210 X2.0998
N16215 X2.0973
N16220 X1.9952 Y2.3711 Z-0.056
N16225 X1.9753
N16230 X1.6017 Y2.3708 Z-0.0566
N16235 X1.5967
N16240 X1.1285 Y2.3706 Z-0.0573
N16245 X1.1011 Y2.3705 Z-0.0574
N16250 X1.0986
N16255 X1.0936 Y2.3704
N16260 X1.0911
N16265 X1.0836 Y2.3701
N16270 X1.0811 Y2.37
N16275 X1.0737 Y2.3695
N16280 X1.0712 Y2.3693
N16285 X1.0662 Y2.3689
N16290 X1.0637 Y2.3687
N16295 X1.0563 Y2.3678 Z-0.0575
N16300 X1.0538 Y2.3675
N16305 X1.0464 Y2.3665
N16310 X1.0439 Y2.3661
N16315 X1.039 Y2.3653
N16320 X1.0365 Y2.3649
N16325 X1.0291 Y2.3636
N16330 X1.0267 Y2.3631
N16335 X1.0194 Y2.3615
N16340 X1.0169 Y2.3609
N16345 X1.0121 Y2.3598
N16350 X1.0096 Y2.3592
N16355 X1.0024 Y2.3573
N16360 X1 Y2.3566
N16365 X0.9928 Y2.3545 Z-0.0576
N16370 X0.9904 Y2.3538
N16375 X0.9857 Y2.3522
N16380 X0.9833 Y2.3515
N16385 X0.9762 Y2.349
N16390 X0.9738 Y2.3482
N16395 X0.9668 Y2.3456
N16400 X0.9645 Y2.3446
N16405 X0.9599 Y2.3428
N16410 X0.9576 Y2.3418
N16415 X0.9507 Y2.3389
N16420 X0.9484 Y2.3379
N16425 X0.9439 Y2.3358
N16430 X0.9416 Y2.3347
N16435 X0.9349 Y2.3315 Z-0.0577
N16440 X0.9326 Y2.3303
N16445 X0.926 Y2.3269
N16450 X0.9238 Y2.3257
N16455 X0.9194 Y2.3233
N16460 X0.9172 Y2.3221
N16465 X0.9107 Y2.3183
N16470 X0.9086 Y2.317
N16475 X0.9022 Y2.3131
N16480 X0.9001 Y2.3117
N16485 X0.8959 Y2.309
N16490 X0.8939 Y2.3076
N16495 X0.8877 Y2.3034
N16500 X0.8856 Y2.302
N16505 X0.8796 Y2.2976 Z-0.0578
N16510 X0.8776 Y2.2961
N16515 X0.8736 Y2.293
N16520 X0.8716 Y2.2915
N16525 X0.8683 Y2.2888
N16530 X0.8682 Y2.2886
N16535 Y2.2852
N16540 Y2.2827
N16545 Y2.2815
N16550 X0.8681 Y2.2802
N16555 X0.8679 Y2.279
N16560 X0.8676 Y2.2778
N16565 X0.8672 Y2.2766
N16570 X0.8668 Y2.2755
N16575 X0.8662 Y2.2744
N16580 X0.8655 Y2.2733
N16585 X0.8648 Y2.2723
N16590 X0.864 Y2.2714
N16595 X0.8622 Y2.2696
N16600 X0.8287 Y2.2361 Z-0.0579
N16605 X0.8279 Y2.2353
N16610 X0.8269 Y2.2345
N16615 X0.8259 Y2.2337
N16620 X0.8248 Y2.2331
N16625 X0.8237 Y2.2325
N16630 X0.8226 Y2.2321
N16635 X0.8214 Y2.2317
N16640 X0.8202 Y2.2314
N16645 X0.8189 Y2.2312
N16650 X0.8177 Y2.2311
N16655 X0.8127
N16660 X0.8106
N16665 X0.8105 Y2.231
N16670 X0.8086 Y2.2285
N16675 X0.807 Y2.2265
N16680 X0.8025 Y2.2206
N16685 X0.801 Y2.2186
N16690 X0.7981 Y2.2145
N16695 X0.7966 Y2.2125 Z-0.058
N16700 X0.7924 Y2.2063
N16705 X0.791 Y2.2042
N16710 X0.7869 Y2.198
N16715 X0.7856 Y2.1958
N16720 X0.783 Y2.1916
N16725 X0.7817 Y2.1895
N16730 X0.7779 Y2.183
N16735 X0.7767 Y2.1808
N16740 X0.7731 Y2.1742
N16745 X0.772 Y2.172
N16750 X0.7697 Y2.1676
N16755 X0.7685 Y2.1654
N16760 X0.7652 Y2.1586
N16765 X0.7642 Y2.1564 Z-0.0581
N16770 X0.7611 Y2.1496
N16775 X0.7601 Y2.1473
N16780 X0.7581 Y2.1427
N16785 X0.7572 Y2.1404
N16790 X0.7544 Y2.1334
N16795 X0.7535 Y2.1311
N16800 X0.7509 Y2.1241
N16805 X0.7485 Y2.117
N16810 X0.7477 Y2.1146
N16815 X0.7454 Y2.1075
N16820 X0.7447 Y2.1051
N16825 X0.7433 Y2.1003
N16830 X0.7426 Y2.0979 Z-0.0582
N16835 X0.7407 Y2.0907
N16840 X0.7401 Y2.0883
N16845 X0.7384 Y2.081
N16850 X0.7379 Y2.0785
N16855 X0.7368 Y2.0736
N16860 X0.7363 Y2.0712
N16865 X0.7349 Y2.0638
N16870 X0.7345 Y2.0614
N16875 X0.7333 Y2.054
N16880 X0.733 Y2.0515
N16885 X0.7323 Y2.0466
N16890 X0.732 Y2.0441
N16895 X0.7312 Y2.0367
N16900 X0.7309 Y2.0342 Z-0.0583
N16905 X0.7303 Y2.0267
N16910 X0.7301 Y2.0242
N16915 X0.7298 Y2.0192
N16920 X0.7297 Y2.0167
N16925 X0.7294 Y2.0093
N16930 Y2.0068
N16935 X0.7293 Y2.0018
N16940 Y1.9993
N16945 X0.7292 Y1.9968
N16950 X0.7294 Y1.8075 Z-0.0586
N16955 X0.7296 Y1.4987 Z-0.0591
N16960 X0.7297 Y1.2945 Z-0.0594
N16965 Y1.2845
N16970 X0.7299 Y1.0056 Z-0.0599
N16975 X0.73 Y1.0006
N16980 Y0.9957
N16985 X0.7301 Y0.9907
N16990 X0.7303 Y0.9857
N16995 X0.7305 Y0.9807
N17000 X0.7309 Y0.9757
N17005 X0.7312 Y0.9708
N17010 X0.7317 Y0.9658
N17015 X0.7322 Y0.9609
N17020 X0.7327 Y0.9559
N17025 X0.7334 Y0.951 Z-0.06
N17030 X0.7341 Y0.946
N17035 X0.7349 Y0.9411
N17040 X0.7357 Y0.9362
N17045 X0.7366 Y0.9313
N17050 X0.7376 Y0.9264
N17055 X0.7386 Y0.9216
N17060 X0.7387 Y0.9214
N17065 X0.7392 Y0.9189
N17070 X0.741 Y0.9115
N17075 X0.7416 Y0.9091
N17080 X0.7429 Y0.9042
N17085 X0.7436 Y0.9017
N17090 X0.7457 Y0.8945
N17095 X0.7464 Y0.8921
N17100 X0.7487 Y0.8849 Z-0.0601
N17105 X0.7495 Y0.8825
N17110 X0.7512 Y0.8778
N17115 X0.752 Y0.8754
N17120 X0.7547 Y0.8682
N17125 X0.7556 Y0.8659
N17130 X0.7575 Y0.8612
N17135 X0.7584 Y0.8589
N17140 X0.7614 Y0.8519
N17145 X0.7624 Y0.8496
N17150 X0.7656 Y0.8428
N17155 X0.7667 Y0.8405
N17160 X0.7689 Y0.836
N17165 X0.77 Y0.8337
N17170 X0.7735 Y0.827 Z-0.0602
N17175 X0.7747 Y0.8248
N17180 X0.7772 Y0.8203
N17185 X0.7784 Y0.8181
N17190 X0.7822 Y0.8116
N17195 X0.7835 Y0.8094
N17200 X0.7875 Y0.803
N17205 X0.7889 Y0.8009
N17210 X0.7916 Y0.7967
N17215 X0.793 Y0.7946
N17220 X0.7973 Y0.7884
N17225 X0.7987 Y0.7863
N17230 X0.8017 Y0.7822
N17235 X0.8032 Y0.7801
N17240 X0.8078 Y0.7741 Z-0.0603
N17245 X0.8094 Y0.7721
N17250 X0.8119 Y0.769
N17255 X0.812 Y0.7689
N17260 X0.8133
N17265 X0.8166
N17270 X0.8183 Y0.7688
N17275 X0.8191
N17280 X0.82 Y0.7686
N17285 X0.8212 Y0.7684
N17290 X0.8224 Y0.768
N17295 X0.8235 Y0.7676
N17300 X0.8246 Y0.767
N17305 X0.8257 Y0.7664
N17310 X0.8267 Y0.7657
N17315 X0.8277 Y0.7649
N17320 X0.8286 Y0.764
N17325 X0.8603 Y0.7323 Z-0.0604
N17330 X0.8638 Y0.7288
N17335 X0.8646 Y0.7279
N17340 X0.8654 Y0.7269
N17345 X0.8661 Y0.7258
N17350 X0.8667 Y0.7247
N17355 X0.8672 Y0.7236
N17360 X0.8676 Y0.7224
N17365 X0.8679 Y0.7212
N17370 X0.8681 Y0.72
N17375 X0.8682 Y0.7191
N17380 Y0.7182
N17385 Y0.7165
N17390 Y0.7128
N17395 X0.8683 Y0.7126
N17400 X0.872 Y0.7097
N17405 X0.874 Y0.7081
N17410 X0.8781 Y0.705
N17415 X0.8801 Y0.7035
N17420 X0.8862 Y0.6991
N17425 X0.8883 Y0.6976
N17430 X0.8945 Y0.6934 Z-0.0605
N17435 X0.8966 Y0.692
N17440 X0.9008 Y0.6893
N17445 X0.903 Y0.6879
N17450 X0.9094 Y0.6839
N17455 X0.9116 Y0.6826
N17460 X0.916 Y0.6801
N17465 X0.9181 Y0.6788
N17470 X0.9247 Y0.6752
N17475 X0.9269 Y0.674
N17480 X0.9337 Y0.6705
N17485 X0.936 Y0.6694
N17490 X0.9405 Y0.6672
N17495 X0.9427 Y0.6661
N17500 X0.9496 Y0.663 Z-0.0606
N17505 X0.9519 Y0.662
N17510 X0.9566 Y0.66
N17515 X0.9589 Y0.659
N17520 X0.9659 Y0.6562
N17525 X0.9682 Y0.6553
N17530 X0.9754 Y0.6527
N17535 X0.9778 Y0.6518
N17540 X0.9825 Y0.6502
N17545 X0.9849 Y0.6494
N17550 X0.9921 Y0.6471
N17555 X0.9945 Y0.6464
N17560 X0.9994 Y0.645
N17565 X1.0018 Y0.6443
N17570 X1.0091 Y0.6424 Z-0.0607
N17575 X1.0116 Y0.6418
N17580 X1.0189 Y0.64
N17585 X1.0214 Y0.6395
N17590 X1.0263 Y0.6385
N17595 X1.0288 Y0.6379
N17600 X1.0362 Y0.6366
N17605 X1.0387 Y0.6362
N17610 X1.0437 Y0.6353
N17615 X1.0462 Y0.635
N17620 X1.0536 Y0.6339
N17625 X1.0561 Y0.6336
N17630 X1.0637 Y0.6328
N17635 X1.0662 Y0.6326
N17640 X1.0712 Y0.6322 Z-0.0608
N17645 X1.0737 Y0.6319
N17650 X1.0813 Y0.6315
N17655 X1.0838 Y0.6314
N17660 X1.0913 Y0.6311
N17665 X1.0938
N17670 X1.0989 Y0.631
N17675 X1.1014
N17680 X1.4849 Y0.6313 Z-0.0614
N17685 X1.5048
N17690 X1.5994 Y0.6314 Z-0.0616
N17695 X1.7986 Y0.6315 Z-0.0619
N17700 X2.0975 Y0.6317 Z-0.0624
N17705 X2.1
N17710 X2.105 Y0.6318
N17715 X2.1075
N17720 X2.1151 Y0.6321
N17725 X2.1176 Y0.6322
N17730 X2.1251 Y0.6327
N17735 X2.1276 Y0.6329
N17740 X2.1326 Y0.6333
N17745 X2.1351 Y0.6336
N17750 X2.1426 Y0.6344
N17755 X2.1451 Y0.6347
N17760 X2.1526 Y0.6357 Z-0.0625
N17765 X2.16 Y0.6369
N17770 X2.1625 Y0.6374
N17775 X2.1699 Y0.6388
N17780 X2.1724 Y0.6393
N17785 X2.1773 Y0.6403
N17790 X2.1798 Y0.6409
N17795 X2.1871 Y0.6426
N17800 X2.1895 Y0.6432
N17805 X2.1968 Y0.6451
N17810 X2.1992 Y0.6458
N17815 X2.2041 Y0.6473
N17820 X2.2065 Y0.648
N17825 X2.2137 Y0.6503 Z-0.0626
N17830 X2.2161 Y0.6511
N17835 X2.2208 Y0.6527
N17840 X2.2232 Y0.6535
N17845 X2.2303 Y0.6562
N17850 X2.2326 Y0.6571
N17855 X2.2396 Y0.6599
N17860 X2.2465 Y0.6629
N17865 X2.2489 Y0.6639
N17870 X2.2557 Y0.667
N17875 X2.258 Y0.6681
N17880 X2.2624 Y0.6703
N17885 X2.2647 Y0.6714
N17890 X2.2714 Y0.6749 Z-0.0627
N17895 X2.2736 Y0.6761
N17900 X2.2802 Y0.6797
N17905 X2.2824 Y0.681
N17910 X2.2868 Y0.6836
N17915 X2.2889 Y0.6848
N17920 X2.2953 Y0.6888
N17925 X2.2975 Y0.6902
N17930 X2.3016 Y0.6929
N17935 X2.3038 Y0.6943
N17940 X2.3099 Y0.6985
N17945 X2.312 Y0.7
N17950 X2.3181 Y0.7044
N17955 X2.3201 Y0.7059 Z-0.0628
N17960 X2.3241 Y0.709
N17965 X2.3261 Y0.7106
N17970 X2.3305 Y0.714
N17975 Y0.7142
N17980 Y0.7169
N17985 Y0.7185
N17990 X2.3306 Y0.7193
N17995 Y0.7201
N18000 X2.3309 Y0.7213
N18005 X2.3312 Y0.7225
N18010 X2.3316 Y0.7237
N18015 X2.3321 Y0.7248
N18020 X2.3327 Y0.7259
N18025 X2.3334 Y0.727
N18030 X2.3342 Y0.728
N18035 X2.335 Y0.7289
N18040 X2.3456 Y0.7394
N18045 X2.3702 Y0.7641 Z-0.0629
N18050 X2.3711 Y0.765
N18055 X2.3721 Y0.7657
N18060 X2.3731 Y0.7665
N18065 X2.3742 Y0.7671
N18070 X2.3753 Y0.7676
N18075 X2.3765 Y0.7681
N18080 X2.3777 Y0.7684
N18085 X2.3789 Y0.7687
N18090 X2.3797 Y0.7688
N18095 X2.3805
N18100 X2.3821 Y0.7689
N18105 X2.3851
N18110 X2.3853
N18115 X2.3854 Y0.7691
N18120 X2.3885 Y0.773
N18125 X2.3901 Y0.775
N18130 X2.3946 Y0.7809
N18135 X2.3961 Y0.783
N18140 X2.3991 Y0.7871
N18145 X2.4005 Y0.7892
N18150 X2.4048 Y0.7954 Z-0.063
N18155 X2.4062 Y0.7975
N18160 X2.4089 Y0.8017
N18165 X2.4103 Y0.8038
N18170 X2.4142 Y0.8102
N18175 X2.4155 Y0.8124
N18180 X2.4193 Y0.8188
N18185 X2.4205 Y0.8211
N18190 X2.4229 Y0.8255
N18195 X2.4241 Y0.8277
N18200 X2.4276 Y0.8344
N18205 X2.4287 Y0.8367
N18210 X2.4309 Y0.8411
N18215 X2.432 Y0.8434
N18220 X2.4351 Y0.8503 Z-0.0631
N18225 X2.4362 Y0.8526
N18230 X2.4391 Y0.8595
N18235 X2.4401 Y0.8618
N18240 X2.4419 Y0.8665
N18245 X2.4428 Y0.8688
N18250 X2.4455 Y0.8759
N18255 X2.4463 Y0.8783
N18260 X2.4479 Y0.883
N18265 X2.4487 Y0.8854
N18270 X2.451 Y0.8926
N18275 X2.4517 Y0.895
N18280 X2.4538 Y0.9022
N18285 X2.4545 Y0.9047
N18290 X2.4558 Y0.9095 Z-0.0632
N18295 X2.4564 Y0.912
N18300 X2.4581 Y0.9193
N18305 X2.4587 Y0.9218
N18310 X2.4597 Y0.9267
N18315 X2.4602 Y0.9291
N18320 X2.4616 Y0.9365
N18325 X2.462 Y0.939
N18330 X2.4632 Y0.9465
N18335 X2.4636 Y0.949
N18340 X2.4642 Y0.9539
N18345 X2.4645 Y0.9564
N18350 X2.4654 Y0.9639
N18355 X2.4656 Y0.9664
N18360 X2.466 Y0.9714 Z-0.0633
N18365 X2.4662 Y0.9739
N18370 X2.4667 Y0.9814
N18375 X2.4668 Y0.9839
N18380 X2.4671 Y0.9915
N18385 X2.4672 Y0.994
N18390 Y0.999
N18395 Y1.0015
N18400 Y1.0513 Z-0.0634
N18405 X2.4668 Y1.4996 Z-0.0641
N18410 Y1.5344
N18415 X2.4665 Y1.9179 Z-0.0647
N18420 Y1.9976 Z-0.0649
N18425 Y2.0001
N18430 X2.4664 Y2.0026
N18435 Y2.0076
N18440 X2.4663 Y2.0101
N18445 X2.4661 Y2.0151
N18450 X2.466 Y2.0176
N18455 X2.4655 Y2.0251
N18460 X2.4653 Y2.0277
N18465 X2.4649 Y2.0326
N18470 X2.4647 Y2.0351
N18475 X2.4638 Y2.0426
N18480 X2.4635 Y2.0451
N18485 X2.4625 Y2.0525 Z-0.065
N18490 X2.4621 Y2.055
N18495 X2.4613 Y2.06
N18500 X2.4609 Y2.0625
N18505 X2.4595 Y2.0698
N18510 X2.459 Y2.0723
N18515 X2.458 Y2.0772
N18520 X2.4575 Y2.0796
N18525 X2.4557 Y2.087
N18530 X2.4551 Y2.0894
N18535 X2.4532 Y2.0966
N18540 X2.4525 Y2.0991
N18545 X2.4511 Y2.1039
N18550 X2.4504 Y2.1063
N18555 X2.4481 Y2.1135 Z-0.0651
N18560 X2.4473 Y2.1158
N18565 X2.4449 Y2.1229
N18570 X2.444 Y2.1253
N18575 X2.4423 Y2.13
N18580 X2.4414 Y2.1323
N18585 X2.4386 Y2.1393
N18590 X2.4376 Y2.1416
N18595 X2.4356 Y2.1462
N18600 X2.4346 Y2.1485
N18605 X2.4315 Y2.1554
N18610 X2.4304 Y2.1576
N18615 X2.4271 Y2.1644
N18620 X2.4259 Y2.1666
N18625 X2.4236 Y2.171 Z-0.0652
N18630 X2.4224 Y2.1733
N18635 X2.4188 Y2.1798
N18640 X2.4176 Y2.182
N18645 X2.415 Y2.1863
N18650 X2.4138 Y2.1885
N18655 X2.4098 Y2.1949
N18660 X2.4085 Y2.197
N18665 X2.4044 Y2.2033
N18670 X2.4029 Y2.2054
N18675 X2.4001 Y2.2095
N18680 X2.3987 Y2.2116
N18685 X2.3943 Y2.2176
N18690 X2.3928 Y2.2196
N18695 X2.3897 Y2.2237 Z-0.0653
N18700 X2.3882 Y2.2257
N18705 X2.3835 Y2.2315
N18710 X2.3819 Y2.2334
N18715 X2.3771 Y2.2392
N18720 X2.3754 Y2.2411
N18725 X2.3721 Y2.2448
N18730 X2.3704 Y2.2467
N18735 X2.3653 Y2.2522
N18740 X2.3635 Y2.254
N18745 X2.36 Y2.2576
N18750 X2.3583 Y2.2593
N18755 X2.3529 Y2.2646
N18760 X2.3511 Y2.2663
N18765 X2.3456 Y2.2714 Z-0.0654
N18770 X2.3437 Y2.2731
N18775 X2.34 Y2.2764
N18780 X2.3381 Y2.2781
N18785 X2.3323 Y2.2829
N18790 X2.3304 Y2.2845
N18795 X2.3264 Y2.2876
N18800 X2.3245 Y2.2892
N18805 X2.3185 Y2.2937
N18810 X2.3165 Y2.2952
N18815 X2.3104 Y2.2996
N18820 X2.3083 Y2.301
N18825 X2.3042 Y2.3038
N18830 X2.3021 Y2.3052
N18835 X2.2958 Y2.3093 Z-0.0655
N18840 X2.2937 Y2.3107
N18845 X2.2894 Y2.3133
N18850 X2.2873 Y2.3146
N18855 X2.2808 Y2.3184
N18860 X2.2786 Y2.3196
N18865 X2.272 Y2.3232
N18870 X2.2698 Y2.3244
N18875 X2.2654 Y2.3267
N18880 X2.2631 Y2.3278
N18885 X2.2564 Y2.3311
N18890 X2.2541 Y2.3322
N18895 X2.2495 Y2.3343
N18900 X2.2473 Y2.3353
N18905 X2.2403 Y2.3383 Z-0.0656
N18910 X2.238 Y2.3392
N18915 X2.231 Y2.342
N18920 X2.2287 Y2.3429
N18925 X2.224 Y2.3446
N18930 X2.2216 Y2.3455
N18935 X2.2146 Y2.3479
N18940 X2.2122 Y2.3487
N18945 X2.2074 Y2.3502
N18950 X2.205 Y2.3509
N18955 X2.1978 Y2.353
N18960 X2.1954 Y2.3537
N18965 X2.1881 Y2.3556
N18970 X2.1857 Y2.3562
N18975 X2.1808 Y2.3574 Z-0.0657
N18980 X2.1784 Y2.3579
N18985 X2.171 Y2.3595
N18990 X2.1685 Y2.3599
N18995 X2.1636 Y2.3609
N19000 X2.1611 Y2.3613
N19005 X2.1537 Y2.3625
N19010 X2.1512 Y2.3629
N19015 X2.1438 Y2.3639
N19020 X2.1413 Y2.3642
N19025 X2.1363 Y2.3647
N19030 X2.1339 Y2.365
N19035 X2.1264 Y2.3656
N19040 X2.1239 Y2.3658
N19045 X2.1189 Y2.3661 Z-0.0658
N19050 X2.1164 Y2.3662
N19055 X2.1089 Y2.3665
N19060 X2.1063 Y2.3666
N19065 X2.1014
N19070 X2.0989 Y2.3667
N19075 X2.0964
N19080 X1.9171 Y2.3665 Z-0.0661
N19085 X1.5983 Y2.3663 Z-0.0666
N19090 X1.3344 Y2.3661 Z-0.067
N19095 X1.1028 Y2.3659 Z-0.0674
N19100 X1.1003
N19105 X1.0953
N19110 X1.0928 Y2.3658
N19115 X1.0903
N19120 X1.0828 Y2.3655
N19125 X1.0803 Y2.3653
N19130 X1.0753 Y2.365
N19135 X1.0728 Y2.3649
N19140 X1.0654 Y2.3642
N19145 X1.0629 Y2.364
N19150 X1.0554 Y2.3631
N19155 X1.048 Y2.3621
N19160 X1.0455 Y2.3617
N19165 X1.0381 Y2.3605 Z-0.0675
N19170 X1.0357 Y2.3601
N19175 X1.0308 Y2.3592
N19180 X1.0283 Y2.3587
N19185 X1.021 Y2.3572
N19190 X1.0185 Y2.3566
N19195 X1.0137 Y2.3554
N19200 X1.0112 Y2.3549
N19205 X1.004 Y2.3529
N19210 X1.0016 Y2.3523
N19215 X0.9944 Y2.3502
N19220 X0.992 Y2.3494
N19225 X0.9873 Y2.3479
N19230 X0.9849 Y2.3472
N19235 X0.9778 Y2.3447 Z-0.0676
N19240 X0.9754 Y2.3439
N19245 X0.9684 Y2.3413
N19250 X0.9661 Y2.3403
N19255 X0.9615 Y2.3385
N19260 X0.9591 Y2.3375
N19265 X0.9523 Y2.3346
N19270 X0.95 Y2.3335
N19275 X0.9454 Y2.3315
N19280 X0.9432 Y2.3304
N19285 X0.9364 Y2.3271
N19290 X0.9342 Y2.326
N19295 X0.9276 Y2.3225
N19300 X0.9254 Y2.3213
N19305 X0.921 Y2.3189 Z-0.0677
N19310 X0.9188 Y2.3177
N19315 X0.9123 Y2.3139
N19320 X0.9102 Y2.3126
N19325 X0.906 Y2.31
N19330 X0.9038 Y2.3087
N19335 X0.8976 Y2.3046
N19340 X0.8955 Y2.3032
N19345 X0.8893 Y2.2989
N19350 X0.8873 Y2.2975
N19355 X0.8832 Y2.2945
N19360 X0.8812 Y2.2931
N19365 X0.8753 Y2.2885
N19370 X0.8733 Y2.287
N19375 X0.8683 Y2.2829 Z-0.0678
N19380 X0.8682 Y2.2828
N19385 Y2.2822
N19390 Y2.2815
N19395 X0.8681 Y2.2802
N19400 X0.8679 Y2.2789
N19405 X0.8676 Y2.2777
N19410 X0.8672 Y2.2765
N19415 X0.8667 Y2.2754
N19420 X0.8661 Y2.2743
N19425 X0.8655 Y2.2732
N19430 X0.8647 Y2.2722
N19435 X0.8639 Y2.2713
N19440 X0.863 Y2.2704
N19445 X0.8313 Y2.2387
N19450 X0.8278 Y2.2352 Z-0.0679
N19455 X0.8269 Y2.2344
N19460 X0.8258 Y2.2337
N19465 X0.8248 Y2.233
N19470 X0.8237 Y2.2325
N19475 X0.8225 Y2.232
N19480 X0.8213 Y2.2317
N19485 X0.8201 Y2.2314
N19490 X0.8189 Y2.2312
N19495 X0.8175 Y2.2311
N19500 X0.8168
N19505 X0.8166
N19510 X0.8165 Y2.231
N19515 X0.8146 Y2.2287
N19520 X0.8115 Y2.2248
N19525 X0.8099 Y2.2228
N19530 X0.8069 Y2.2188
N19535 X0.8054 Y2.2168
N19540 X0.801 Y2.2107
N19545 X0.7996 Y2.2087
N19550 X0.7968 Y2.2046
N19555 X0.7954 Y2.2025
N19560 X0.7913 Y2.1962
N19565 X0.79 Y2.1941
N19570 X0.786 Y2.1877 Z-0.068
N19575 X0.7848 Y2.1856
N19580 X0.7823 Y2.1813
N19585 X0.781 Y2.1791
N19590 X0.7774 Y2.1725
N19595 X0.7763 Y2.1703
N19600 X0.774 Y2.1659
N19605 X0.7728 Y2.1637
N19610 X0.7695 Y2.1569
N19615 X0.7685 Y2.1547
N19620 X0.7654 Y2.1479
N19625 X0.7644 Y2.1456
N19630 X0.7624 Y2.141
N19635 X0.7614 Y2.1387
N19640 X0.7587 Y2.1317 Z-0.0681
N19645 X0.7578 Y2.1294
N19650 X0.756 Y2.1247
N19655 X0.7552 Y2.1224
N19660 X0.7527 Y2.1153
N19665 X0.752 Y2.1129
N19670 X0.7497 Y2.1058
N19675 X0.749 Y2.1034
N19680 X0.7476 Y2.0986
N19685 X0.7469 Y2.0962
N19690 X0.745 Y2.0889
N19695 X0.7444 Y2.0865
N19700 X0.7433 Y2.0816
N19705 X0.7427 Y2.0792
N19710 X0.7412 Y2.0719 Z-0.0682
N19715 X0.7407 Y2.0694
N19720 X0.7393 Y2.0621
N19725 X0.7389 Y2.0596
N19730 X0.7381 Y2.0547
N19735 X0.7377 Y2.0522
N19740 X0.7367 Y2.0448
N19745 X0.7364 Y2.0423
N19750 X0.7359 Y2.0374
N19755 X0.7356 Y2.0349
N19760 X0.735 Y2.0274
N19765 X0.7348 Y2.0249
N19770 X0.7343 Y2.0174
N19775 X0.7342 Y2.0149
N19780 X0.7341 Y2.01 Z-0.0683
N19785 X0.734 Y2.0075
N19790 Y2.005
N19795 X0.7339 Y2
N19800 Y1.9975
N19805 X0.7342 Y1.6339 Z-0.0688
N19810 X0.7343 Y1.4995 Z-0.0691
N19815 X0.7344 Y1.3849 Z-0.0692
N19820 X0.7347 Y1.0014 Z-0.0698
N19825 Y0.9964 Z-0.0699
N19830 X0.7348 Y0.9915
N19835 X0.735 Y0.9865
N19840 X0.7352 Y0.9815
N19845 X0.7355 Y0.9765
N19850 X0.7359 Y0.9716
N19855 X0.7363 Y0.9666
N19860 X0.7368 Y0.9616
N19865 X0.7374 Y0.9567
N19870 X0.7381 Y0.9518
N19875 X0.7387 Y0.9468
N19880 X0.7395 Y0.9419
N19885 X0.7404 Y0.937
N19890 X0.7413 Y0.9321 Z-0.07
N19895 X0.7423 Y0.9272
N19900 X0.7433 Y0.9223
N19905 X0.7444 Y0.9175
N19910 X0.7456 Y0.9127
N19915 X0.7468 Y0.9078
N19920 X0.7474 Y0.9058
N19925 X0.748 Y0.9033
N19930 X0.7502 Y0.896
N19935 X0.7509 Y0.8936
N19940 X0.7532 Y0.8864
N19945 X0.754 Y0.884
N19950 X0.7557 Y0.8792
N19955 X0.7565 Y0.8768
N19960 X0.7591 Y0.8698 Z-0.0701
N19965 X0.7601 Y0.8674
N19970 X0.7619 Y0.8627
N19975 X0.7629 Y0.8604
N19980 X0.7659 Y0.8535
N19985 X0.7669 Y0.8512
N19990 X0.769 Y0.8466
N19995 X0.7701 Y0.8443
N20000 X0.7734 Y0.8375
N20005 X0.7746 Y0.8352
N20010 X0.7769 Y0.8308
N20015 X0.7781 Y0.8285
N20020 X0.7817 Y0.8219
N20025 X0.783 Y0.8197
N20030 X0.7868 Y0.8131 Z-0.0702
N20035 X0.7881 Y0.811
N20040 X0.7908 Y0.8067
N20045 X0.7921 Y0.8045
N20050 X0.7963 Y0.7982
N20055 X0.7977 Y0.7961
N20060 X0.8005 Y0.792
N20065 X0.802 Y0.7899
N20070 X0.8064 Y0.7838
N20075 X0.8079 Y0.7818
N20080 X0.811 Y0.7777
N20085 X0.8125 Y0.7757
N20090 X0.8178 Y0.7691
N20095 X0.8179 Y0.769
N20100 X0.8181 Y0.7689
N20105 X0.8183 Y0.7688
N20110 X0.8185
N20115 X0.8192
N20120 X0.8199 Y0.7687
N20125 X0.8206 Y0.7685 Z-0.0703
N20130 X0.8213 Y0.7684
N20135 X0.822 Y0.7682
N20140 X0.8226 Y0.7679
N20145 X0.8233 Y0.7677
N20150 X0.824 Y0.7674
N20155 X0.8246 Y0.767
N20160 X0.8253 Y0.7667
N20165 X0.8263 Y0.766
N20170 X0.8273 Y0.7652
N20175 X0.8283 Y0.7644
N20180 X0.8292 Y0.7635
N20185 X0.8635 Y0.7291
N20190 X0.8643 Y0.7282
N20195 X0.8652 Y0.7272
N20200 X0.8659 Y0.7261 Z-0.0704
N20205 X0.8666 Y0.725
N20210 X0.8671 Y0.7238
N20215 X0.8674 Y0.7231
N20220 X0.8676 Y0.7224
N20225 X0.8678 Y0.7216
N20230 X0.868 Y0.7209
N20235 X0.8681 Y0.7202
N20240 X0.8682 Y0.7194
N20245 Y0.719
N20250 Y0.7189
N20255 Y0.7188
N20260 X0.8684 Y0.7186
N20265 X0.869 Y0.7181
N20270 X0.8749 Y0.7134
N20275 X0.8769 Y0.7119
N20280 X0.8809 Y0.7089
N20285 X0.8829 Y0.7073
N20290 X0.8891 Y0.7029
N20295 X0.8911 Y0.7014
N20300 X0.8953 Y0.6986
N20305 X0.8974 Y0.6971
N20310 X0.9037 Y0.693
N20315 X0.9059 Y0.6917
N20320 X0.9123 Y0.6877
N20325 X0.9145 Y0.6864 Z-0.0705
N20330 X0.9188 Y0.6839
N20335 X0.921 Y0.6827
N20340 X0.9276 Y0.679
N20345 X0.9299 Y0.6778
N20350 X0.9344 Y0.6755
N20355 X0.9366 Y0.6744
N20360 X0.9434 Y0.6711
N20365 X0.9458 Y0.67
N20370 X0.9503 Y0.6679
N20375 X0.9526 Y0.6669
N20380 X0.9595 Y0.6639
N20385 X0.9619 Y0.6629
N20390 X0.9666 Y0.661
N20395 X0.969 Y0.6601
N20400 X0.976 Y0.6575 Z-0.0706
N20405 X0.9784 Y0.6566
N20410 X0.9856 Y0.6542
N20415 X0.988 Y0.6534
N20420 X0.9927 Y0.6519
N20425 X0.9952 Y0.6512
N20430 X1.0025 Y0.6491
N20435 X1.0049 Y0.6484
N20440 X1.0098 Y0.6471
N20445 X1.0122 Y0.6465
N20450 X1.0196 Y0.6447
N20455 X1.0221 Y0.6442
N20460 X1.027 Y0.6432
N20465 X1.0294 Y0.6427
N20470 X1.0368 Y0.6413 Z-0.0707
N20475 X1.0394 Y0.6409
N20480 X1.0444 Y0.6401
N20485 X1.0469 Y0.6397
N20490 X1.0544 Y0.6386
N20495 X1.0569 Y0.6383
N20500 X1.0644 Y0.6375
N20505 X1.0669 Y0.6373
N20510 X1.0719 Y0.6369
N20515 X1.0744 Y0.6367
N20520 X1.082 Y0.6362
N20525 X1.0845 Y0.6361
N20530 X1.0895 Y0.6359
N20535 X1.092
N20540 X1.0996 Y0.6358 Z-0.0708
N20545 X1.1021
N20550 X1.5202 Y0.6361 Z-0.0714
N20555 X1.5998 Y0.6362 Z-0.0716
N20560 X1.7043 Z-0.0717
N20565 X2.0975 Y0.6366 Z-0.0723
N20570 X2.1
N20575 X2.1025 Z-0.0724
N20580 X2.1051 Y0.6367
N20585 X2.1076
N20590 X2.1151 Y0.637
N20595 X2.1177 Y0.6371
N20600 X2.1252 Y0.6376
N20605 X2.1277 Y0.6378
N20610 X2.1327 Y0.6382
N20615 X2.1352 Y0.6385
N20620 X2.1427 Y0.6393
N20625 X2.1452 Y0.6397
N20630 X2.1502 Y0.6403
N20635 X2.1527 Y0.6407
N20640 X2.1601 Y0.6419
N20645 X2.1626 Y0.6424
N20650 X2.1675 Y0.6433 Z-0.0725
N20655 X2.17 Y0.6438
N20660 X2.1774 Y0.6453
N20665 X2.1798 Y0.6459
N20670 X2.1848 Y0.6471
N20675 X2.1872 Y0.6477
N20680 X2.1945 Y0.6496
N20685 X2.1969 Y0.6503
N20690 X2.2017 Y0.6517
N20695 X2.2042 Y0.6524
N20700 X2.2113 Y0.6546
N20705 X2.2137 Y0.6554
N20710 X2.2209 Y0.6579
N20715 X2.2232 Y0.6588
N20720 X2.228 Y0.6605 Z-0.0726
N20725 X2.2303 Y0.6614
N20730 X2.2373 Y0.6642
N20735 X2.2396 Y0.6652
N20740 X2.2442 Y0.6672
N20745 X2.2466 Y0.6682
N20750 X2.2534 Y0.6714
N20755 X2.2557 Y0.6725
N20760 X2.2602 Y0.6747
N20765 X2.2624 Y0.6758
N20770 X2.2692 Y0.6793
N20775 X2.2714 Y0.6805
N20780 X2.2758 Y0.6829
N20785 X2.278 Y0.6841
N20790 X2.2845 Y0.6879 Z-0.0727
N20795 X2.2866 Y0.6892
N20800 X2.293 Y0.6931
N20805 X2.2952 Y0.6945
N20810 X2.2994 Y0.6973
N20815 X2.3015 Y0.6986
N20820 X2.3077 Y0.7029
N20825 X2.3098 Y0.7044
N20830 X2.3138 Y0.7073
N20835 X2.3158 Y0.7088
N20840 X2.3219 Y0.7134
N20845 X2.3238 Y0.715
N20850 X2.3278 Y0.7181
N20855 X2.3297 Y0.7197
N20860 X2.3307 Y0.7205
N20865 Y0.7207
N20870 X2.3309 Y0.7214
N20875 X2.3311 Y0.7221 Z-0.0728
N20880 X2.3313 Y0.7228
N20885 X2.3315 Y0.7234
N20890 X2.3318 Y0.7241
N20895 X2.3321 Y0.7247
N20900 X2.3327 Y0.7259
N20905 X2.3334 Y0.7269
N20910 X2.3342 Y0.728
N20915 X2.335 Y0.7289
N20920 X2.3491 Y0.743
N20925 X2.3702 Y0.7641
N20930 X2.3712 Y0.765
N20935 X2.3722 Y0.7658
N20940 X2.3732 Y0.7665
N20945 X2.3744 Y0.7672 Z-0.0729
N20950 X2.375 Y0.7675
N20955 X2.3756 Y0.7677
N20960 X2.3763 Y0.768
N20965 X2.3769 Y0.7682
N20970 X2.3776 Y0.7684
N20975 X2.3783 Y0.7686
N20980 X2.3785
N20985 X2.3787
N20990 X2.3788 Y0.7687
N20995 X2.3794 Y0.7694
N21000 X2.381 Y0.7714
N21005 X2.3841 Y0.7753
N21010 X2.3857 Y0.7773
N21015 X2.3903 Y0.7833
N21020 X2.3918 Y0.7854
N21025 X2.3947 Y0.7894
N21030 X2.3962 Y0.7915
N21035 X2.4004 Y0.7977
N21040 X2.4018 Y0.7998
N21045 X2.4059 Y0.8061
N21050 X2.4072 Y0.8082
N21055 X2.4099 Y0.8125
N21060 X2.4112 Y0.8147
N21065 X2.415 Y0.8212 Z-0.073
N21070 X2.4162 Y0.8234
N21075 X2.4186 Y0.8278
N21080 X2.4198 Y0.83
N21085 X2.4233 Y0.8367
N21090 X2.4244 Y0.839
N21095 X2.4266 Y0.8435
N21100 X2.4277 Y0.8458
N21105 X2.4308 Y0.8526
N21110 X2.4318 Y0.8549
N21115 X2.4338 Y0.8595
N21120 X2.4348 Y0.8619
N21125 X2.4376 Y0.8688
N21130 X2.4385 Y0.8712
N21135 X2.4411 Y0.8783 Z-0.0731
N21140 X2.4419 Y0.8807
N21145 X2.4436 Y0.8854
N21150 X2.4444 Y0.8878
N21155 X2.4466 Y0.895
