%
(1002)
(Bottom of workpiece)
(T5 D=0.0156 CR=0 - ZMIN=-0.03 - flat end mill)
N10 G90
N15 G28 G91 Z0
N20 G90

(Horizontal Name)
N25 M9
N30 T5 M6
N35 S1000 M3
N40 M9
N45 G0 X1.4662 Y-1.3615
N50 Z0.6
N55 Z0.0394
N60 G1 Z0.0129 F40
N65 X1.4663 Y-1.3616 Z0.0121
N70 X1.4667 Y-1.362 Z0.0116
N75 X1.4672 Y-1.3626 Z0.0113
N80 X1.4829 Y-1.3782 Z0.0106
N85 X1.4832 Y-1.3786 Z0.0105
N90 X1.4838 Y-1.3796
N95 X1.4842 Y-1.3803
N100 X1.4845 Y-1.3811 Z0.0104
N105 X1.4847 Y-1.3821
N110 X1.4848 Y-1.3831
N115 Y-1.3841 Z0.0103
N120 X1.4847 Y-1.3851
N125 X1.4844 Y-1.3861
N130 X1.4839 Y-1.3871 Z0.0102
N135 X1.4836 Y-1.3876
N140 X1.4833 Y-1.3881
N145 X1.4826 Y-1.3889
N150 X1.4604 Y-1.4111 Z0.0091
N155 X1.4603 Y-1.4113
N160 X1.4604 Y-1.4114 Z0.009
N165 X1.4605 Y-1.4116
N170 X1.4617 Y-1.4127
N175 X1.4619 Y-1.4129
N180 X1.4622 Y-1.4126
N185 X1.5206 Y-1.3542 Z0.0061
N190 X1.5208 Y-1.354
N195 X1.5206 Y-1.3537
N200 X1.5194 Y-1.3525 Z0.006
N205 X1.5192 Y-1.3524
N210 X1.519 Y-1.3525
N215 X1.4968 Y-1.3747 Z0.0049
N220 X1.4962 Y-1.3752 Z0.0048
N225 X1.4955 Y-1.3756
N230 X1.4945 Y-1.3761
N235 X1.4935 Y-1.3765 Z0.0047
N240 X1.4928 Y-1.3767
N245 X1.4922
N250 X1.4912 Y-1.3768
N255 X1.4902 Y-1.3767 Z0.0046
N260 X1.4896 Y-1.3765
N265 X1.4886 Y-1.3762
N270 X1.4876 Y-1.3757 Z0.0045
N275 X1.4869 Y-1.3753
N280 X1.486 Y-1.3745
N285 X1.4234 Y-1.3119 Z0.0014
N290 X1.4231 Y-1.3117
N295 X1.4227 Y-1.312 Z0.0013
N300 X1.4199 Y-1.3148 Z0.0012
N305 X1.4198 Y-1.315
N310 X1.42 Y-1.3153
N315 X1.4201 Y-1.3155
N320 X1.4829 Y-1.3782 Z-0.0019
N325 X1.4832 Y-1.3786
N330 X1.4838 Y-1.3796 Z-0.002
N335 X1.4842 Y-1.3803
N340 X1.4845 Y-1.3811
N345 X1.4847 Y-1.3821 Z-0.0021
N350 X1.4848 Y-1.3831
N355 Y-1.3841
N360 X1.4847 Y-1.3851 Z-0.0022
N365 X1.4844 Y-1.3861
N370 X1.4839 Y-1.3871 Z-0.0023
N375 X1.4836 Y-1.3876
N380 X1.4833 Y-1.3881
N385 X1.4826 Y-1.3889
N390 X1.4604 Y-1.4111 Z-0.0034
N395 X1.4603 Y-1.4113
N400 X1.4604 Y-1.4114
N405 X1.4605 Y-1.4116 Z-0.0035
N410 X1.4617 Y-1.4127
N415 X1.4619 Y-1.4129
N420 X1.4622 Y-1.4126
N425 X1.5206 Y-1.3542 Z-0.0064
N430 X1.5208 Y-1.354
N435 X1.5206 Y-1.3537
N440 X1.5194 Y-1.3525 Z-0.0065
N445 X1.5192 Y-1.3524
N450 X1.519 Y-1.3525
N455 X1.4968 Y-1.3747 Z-0.0076
N460 X1.4962 Y-1.3752
N465 X1.4955 Y-1.3756 Z-0.0077
N470 X1.4945 Y-1.3761
N475 X1.4935 Y-1.3765
N480 X1.4928 Y-1.3767 Z-0.0078
N485 X1.4922
N490 X1.4912 Y-1.3768
N495 X1.4902 Y-1.3767 Z-0.0079
N500 X1.4896 Y-1.3765
N505 X1.4886 Y-1.3762
N510 X1.4876 Y-1.3757 Z-0.008
N515 X1.4869 Y-1.3753
N520 X1.486 Y-1.3745
N525 X1.4234 Y-1.3119 Z-0.0111
N530 X1.4231 Y-1.3117
N535 X1.4227 Y-1.312
N540 X1.4199 Y-1.3148 Z-0.0113
N545 X1.4198 Y-1.315
N550 X1.42 Y-1.3153
N555 X1.4201 Y-1.3155
N560 X1.4829 Y-1.3782 Z-0.0144
N565 X1.4832 Y-1.3786
N570 X1.4838 Y-1.3796 Z-0.0145
N575 X1.4842 Y-1.3803
N580 X1.4845 Y-1.3811
N585 X1.4847 Y-1.3821 Z-0.0146
N590 X1.4848 Y-1.3831
N595 Y-1.3841
N600 X1.4847 Y-1.3851 Z-0.0147
N605 X1.4844 Y-1.3861
N610 X1.4839 Y-1.3871
N615 X1.4836 Y-1.3876 Z-0.0148
N620 X1.4833 Y-1.3881
N625 X1.4826 Y-1.3889
N630 X1.4604 Y-1.4111 Z-0.0159
N635 X1.4603 Y-1.4113
N640 X1.4604 Y-1.4114
N645 X1.4605 Y-1.4116
N650 X1.4617 Y-1.4127 Z-0.016
N655 X1.4619 Y-1.4129
N660 X1.4622 Y-1.4126
N665 X1.5206 Y-1.3542 Z-0.0189
N670 X1.5208 Y-1.354
N675 X1.5206 Y-1.3537
N680 X1.5194 Y-1.3525 Z-0.019
N685 X1.5192 Y-1.3524
N690 X1.519 Y-1.3525
N695 X1.4968 Y-1.3747 Z-0.0201
N700 X1.4962 Y-1.3752
N705 X1.4955 Y-1.3756 Z-0.0202
N710 X1.4945 Y-1.3761
N715 X1.4935 Y-1.3765
N720 X1.4928 Y-1.3767 Z-0.0203
N725 X1.4922
N730 X1.4912 Y-1.3768
N735 X1.4902 Y-1.3767
N740 X1.4896 Y-1.3765 Z-0.0204
N745 X1.4886 Y-1.3762
N750 X1.4876 Y-1.3757
N755 X1.4869 Y-1.3753 Z-0.0205
N760 X1.486 Y-1.3745
N765 X1.4234 Y-1.3119 Z-0.0236
N770 X1.4231 Y-1.3117
N775 X1.4227 Y-1.312
N780 X1.4199 Y-1.3148 Z-0.0238
N785 X1.4198 Y-1.315
N790 X1.42 Y-1.3153
N795 X1.4201 Y-1.3155
N800 X1.4829 Y-1.3782 Z-0.0269
N805 X1.4832 Y-1.3786
N810 X1.4838 Y-1.3796 Z-0.027
N815 X1.4842 Y-1.3803
N820 X1.4845 Y-1.3811
N825 X1.4847 Y-1.3821
N830 X1.4848 Y-1.3831 Z-0.0271
N835 Y-1.3841
N840 X1.4847 Y-1.3851 Z-0.0272
N845 X1.4844 Y-1.3861
N850 X1.4839 Y-1.3871
N855 X1.4836 Y-1.3876
N860 X1.4833 Y-1.3881 Z-0.0273
N865 X1.4826 Y-1.3889
N870 X1.4604 Y-1.4111 Z-0.0284
N875 X1.4603 Y-1.4113
N880 X1.4604 Y-1.4114
N885 X1.4605 Y-1.4116
N890 X1.4617 Y-1.4127 Z-0.0285
N895 X1.4619 Y-1.4129
N900 X1.4622 Y-1.4126
N905 X1.4925 Y-1.3824 Z-0.03
N910 X1.5206 Y-1.3542
N915 X1.5208 Y-1.354
N920 X1.5206 Y-1.3537
N925 X1.5194 Y-1.3525
N930 X1.5192 Y-1.3524
N935 X1.519 Y-1.3525
N940 X1.4968 Y-1.3747
N945 X1.4962 Y-1.3752
N950 X1.4955 Y-1.3756
N955 X1.4945 Y-1.3761
N960 X1.4935 Y-1.3765
N965 X1.4928 Y-1.3767
N970 X1.4922
N975 X1.4912 Y-1.3768
N980 X1.4902 Y-1.3767
N985 X1.4896 Y-1.3765
N990 X1.4886 Y-1.3762
N995 X1.4876 Y-1.3757
N1000 X1.4869 Y-1.3753
N1005 X1.486 Y-1.3745
N1010 X1.4234 Y-1.3119
N1015 X1.4231 Y-1.3117
N1020 X1.4227 Y-1.312
N1025 X1.4199 Y-1.3148
N1030 X1.4198 Y-1.315
N1035 X1.42 Y-1.3153
N1040 X1.4201 Y-1.3155
N1045 X1.4829 Y-1.3782
N1050 X1.4832 Y-1.3786
N1055 X1.4838 Y-1.3796
N1060 X1.4842 Y-1.3803
N1065 X1.4845 Y-1.3811
N1070 X1.4847 Y-1.3821
N1075 X1.4848 Y-1.3831
N1080 Y-1.3841
N1085 X1.4847 Y-1.3851
N1090 X1.4844 Y-1.3861
N1095 X1.4839 Y-1.3871
N1100 X1.4836 Y-1.3876
N1105 X1.4833 Y-1.3881
N1110 X1.4826 Y-1.3889
N1115 X1.4604 Y-1.4111
N1120 X1.4603 Y-1.4113
N1125 X1.4604 Y-1.4114
N1130 X1.4605 Y-1.4116
N1135 X1.4617 Y-1.4127
N1140 X1.4619 Y-1.4129
N1145 X1.4622 Y-1.4126
N1150 X1.4925 Y-1.3824
N1155 G3 X1.4928 Y-1.382 Z-0.0299 I-0.0011 J0.0011
N1160 X1.4929 Y-1.3816 Z-0.0297 I-0.0014 J0.0007
N1165 G1 X1.493 Y-1.3812 Z-0.0294
N1170 X1.4929 Y-1.381 Z-0.0289
N1175 Y-1.3809 Z-0.0284
N1180 G0 Z0.2
N1185 X1.4126 Y-1.4036
N1190 Z0.0394
N1195 G1 Z0.0129 F40
N1200 X1.4127 Y-1.4038 Z0.0121
N1205 X1.413 Y-1.4042 Z0.0116
N1210 X1.4135 Y-1.4048 Z0.0113
N1215 X1.4142 Y-1.4057
N1220 X1.4162 Y-1.4085 Z0.0112
N1225 X1.4174 Y-1.4104 Z0.0111
N1230 X1.4186 Y-1.4124 Z0.011
N1235 X1.4196 Y-1.4144 Z0.0109
N1240 X1.4206 Y-1.4163
N1245 X1.4214 Y-1.4183 Z0.0108
N1250 X1.4222 Y-1.4203 Z0.0107
N1255 X1.4228 Y-1.4223 Z0.0106
N1260 X1.4234 Y-1.4243
N1265 X1.4238 Y-1.4263 Z0.0105
N1270 X1.4241 Y-1.428 Z0.0104
N1275 X1.4244 Y-1.4307 Z0.0103
N1280 X1.4245 Y-1.4342 Z0.0102
N1285 Y-1.4362
N1290 X1.4243 Y-1.4382 Z0.0101
N1295 X1.424 Y-1.4401 Z0.01
N1300 X1.4236 Y-1.4421 Z0.0099
N1305 X1.4231 Y-1.4441
N1310 X1.4221 Y-1.4469 Z0.0098
N1315 X1.4217 Y-1.4481 Z0.0097
N1320 X1.4201 Y-1.4514 Z0.0096
N1325 X1.4198 Y-1.452
N1330 X1.4182 Y-1.4548 Z0.0095
N1335 X1.4174 Y-1.456 Z0.0094
N1340 X1.4159 Y-1.458 Z0.0093
N1345 X1.4142 Y-1.4601 Z0.0092
N1350 X1.4122 Y-1.4623 Z0.0091
N1355 X1.4102 Y-1.4643 Z0.009
N1360 X1.4082 Y-1.4661 Z0.0089
N1365 X1.4061 Y-1.4679 Z0.0088
N1370 X1.4043 Y-1.4693
N1375 X1.4023 Y-1.4706 Z0.0087
N1380 X1.4001 Y-1.4719 Z0.0086
N1385 X1.3992 Y-1.4724 Z0.0085
N1390 X1.396 Y-1.4739 Z0.0084
N1395 X1.3924 Y-1.4752 Z0.0083
N1400 X1.3898 Y-1.4758 Z0.0082
N1405 X1.3884 Y-1.4762 Z0.0081
N1410 X1.3864 Y-1.4765
N1415 X1.3844 Y-1.4767 Z0.008
N1420 X1.3825 Y-1.4768 Z0.0079
N1425 X1.3805
N1430 X1.3785 Y-1.4767 Z0.0078
N1435 X1.3765 Y-1.4765 Z0.0077
N1440 X1.3745 Y-1.4762
N1445 X1.3725 Y-1.4758 Z0.0076
N1450 X1.3706 Y-1.4753 Z0.0075
N1455 X1.3686 Y-1.4747 Z0.0074
N1460 X1.3664 Y-1.4739
N1465 X1.3646 Y-1.4731 Z0.0073
N1470 X1.362 Y-1.4719 Z0.0072
N1475 X1.3606 Y-1.4711 Z0.0071
N1480 X1.3585 Y-1.4699
N1485 X1.3567 Y-1.4688 Z0.007
N1490 X1.3547 Y-1.4674 Z0.0069
N1495 X1.3527 Y-1.4659 Z0.0068
N1500 X1.3503 Y-1.4639 Z0.0067
N1505 X1.3487 Y-1.4626 Z0.0066
N1510 X1.3459 Y-1.46 Z0.0065
N1515 X1.3448 Y-1.4589 Z0.0064
N1520 X1.3421 Y-1.456 Z0.0063
N1525 X1.3404 Y-1.454 Z0.0062
N1530 X1.3388 Y-1.452 Z0.0061
N1535 X1.3373 Y-1.4501 Z0.006
N1540 X1.336 Y-1.4481 Z0.0059
N1545 X1.3347 Y-1.4461
N1550 X1.3336 Y-1.4441 Z0.0058
N1555 X1.3326 Y-1.4421 Z0.0057
N1560 X1.3316 Y-1.4401 Z0.0056
N1565 X1.3308 Y-1.4382
N1570 X1.3301 Y-1.4362 Z0.0055
N1575 X1.3295 Y-1.4342 Z0.0054
N1580 X1.3289 Y-1.4317 Z0.0053
N1585 X1.3286 Y-1.4302
N1590 X1.3283 Y-1.4282 Z0.0052
N1595 X1.3281 Y-1.4263 Z0.0051
N1600 Y-1.4243
N1605 Y-1.4223 Z0.005
N1610 X1.3282 Y-1.4203 Z0.0049
N1615 X1.3284 Y-1.4183
N1620 X1.3289 Y-1.4156 Z0.0048
N1625 X1.3298 Y-1.4124 Z0.0046
N1630 X1.3311 Y-1.4089 Z0.0045
N1635 X1.3322 Y-1.4064 Z0.0044
N1640 X1.3329 Y-1.4052
N1645 X1.3345 Y-1.4024 Z0.0043
N1650 X1.3358 Y-1.4005 Z0.0042
N1655 X1.3374 Y-1.3985 Z0.0041
N1660 X1.339 Y-1.3965 Z0.004
N1665 X1.3409 Y-1.3945 Z0.0039
N1670 X1.3429 Y-1.3925 Z0.0038
N1675 X1.3451 Y-1.3905 Z0.0037
N1680 X1.3476 Y-1.3886 Z0.0036
N1685 X1.3487 Y-1.3877 Z0.0035
N1690 X1.3507 Y-1.3864
N1695 X1.3527 Y-1.3852 Z0.0034
N1700 X1.354 Y-1.3846 Z0.0033
N1705 X1.3567 Y-1.3833 Z0.0032
N1710 X1.3587 Y-1.3826 Z0.0031
N1715 X1.3606 Y-1.3819
N1720 X1.3626 Y-1.3814 Z0.003
N1725 X1.3646 Y-1.3809 Z0.0029
N1730 X1.3666 Y-1.3806
N1735 X1.3686 Y-1.3804 Z0.0028
N1740 X1.3706 Y-1.3803 Z0.0027
N1745 X1.374 Y-1.3804 Z0.0026
N1750 X1.3775 Y-1.3808 Z0.0025
N1755 X1.3785 Y-1.381 Z0.0024
N1760 X1.3805 Y-1.3814
N1765 X1.3825 Y-1.3819 Z0.0023
N1770 X1.3846 Y-1.3826 Z0.0022
N1775 X1.3864 Y-1.3833
N1780 X1.3884 Y-1.3841 Z0.0021
N1785 X1.3904 Y-1.3851 Z0.002
N1790 X1.3931 Y-1.3866 Z0.0019
N1795 X1.3944 Y-1.3873 Z0.0018
N1800 X1.3963 Y-1.3886
N1805 X1.3991 Y-1.3905 Z0.0016
N1810 X1.4016 Y-1.3925 Z0.0015
N1815 X1.4043 Y-1.3948 Z0.0014
N1820 X1.4063 Y-1.3967 Z0.0013
N1825 X1.4082 Y-1.3987 Z0.0012
N1830 X1.4102 Y-1.4008 Z0.0011
N1835 X1.4122 Y-1.4032 Z0.001
N1840 X1.4142 Y-1.4057 Z0.0009
N1845 X1.4162 Y-1.4085 Z0.0008
N1850 X1.4174 Y-1.4104 Z0.0007
N1855 X1.4186 Y-1.4124 Z0.0006
N1860 X1.4196 Y-1.4144 Z0.0005
N1865 X1.4206 Y-1.4163
N1870 X1.4214 Y-1.4183 Z0.0004
N1875 X1.4222 Y-1.4203 Z0.0003
N1880 X1.4228 Y-1.4223 Z0.0002
N1885 X1.4234 Y-1.4243
N1890 X1.4238 Y-1.4263 Z0.0001
N1895 X1.4241 Y-1.428 Z0
N1900 X1.4244 Y-1.4307 Z-0.0001
N1905 X1.4245 Y-1.4342 Z-0.0002
N1910 Y-1.4362 Z-0.0003
N1915 X1.4243 Y-1.4382
N1920 X1.424 Y-1.4401 Z-0.0004
N1925 X1.4236 Y-1.4421 Z-0.0005
N1930 X1.4231 Y-1.4441
N1935 X1.4221 Y-1.4469 Z-0.0006
N1940 X1.4217 Y-1.4481 Z-0.0007
N1945 X1.4201 Y-1.4514 Z-0.0008
N1950 X1.4198 Y-1.452
N1955 X1.4182 Y-1.4548 Z-0.0009
N1960 X1.4174 Y-1.456 Z-0.001
N1965 X1.4159 Y-1.458 Z-0.0011
N1970 X1.4142 Y-1.4601 Z-0.0012
N1975 X1.4122 Y-1.4623 Z-0.0013
N1980 X1.4102 Y-1.4643 Z-0.0014
N1985 X1.4082 Y-1.4661 Z-0.0015
N1990 X1.4061 Y-1.4679 Z-0.0016
N1995 X1.4043 Y-1.4693 Z-0.0017
N2000 X1.4023 Y-1.4706
N2005 X1.4001 Y-1.4719 Z-0.0018
N2010 X1.3992 Y-1.4724 Z-0.0019
N2015 X1.396 Y-1.4739 Z-0.002
N2020 X1.3924 Y-1.4752 Z-0.0021
N2025 X1.3898 Y-1.4758 Z-0.0022
N2030 X1.3884 Y-1.4762 Z-0.0023
N2035 X1.3864 Y-1.4765
N2040 X1.3844 Y-1.4767 Z-0.0024
N2045 X1.3825 Y-1.4768 Z-0.0025
N2050 X1.3805
N2055 X1.3785 Y-1.4767 Z-0.0026
N2060 X1.3765 Y-1.4765 Z-0.0027
N2065 X1.3745 Y-1.4762
N2070 X1.3725 Y-1.4758 Z-0.0028
N2075 X1.3706 Y-1.4753 Z-0.0029
N2080 X1.3686 Y-1.4747 Z-0.003
N2085 X1.3664 Y-1.4739
N2090 X1.3646 Y-1.4731 Z-0.0031
N2095 X1.362 Y-1.4719 Z-0.0032
N2100 X1.3606 Y-1.4711 Z-0.0033
N2105 X1.3585 Y-1.4699 Z-0.0034
N2110 X1.3567 Y-1.4688
N2115 X1.3547 Y-1.4674 Z-0.0035
N2120 X1.3527 Y-1.4659 Z-0.0036
N2125 X1.3503 Y-1.4639 Z-0.0037
N2130 X1.3487 Y-1.4626 Z-0.0038
N2135 X1.3459 Y-1.46 Z-0.0039
N2140 X1.3448 Y-1.4589 Z-0.004
N2145 X1.3421 Y-1.456 Z-0.0041
N2150 X1.3404 Y-1.454 Z-0.0042
N2155 X1.3388 Y-1.452 Z-0.0043
N2160 X1.3373 Y-1.4501 Z-0.0044
N2165 X1.336 Y-1.4481 Z-0.0045
N2170 X1.3347 Y-1.4461
N2175 X1.3336 Y-1.4441 Z-0.0046
N2180 X1.3326 Y-1.4421 Z-0.0047
N2185 X1.3316 Y-1.4401 Z-0.0048
N2190 X1.3308 Y-1.4382
N2195 X1.3301 Y-1.4362 Z-0.0049
N2200 X1.3295 Y-1.4342 Z-0.005
N2205 X1.3289 Y-1.4317 Z-0.0051
N2210 X1.3286 Y-1.4302
N2215 X1.3283 Y-1.4282 Z-0.0052
N2220 X1.3281 Y-1.4263 Z-0.0053
N2225 Y-1.4243
N2230 Y-1.4223 Z-0.0054
N2235 X1.3282 Y-1.4203 Z-0.0055
N2240 X1.3284 Y-1.4183 Z-0.0056
N2245 X1.3289 Y-1.4156
N2250 X1.3298 Y-1.4124 Z-0.0058
N2255 X1.3311 Y-1.4089 Z-0.0059
N2260 X1.3322 Y-1.4064 Z-0.006
N2265 X1.3329 Y-1.4052
N2270 X1.3345 Y-1.4024 Z-0.0062
N2275 X1.3358 Y-1.4005
N2280 X1.3374 Y-1.3985 Z-0.0063
N2285 X1.339 Y-1.3965 Z-0.0064
N2290 X1.3409 Y-1.3945 Z-0.0065
N2295 X1.3429 Y-1.3925 Z-0.0066
N2300 X1.3451 Y-1.3905 Z-0.0067
N2305 X1.3476 Y-1.3886 Z-0.0068
N2310 X1.3487 Y-1.3877 Z-0.0069
N2315 X1.3507 Y-1.3864 Z-0.007
N2320 X1.3527 Y-1.3852
N2325 X1.354 Y-1.3846 Z-0.0071
N2330 X1.3567 Y-1.3833 Z-0.0072
N2335 X1.3587 Y-1.3826 Z-0.0073
N2340 X1.3606 Y-1.3819
N2345 X1.3626 Y-1.3814 Z-0.0074
N2350 X1.3646 Y-1.3809 Z-0.0075
N2355 X1.3666 Y-1.3806
N2360 X1.3686 Y-1.3804 Z-0.0076
N2365 X1.3706 Y-1.3803 Z-0.0077
N2370 X1.374 Y-1.3804 Z-0.0078
N2375 X1.3775 Y-1.3808 Z-0.0079
N2380 X1.3785 Y-1.381 Z-0.008
N2385 X1.3805 Y-1.3814
N2390 X1.3825 Y-1.3819 Z-0.0081
N2395 X1.3846 Y-1.3826 Z-0.0082
N2400 X1.3864 Y-1.3833 Z-0.0083
N2405 X1.3884 Y-1.3841
N2410 X1.3904 Y-1.3851 Z-0.0084
N2415 X1.3931 Y-1.3866 Z-0.0085
N2420 X1.3944 Y-1.3873 Z-0.0086
N2425 X1.3963 Y-1.3886
N2430 X1.3991 Y-1.3905 Z-0.0088
N2435 X1.4016 Y-1.3925 Z-0.0089
N2440 X1.4043 Y-1.3948 Z-0.009
N2445 X1.4063 Y-1.3967 Z-0.0091
N2450 X1.4082 Y-1.3987 Z-0.0092
N2455 X1.4102 Y-1.4008 Z-0.0093
N2460 X1.4122 Y-1.4032 Z-0.0094
N2465 X1.4142 Y-1.4057 Z-0.0095
N2470 X1.4162 Y-1.4085 Z-0.0096
N2475 X1.4174 Y-1.4104 Z-0.0097
N2480 X1.4186 Y-1.4124 Z-0.0098
N2485 X1.4196 Y-1.4144 Z-0.0099
N2490 X1.4206 Y-1.4163 Z-0.01
N2495 X1.4214 Y-1.4183
N2500 X1.4222 Y-1.4203 Z-0.0101
N2505 X1.4228 Y-1.4223 Z-0.0102
N2510 X1.4234 Y-1.4243
N2515 X1.4238 Y-1.4263 Z-0.0103
N2520 X1.4241 Y-1.428 Z-0.0104
N2525 X1.4244 Y-1.4307 Z-0.0105
N2530 X1.4245 Y-1.4342 Z-0.0106
N2535 Y-1.4362 Z-0.0107
N2540 X1.4243 Y-1.4382
N2545 X1.424 Y-1.4401 Z-0.0108
N2550 X1.4236 Y-1.4421 Z-0.0109
N2555 X1.4231 Y-1.4441
N2560 X1.4221 Y-1.4469 Z-0.011
N2565 X1.4217 Y-1.4481 Z-0.0111
N2570 X1.4201 Y-1.4514 Z-0.0112
N2575 X1.4198 Y-1.452
N2580 X1.4182 Y-1.4548 Z-0.0114
N2585 X1.4174 Y-1.456
N2590 X1.4159 Y-1.458 Z-0.0115
N2595 X1.4142 Y-1.4601 Z-0.0116
N2600 X1.4122 Y-1.4623 Z-0.0117
N2605 X1.4102 Y-1.4643 Z-0.0118
N2610 X1.4082 Y-1.4661 Z-0.0119
N2615 X1.4061 Y-1.4679 Z-0.012
N2620 X1.4043 Y-1.4693 Z-0.0121
N2625 X1.4023 Y-1.4706
N2630 X1.4001 Y-1.4719 Z-0.0122
N2635 X1.3992 Y-1.4724 Z-0.0123
N2640 X1.396 Y-1.4739 Z-0.0124
N2645 X1.3924 Y-1.4752 Z-0.0125
N2650 X1.3898 Y-1.4758 Z-0.0126
N2655 X1.3884 Y-1.4762 Z-0.0127
N2660 X1.3864 Y-1.4765
N2665 X1.3844 Y-1.4767 Z-0.0128
N2670 X1.3825 Y-1.4768 Z-0.0129
N2675 X1.3805
N2680 X1.3785 Y-1.4767 Z-0.013
N2685 X1.3765 Y-1.4765 Z-0.0131
N2690 X1.3745 Y-1.4762 Z-0.0132
N2695 X1.3725 Y-1.4758
N2700 X1.3706 Y-1.4753 Z-0.0133
N2705 X1.3686 Y-1.4747 Z-0.0134
N2710 X1.3664 Y-1.4739 Z-0.0135
N2715 X1.3646 Y-1.4731
N2720 X1.362 Y-1.4719 Z-0.0136
N2725 X1.3606 Y-1.4711 Z-0.0137
N2730 X1.3585 Y-1.4699 Z-0.0138
N2735 X1.3567 Y-1.4688
N2740 X1.3547 Y-1.4674 Z-0.0139
N2745 X1.3527 Y-1.4659 Z-0.014
N2750 X1.3503 Y-1.4639 Z-0.0141
N2755 X1.3487 Y-1.4626 Z-0.0142
N2760 X1.3459 Y-1.46 Z-0.0143
N2765 X1.3448 Y-1.4589 Z-0.0144
N2770 X1.3421 Y-1.456 Z-0.0145
N2775 X1.3404 Y-1.454 Z-0.0146
N2780 X1.3388 Y-1.452 Z-0.0147
N2785 X1.3373 Y-1.4501 Z-0.0148
N2790 X1.336 Y-1.4481 Z-0.0149
N2795 X1.3347 Y-1.4461
N2800 X1.3336 Y-1.4441 Z-0.015
N2805 X1.3326 Y-1.4421 Z-0.0151
N2810 X1.3316 Y-1.4401 Z-0.0152
N2815 X1.3308 Y-1.4382 Z-0.0153
N2820 X1.3301 Y-1.4362
N2825 X1.3295 Y-1.4342 Z-0.0154
N2830 X1.3289 Y-1.4317 Z-0.0155
N2835 X1.3286 Y-1.4302
N2840 X1.3283 Y-1.4282 Z-0.0156
N2845 X1.3281 Y-1.4263 Z-0.0157
N2850 Y-1.4243 Z-0.0158
N2855 Y-1.4223
N2860 X1.3282 Y-1.4203 Z-0.0159
N2865 X1.3284 Y-1.4183 Z-0.016
N2870 X1.3289 Y-1.4156 Z-0.0161
N2875 X1.3298 Y-1.4124 Z-0.0162
N2880 X1.3311 Y-1.4089 Z-0.0163
N2885 X1.3322 Y-1.4064 Z-0.0164
N2890 X1.3329 Y-1.4052
N2895 X1.3345 Y-1.4024 Z-0.0166
N2900 X1.3358 Y-1.4005
N2905 X1.3374 Y-1.3985 Z-0.0167
N2910 X1.339 Y-1.3965 Z-0.0168
N2915 X1.3409 Y-1.3945 Z-0.0169
N2920 X1.3429 Y-1.3925 Z-0.017
N2925 X1.3451 Y-1.3905 Z-0.0171
N2930 X1.3476 Y-1.3886 Z-0.0172
N2935 X1.3487 Y-1.3877 Z-0.0173
N2940 X1.3507 Y-1.3864 Z-0.0174
N2945 X1.3527 Y-1.3852
N2950 X1.354 Y-1.3846 Z-0.0175
N2955 X1.3567 Y-1.3833 Z-0.0176
N2960 X1.3587 Y-1.3826 Z-0.0177
N2965 X1.3606 Y-1.3819
N2970 X1.3626 Y-1.3814 Z-0.0178
N2975 X1.3646 Y-1.3809 Z-0.0179
N2980 X1.3666 Y-1.3806 Z-0.018
N2985 X1.3686 Y-1.3804
N2990 X1.3706 Y-1.3803 Z-0.0181
N2995 X1.374 Y-1.3804 Z-0.0182
N3000 X1.3775 Y-1.3808 Z-0.0183
N3005 X1.3785 Y-1.381 Z-0.0184
N3010 X1.3805 Y-1.3814
N3015 X1.3825 Y-1.3819 Z-0.0185
N3020 X1.3846 Y-1.3826 Z-0.0186
N3025 X1.3864 Y-1.3833 Z-0.0187
N3030 X1.3884 Y-1.3841
N3035 X1.3904 Y-1.3851 Z-0.0188
N3040 X1.3931 Y-1.3866 Z-0.0189
N3045 X1.3944 Y-1.3873 Z-0.019
N3050 X1.3963 Y-1.3886 Z-0.0191
N3055 X1.3991 Y-1.3905 Z-0.0192
N3060 X1.4016 Y-1.3925 Z-0.0193
N3065 X1.4043 Y-1.3948 Z-0.0194
N3070 X1.4063 Y-1.3967 Z-0.0195
N3075 X1.4082 Y-1.3987 Z-0.0196
N3080 X1.4102 Y-1.4008 Z-0.0197
N3085 X1.4122 Y-1.4032 Z-0.0198
N3090 X1.4142 Y-1.4057 Z-0.0199
N3095 X1.4162 Y-1.4085 Z-0.02
N3100 X1.4174 Y-1.4104 Z-0.0201
N3105 X1.4186 Y-1.4124 Z-0.0202
N3110 X1.4196 Y-1.4144 Z-0.0203
N3115 X1.4206 Y-1.4163 Z-0.0204
N3120 X1.4214 Y-1.4183
N3125 X1.4222 Y-1.4203 Z-0.0205
N3130 X1.4228 Y-1.4223 Z-0.0206
N3135 X1.4234 Y-1.4243 Z-0.0207
N3140 X1.4238 Y-1.4263
N3145 X1.4241 Y-1.428 Z-0.0208
N3150 X1.4244 Y-1.4307 Z-0.0209
N3155 X1.4245 Y-1.4342 Z-0.021
N3160 Y-1.4362 Z-0.0211
N3165 X1.4243 Y-1.4382
N3170 X1.424 Y-1.4401 Z-0.0212
N3175 X1.4236 Y-1.4421 Z-0.0213
N3180 X1.4231 Y-1.4441 Z-0.0214
N3185 X1.4221 Y-1.4469 Z-0.0215
N3190 X1.4217 Y-1.4481
N3195 X1.4201 Y-1.4514 Z-0.0216
N3200 X1.4198 Y-1.452 Z-0.0217
N3205 X1.4182 Y-1.4548 Z-0.0218
N3210 X1.4174 Y-1.456
N3215 X1.4159 Y-1.458 Z-0.0219
N3220 X1.4142 Y-1.4601 Z-0.022
N3225 X1.4122 Y-1.4623 Z-0.0221
N3230 X1.4102 Y-1.4643 Z-0.0222
N3235 X1.4082 Y-1.4661 Z-0.0223
N3240 X1.4061 Y-1.4679 Z-0.0224
N3245 X1.4043 Y-1.4693 Z-0.0225
N3250 X1.4023 Y-1.4706 Z-0.0226
N3255 X1.4001 Y-1.4719
N3260 X1.3992 Y-1.4724 Z-0.0227
N3265 X1.396 Y-1.4739 Z-0.0228
N3270 X1.3924 Y-1.4752 Z-0.0229
N3275 X1.3898 Y-1.4758 Z-0.023
N3280 X1.3884 Y-1.4762 Z-0.0231
N3285 X1.3864 Y-1.4765
N3290 X1.3844 Y-1.4767 Z-0.0232
N3295 X1.3825 Y-1.4768 Z-0.0233
N3300 X1.3805 Z-0.0234
N3305 X1.3785 Y-1.4767
N3310 X1.3765 Y-1.4765 Z-0.0235
N3315 X1.3745 Y-1.4762 Z-0.0236
N3320 X1.3725 Y-1.4758
N3325 X1.3706 Y-1.4753 Z-0.0237
N3330 X1.3686 Y-1.4747 Z-0.0238
N3335 X1.3664 Y-1.4739 Z-0.0239
N3340 X1.3646 Y-1.4731
N3345 X1.362 Y-1.4719 Z-0.024
N3350 X1.3606 Y-1.4711 Z-0.0241
N3355 X1.3585 Y-1.4699 Z-0.0242
N3360 X1.3567 Y-1.4688
N3365 X1.3547 Y-1.4674 Z-0.0243
N3370 X1.3527 Y-1.4659 Z-0.0244
N3375 X1.3503 Y-1.4639 Z-0.0245
N3380 X1.3487 Y-1.4626 Z-0.0246
N3385 X1.3459 Y-1.46 Z-0.0247
N3390 X1.3448 Y-1.4589 Z-0.0248
N3395 X1.3421 Y-1.456 Z-0.0249
N3400 X1.3404 Y-1.454 Z-0.025
N3405 X1.3388 Y-1.452 Z-0.0251
N3410 X1.3373 Y-1.4501 Z-0.0252
N3415 X1.336 Y-1.4481 Z-0.0253
N3420 X1.3347 Y-1.4461 Z-0.0254
N3425 X1.3336 Y-1.4441
N3430 X1.3326 Y-1.4421 Z-0.0255
N3435 X1.3316 Y-1.4401 Z-0.0256
N3440 X1.3308 Y-1.4382 Z-0.0257
N3445 X1.3301 Y-1.4362
N3450 X1.3295 Y-1.4342 Z-0.0258
N3455 X1.3289 Y-1.4317 Z-0.0259
N3460 X1.3286 Y-1.4302 Z-0.026
N3465 X1.3283 Y-1.4282
N3470 X1.3281 Y-1.4263 Z-0.0261
N3475 Y-1.4243 Z-0.0262
N3480 Y-1.4223
N3485 X1.3282 Y-1.4203 Z-0.0263
N3490 X1.3284 Y-1.4183 Z-0.0264
N3495 X1.3289 Y-1.4156 Z-0.0265
N3500 X1.3298 Y-1.4124 Z-0.0266
N3505 X1.3311 Y-1.4089 Z-0.0267
N3510 X1.3322 Y-1.4064 Z-0.0268
N3515 X1.3329 Y-1.4052 Z-0.0269
N3520 X1.3345 Y-1.4024 Z-0.027
N3525 X1.3358 Y-1.4005 Z-0.0271
N3530 X1.3374 Y-1.3985
N3535 X1.339 Y-1.3965 Z-0.0272
N3540 X1.3409 Y-1.3945 Z-0.0273
N3545 X1.3429 Y-1.3925 Z-0.0274
N3550 X1.3451 Y-1.3905 Z-0.0275
N3555 X1.3476 Y-1.3886 Z-0.0276
N3560 X1.3487 Y-1.3877 Z-0.0277
N3565 X1.3507 Y-1.3864 Z-0.0278
N3570 X1.3527 Y-1.3852 Z-0.0279
N3575 X1.354 Y-1.3846
N3580 X1.3567 Y-1.3833 Z-0.028
N3585 X1.3587 Y-1.3826 Z-0.0281
N3590 X1.3606 Y-1.3819 Z-0.0282
N3595 X1.3626 Y-1.3814
N3600 X1.3646 Y-1.3809 Z-0.0283
N3605 X1.3666 Y-1.3806 Z-0.0284
N3610 X1.3686 Y-1.3804
N3615 X1.3706 Y-1.3803 Z-0.0285
N3620 X1.374 Y-1.3804 Z-0.0286
N3625 X1.3775 Y-1.3808 Z-0.0287
N3630 X1.3785 Y-1.381 Z-0.0288
N3635 X1.3805 Y-1.3814 Z-0.0289
N3640 X1.3825 Y-1.3819
N3645 X1.3846 Y-1.3826 Z-0.029
N3650 X1.3864 Y-1.3833 Z-0.0291
N3655 X1.3884 Y-1.3841
N3660 X1.3904 Y-1.3851 Z-0.0292
N3665 X1.3931 Y-1.3866 Z-0.0293
N3670 X1.3944 Y-1.3873 Z-0.0294
N3675 X1.3963 Y-1.3886 Z-0.0295
N3680 X1.3991 Y-1.3905 Z-0.0296
N3685 X1.4016 Y-1.3925 Z-0.0297
N3690 X1.4043 Y-1.3948 Z-0.0298
N3695 X1.4063 Y-1.3967 Z-0.0299
N3700 X1.408 Y-1.3985 Z-0.03
N3705 X1.4082 Y-1.3987
N3710 X1.4102 Y-1.4008
N3715 X1.4122 Y-1.4032
N3720 X1.4142 Y-1.4057
N3725 X1.4162 Y-1.4085
N3730 X1.4174 Y-1.4104
N3735 X1.4186 Y-1.4124
N3740 X1.4196 Y-1.4144
N3745 X1.4206 Y-1.4163
N3750 X1.4214 Y-1.4183
N3755 X1.4222 Y-1.4203
N3760 X1.4228 Y-1.4223
N3765 X1.4234 Y-1.4243
N3770 X1.4238 Y-1.4263
N3775 X1.4241 Y-1.428
N3780 X1.4244 Y-1.4307
N3785 X1.4245 Y-1.4342
N3790 Y-1.4362
N3795 X1.4243 Y-1.4382
N3800 X1.424 Y-1.4401
N3805 X1.4236 Y-1.4421
N3810 X1.4231 Y-1.4441
N3815 X1.4221 Y-1.4469
N3820 X1.4217 Y-1.4481
N3825 X1.4201 Y-1.4514
N3830 X1.4198 Y-1.452
N3835 X1.4182 Y-1.4548
N3840 X1.4174 Y-1.456
N3845 X1.4159 Y-1.458
N3850 X1.4142 Y-1.4601
N3855 X1.4122 Y-1.4623
N3860 X1.4102 Y-1.4643
N3865 X1.4082 Y-1.4661
N3870 X1.4061 Y-1.4679
N3875 X1.4043 Y-1.4693
N3880 X1.4023 Y-1.4706
N3885 X1.4001 Y-1.4719
N3890 X1.3992 Y-1.4724
N3895 X1.396 Y-1.4739
N3900 X1.3924 Y-1.4752
N3905 X1.3898 Y-1.4758
N3910 X1.3884 Y-1.4762
N3915 X1.3864 Y-1.4765
N3920 X1.3844 Y-1.4767
N3925 X1.3825 Y-1.4768
N3930 X1.3805
N3935 X1.3785 Y-1.4767
N3940 X1.3765 Y-1.4765
N3945 X1.3745 Y-1.4762
N3950 X1.3725 Y-1.4758
N3955 X1.3706 Y-1.4753
N3960 X1.3686 Y-1.4747
N3965 X1.3664 Y-1.4739
N3970 X1.3646 Y-1.4731
N3975 X1.362 Y-1.4719
N3980 X1.3606 Y-1.4711
N3985 X1.3585 Y-1.4699
N3990 X1.3567 Y-1.4688
N3995 X1.3547 Y-1.4674
N4000 X1.3527 Y-1.4659
N4005 X1.3503 Y-1.4639
N4010 X1.3487 Y-1.4626
N4015 X1.3459 Y-1.46
N4020 X1.3448 Y-1.4589
N4025 X1.3421 Y-1.456
N4030 X1.3404 Y-1.454
N4035 X1.3388 Y-1.452
N4040 X1.3373 Y-1.4501
N4045 X1.336 Y-1.4481
N4050 X1.3347 Y-1.4461
N4055 X1.3336 Y-1.4441
N4060 X1.3326 Y-1.4421
N4065 X1.3316 Y-1.4401
N4070 X1.3308 Y-1.4382
N4075 X1.3301 Y-1.4362
N4080 X1.3295 Y-1.4342
N4085 X1.3289 Y-1.4317
N4090 X1.3286 Y-1.4302
N4095 X1.3283 Y-1.4282
N4100 X1.3281 Y-1.4263
N4105 Y-1.4243
N4110 Y-1.4223
N4115 X1.3282 Y-1.4203
N4120 X1.3284 Y-1.4183
N4125 X1.3289 Y-1.4156
N4130 X1.3298 Y-1.4124
N4135 X1.3311 Y-1.4089
N4140 X1.3322 Y-1.4064
N4145 X1.3329 Y-1.4052
N4150 X1.3345 Y-1.4024
N4155 X1.3358 Y-1.4005
N4160 X1.3374 Y-1.3985
N4165 X1.339 Y-1.3965
N4170 X1.3409 Y-1.3945
N4175 X1.3429 Y-1.3925
N4180 X1.3451 Y-1.3905
N4185 X1.3476 Y-1.3886
N4190 X1.3487 Y-1.3877
N4195 X1.3507 Y-1.3864
N4200 X1.3527 Y-1.3852
N4205 X1.354 Y-1.3846
N4210 X1.3567 Y-1.3833
N4215 X1.3587 Y-1.3826
N4220 X1.3606 Y-1.3819
N4225 X1.3626 Y-1.3814
N4230 X1.3646 Y-1.3809
N4235 X1.3666 Y-1.3806
N4240 X1.3686 Y-1.3804
N4245 X1.3706 Y-1.3803
N4250 X1.374 Y-1.3804
N4255 X1.3775 Y-1.3808
N4260 X1.3785 Y-1.381
N4265 X1.3805 Y-1.3814
N4270 X1.3825 Y-1.3819
N4275 X1.3846 Y-1.3826
N4280 X1.3864 Y-1.3833
N4285 X1.3884 Y-1.3841
N4290 X1.3904 Y-1.3851
N4295 X1.3931 Y-1.3866
N4300 X1.3944 Y-1.3873
N4305 X1.3963 Y-1.3886
N4310 X1.3991 Y-1.3905
N4315 X1.4016 Y-1.3925
N4320 X1.4043 Y-1.3948
N4325 X1.4063 Y-1.3967
N4330 X1.408 Y-1.3985
N4335 G3 X1.4084 Y-1.3988 Z-0.0299 I0.0011 J0.0011
N4340 X1.4088 Y-1.3989 Z-0.0297 I0.0007 J0.0014
N4345 G1 X1.4091 Y-1.399 Z-0.0294
N4350 X1.4094 Y-1.3989 Z-0.0289
N4355 Z-0.0284
N4360 G0 Z0.2
N4365 X1.3243 Y-1.4192
N4370 Z0.0394
N4375 G1 Z0.0129 F40
N4380 Y-1.4194 Z0.0121
N4385 X1.3242 Y-1.4199 Z0.0116
N4390 X1.3241 Y-1.4207 Z0.0113
N4395 X1.3235 Y-1.4272 Z0.0111
N4400 X1.3247 Y-1.436 Z0.0108
N4405 X1.3249 Y-1.4368
N4410 X1.328 Y-1.4449 Z0.0105
N4415 X1.3334 Y-1.4539 Z0.0101
N4420 X1.3404 Y-1.462 Z0.0097
N4425 X1.3415 Y-1.4632
N4430 X1.3505 Y-1.471 Z0.0093
N4435 X1.3513 Y-1.4715 Z0.0092
N4440 X1.3599 Y-1.4768 Z0.0089
N4445 X1.3689 Y-1.4801 Z0.0085
N4450 X1.3777 Y-1.4814 Z0.0082
N4455 X1.3864 Y-1.4805 Z0.0079
N4460 X1.3952 Y-1.4776 Z0.0076
N4465 X1.404 Y-1.4724 Z0.0072
N4470 X1.4127 Y-1.4649 Z0.0068
N4475 X1.4202 Y-1.4561 Z0.0064
N4480 X1.4254 Y-1.4473 Z0.0061
N4485 X1.4283 Y-1.4385 Z0.0058
N4490 X1.4291 Y-1.4299 Z0.0054
N4495 X1.4278 Y-1.421 Z0.0051
N4500 X1.4245 Y-1.4121 Z0.0048
N4505 X1.4189 Y-1.4029 Z0.0044
N4510 X1.4108 Y-1.3936 Z0.004
N4515 X1.4018 Y-1.3858 Z0.0036
N4520 X1.4013 Y-1.3855
N4525 X1.3926 Y-1.3802 Z0.0032
N4530 X1.3836 Y-1.3769 Z0.0029
N4535 X1.3749 Y-1.3758 Z0.0026
N4540 X1.3662 Y-1.3766 Z0.0023
N4545 X1.3575 Y-1.3796 Z0.0019
N4550 X1.3487 Y-1.3848 Z0.0016
N4555 X1.3399 Y-1.3923 Z0.0012
N4560 X1.3325 Y-1.401 Z0.0008
N4565 X1.3273 Y-1.4099 Z0.0004
N4570 X1.3243 Y-1.4186 Z0.0001
N4575 X1.3235 Y-1.4272 Z-0.0002
N4580 X1.3247 Y-1.436 Z-0.0005
N4585 X1.3249 Y-1.4368
N4590 X1.328 Y-1.4449 Z-0.0008
N4595 X1.3334 Y-1.4539 Z-0.0012
N4600 X1.3404 Y-1.462 Z-0.0016
N4605 X1.3415 Y-1.4632
N4610 X1.3505 Y-1.471 Z-0.0021
N4615 X1.3513 Y-1.4715
N4620 X1.3599 Y-1.4768 Z-0.0024
N4625 X1.3689 Y-1.4801 Z-0.0028
N4630 X1.3777 Y-1.4814 Z-0.0031
N4635 X1.3864 Y-1.4805 Z-0.0034
N4640 X1.3952 Y-1.4776 Z-0.0037
N4645 X1.404 Y-1.4724 Z-0.0041
N4650 X1.4127 Y-1.4649 Z-0.0045
N4655 X1.4202 Y-1.4561 Z-0.0049
N4660 X1.4254 Y-1.4473 Z-0.0052
N4665 X1.4283 Y-1.4385 Z-0.0056
N4670 X1.4291 Y-1.4299 Z-0.0059
N4675 X1.4278 Y-1.421 Z-0.0062
N4680 X1.4245 Y-1.4121 Z-0.0065
N4685 X1.4189 Y-1.4029 Z-0.0069
N4690 X1.4108 Y-1.3936 Z-0.0073
N4695 X1.4018 Y-1.3858 Z-0.0077
N4700 X1.4013 Y-1.3855 Z-0.0078
N4705 X1.3926 Y-1.3802 Z-0.0081
N4710 X1.3836 Y-1.3769 Z-0.0084
N4715 X1.3749 Y-1.3758 Z-0.0087
N4720 X1.3662 Y-1.3766 Z-0.0091
N4725 X1.3575 Y-1.3796 Z-0.0094
N4730 X1.3487 Y-1.3848 Z-0.0097
N4735 X1.3399 Y-1.3923 Z-0.0101
N4740 X1.3325 Y-1.401 Z-0.0105
N4745 X1.3273 Y-1.4099 Z-0.0109
N4750 X1.3243 Y-1.4186 Z-0.0112
N4755 X1.3235 Y-1.4272 Z-0.0115
N4760 X1.3247 Y-1.436 Z-0.0118
N4765 X1.3249 Y-1.4368 Z-0.0119
N4770 X1.328 Y-1.4449 Z-0.0122
N4775 X1.3334 Y-1.4539 Z-0.0125
N4780 X1.3404 Y-1.462 Z-0.0129
N4785 X1.3415 Y-1.4632 Z-0.013
N4790 X1.3505 Y-1.471 Z-0.0134
N4795 X1.3513 Y-1.4715
N4800 X1.3599 Y-1.4768 Z-0.0138
N4805 X1.3689 Y-1.4801 Z-0.0141
N4810 X1.3777 Y-1.4814 Z-0.0144
N4815 X1.3864 Y-1.4805 Z-0.0147
N4820 X1.3952 Y-1.4776 Z-0.015
N4825 X1.404 Y-1.4724 Z-0.0154
N4830 X1.4127 Y-1.4649 Z-0.0158
N4835 X1.4202 Y-1.4561 Z-0.0162
N4840 X1.4254 Y-1.4473 Z-0.0165
N4845 X1.4283 Y-1.4385 Z-0.0169
N4850 X1.4291 Y-1.4299 Z-0.0172
N4855 X1.4278 Y-1.421 Z-0.0175
N4860 X1.4245 Y-1.4121 Z-0.0178
N4865 X1.4189 Y-1.4029 Z-0.0182
N4870 X1.4108 Y-1.3936 Z-0.0186
N4875 X1.4018 Y-1.3858 Z-0.019
N4880 X1.4013 Y-1.3855 Z-0.0191
N4885 X1.3926 Y-1.3802 Z-0.0194
N4890 X1.3836 Y-1.3769 Z-0.0198
N4895 X1.3749 Y-1.3758 Z-0.0201
N4900 X1.3662 Y-1.3766 Z-0.0204
N4905 X1.3575 Y-1.3796 Z-0.0207
N4910 X1.3487 Y-1.3848 Z-0.021
N4915 X1.3399 Y-1.3923 Z-0.0214
N4920 X1.3325 Y-1.401 Z-0.0218
N4925 X1.3273 Y-1.4099 Z-0.0222
N4930 X1.3243 Y-1.4186 Z-0.0225
N4935 X1.3235 Y-1.4272 Z-0.0228
N4940 X1.3247 Y-1.436 Z-0.0231
N4945 X1.3249 Y-1.4368 Z-0.0232
N4950 X1.328 Y-1.4449 Z-0.0235
N4955 X1.3334 Y-1.4539 Z-0.0238
N4960 X1.3404 Y-1.462 Z-0.0242
N4965 X1.3415 Y-1.4632 Z-0.0243
N4970 X1.3505 Y-1.471 Z-0.0247
N4975 X1.3513 Y-1.4715
N4980 X1.3599 Y-1.4768 Z-0.0251
N4985 X1.3689 Y-1.4801 Z-0.0254
N4990 X1.3777 Y-1.4814 Z-0.0257
N4995 X1.3864 Y-1.4805 Z-0.026
N5000 X1.3952 Y-1.4776 Z-0.0263
N5005 X1.404 Y-1.4724 Z-0.0267
N5010 X1.4127 Y-1.4649 Z-0.0271
N5015 X1.4202 Y-1.4561 Z-0.0275
N5020 X1.4254 Y-1.4473 Z-0.0279
N5025 X1.4283 Y-1.4385 Z-0.0282
N5030 X1.4291 Y-1.4299 Z-0.0285
N5035 X1.4278 Y-1.421 Z-0.0288
N5040 X1.4245 Y-1.4121 Z-0.0291
N5045 X1.4189 Y-1.4029 Z-0.0295
N5050 X1.4108 Y-1.3936 Z-0.0299
N5055 X1.4095 Y-1.3925 Z-0.03
N5060 X1.4018 Y-1.3858
N5065 X1.4013 Y-1.3855
N5070 X1.3926 Y-1.3802
N5075 X1.3836 Y-1.3769
N5080 X1.3749 Y-1.3758
N5085 X1.3662 Y-1.3766
N5090 X1.3575 Y-1.3796
N5095 X1.3487 Y-1.3848
N5100 X1.3399 Y-1.3923
N5105 X1.3325 Y-1.401
N5110 X1.3273 Y-1.4099
N5115 X1.3243 Y-1.4186
N5120 X1.3235 Y-1.4272
N5125 X1.3247 Y-1.436
N5130 X1.3249 Y-1.4368
N5135 X1.328 Y-1.4449
N5140 X1.3334 Y-1.4539
N5145 X1.3404 Y-1.462
N5150 X1.3415 Y-1.4632
N5155 X1.3505 Y-1.471
N5160 X1.3513 Y-1.4715
N5165 X1.3599 Y-1.4768
N5170 X1.3689 Y-1.4801
N5175 X1.3777 Y-1.4814
N5180 X1.3864 Y-1.4805
N5185 X1.3952 Y-1.4776
N5190 X1.404 Y-1.4724
N5195 X1.4127 Y-1.4649
N5200 X1.4202 Y-1.4561
N5205 X1.4254 Y-1.4473
N5210 X1.4283 Y-1.4385
N5215 X1.4291 Y-1.4299
N5220 X1.4278 Y-1.421
N5225 X1.4245 Y-1.4121
N5230 X1.4189 Y-1.4029
N5235 X1.4108 Y-1.3936
N5240 X1.4095 Y-1.3925
N5245 G3 X1.4091 Y-1.3923 Z-0.0299 I-0.001 J-0.0012
N5250 X1.4087 Y-1.3921 Z-0.0297 I-0.0006 J-0.0014
N5255 G1 X1.4084 Z-0.0294
N5260 X1.4081 Y-1.3922 Z-0.0289
N5265 Z-0.0284
N5270 G0 Z0.2
N5275 X1.2825 Y-1.4734
N5280 Z0.0394
N5285 G1 Z0.0129 F40
N5290 X1.2827 Z0.0121
N5295 X1.2833 Y-1.4735 Z0.0116
N5300 X1.284 Y-1.4737 Z0.0113
N5305 X1.2853 Y-1.4739
N5310 X1.2873 Y-1.4745 Z0.0112
N5315 X1.2892 Y-1.4752 Z0.0111
N5320 X1.2912 Y-1.476
N5325 X1.2922 Y-1.4764 Z0.011
N5330 X1.2932 Y-1.4769
N5335 X1.2952 Y-1.4779 Z0.0109
N5340 X1.2972 Y-1.479 Z0.0108
N5345 X1.2992 Y-1.4803
N5350 X1.3013 Y-1.4818 Z0.0107
N5355 X1.3039 Y-1.4838 Z0.0106
N5360 X1.3063 Y-1.4858 Z0.0104
N5365 X1.3071 Y-1.4865
N5370 X1.3111 Y-1.4903 Z0.0102
N5375 X1.3476 Y-1.5268 Z0.0084
N5380 X1.3478 Y-1.527
N5385 X1.3481 Y-1.5268
N5390 X1.3511 Y-1.5237 Z0.0082
N5395 X1.3512 Y-1.5235
N5400 X1.3511 Y-1.5232
N5405 X1.315 Y-1.4872 Z0.0064
N5410 X1.3136 Y-1.4858
N5415 X1.3046 Y-1.4779 Z0.006
N5420 X1.2961 Y-1.4722 Z0.0056
N5425 X1.288 Y-1.4689 Z0.0053
N5430 X1.2804 Y-1.4676 Z0.005
N5435 X1.2731 Y-1.4682 Z0.0048
N5440 X1.2656 Y-1.4708 Z0.0045
N5445 X1.2578 Y-1.4755 Z0.0042
N5450 X1.2496 Y-1.4826 Z0.0038
N5455 X1.2426 Y-1.4907 Z0.0034
N5460 X1.2378 Y-1.4987 Z0.0031
N5465 X1.2352 Y-1.5062 Z0.0028
N5470 X1.2346 Y-1.5135 Z0.0026
N5475 X1.2357 Y-1.52 Z0.0023
N5480 X1.2359 Y-1.5211
N5485 X1.2392 Y-1.5291 Z0.002
N5490 X1.2449 Y-1.5377 Z0.0016
N5495 X1.2516 Y-1.5453 Z0.0013
N5500 X1.2535 Y-1.5474 Z0.0012
N5505 X1.2902 Y-1.5841 Z-0.0006
N5510 X1.2905 Y-1.5843 Z-0.0007
N5515 X1.2908 Y-1.5841
N5520 X1.2937 Y-1.5812 Z-0.0008
N5525 X1.2938 Y-1.581
N5530 X1.2936 Y-1.5806
N5535 X1.2562 Y-1.5433 Z-0.0027
N5540 X1.2535 Y-1.5405 Z-0.0028
N5545 X1.2516 Y-1.5382 Z-0.0029
N5550 X1.2496 Y-1.5358 Z-0.003
N5555 X1.2476 Y-1.533 Z-0.0031
N5560 X1.2465 Y-1.5314 Z-0.0032
N5565 X1.2456 Y-1.53 Z-0.0033
N5570 X1.2442 Y-1.5274 Z-0.0034
N5575 X1.2432 Y-1.5254
N5580 X1.2423 Y-1.5235 Z-0.0035
N5585 X1.2416 Y-1.5215 Z-0.0036
N5590 X1.241 Y-1.5195 Z-0.0037
N5595 X1.2405 Y-1.5175
N5600 X1.2401 Y-1.5155 Z-0.0038
N5605 X1.2398 Y-1.5135 Z-0.0039
N5610 X1.2397 Y-1.5112 Z-0.004
N5615 X1.2396 Y-1.5096
N5620 X1.2397 Y-1.5087 Z-0.0041
N5625 Y-1.5076
N5630 X1.2399 Y-1.5056 Z-0.0042
N5635 X1.2403 Y-1.5036
N5640 X1.2408 Y-1.5016 Z-0.0043
N5645 X1.2416 Y-1.4989 Z-0.0044
N5650 X1.2421 Y-1.4977
N5655 X1.243 Y-1.4957 Z-0.0045
N5660 X1.2436 Y-1.4945 Z-0.0046
N5665 X1.2453 Y-1.4917 Z-0.0047
N5670 X1.2471 Y-1.4891 Z-0.0048
N5675 X1.2482 Y-1.4878 Z-0.0049
N5680 X1.2511 Y-1.4845 Z-0.005
N5685 X1.2535 Y-1.4822 Z-0.0051
N5690 X1.2558 Y-1.4804 Z-0.0052
N5695 X1.2575 Y-1.4791 Z-0.0053
N5700 X1.2605 Y-1.4772 Z-0.0054
N5705 X1.2635 Y-1.4758 Z-0.0055
N5710 X1.2644 Y-1.4753 Z-0.0056
N5715 X1.2654 Y-1.475
N5720 X1.2674 Y-1.4743 Z-0.0057
N5725 X1.2694 Y-1.4738 Z-0.0058
N5730 X1.2714 Y-1.4733
N5735 X1.2734 Y-1.4731 Z-0.0059
N5740 X1.2754 Y-1.4729 Z-0.006
N5745 X1.2773
N5750 X1.2793 Y-1.473 Z-0.0061
N5755 X1.2813 Y-1.4732 Z-0.0062
N5760 X1.2833 Y-1.4735
N5765 X1.2853 Y-1.4739 Z-0.0063
N5770 X1.2873 Y-1.4745 Z-0.0064
N5775 X1.2892 Y-1.4752 Z-0.0065
N5780 X1.2912 Y-1.476
N5785 X1.2922 Y-1.4764 Z-0.0066
N5790 X1.2932 Y-1.4769
N5795 X1.2952 Y-1.4779 Z-0.0067
N5800 X1.2972 Y-1.479 Z-0.0068
N5805 X1.2992 Y-1.4803 Z-0.0069
N5810 X1.3013 Y-1.4818
N5815 X1.3039 Y-1.4838 Z-0.0071
N5820 X1.3063 Y-1.4858 Z-0.0072
N5825 X1.3071 Y-1.4865
N5830 X1.3111 Y-1.4903 Z-0.0074
N5835 X1.3476 Y-1.5268 Z-0.0092
N5840 X1.3478 Y-1.527
N5845 X1.3481 Y-1.5268
N5850 X1.3511 Y-1.5237 Z-0.0094
N5855 X1.3512 Y-1.5235
N5860 X1.3511 Y-1.5232
N5865 X1.315 Y-1.4872 Z-0.0112
N5870 X1.3136 Y-1.4858
N5875 X1.3046 Y-1.4779 Z-0.0117
N5880 X1.2961 Y-1.4722 Z-0.012
N5885 X1.288 Y-1.4689 Z-0.0123
N5890 X1.2804 Y-1.4676 Z-0.0126
N5895 X1.2731 Y-1.4682 Z-0.0128
N5900 X1.2656 Y-1.4708 Z-0.0131
N5905 X1.2578 Y-1.4755 Z-0.0134
N5910 X1.2496 Y-1.4826 Z-0.0138
N5915 X1.2426 Y-1.4907 Z-0.0142
N5920 X1.2378 Y-1.4987 Z-0.0145
N5925 X1.2352 Y-1.5062 Z-0.0148
N5930 X1.2346 Y-1.5135 Z-0.0151
N5935 X1.2357 Y-1.52 Z-0.0153
N5940 X1.2359 Y-1.5211
N5945 X1.2392 Y-1.5291 Z-0.0156
N5950 X1.2449 Y-1.5377 Z-0.016
N5955 X1.2516 Y-1.5453 Z-0.0163
N5960 X1.2535 Y-1.5474 Z-0.0164
N5965 X1.2902 Y-1.5841 Z-0.0183
N5970 X1.2905 Y-1.5843
N5975 X1.2908 Y-1.5841
N5980 X1.2937 Y-1.5812 Z-0.0184
N5985 X1.2938 Y-1.581
N5990 X1.2936 Y-1.5806
N5995 X1.2562 Y-1.5433 Z-0.0203
N6000 X1.2535 Y-1.5405 Z-0.0204
N6005 X1.2516 Y-1.5382 Z-0.0205
N6010 X1.2496 Y-1.5358 Z-0.0206
N6015 X1.2476 Y-1.533 Z-0.0208
N6020 X1.2465 Y-1.5314
N6025 X1.2456 Y-1.53 Z-0.0209
N6030 X1.2442 Y-1.5274 Z-0.021
N6035 X1.2432 Y-1.5254 Z-0.0211
N6040 X1.2423 Y-1.5235
N6045 X1.2416 Y-1.5215 Z-0.0212
N6050 X1.241 Y-1.5195 Z-0.0213
N6055 X1.2405 Y-1.5175 Z-0.0214
N6060 X1.2401 Y-1.5155
N6065 X1.2398 Y-1.5135 Z-0.0215
N6070 X1.2397 Y-1.5112 Z-0.0216
N6075 X1.2396 Y-1.5096
N6080 X1.2397 Y-1.5087 Z-0.0217
N6085 Y-1.5076
N6090 X1.2399 Y-1.5056 Z-0.0218
N6095 X1.2403 Y-1.5036
N6100 X1.2408 Y-1.5016 Z-0.0219
N6105 X1.2416 Y-1.4989 Z-0.022
N6110 X1.2421 Y-1.4977 Z-0.0221
N6115 X1.243 Y-1.4957
N6120 X1.2436 Y-1.4945 Z-0.0222
N6125 X1.2453 Y-1.4917 Z-0.0223
N6130 X1.2471 Y-1.4891 Z-0.0224
N6135 X1.2482 Y-1.4878 Z-0.0225
N6140 X1.2511 Y-1.4845 Z-0.0226
N6145 X1.2535 Y-1.4822 Z-0.0227
N6150 X1.2558 Y-1.4804 Z-0.0228
N6155 X1.2575 Y-1.4791 Z-0.0229
N6160 X1.2605 Y-1.4772 Z-0.023
N6165 X1.2635 Y-1.4758 Z-0.0232
N6170 X1.2644 Y-1.4753
N6175 X1.2654 Y-1.475
N6180 X1.2674 Y-1.4743 Z-0.0233
N6185 X1.2694 Y-1.4738 Z-0.0234
N6190 X1.2714 Y-1.4733
N6195 X1.2734 Y-1.4731 Z-0.0235
N6200 X1.2754 Y-1.4729 Z-0.0236
N6205 X1.2773 Z-0.0237
N6210 X1.2793 Y-1.473
N6215 X1.2813 Y-1.4732 Z-0.0238
N6220 X1.2833 Y-1.4735 Z-0.0239
N6225 X1.2853 Y-1.4739
N6230 X1.2873 Y-1.4745 Z-0.024
N6235 X1.2892 Y-1.4752 Z-0.0241
N6240 X1.2912 Y-1.476 Z-0.0242
N6245 X1.2922 Y-1.4764
N6250 X1.2932 Y-1.4769
N6255 X1.2952 Y-1.4779 Z-0.0243
N6260 X1.2972 Y-1.479 Z-0.0244
N6265 X1.2992 Y-1.4803 Z-0.0245
N6270 X1.3013 Y-1.4818 Z-0.0246
N6275 X1.3039 Y-1.4838 Z-0.0247
N6280 X1.3063 Y-1.4858 Z-0.0248
N6285 X1.3071 Y-1.4865
N6290 X1.3111 Y-1.4903 Z-0.025
N6295 X1.3476 Y-1.5268 Z-0.0268
N6300 X1.3478 Y-1.527
N6305 X1.3481 Y-1.5268
N6310 X1.3511 Y-1.5237 Z-0.027
N6315 X1.3512 Y-1.5235
N6320 X1.3511 Y-1.5232
N6325 X1.315 Y-1.4872 Z-0.0288
N6330 X1.3136 Y-1.4858 Z-0.0289
N6335 X1.3046 Y-1.4779 Z-0.0293
N6340 X1.2961 Y-1.4722 Z-0.0296
N6345 X1.288 Y-1.4689 Z-0.0299
N6350 X1.2862 Y-1.4686 Z-0.03
N6355 X1.2804 Y-1.4676
N6360 X1.2731 Y-1.4682
N6365 X1.2656 Y-1.4708
N6370 X1.2578 Y-1.4755
N6375 X1.2496 Y-1.4826
N6380 X1.2426 Y-1.4907
N6385 X1.2378 Y-1.4987
N6390 X1.2352 Y-1.5062
N6395 X1.2346 Y-1.5135
N6400 X1.2357 Y-1.52
N6405 X1.2359 Y-1.5211
N6410 X1.2392 Y-1.5291
N6415 X1.2449 Y-1.5377
N6420 X1.2516 Y-1.5453
N6425 X1.2535 Y-1.5474
N6430 X1.2902 Y-1.5841
N6435 X1.2905 Y-1.5843
N6440 X1.2908 Y-1.5841
N6445 X1.2937 Y-1.5812
N6450 X1.2938 Y-1.581
N6455 X1.2936 Y-1.5806
N6460 X1.2562 Y-1.5433
N6465 X1.2535 Y-1.5405
N6470 X1.2516 Y-1.5382
N6475 X1.2496 Y-1.5358
N6480 X1.2476 Y-1.533
N6485 X1.2465 Y-1.5314
N6490 X1.2456 Y-1.53
N6495 X1.2442 Y-1.5274
N6500 X1.2432 Y-1.5254
N6505 X1.2423 Y-1.5235
N6510 X1.2416 Y-1.5215
N6515 X1.241 Y-1.5195
N6520 X1.2405 Y-1.5175
N6525 X1.2401 Y-1.5155
N6530 X1.2398 Y-1.5135
N6535 X1.2397 Y-1.5112
N6540 X1.2396 Y-1.5096
N6545 X1.2397 Y-1.5087
N6550 Y-1.5076
N6555 X1.2399 Y-1.5056
N6560 X1.2403 Y-1.5036
N6565 X1.2408 Y-1.5016
N6570 X1.2416 Y-1.4989
N6575 X1.2421 Y-1.4977
N6580 X1.243 Y-1.4957
N6585 X1.2436 Y-1.4945
N6590 X1.2453 Y-1.4917
N6595 X1.2471 Y-1.4891
N6600 X1.2482 Y-1.4878
N6605 X1.2511 Y-1.4845
N6610 X1.2535 Y-1.4822
N6615 X1.2558 Y-1.4804
N6620 X1.2575 Y-1.4791
N6625 X1.2605 Y-1.4772
N6630 X1.2635 Y-1.4758
N6635 X1.2644 Y-1.4753
N6640 X1.2654 Y-1.475
N6645 X1.2674 Y-1.4743
N6650 X1.2694 Y-1.4738
N6655 X1.2714 Y-1.4733
N6660 X1.2734 Y-1.4731
N6665 X1.2754 Y-1.4729
N6670 X1.2773
N6675 X1.2793 Y-1.473
N6680 X1.2813 Y-1.4732
N6685 X1.2833 Y-1.4735
N6690 X1.2853 Y-1.4739
N6695 X1.2873 Y-1.4745
N6700 X1.2892 Y-1.4752
N6705 X1.2912 Y-1.476
N6710 X1.2922 Y-1.4764
N6715 X1.2932 Y-1.4769
N6720 X1.2952 Y-1.4779
N6725 X1.2972 Y-1.479
N6730 X1.2992 Y-1.4803
N6735 X1.3013 Y-1.4818
N6740 X1.3039 Y-1.4838
N6745 X1.3063 Y-1.4858
N6750 X1.3071 Y-1.4865
N6755 X1.3111 Y-1.4903
N6760 X1.3476 Y-1.5268
N6765 X1.3478 Y-1.527
N6770 X1.3481 Y-1.5268
N6775 X1.3511 Y-1.5237
N6780 X1.3512 Y-1.5235
N6785 X1.3511 Y-1.5232
N6790 X1.315 Y-1.4872
N6795 X1.3136 Y-1.4858
N6800 X1.3046 Y-1.4779
N6805 X1.2961 Y-1.4722
N6810 X1.288 Y-1.4689
N6815 X1.2862 Y-1.4686
N6820 G3 X1.2857 Z-0.0299 I-0.0003 J-0.0015
N6825 X1.2853 Y-1.4687 Z-0.0297 I0.0002 J-0.0015
N6830 G1 X1.285 Y-1.4689 Z-0.0294
N6835 X1.2849 Y-1.469 Z-0.0289
N6840 X1.2848 Y-1.4691 Z-0.0284
N6845 G0 Z0.2
N6850 X1.2126 Y-1.5596
N6855 Z0.0394
N6860 G1 Z0.0129 F40
N6865 X1.2124 Y-1.5595 Z0.0121
N6870 X1.2119 Y-1.5593 Z0.0116
N6875 X1.2111 Y-1.559 Z0.0113
N6880 X1.2041 Y-1.5564 Z0.0111
N6885 X1.1954 Y-1.5551 Z0.0108
N6890 X1.1869 Y-1.5559 Z0.0105
N6895 X1.1784 Y-1.5587 Z0.0102
N6900 X1.1697 Y-1.5637 Z0.0098
N6905 X1.161 Y-1.5712 Z0.0094
N6910 X1.1538 Y-1.5793 Z0.009
N6915 X1.1485 Y-1.5869 Z0.0087
N6920 X1.149 Y-1.5878
N6925 X1.1494 Y-1.5882 Z0.0086
N6930 Y-1.5883
N6935 X1.1495
N6940 X1.1499 Y-1.5879
N6945 X1.1524 Y-1.5843 Z0.0085
N6950 X1.155 Y-1.581 Z0.0083
N6955 X1.1567 Y-1.579 Z0.0082
N6960 X1.1585 Y-1.577 Z0.0081
N6965 X1.1603 Y-1.575 Z0.008
N6970 X1.1623 Y-1.573 Z0.0079
N6975 X1.1645 Y-1.5711 Z0.0078
N6980 X1.1669 Y-1.5691 Z0.0077
N6985 X1.1682 Y-1.5681
N6990 X1.1702 Y-1.5668 Z0.0076
N6995 X1.1731 Y-1.5651 Z0.0075
N7000 X1.1742 Y-1.5645 Z0.0074
N7005 X1.1762 Y-1.5637
N7010 X1.1782 Y-1.5629 Z0.0073
N7015 X1.1811 Y-1.5619 Z0.0072
N7020 X1.1841 Y-1.5612 Z0.0071
N7025 X1.1853 Y-1.561 Z0.007
N7030 X1.1881 Y-1.5607 Z0.0069
N7035 X1.1901 Y-1.5605
N7040 X1.1921 Z0.0068
N7045 X1.194 Y-1.5606 Z0.0067
N7050 X1.196 Y-1.5607
N7055 X1.199 Y-1.5611 Z0.0065
N7060 X1.2 Y-1.5613
N7065 X1.203 Y-1.562 Z0.0064
N7070 X1.204 Y-1.5623
N7075 X1.2063 Y-1.5631 Z0.0063
N7080 X1.2079 Y-1.5637 Z0.0062
N7085 X1.2111 Y-1.5651 Z0.0061
N7090 X1.2139 Y-1.5666 Z0.006
N7095 X1.2159 Y-1.5677 Z0.0059
N7100 X1.218 Y-1.5691 Z0.0058
N7105 X1.2198 Y-1.5703 Z0.0057
N7110 X1.2218 Y-1.5719
N7115 X1.2238 Y-1.5735 Z0.0056
N7120 X1.2258 Y-1.5753 Z0.0055
N7125 X1.2278 Y-1.5771 Z0.0054
N7130 X1.2297 Y-1.5792 Z0.0053
N7135 X1.2317 Y-1.5814 Z0.0052
N7140 X1.2337 Y-1.5838 Z0.0051
N7145 X1.2351 Y-1.5857 Z0.005
N7150 X1.236 Y-1.5869 Z0.0049
N7155 X1.2377 Y-1.5894 Z0.0048
N7160 X1.2397 Y-1.5929 Z0.0047
N7165 X1.2402 Y-1.5939 Z0.0046
N7170 X1.2418 Y-1.5976 Z0.0045
N7175 X1.2433 Y-1.6018 Z0.0044
N7180 X1.2442 Y-1.6058 Z0.0042
N7185 X1.2444 Y-1.6068
N7190 X1.2448 Y-1.6107 Z0.004
N7195 Y-1.6127
N7200 Y-1.6147 Z0.0039
N7205 X1.2446 Y-1.6167 Z0.0038
N7210 X1.2443 Y-1.6187
N7215 X1.244 Y-1.6207 Z0.0037
N7220 X1.2435 Y-1.6226 Z0.0036
N7225 X1.2429 Y-1.6246 Z0.0035
N7230 X1.2422 Y-1.6266
N7235 X1.2411 Y-1.6291 Z0.0034
N7240 X1.2404 Y-1.6306 Z0.0033
N7245 X1.2393 Y-1.6326 Z0.0032
N7250 X1.2377 Y-1.6353 Z0.0031
N7255 X1.2368 Y-1.6365
N7260 X1.2354 Y-1.6385 Z0.003
N7265 X1.2337 Y-1.6406 Z0.0029
N7270 X1.2317 Y-1.6428 Z0.0028
N7275 X1.2297 Y-1.6448 Z0.0027
N7280 X1.2278 Y-1.6467 Z0.0026
N7285 X1.2258 Y-1.6485 Z0.0025
N7290 X1.2235 Y-1.6504 Z0.0024
N7295 X1.2198 Y-1.6533 Z0.0022
N7300 X1.217 Y-1.6553 Z0.0021
N7305 X1.2168 Y-1.6555
N7310 X1.217 Y-1.6558
N7315 X1.2177 Y-1.6566
N7320 X1.2179 Y-1.6567 Z0.002
N7325 X1.218
N7330 X1.2249 Y-1.6518 Z0.0017
N7335 X1.2266 Y-1.6504
N7340 X1.2325 Y-1.6452 Z0.0014
N7345 X1.2403 Y-1.636 Z0.001
N7350 X1.2457 Y-1.6271 Z0.0006
N7355 X1.2487 Y-1.6183 Z0.0003
N7360 X1.2496 Y-1.6096 Z0
N7365 X1.2484 Y-1.6008 Z-0.0003
N7370 X1.2451 Y-1.5919 Z-0.0007
N7375 X1.2393 Y-1.5826 Z-0.001
N7380 X1.2311 Y-1.5732 Z-0.0015
N7385 X1.222 Y-1.5653 Z-0.0019
N7390 X1.2129 Y-1.5597 Z-0.0023
N7395 X1.2041 Y-1.5564 Z-0.0026
N7400 X1.1954 Y-1.5551 Z-0.0029
N7405 X1.1869 Y-1.5559 Z-0.0032
N7410 X1.1784 Y-1.5587 Z-0.0035
N7415 X1.1697 Y-1.5637 Z-0.0039
N7420 X1.161 Y-1.5712 Z-0.0043
N7425 X1.1538 Y-1.5793 Z-0.0046
N7430 X1.1485 Y-1.5869 Z-0.005
N7435 X1.149 Y-1.5878
N7440 X1.1494 Y-1.5882
N7445 Y-1.5883
N7450 X1.1495
N7455 X1.1499 Y-1.5879 Z-0.0051
N7460 X1.1524 Y-1.5843 Z-0.0052
N7465 X1.155 Y-1.581 Z-0.0054
N7470 X1.1567 Y-1.579
N7475 X1.1585 Y-1.577 Z-0.0055
N7480 X1.1603 Y-1.575 Z-0.0056
N7485 X1.1623 Y-1.573 Z-0.0057
N7490 X1.1645 Y-1.5711 Z-0.0058
N7495 X1.1669 Y-1.5691 Z-0.0059
N7500 X1.1682 Y-1.5681 Z-0.006
N7505 X1.1702 Y-1.5668 Z-0.0061
N7510 X1.1731 Y-1.5651 Z-0.0062
N7515 X1.1742 Y-1.5645
N7520 X1.1762 Y-1.5637 Z-0.0063
N7525 X1.1782 Y-1.5629 Z-0.0064
N7530 X1.1811 Y-1.5619 Z-0.0065
N7535 X1.1841 Y-1.5612 Z-0.0066
N7540 X1.1853 Y-1.561 Z-0.0067
N7545 X1.1881 Y-1.5607
N7550 X1.1901 Y-1.5605 Z-0.0068
N7555 X1.1921 Z-0.0069
N7560 X1.194 Y-1.5606 Z-0.007
N7565 X1.196 Y-1.5607
N7570 X1.199 Y-1.5611 Z-0.0071
N7575 X1.2 Y-1.5613 Z-0.0072
N7580 X1.203 Y-1.562 Z-0.0073
N7585 X1.204 Y-1.5623
N7590 X1.2063 Y-1.5631 Z-0.0074
N7595 X1.2079 Y-1.5637 Z-0.0075
N7600 X1.2111 Y-1.5651 Z-0.0076
N7605 X1.2139 Y-1.5666 Z-0.0077
N7610 X1.2159 Y-1.5677 Z-0.0078
N7615 X1.218 Y-1.5691 Z-0.0079
N7620 X1.2198 Y-1.5703
N7625 X1.2218 Y-1.5719 Z-0.008
N7630 X1.2238 Y-1.5735 Z-0.0081
N7635 X1.2258 Y-1.5753 Z-0.0082
N7640 X1.2278 Y-1.5771 Z-0.0083
N7645 X1.2297 Y-1.5792 Z-0.0084
N7650 X1.2317 Y-1.5814 Z-0.0085
N7655 X1.2337 Y-1.5838 Z-0.0086
N7660 X1.2351 Y-1.5857 Z-0.0087
N7665 X1.236 Y-1.5869
N7670 X1.2377 Y-1.5894 Z-0.0089
N7675 X1.2397 Y-1.5929 Z-0.009
N7680 X1.2402 Y-1.5939
N7685 X1.2418 Y-1.5976 Z-0.0092
N7690 X1.2433 Y-1.6018 Z-0.0093
N7695 X1.2442 Y-1.6058 Z-0.0095
N7700 X1.2444 Y-1.6068
N7705 X1.2448 Y-1.6107 Z-0.0096
N7710 Y-1.6127 Z-0.0097
N7715 Y-1.6147 Z-0.0098
N7720 X1.2446 Y-1.6167 Z-0.0099
N7725 X1.2443 Y-1.6187
N7730 X1.244 Y-1.6207 Z-0.01
N7735 X1.2435 Y-1.6226 Z-0.0101
N7740 X1.2429 Y-1.6246
N7745 X1.2422 Y-1.6266 Z-0.0102
N7750 X1.2411 Y-1.6291 Z-0.0103
N7755 X1.2404 Y-1.6306 Z-0.0104
N7760 X1.2393 Y-1.6326
N7765 X1.2377 Y-1.6353 Z-0.0106
N7770 X1.2368 Y-1.6365
N7775 X1.2354 Y-1.6385 Z-0.0107
N7780 X1.2337 Y-1.6406 Z-0.0108
N7785 X1.2317 Y-1.6428 Z-0.0109
N7790 X1.2297 Y-1.6448 Z-0.011
N7795 X1.2278 Y-1.6467 Z-0.0111
N7800 X1.2258 Y-1.6485 Z-0.0112
N7805 X1.2235 Y-1.6504 Z-0.0113
N7810 X1.2198 Y-1.6533 Z-0.0114
N7815 X1.217 Y-1.6553 Z-0.0116
N7820 X1.2168 Y-1.6555
N7825 X1.217 Y-1.6558
N7830 X1.2177 Y-1.6566
N7835 X1.2179 Y-1.6567
N7840 X1.218
N7845 X1.2249 Y-1.6518 Z-0.0119
N7850 X1.2266 Y-1.6504 Z-0.012
N7855 X1.2325 Y-1.6452 Z-0.0123
N7860 X1.2403 Y-1.636 Z-0.0127
N7865 X1.2457 Y-1.6271 Z-0.0131
N7870 X1.2487 Y-1.6183 Z-0.0134
N7875 X1.2496 Y-1.6096 Z-0.0137
N7880 X1.2484 Y-1.6008 Z-0.014
N7885 X1.2451 Y-1.5919 Z-0.0143
N7890 X1.2393 Y-1.5826 Z-0.0147
N7895 X1.2311 Y-1.5732 Z-0.0152
N7900 X1.222 Y-1.5653 Z-0.0156
N7905 X1.2129 Y-1.5597 Z-0.016
N7910 X1.2041 Y-1.5564 Z-0.0163
N7915 X1.1954 Y-1.5551 Z-0.0166
N7920 X1.1869 Y-1.5559 Z-0.0169
N7925 X1.1784 Y-1.5587 Z-0.0172
N7930 X1.1697 Y-1.5637 Z-0.0175
N7935 X1.161 Y-1.5712 Z-0.0179
N7940 X1.1538 Y-1.5793 Z-0.0183
N7945 X1.1485 Y-1.5869 Z-0.0187
N7950 X1.149 Y-1.5878
N7955 X1.1494 Y-1.5882
N7960 Y-1.5883
N7965 X1.1495
N7970 X1.1499 Y-1.5879
N7975 X1.1524 Y-1.5843 Z-0.0189
N7980 X1.155 Y-1.581 Z-0.019
N7985 X1.1567 Y-1.579 Z-0.0191
N7990 X1.1585 Y-1.577 Z-0.0192
N7995 X1.1603 Y-1.575 Z-0.0193
N8000 X1.1623 Y-1.573 Z-0.0194
N8005 X1.1645 Y-1.5711 Z-0.0195
N8010 X1.1669 Y-1.5691 Z-0.0196
N8015 X1.1682 Y-1.5681 Z-0.0197
N8020 X1.1702 Y-1.5668 Z-0.0198
N8025 X1.1731 Y-1.5651 Z-0.0199
N8030 X1.1742 Y-1.5645
N8035 X1.1762 Y-1.5637 Z-0.02
N8040 X1.1782 Y-1.5629 Z-0.0201
N8045 X1.1811 Y-1.5619 Z-0.0202
N8050 X1.1841 Y-1.5612 Z-0.0203
N8055 X1.1853 Y-1.561
N8060 X1.1881 Y-1.5607 Z-0.0204
N8065 X1.1901 Y-1.5605 Z-0.0205
N8070 X1.1921 Z-0.0206
N8075 X1.194 Y-1.5606
N8080 X1.196 Y-1.5607 Z-0.0207
N8085 X1.199 Y-1.5611 Z-0.0208
N8090 X1.2 Y-1.5613
N8095 X1.203 Y-1.562 Z-0.021
N8100 X1.204 Y-1.5623
N8105 X1.2063 Y-1.5631 Z-0.0211
N8110 X1.2079 Y-1.5637
N8115 X1.2111 Y-1.5651 Z-0.0213
N8120 X1.2139 Y-1.5666 Z-0.0214
N8125 X1.2159 Y-1.5677
N8130 X1.218 Y-1.5691 Z-0.0215
N8135 X1.2198 Y-1.5703 Z-0.0216
N8140 X1.2218 Y-1.5719 Z-0.0217
N8145 X1.2238 Y-1.5735 Z-0.0218
N8150 X1.2258 Y-1.5753 Z-0.0219
N8155 X1.2278 Y-1.5771 Z-0.022
N8160 X1.2297 Y-1.5792 Z-0.0221
N8165 X1.2317 Y-1.5814 Z-0.0222
N8170 X1.2337 Y-1.5838 Z-0.0223
N8175 X1.2351 Y-1.5857 Z-0.0224
N8180 X1.236 Y-1.5869
N8185 X1.2377 Y-1.5894 Z-0.0225
N8190 X1.2397 Y-1.5929 Z-0.0227
N8195 X1.2402 Y-1.5939
N8200 X1.2418 Y-1.5976 Z-0.0228
N8205 X1.2433 Y-1.6018 Z-0.023
N8210 X1.2442 Y-1.6058 Z-0.0231
N8215 X1.2444 Y-1.6068 Z-0.0232
N8220 X1.2448 Y-1.6107 Z-0.0233
N8225 Y-1.6127 Z-0.0234
N8230 Y-1.6147 Z-0.0235
N8235 X1.2446 Y-1.6167
N8240 X1.2443 Y-1.6187 Z-0.0236
N8245 X1.244 Y-1.6207 Z-0.0237
N8250 X1.2435 Y-1.6226
N8255 X1.2429 Y-1.6246 Z-0.0238
N8260 X1.2422 Y-1.6266 Z-0.0239
N8265 X1.2411 Y-1.6291 Z-0.024
N8270 X1.2404 Y-1.6306
N8275 X1.2393 Y-1.6326 Z-0.0241
N8280 X1.2377 Y-1.6353 Z-0.0242
N8285 X1.2368 Y-1.6365 Z-0.0243
N8290 X1.2354 Y-1.6385 Z-0.0244
N8295 X1.2337 Y-1.6406 Z-0.0245
N8300 X1.2317 Y-1.6428 Z-0.0246
N8305 X1.2297 Y-1.6448 Z-0.0247
N8310 X1.2278 Y-1.6467 Z-0.0248
N8315 X1.2258 Y-1.6485 Z-0.0249
N8320 X1.2235 Y-1.6504 Z-0.025
N8325 X1.2198 Y-1.6533 Z-0.0251
N8330 X1.217 Y-1.6553 Z-0.0252
N8335 X1.2168 Y-1.6555 Z-0.0253
N8340 X1.217 Y-1.6558
N8345 X1.2177 Y-1.6566
N8350 X1.2179 Y-1.6567
N8355 X1.218
N8360 X1.2249 Y-1.6518 Z-0.0256
N8365 X1.2266 Y-1.6504 Z-0.0257
N8370 X1.2325 Y-1.6452 Z-0.026
N8375 X1.2403 Y-1.636 Z-0.0264
N8380 X1.2457 Y-1.6271 Z-0.0267
N8385 X1.2487 Y-1.6183 Z-0.0271
N8390 X1.2496 Y-1.6096 Z-0.0274
N8395 X1.2484 Y-1.6008 Z-0.0277
N8400 X1.2451 Y-1.5919 Z-0.028
N8405 X1.2393 Y-1.5826 Z-0.0284
N8410 X1.2311 Y-1.5732 Z-0.0288
N8415 X1.222 Y-1.5653 Z-0.0293
N8420 X1.2129 Y-1.5597 Z-0.0296
N8425 X1.2041 Y-1.5564 Z-0.03
N8430 X1.2029 Y-1.5562
N8435 X1.1954 Y-1.5551
N8440 X1.1869 Y-1.5559
N8445 X1.1784 Y-1.5587
N8450 X1.1697 Y-1.5637
N8455 X1.161 Y-1.5712
N8460 X1.1538 Y-1.5793
N8465 X1.1485 Y-1.5869
N8470 X1.149 Y-1.5878
N8475 X1.1494 Y-1.5882
N8480 Y-1.5883
N8485 X1.1495
N8490 X1.1499 Y-1.5879
N8495 X1.1524 Y-1.5843
N8500 X1.155 Y-1.581
N8505 X1.1567 Y-1.579
N8510 X1.1585 Y-1.577
N8515 X1.1603 Y-1.575
N8520 X1.1623 Y-1.573
N8525 X1.1645 Y-1.5711
N8530 X1.1669 Y-1.5691
N8535 X1.1682 Y-1.5681
N8540 X1.1702 Y-1.5668
N8545 X1.1731 Y-1.5651
N8550 X1.1742 Y-1.5645
N8555 X1.1762 Y-1.5637
N8560 X1.1782 Y-1.5629
N8565 X1.1811 Y-1.5619
N8570 X1.1841 Y-1.5612
N8575 X1.1853 Y-1.561
N8580 X1.1881 Y-1.5607
N8585 X1.1901 Y-1.5605
N8590 X1.1921
N8595 X1.194 Y-1.5606
N8600 X1.196 Y-1.5607
N8605 X1.199 Y-1.5611
N8610 X1.2 Y-1.5613
N8615 X1.203 Y-1.562
N8620 X1.204 Y-1.5623
N8625 X1.2063 Y-1.5631
N8630 X1.2079 Y-1.5637
N8635 X1.2111 Y-1.5651
N8640 X1.2139 Y-1.5666
N8645 X1.2159 Y-1.5677
N8650 X1.218 Y-1.5691
N8655 X1.2198 Y-1.5703
N8660 X1.2218 Y-1.5719
N8665 X1.2238 Y-1.5735
N8670 X1.2258 Y-1.5753
N8675 X1.2278 Y-1.5771
N8680 X1.2297 Y-1.5792
N8685 X1.2317 Y-1.5814
N8690 X1.2337 Y-1.5838
N8695 X1.2351 Y-1.5857
N8700 X1.236 Y-1.5869
N8705 X1.2377 Y-1.5894
N8710 X1.2397 Y-1.5929
N8715 X1.2402 Y-1.5939
N8720 X1.2418 Y-1.5976
N8725 X1.2433 Y-1.6018
N8730 X1.2442 Y-1.6058
N8735 X1.2444 Y-1.6068
N8740 X1.2448 Y-1.6107
N8745 Y-1.6127
N8750 Y-1.6147
N8755 X1.2446 Y-1.6167
N8760 X1.2443 Y-1.6187
N8765 X1.244 Y-1.6207
N8770 X1.2435 Y-1.6226
N8775 X1.2429 Y-1.6246
N8780 X1.2422 Y-1.6266
N8785 X1.2411 Y-1.6291
N8790 X1.2404 Y-1.6306
N8795 X1.2393 Y-1.6326
N8800 X1.2377 Y-1.6353
N8805 X1.2368 Y-1.6365
N8810 X1.2354 Y-1.6385
N8815 X1.2337 Y-1.6406
N8820 X1.2317 Y-1.6428
N8825 X1.2297 Y-1.6448
N8830 X1.2278 Y-1.6467
N8835 X1.2258 Y-1.6485
N8840 X1.2235 Y-1.6504
N8845 X1.2198 Y-1.6533
N8850 X1.217 Y-1.6553
N8855 X1.2168 Y-1.6555
N8860 X1.217 Y-1.6558
N8865 X1.2177 Y-1.6566
N8870 X1.2179 Y-1.6567
N8875 X1.218
N8880 X1.2249 Y-1.6518
N8885 X1.2266 Y-1.6504
N8890 X1.2325 Y-1.6452
N8895 X1.2403 Y-1.636
N8900 X1.2457 Y-1.6271
N8905 X1.2487 Y-1.6183
N8910 X1.2496 Y-1.6096
N8915 X1.2484 Y-1.6008
N8920 X1.2451 Y-1.5919
N8925 X1.2393 Y-1.5826
N8930 X1.2311 Y-1.5732
N8935 X1.222 Y-1.5653
N8940 X1.2129 Y-1.5597
N8945 X1.2041 Y-1.5564
N8950 X1.2029 Y-1.5562
N8955 G3 X1.2024 Z-0.0299 I-0.0002 J-0.0015
N8960 X1.202 Y-1.5564 Z-0.0297 I0.0003 J-0.0015
N8965 G1 X1.2017 Y-1.5565 Z-0.0294
N8970 X1.2016 Y-1.5567 Z-0.0289
N8975 X1.2015 Z-0.0284
N8980 G0 Z0.2
N8985 X1.1639 Y-1.6624
N8990 Z0.0394
N8995 G1 Z0.0129 F40
N9000 X1.164 Y-1.6626 Z0.0121
N9005 X1.1644 Y-1.663 Z0.0116
N9010 X1.1649 Y-1.6635 Z0.0113
N9015 X1.188 Y-1.6865 Z0.0102
N9020 X1.1882 Y-1.6866
N9025 X1.1885 Y-1.6864
N9030 X1.1913 Y-1.6835 Z0.01
N9035 X1.1914 Y-1.6833
N9040 Y-1.6831
N9045 X1.1909 Y-1.6827
N9050 X1.1215 Y-1.6133 Z0.0066
N9055 X1.1184 Y-1.6164 Z0.0064
N9060 X1.1182 Y-1.6166
N9065 Y-1.6167
N9070 X1.1184 Y-1.617
N9075 X1.1475 Y-1.6461 Z0.005
N9080 X1.1481 Y-1.6469 Z0.0049
N9085 X1.1484 Y-1.6473
N9090 X1.1487 Y-1.6479
N9095 X1.149 Y-1.6484
N9100 X1.1493 Y-1.6494 Z0.0048
N9105 X1.1495 Y-1.6504
N9110 Y-1.6514
N9115 Y-1.6524 Z0.0047
N9120 X1.1493 Y-1.6534
N9125 X1.1489 Y-1.6544 Z0.0046
N9130 X1.1484 Y-1.6553
N9135 X1.1481 Y-1.6559
N9140 X1.1474 Y-1.6567
N9145 X1.1044 Y-1.6997 Z0.0024
N9150 X1.1037 Y-1.7002
N9155 X1.1028 Y-1.7008
N9160 X1.1018 Y-1.7013 Z0.0023
N9165 X1.1008 Y-1.7015
N9170 X1.0998 Y-1.7017 Z0.0022
N9175 X1.0988
N9180 X1.0978 Y-1.7016
N9185 X1.0968 Y-1.7014 Z0.0021
N9190 X1.0959 Y-1.701
N9195 X1.0954 Y-1.7008
N9200 X1.0946 Y-1.7002
N9205 X1.0939 Y-1.6997 Z0.002
N9210 X1.0647 Y-1.6705 Z0.0006
N9215 X1.0644 Y-1.6704
N9220 X1.0641 Y-1.6706
N9225 X1.0613 Y-1.6735 Z0.0004
N9230 X1.0612 Y-1.6737
N9235 X1.0614 Y-1.674
N9240 X1.0631 Y-1.6758 Z0.0003
N9245 X1.1309 Y-1.7435 Z-0.003
N9250 X1.1311 Y-1.7436
N9255 X1.1314 Y-1.7434 Z-0.0031
N9260 X1.1343 Y-1.7406 Z-0.0032
N9265 X1.1344 Y-1.7404
N9270 X1.1342 Y-1.7401
N9275 X1.1061 Y-1.7119 Z-0.0046
N9280 X1.1057 Y-1.7114
N9285 X1.1053 Y-1.7109 Z-0.0047
N9290 X1.105 Y-1.7104
N9295 X1.1046 Y-1.7094
N9300 X1.1043 Y-1.7084
N9305 X1.1041 Y-1.7075 Z-0.0048
N9310 Y-1.7065
N9315 X1.1042 Y-1.7055 Z-0.0049
N9320 X1.1044 Y-1.7045
N9325 X1.1048 Y-1.7034
N9330 X1.1052 Y-1.7027 Z-0.005
N9335 X1.1056 Y-1.702
N9340 X1.1062 Y-1.7014
N9345 X1.1492 Y-1.6584 Z-0.0071
N9350 X1.1498 Y-1.6578 Z-0.0072
N9355 X1.1504 Y-1.6574
N9360 X1.1509 Y-1.6571
N9365 X1.1519 Y-1.6567
N9370 X1.1528 Y-1.6564 Z-0.0073
N9375 X1.1538 Y-1.6563
N9380 X1.1547
N9385 X1.1557 Y-1.6564 Z-0.0074
N9390 X1.1563 Y-1.6565
N9395 X1.1573 Y-1.6568
N9400 X1.1583 Y-1.6573 Z-0.0075
N9405 X1.1591 Y-1.6578
N9410 X1.1598 Y-1.6584
N9415 X1.188 Y-1.6865 Z-0.0089
N9420 X1.1882 Y-1.6866
N9425 X1.1885 Y-1.6864 Z-0.009
N9430 X1.1913 Y-1.6835 Z-0.0091
N9435 X1.1914 Y-1.6833
N9440 Y-1.6831
N9445 X1.1909 Y-1.6827
N9450 X1.1215 Y-1.6133 Z-0.0126
N9455 X1.1184 Y-1.6164 Z-0.0127
N9460 X1.1182 Y-1.6166
N9465 Y-1.6167
N9470 X1.1184 Y-1.617
N9475 X1.1475 Y-1.6461 Z-0.0142
N9480 X1.1481 Y-1.6469
N9485 X1.1484 Y-1.6473
N9490 X1.1487 Y-1.6479 Z-0.0143
N9495 X1.149 Y-1.6484
N9500 X1.1493 Y-1.6494
N9505 X1.1495 Y-1.6504
N9510 Y-1.6514 Z-0.0144
N9515 Y-1.6524
N9520 X1.1493 Y-1.6534 Z-0.0145
N9525 X1.1489 Y-1.6544
N9530 X1.1484 Y-1.6553
N9535 X1.1481 Y-1.6559
N9540 X1.1474 Y-1.6567 Z-0.0146
N9545 X1.1044 Y-1.6997 Z-0.0167
N9550 X1.1037 Y-1.7002
N9555 X1.1028 Y-1.7008 Z-0.0168
N9560 X1.1018 Y-1.7013
N9565 X1.1008 Y-1.7015 Z-0.0169
N9570 X1.0998 Y-1.7017
N9575 X1.0988
N9580 X1.0978 Y-1.7016 Z-0.017
N9585 X1.0968 Y-1.7014
N9590 X1.0959 Y-1.701
N9595 X1.0954 Y-1.7008
N9600 X1.0946 Y-1.7002 Z-0.0171
N9605 X1.0939 Y-1.6997
N9610 X1.0647 Y-1.6705 Z-0.0186
N9615 X1.0644 Y-1.6704
N9620 X1.0641 Y-1.6706
N9625 X1.0613 Y-1.6735 Z-0.0187
N9630 X1.0612 Y-1.6737
N9635 X1.0614 Y-1.674
N9640 X1.0631 Y-1.6758 Z-0.0188
N9645 X1.1309 Y-1.7435 Z-0.0222
N9650 X1.1311 Y-1.7436
N9655 X1.1314 Y-1.7434
N9660 X1.1343 Y-1.7406 Z-0.0223
N9665 X1.1344 Y-1.7404
N9670 X1.1342 Y-1.7401 Z-0.0224
N9675 X1.1061 Y-1.7119 Z-0.0237
N9680 X1.1057 Y-1.7114 Z-0.0238
N9685 X1.1053 Y-1.7109
N9690 X1.105 Y-1.7104
N9695 X1.1046 Y-1.7094 Z-0.0239
N9700 X1.1043 Y-1.7084
N9705 X1.1041 Y-1.7075
N9710 Y-1.7065 Z-0.024
N9715 X1.1042 Y-1.7055
N9720 X1.1044 Y-1.7045
N9725 X1.1048 Y-1.7034 Z-0.0241
N9730 X1.1052 Y-1.7027
N9735 X1.1056 Y-1.702
N9740 X1.1062 Y-1.7014 Z-0.0242
N9745 X1.1492 Y-1.6584 Z-0.0263
N9750 X1.1498 Y-1.6578
N9755 X1.1504 Y-1.6574
N9760 X1.1509 Y-1.6571 Z-0.0264
N9765 X1.1519 Y-1.6567
N9770 X1.1528 Y-1.6564
N9775 X1.1538 Y-1.6563 Z-0.0265
N9780 X1.1547
N9785 X1.1557 Y-1.6564
N9790 X1.1563 Y-1.6565
N9795 X1.1573 Y-1.6568 Z-0.0266
N9800 X1.1583 Y-1.6573
N9805 X1.1591 Y-1.6578 Z-0.0267
N9810 X1.1598 Y-1.6584
N9815 X1.188 Y-1.6865 Z-0.0281
N9820 X1.1882 Y-1.6866
N9825 X1.1885 Y-1.6864
N9830 X1.1913 Y-1.6835 Z-0.0282
N9835 X1.1914 Y-1.6833
N9840 Y-1.6831 Z-0.0283
N9845 X1.1909 Y-1.6827
N9850 X1.156 Y-1.6477 Z-0.03
N9855 X1.1215 Y-1.6133
N9860 X1.1184 Y-1.6164
N9865 X1.1182 Y-1.6166
N9870 Y-1.6167
N9875 X1.1184 Y-1.617
N9880 X1.1475 Y-1.6461
N9885 X1.1481 Y-1.6469
N9890 X1.1484 Y-1.6473
N9895 X1.1487 Y-1.6479
N9900 X1.149 Y-1.6484
N9905 X1.1493 Y-1.6494
N9910 X1.1495 Y-1.6504
N9915 Y-1.6514
N9920 Y-1.6524
N9925 X1.1493 Y-1.6534
N9930 X1.1489 Y-1.6544
N9935 X1.1484 Y-1.6553
N9940 X1.1481 Y-1.6559
N9945 X1.1474 Y-1.6567
N9950 X1.1044 Y-1.6997
N9955 X1.1037 Y-1.7002
N9960 X1.1028 Y-1.7008
N9965 X1.1018 Y-1.7013
N9970 X1.1008 Y-1.7015
N9975 X1.0998 Y-1.7017
N9980 X1.0988
N9985 X1.0978 Y-1.7016
N9990 X1.0968 Y-1.7014
N9995 X1.0959 Y-1.701
N10000 X1.0954 Y-1.7008
N10005 X1.0946 Y-1.7002
N10010 X1.0939 Y-1.6997
N10015 X1.0647 Y-1.6705
N10020 X1.0644 Y-1.6704
N10025 X1.0641 Y-1.6706
N10030 X1.0613 Y-1.6735
N10035 X1.0612 Y-1.6737
N10040 X1.0614 Y-1.674
N10045 X1.0631 Y-1.6758
N10050 X1.1309 Y-1.7435
N10055 X1.1311 Y-1.7436
N10060 X1.1314 Y-1.7434
N10065 X1.1343 Y-1.7406
N10070 X1.1344 Y-1.7404
N10075 X1.1342 Y-1.7401
N10080 X1.1061 Y-1.7119
N10085 X1.1057 Y-1.7114
N10090 X1.1053 Y-1.7109
N10095 X1.105 Y-1.7104
N10100 X1.1046 Y-1.7094
N10105 X1.1043 Y-1.7084
N10110 X1.1041 Y-1.7075
N10115 Y-1.7065
N10120 X1.1042 Y-1.7055
N10125 X1.1044 Y-1.7045
N10130 X1.1048 Y-1.7034
N10135 X1.1052 Y-1.7027
N10140 X1.1056 Y-1.702
N10145 X1.1062 Y-1.7014
N10150 X1.1492 Y-1.6584
N10155 X1.1498 Y-1.6578
N10160 X1.1504 Y-1.6574
N10165 X1.1509 Y-1.6571
N10170 X1.1519 Y-1.6567
N10175 X1.1528 Y-1.6564
N10180 X1.1538 Y-1.6563
N10185 X1.1547
N10190 X1.1557 Y-1.6564
N10195 X1.1563 Y-1.6565
N10200 X1.1573 Y-1.6568
N10205 X1.1583 Y-1.6573
N10210 X1.1591 Y-1.6578
N10215 X1.1598 Y-1.6584
N10220 X1.188 Y-1.6865
N10225 X1.1882 Y-1.6866
N10230 X1.1885 Y-1.6864
N10235 X1.1913 Y-1.6835
N10240 X1.1914 Y-1.6833
N10245 Y-1.6831
N10250 X1.1909 Y-1.6827
N10255 X1.156 Y-1.6477
N10260 G3 X1.1556 Y-1.6475 Z-0.0299 I-0.0011 J-0.0011
N10265 X1.1552 Y-1.6473 Z-0.0297 I-0.0007 J-0.0014
N10270 G1 X1.1548 Z-0.0294
N10275 X1.1546 Z-0.0289
N10280 X1.1545 Z-0.0284
N10285 G0 Z0.2
N10290 X1.5767 Y-1.216
N10295 Z0.0394
N10300 G1 Z0.0129 F40
N10305 X1.5765 Y-1.2158 Z0.0121
N10310 X1.5762 Y-1.2155 Z0.0116
N10315 X1.5756 Y-1.2149 Z0.0113
N10320 X1.5477 Y-1.187 Z0.01
N10325 X1.5446 Y-1.1902 Z0.0098
N10330 X1.5444 Y-1.1904
N10335 X1.5446 Y-1.1907
N10340 X1.5977 Y-1.2438 Z0.0072
N10345 X1.5984 Y-1.2446 Z0.0071
N10350 X1.5989 Y-1.2453
N10355 X1.5994 Y-1.2462
N10360 X1.5997 Y-1.2472 Z0.007
N10365 X1.6 Y-1.2482
N10370 Y-1.2492
N10375 Y-1.2502 Z0.0069
N10380 X1.5998 Y-1.2512
N10385 X1.5995 Y-1.2522 Z0.0068
N10390 X1.5991 Y-1.2532
N10395 X1.5987 Y-1.2538
N10400 X1.5983 Y-1.2543
N10405 X1.5976 Y-1.255 Z0.0067
N10410 X1.5969 Y-1.2557
N10415 X1.5962 Y-1.2561
N10420 X1.5952 Y-1.2566 Z0.0066
N10425 X1.5942 Y-1.2569
N10430 X1.5932 Y-1.2571
N10435 X1.5922 Y-1.2572 Z0.0065
N10440 X1.5911 Y-1.2571
N10445 X1.4922 Y-1.2433 Z0.003
N10450 X1.4915 Y-1.2434
N10455 X1.491 Y-1.2438 Z0.0029
N10460 X1.486 Y-1.2487 Z0.0027
N10465 X1.4859 Y-1.249
N10470 X1.486 Y-1.2492
N10475 X1.4876 Y-1.2508 Z0.0026
N10480 X1.5556 Y-1.3188 Z-0.0008
N10485 X1.5558 Y-1.3189
N10490 X1.5561 Y-1.3187
N10495 X1.559 Y-1.3159 Z-0.0009
N10500 X1.5591 Y-1.3157
N10505 X1.559 Y-1.3154
N10510 X1.5049 Y-1.2614 Z-0.0036
N10515 X1.5043 Y-1.2606
N10520 X1.5038 Y-1.2597 Z-0.0037
N10525 X1.5033 Y-1.2587
N10530 X1.503 Y-1.2576 Z-0.0038
N10535 X1.5029 Y-1.2566
N10540 Y-1.2557
N10545 X1.503 Y-1.2547 Z-0.0039
N10550 X1.5032 Y-1.2537
N10555 X1.5036 Y-1.2528
N10560 X1.504 Y-1.252 Z-0.004
N10565 X1.5045 Y-1.2513
N10570 X1.5051 Y-1.2506
N10575 X1.5058 Y-1.25 Z-0.0041
N10580 X1.5065 Y-1.2495
N10585 X1.5074 Y-1.249
N10590 X1.5084 Y-1.2486 Z-0.0042
N10595 X1.5094 Y-1.2484
N10600 X1.5104 Y-1.2483
N10605 X1.5114 Z-0.0043
N10610 X1.6115 Y-1.2626 Z-0.0078
N10615 X1.6122 Y-1.2625
N10620 X1.6127 Y-1.2621
N10625 X1.6176 Y-1.2573 Z-0.0081
N10630 X1.6177 Y-1.2571
N10635 X1.6174 Y-1.2567
N10640 X1.5477 Y-1.187 Z-0.0115
N10645 X1.5446 Y-1.1902 Z-0.0117
N10650 X1.5444 Y-1.1904
N10655 X1.5446 Y-1.1907
N10660 X1.5977 Y-1.2438 Z-0.0143
N10665 X1.5984 Y-1.2446 Z-0.0144
N10670 X1.5989 Y-1.2453
N10675 X1.5994 Y-1.2462 Z-0.0145
N10680 X1.5997 Y-1.2472
N10685 X1.6 Y-1.2482
N10690 Y-1.2492 Z-0.0146
N10695 Y-1.2502
N10700 X1.5998 Y-1.2512
N10705 X1.5995 Y-1.2522 Z-0.0147
N10710 X1.5991 Y-1.2532
N10715 X1.5987 Y-1.2538
N10720 X1.5983 Y-1.2543
N10725 X1.5976 Y-1.255 Z-0.0148
N10730 X1.5969 Y-1.2557
N10735 X1.5962 Y-1.2561
N10740 X1.5952 Y-1.2566 Z-0.0149
N10745 X1.5942 Y-1.2569
N10750 X1.5932 Y-1.2571 Z-0.015
N10755 X1.5922 Y-1.2572
N10760 X1.5911 Y-1.2571
N10765 X1.4922 Y-1.2433 Z-0.0185
N10770 X1.4915 Y-1.2434
N10775 X1.491 Y-1.2438 Z-0.0186
N10780 X1.486 Y-1.2487 Z-0.0188
N10785 X1.4859 Y-1.249
N10790 X1.486 Y-1.2492
N10795 X1.4876 Y-1.2508 Z-0.0189
N10800 X1.5556 Y-1.3188 Z-0.0223
N10805 X1.5558 Y-1.3189
N10810 X1.5561 Y-1.3187
N10815 X1.559 Y-1.3159 Z-0.0224
N10820 X1.5591 Y-1.3157
N10825 X1.559 Y-1.3154
N10830 X1.5049 Y-1.2614 Z-0.0251
N10835 X1.5043 Y-1.2606 Z-0.0252
N10840 X1.5038 Y-1.2597
N10845 X1.5033 Y-1.2587
N10850 X1.503 Y-1.2576 Z-0.0253
N10855 X1.5029 Y-1.2566
N10860 Y-1.2557
N10865 X1.503 Y-1.2547 Z-0.0254
N10870 X1.5032 Y-1.2537
N10875 X1.5036 Y-1.2528
N10880 X1.504 Y-1.252 Z-0.0255
N10885 X1.5045 Y-1.2513
N10890 X1.5051 Y-1.2506
N10895 X1.5058 Y-1.25 Z-0.0256
N10900 X1.5065 Y-1.2495
N10905 X1.5074 Y-1.249
N10910 X1.5084 Y-1.2486 Z-0.0257
N10915 X1.5094 Y-1.2484
N10920 X1.5104 Y-1.2483
N10925 X1.5114 Z-0.0258
N10930 X1.6115 Y-1.2626 Z-0.0293
N10935 X1.6122 Y-1.2625
N10940 X1.6127 Y-1.2621 Z-0.0294
N10945 X1.6176 Y-1.2573 Z-0.0296
N10950 X1.6177 Y-1.2571
N10955 X1.6174 Y-1.2567
N10960 X1.6096 Y-1.2489 Z-0.03
N10965 X1.5477 Y-1.187
N10970 X1.5446 Y-1.1902
N10975 X1.5444 Y-1.1904
N10980 X1.5446 Y-1.1907
N10985 X1.5977 Y-1.2438
N10990 X1.5984 Y-1.2446
N10995 X1.5989 Y-1.2453
N11000 X1.5994 Y-1.2462
N11005 X1.5997 Y-1.2472
N11010 X1.6 Y-1.2482
N11015 Y-1.2492
N11020 Y-1.2502
N11025 X1.5998 Y-1.2512
N11030 X1.5995 Y-1.2522
N11035 X1.5991 Y-1.2532
N11040 X1.5987 Y-1.2538
N11045 X1.5983 Y-1.2543
N11050 X1.5976 Y-1.255
N11055 X1.5969 Y-1.2557
N11060 X1.5962 Y-1.2561
N11065 X1.5952 Y-1.2566
N11070 X1.5942 Y-1.2569
N11075 X1.5932 Y-1.2571
N11080 X1.5922 Y-1.2572
N11085 X1.5911 Y-1.2571
N11090 X1.4922 Y-1.2433
N11095 X1.4915 Y-1.2434
N11100 X1.491 Y-1.2438
N11105 X1.486 Y-1.2487
N11110 X1.4859 Y-1.249
N11115 X1.486 Y-1.2492
N11120 X1.4876 Y-1.2508
N11125 X1.5556 Y-1.3188
N11130 X1.5558 Y-1.3189
N11135 X1.5561 Y-1.3187
N11140 X1.559 Y-1.3159
N11145 X1.5591 Y-1.3157
N11150 X1.559 Y-1.3154
N11155 X1.5049 Y-1.2614
N11160 X1.5043 Y-1.2606
N11165 X1.5038 Y-1.2597
N11170 X1.5033 Y-1.2587
N11175 X1.503 Y-1.2576
N11180 X1.5029 Y-1.2566
N11185 Y-1.2557
N11190 X1.503 Y-1.2547
N11195 X1.5032 Y-1.2537
N11200 X1.5036 Y-1.2528
N11205 X1.504 Y-1.252
N11210 X1.5045 Y-1.2513
N11215 X1.5051 Y-1.2506
N11220 X1.5058 Y-1.25
N11225 X1.5065 Y-1.2495
N11230 X1.5074 Y-1.249
N11235 X1.5084 Y-1.2486
N11240 X1.5094 Y-1.2484
N11245 X1.5104 Y-1.2483
N11250 X1.5114
N11255 X1.6115 Y-1.2626
N11260 X1.6122 Y-1.2625
N11265 X1.6127 Y-1.2621
N11270 X1.6176 Y-1.2573
N11275 X1.6177 Y-1.2571
N11280 X1.6174 Y-1.2567
N11285 X1.6096 Y-1.2489
N11290 G3 X1.6093 Y-1.2487 Z-0.0299 I-0.0011 J-0.0011
N11295 X1.6088 Y-1.2485 Z-0.0297 I-0.0007 J-0.0014
N11300 G1 X1.6085 Z-0.0294
N11305 X1.6083 Z-0.0289
N11310 X1.6082 Z-0.0284
N11315 G0 Z0.2
N11320 X1.678 Y-1.1551
N11325 Z0.0394
N11330 G1 Z0.0129 F40
N11335 X1.6778 Y-1.1549 Z0.0121
N11340 X1.6774 Y-1.1545 Z0.0116
N11345 X1.6769 Y-1.154 Z0.0113
N11350 X1.6288 Y-1.1059 Z0.009
N11355 X1.628 Y-1.1067 Z0.0089
N11360 X1.6269 Y-1.1084
N11365 X1.6268 Y-1.1094 Z0.0088
N11370 X1.627 Y-1.1103
N11375 X1.628 Y-1.1119 Z0.0087
N11380 X1.6428 Y-1.1267 Z0.008
N11385 X1.6432 Y-1.1272
N11390 X1.6443 Y-1.1287 Z0.0079
N11395 X1.6446 Y-1.1292
N11400 X1.6451 Y-1.1302 Z0.0078
N11405 X1.6454 Y-1.1312
N11410 X1.6455 Y-1.1317
N11415 X1.6459 Y-1.1337 Z0.0077
N11420 Y-1.1346
N11425 X1.6458 Y-1.1356
N11430 X1.6456 Y-1.1366 Z0.0076
N11435 X1.6454 Y-1.1376
N11440 X1.6451 Y-1.1386 Z0.0075
N11445 X1.6447 Y-1.1394
N11450 X1.6443 Y-1.1401
N11455 X1.6437 Y-1.141 Z0.0074
N11460 X1.6438 Y-1.1411
N11465 X1.6449 Y-1.1402
N11470 X1.6458 Y-1.1398
N11475 X1.6467 Y-1.1394 Z0.0073
N11480 X1.6482 Y-1.1391
N11485 X1.6492 Y-1.1389 Z0.0072
N11490 X1.6502 Y-1.1388
N11495 X1.6512 Y-1.1389
N11500 X1.6532 Y-1.1392 Z0.0071
N11505 X1.6542 Y-1.1395
N11510 X1.6552 Y-1.1399 Z0.007
N11515 X1.6562 Y-1.1406
N11520 X1.6572 Y-1.1412 Z0.0069
N11525 X1.6577 Y-1.1416
N11530 X1.6587 Y-1.1426
N11535 X1.6869 Y-1.1708 Z0.0055
N11540 X1.6873 Y-1.1712
N11545 X1.6884 Y-1.1728 Z0.0054
N11550 X1.6887 Y-1.1733
N11555 X1.6891 Y-1.1743 Z0.0053
N11560 X1.6894 Y-1.1753
N11565 X1.6898 Y-1.1771 Z0.0052
N11570 X1.6899 Y-1.1783
N11575 Y-1.1792
N11580 X1.6895 Y-1.1813 Z0.0051
N11585 X1.6892 Y-1.1823 Z0.005
N11590 X1.6888 Y-1.1832
N11595 X1.6882 Y-1.1842
N11600 X1.6874 Y-1.1854 Z0.0049
N11605 X1.6867 Y-1.1862
N11610 X1.672 Y-1.2008 Z0.0042
N11615 X1.6701 Y-1.2028 Z0.0041
N11620 X1.6686 Y-1.2041 Z0.004
N11625 X1.6661 Y-1.2062 Z0.0039
N11630 X1.6641 Y-1.2076 Z0.0038
N11635 X1.6621 Y-1.2089 Z0.0037
N11640 X1.6601 Y-1.2101 Z0.0036
N11645 X1.6572 Y-1.2115 Z0.0035
N11650 X1.6559 Y-1.212
N11655 X1.6542 Y-1.2126 Z0.0034
N11660 X1.6532 Y-1.2129
N11665 X1.6522 Y-1.2132 Z0.0033
N11670 X1.6502 Y-1.2136
N11675 X1.6478 Y-1.214 Z0.0032
N11680 X1.6463 Y-1.2141 Z0.0031
N11685 X1.6443
N11690 X1.6413 Y-1.2139 Z0.0029
N11695 X1.6403 Y-1.2138
N11700 X1.6383 Y-1.2133 Z0.0028
N11705 X1.6373 Y-1.2131
N11710 X1.6363 Y-1.2128
N11715 X1.6342 Y-1.212 Z0.0027
N11720 X1.6324 Y-1.2112 Z0.0026
N11725 X1.6303 Y-1.21 Z0.0025
N11730 X1.6289 Y-1.2092
N11735 X1.6264 Y-1.2073 Z0.0024
N11740 X1.6257 Y-1.2067 Z0.0023
N11745 X1.6244 Y-1.2056
N11750 X1.6229 Y-1.2041 Z0.0022
N11755 X1.6211 Y-1.2021 Z0.0021
N11760 X1.6196 Y-1.2001 Z0.002
N11765 X1.6184 Y-1.1981 Z0.0019
N11770 X1.6178 Y-1.1971
N11775 X1.6173 Y-1.1961
N11780 X1.6162 Y-1.1937 Z0.0018
N11785 X1.6157 Y-1.1922 Z0.0017
N11790 X1.6152 Y-1.1902 Z0.0016
N11795 X1.6148 Y-1.1882
N11800 X1.6145 Y-1.1855 Z0.0015
N11805 X1.6144 Y-1.1842 Z0.0014
N11810 X1.6145 Y-1.1823
N11815 X1.6147 Y-1.1803 Z0.0013
N11820 X1.615 Y-1.1783 Z0.0012
N11825 X1.6159 Y-1.1748 Z0.0011
N11830 X1.6169 Y-1.1723 Z0.001
N11835 X1.6177 Y-1.1704 Z0.0009
N11840 X1.6188 Y-1.1684
N11845 X1.6205 Y-1.1655 Z0.0007
N11850 X1.6227 Y-1.1624 Z0.0006
N11855 X1.6244 Y-1.1603 Z0.0005
N11860 X1.6262 Y-1.1584 Z0.0004
N11865 X1.6261
N11870 X1.6244 Y-1.1594 Z0.0003
N11875 X1.6234 Y-1.1599
N11880 X1.6225 Y-1.1602
N11885 X1.6215 Y-1.1603 Z0.0002
N11890 X1.6193 Y-1.1605
N11895 X1.6182 Y-1.1604 Z0.0001
N11900 X1.5799 Y-1.1549 Z-0.0012
N11905 X1.5798
N11910 X1.5781 Y-1.1566 Z-0.0013
N11915 X1.5782 Y-1.1567
N11920 X1.5785
N11925 X1.6101 Y-1.1609 Z-0.0024
N11930 X1.611 Y-1.1612 Z-0.0025
N11935 X1.612 Y-1.1616
N11940 X1.6129 Y-1.1621
N11945 X1.6136 Y-1.1627 Z-0.0026
N11950 X1.6142 Y-1.1632
N11955 X1.6148 Y-1.164
N11960 X1.6154 Y-1.1649 Z-0.0027
N11965 X1.6158 Y-1.1659
N11970 X1.6161 Y-1.1669 Z-0.0028
N11975 X1.6163 Y-1.1679
N11980 Y-1.1689
N11985 X1.6162 Y-1.1699 Z-0.0029
N11990 X1.616 Y-1.1708
N11995 X1.6156 Y-1.1718
N12000 X1.6137 Y-1.1763 Z-0.0031
N12005 X1.6123 Y-1.1805 Z-0.0033
N12010 X1.6119 Y-1.1823
N12015 X1.6114 Y-1.1845 Z-0.0034
N12020 X1.6113 Y-1.1862 Z-0.0035
N12025 X1.6112 Y-1.1885
N12030 Y-1.1899 Z-0.0036
N12035 X1.6115 Y-1.1922 Z-0.0037
N12040 X1.6118 Y-1.1937
N12045 X1.6125 Y-1.1962 Z-0.0038
N12050 X1.613 Y-1.1974 Z-0.0039
N12055 X1.6143 Y-1.2001 Z-0.004
N12060 X1.6146 Y-1.2008
N12065 X1.617 Y-1.2043 Z-0.0041
N12070 X1.6203 Y-1.208 Z-0.0043
N12075 X1.6263 Y-1.2131 Z-0.0046
N12080 X1.6324 Y-1.2164 Z-0.0048
N12085 X1.6383 Y-1.218 Z-0.005
N12090 X1.6444 Y-1.2182 Z-0.0053
N12095 X1.6508 Y-1.2168 Z-0.0055
N12100 X1.6578 Y-1.2138 Z-0.0057
N12105 X1.6651 Y-1.2089 Z-0.0061
N12110 X1.6728 Y-1.2021 Z-0.0064
N12115 X1.6963 Y-1.1786 Z-0.0076
N12120 X1.6973 Y-1.177
N12125 X1.6975 Y-1.1759 Z-0.0077
N12130 X1.6973 Y-1.1749
N12135 X1.6963 Y-1.1734 Z-0.0078
N12140 X1.6288 Y-1.1059 Z-0.0111
N12145 X1.628 Y-1.1067
N12150 X1.6269 Y-1.1084 Z-0.0112
N12155 X1.6268 Y-1.1094 Z-0.0113
N12160 X1.627 Y-1.1103
N12165 X1.628 Y-1.1119 Z-0.0114
N12170 X1.6428 Y-1.1267 Z-0.0121
N12175 X1.6432 Y-1.1272
N12180 X1.6443 Y-1.1287 Z-0.0122
N12185 X1.6446 Y-1.1292
N12190 X1.6451 Y-1.1302
N12195 X1.6454 Y-1.1312 Z-0.0123
N12200 X1.6455 Y-1.1317
N12205 X1.6459 Y-1.1337 Z-0.0124
N12210 Y-1.1346
N12215 X1.6458 Y-1.1356
N12220 X1.6456 Y-1.1366 Z-0.0125
N12225 X1.6454 Y-1.1376
N12230 X1.6451 Y-1.1386
N12235 X1.6447 Y-1.1394 Z-0.0126
N12240 X1.6443 Y-1.1401
N12245 X1.6437 Y-1.141
N12250 X1.6438 Y-1.1411
N12255 X1.6449 Y-1.1402 Z-0.0127
N12260 X1.6458 Y-1.1398
N12265 X1.6467 Y-1.1394 Z-0.0128
N12270 X1.6482 Y-1.1391
N12275 X1.6492 Y-1.1389
N12280 X1.6502 Y-1.1388 Z-0.0129
N12285 X1.6512 Y-1.1389
N12290 X1.6532 Y-1.1392 Z-0.013
N12295 X1.6542 Y-1.1395
N12300 X1.6552 Y-1.1399 Z-0.0131
N12305 X1.6562 Y-1.1406
N12310 X1.6572 Y-1.1412
N12315 X1.6577 Y-1.1416 Z-0.0132
N12320 X1.6587 Y-1.1426
N12325 X1.6869 Y-1.1708 Z-0.0146
N12330 X1.6873 Y-1.1712
N12335 X1.6884 Y-1.1728 Z-0.0147
N12340 X1.6887 Y-1.1733
N12345 X1.6891 Y-1.1743
N12350 X1.6894 Y-1.1753 Z-0.0148
N12355 X1.6898 Y-1.1771
N12360 X1.6899 Y-1.1783 Z-0.0149
N12365 Y-1.1792
N12370 X1.6895 Y-1.1813 Z-0.015
N12375 X1.6892 Y-1.1823
N12380 X1.6888 Y-1.1832 Z-0.0151
N12385 X1.6882 Y-1.1842
N12390 X1.6874 Y-1.1854 Z-0.0152
N12395 X1.6867 Y-1.1862
N12400 X1.672 Y-1.2008 Z-0.0159
N12405 X1.6701 Y-1.2028 Z-0.016
N12410 X1.6686 Y-1.2041 Z-0.0161
N12415 X1.6661 Y-1.2062 Z-0.0162
N12420 X1.6641 Y-1.2076 Z-0.0163
N12425 X1.6621 Y-1.2089 Z-0.0164
N12430 X1.6601 Y-1.2101
N12435 X1.6572 Y-1.2115 Z-0.0166
N12440 X1.6559 Y-1.212
N12445 X1.6542 Y-1.2126 Z-0.0167
N12450 X1.6532 Y-1.2129
N12455 X1.6522 Y-1.2132
N12460 X1.6502 Y-1.2136 Z-0.0168
N12465 X1.6478 Y-1.214 Z-0.0169
N12470 X1.6463 Y-1.2141 Z-0.017
N12475 X1.6443
N12480 X1.6413 Y-1.2139 Z-0.0171
N12485 X1.6403 Y-1.2138 Z-0.0172
N12490 X1.6383 Y-1.2133
N12495 X1.6373 Y-1.2131 Z-0.0173
N12500 X1.6363 Y-1.2128
N12505 X1.6342 Y-1.212 Z-0.0174
N12510 X1.6324 Y-1.2112 Z-0.0175
N12515 X1.6303 Y-1.21
N12520 X1.6289 Y-1.2092 Z-0.0176
N12525 X1.6264 Y-1.2073 Z-0.0177
N12530 X1.6257 Y-1.2067
N12535 X1.6244 Y-1.2056 Z-0.0178
N12540 X1.6229 Y-1.2041 Z-0.0179
N12545 X1.6211 Y-1.2021 Z-0.018
N12550 X1.6196 Y-1.2001
N12555 X1.6184 Y-1.1981 Z-0.0181
N12560 X1.6178 Y-1.1971 Z-0.0182
N12565 X1.6173 Y-1.1961
N12570 X1.6162 Y-1.1937 Z-0.0183
N12575 X1.6157 Y-1.1922 Z-0.0184
N12580 X1.6152 Y-1.1902
N12585 X1.6148 Y-1.1882 Z-0.0185
N12590 X1.6145 Y-1.1855 Z-0.0186
N12595 X1.6144 Y-1.1842
N12600 X1.6145 Y-1.1823 Z-0.0187
N12605 X1.6147 Y-1.1803 Z-0.0188
N12610 X1.615 Y-1.1783
N12615 X1.6159 Y-1.1748 Z-0.019
N12620 X1.6169 Y-1.1723 Z-0.0191
N12625 X1.6177 Y-1.1704
N12630 X1.6188 Y-1.1684 Z-0.0192
N12635 X1.6205 Y-1.1655 Z-0.0193
N12640 X1.6227 Y-1.1624 Z-0.0195
N12645 X1.6244 Y-1.1603 Z-0.0196
N12650 X1.6262 Y-1.1584 Z-0.0197
N12655 X1.6261
N12660 X1.6244 Y-1.1594
N12665 X1.6234 Y-1.1599 Z-0.0198
N12670 X1.6225 Y-1.1602
N12675 X1.6215 Y-1.1603
N12680 X1.6193 Y-1.1605 Z-0.0199
N12685 X1.6182 Y-1.1604
N12690 X1.5799 Y-1.1549 Z-0.0213
N12695 X1.5798
N12700 X1.5781 Y-1.1566 Z-0.0214
N12705 X1.5782 Y-1.1567
N12710 X1.5785
N12715 X1.6101 Y-1.1609 Z-0.0225
N12720 X1.611 Y-1.1612
N12725 X1.612 Y-1.1616 Z-0.0226
N12730 X1.6129 Y-1.1621
N12735 X1.6136 Y-1.1627 Z-0.0227
N12740 X1.6142 Y-1.1632
N12745 X1.6148 Y-1.164
N12750 X1.6154 Y-1.1649 Z-0.0228
N12755 X1.6158 Y-1.1659
N12760 X1.6161 Y-1.1669
N12765 X1.6163 Y-1.1679 Z-0.0229
N12770 Y-1.1689
N12775 X1.6162 Y-1.1699
N12780 X1.616 Y-1.1708 Z-0.023
N12785 X1.6156 Y-1.1718
N12790 X1.6137 Y-1.1763 Z-0.0232
N12795 X1.6123 Y-1.1805 Z-0.0233
N12800 X1.6119 Y-1.1823 Z-0.0234
N12805 X1.6114 Y-1.1845 Z-0.0235
N12810 X1.6113 Y-1.1862
N12815 X1.6112 Y-1.1885 Z-0.0236
N12820 Y-1.1899 Z-0.0237
N12825 X1.6115 Y-1.1922
N12830 X1.6118 Y-1.1937 Z-0.0238
N12835 X1.6125 Y-1.1962 Z-0.0239
N12840 X1.613 Y-1.1974
N12845 X1.6143 Y-1.2001 Z-0.024
N12850 X1.6146 Y-1.2008 Z-0.0241
N12855 X1.617 Y-1.2043 Z-0.0242
N12860 X1.6203 Y-1.208 Z-0.0244
N12865 X1.6263 Y-1.2131 Z-0.0247
N12870 X1.6324 Y-1.2164 Z-0.0249
N12875 X1.6383 Y-1.218 Z-0.0251
N12880 X1.6444 Y-1.2182 Z-0.0253
N12885 X1.6508 Y-1.2168 Z-0.0256
N12890 X1.6578 Y-1.2138 Z-0.0258
N12895 X1.6651 Y-1.2089 Z-0.0261
N12900 X1.6728 Y-1.2021 Z-0.0265
N12905 X1.6963 Y-1.1786 Z-0.0276
N12910 X1.6973 Y-1.177 Z-0.0277
N12915 X1.6975 Y-1.1759 Z-0.0278
N12920 X1.6973 Y-1.1749
N12925 X1.6963 Y-1.1734 Z-0.0279
N12930 X1.6528 Y-1.1299 Z-0.03
N12935 X1.6288 Y-1.1059
N12940 X1.628 Y-1.1067
N12945 X1.6269 Y-1.1084
N12950 X1.6268 Y-1.1094
N12955 X1.627 Y-1.1103
N12960 X1.628 Y-1.1119
N12965 X1.6428 Y-1.1267
N12970 X1.6432 Y-1.1272
N12975 X1.6443 Y-1.1287
N12980 X1.6446 Y-1.1292
N12985 X1.6451 Y-1.1302
N12990 X1.6454 Y-1.1312
N12995 X1.6455 Y-1.1317
N13000 X1.6459 Y-1.1337
N13005 Y-1.1346
N13010 X1.6458 Y-1.1356
N13015 X1.6456 Y-1.1366
N13020 X1.6454 Y-1.1376
N13025 X1.6451 Y-1.1386
N13030 X1.6447 Y-1.1394
N13035 X1.6443 Y-1.1401
N13040 X1.6437 Y-1.141
N13045 X1.6438 Y-1.1411
N13050 X1.6449 Y-1.1402
N13055 X1.6458 Y-1.1398
N13060 X1.6467 Y-1.1394
N13065 X1.6482 Y-1.1391
N13070 X1.6492 Y-1.1389
N13075 X1.6502 Y-1.1388
N13080 X1.6512 Y-1.1389
N13085 X1.6532 Y-1.1392
N13090 X1.6542 Y-1.1395
N13095 X1.6552 Y-1.1399
N13100 X1.6562 Y-1.1406
N13105 X1.6572 Y-1.1412
N13110 X1.6577 Y-1.1416
N13115 X1.6587 Y-1.1426
N13120 X1.6869 Y-1.1708
N13125 X1.6873 Y-1.1712
N13130 X1.6884 Y-1.1728
N13135 X1.6887 Y-1.1733
N13140 X1.6891 Y-1.1743
N13145 X1.6894 Y-1.1753
N13150 X1.6898 Y-1.1771
N13155 X1.6899 Y-1.1783
N13160 Y-1.1792
N13165 X1.6895 Y-1.1813
N13170 X1.6892 Y-1.1823
N13175 X1.6888 Y-1.1832
N13180 X1.6882 Y-1.1842
N13185 X1.6874 Y-1.1854
N13190 X1.6867 Y-1.1862
N13195 X1.672 Y-1.2008
N13200 X1.6701 Y-1.2028
N13205 X1.6686 Y-1.2041
N13210 X1.6661 Y-1.2062
N13215 X1.6641 Y-1.2076
N13220 X1.6621 Y-1.2089
N13225 X1.6601 Y-1.2101
N13230 X1.6572 Y-1.2115
N13235 X1.6559 Y-1.212
N13240 X1.6542 Y-1.2126
N13245 X1.6532 Y-1.2129
N13250 X1.6522 Y-1.2132
N13255 X1.6502 Y-1.2136
N13260 X1.6478 Y-1.214
N13265 X1.6463 Y-1.2141
N13270 X1.6443
N13275 X1.6413 Y-1.2139
N13280 X1.6403 Y-1.2138
N13285 X1.6383 Y-1.2133
N13290 X1.6373 Y-1.2131
N13295 X1.6363 Y-1.2128
N13300 X1.6342 Y-1.212
N13305 X1.6324 Y-1.2112
N13310 X1.6303 Y-1.21
N13315 X1.6289 Y-1.2092
N13320 X1.6264 Y-1.2073
N13325 X1.6257 Y-1.2067
N13330 X1.6244 Y-1.2056
N13335 X1.6229 Y-1.2041
N13340 X1.6211 Y-1.2021
N13345 X1.6196 Y-1.2001
N13350 X1.6184 Y-1.1981
N13355 X1.6178 Y-1.1971
N13360 X1.6173 Y-1.1961
N13365 X1.6162 Y-1.1937
N13370 X1.6157 Y-1.1922
N13375 X1.6152 Y-1.1902
N13380 X1.6148 Y-1.1882
N13385 X1.6145 Y-1.1855
N13390 X1.6144 Y-1.1842
N13395 X1.6145 Y-1.1823
N13400 X1.6147 Y-1.1803
N13405 X1.615 Y-1.1783
N13410 X1.6159 Y-1.1748
N13415 X1.6169 Y-1.1723
N13420 X1.6177 Y-1.1704
N13425 X1.6188 Y-1.1684
N13430 X1.6205 Y-1.1655
N13435 X1.6227 Y-1.1624
N13440 X1.6244 Y-1.1603
N13445 X1.6262 Y-1.1584
N13450 X1.6261
N13455 X1.6244 Y-1.1594
N13460 X1.6234 Y-1.1599
N13465 X1.6225 Y-1.1602
N13470 X1.6215 Y-1.1603
N13475 X1.6193 Y-1.1605
N13480 X1.6182 Y-1.1604
N13485 X1.5799 Y-1.1549
N13490 X1.5798
N13495 X1.5781 Y-1.1566
N13500 X1.5782 Y-1.1567
N13505 X1.5785
N13510 X1.6101 Y-1.1609
N13515 X1.611 Y-1.1612
N13520 X1.612 Y-1.1616
N13525 X1.6129 Y-1.1621
N13530 X1.6136 Y-1.1627
N13535 X1.6142 Y-1.1632
N13540 X1.6148 Y-1.164
N13545 X1.6154 Y-1.1649
N13550 X1.6158 Y-1.1659
N13555 X1.6161 Y-1.1669
N13560 X1.6163 Y-1.1679
N13565 Y-1.1689
N13570 X1.6162 Y-1.1699
N13575 X1.616 Y-1.1708
N13580 X1.6156 Y-1.1718
N13585 X1.6137 Y-1.1763
N13590 X1.6123 Y-1.1805
N13595 X1.6119 Y-1.1823
N13600 X1.6114 Y-1.1845
N13605 X1.6113 Y-1.1862
N13610 X1.6112 Y-1.1885
N13615 Y-1.1899
N13620 X1.6115 Y-1.1922
N13625 X1.6118 Y-1.1937
N13630 X1.6125 Y-1.1962
N13635 X1.613 Y-1.1974
N13640 X1.6143 Y-1.2001
N13645 X1.6146 Y-1.2008
N13650 X1.617 Y-1.2043
N13655 X1.6203 Y-1.208
N13660 X1.6263 Y-1.2131
N13665 X1.6324 Y-1.2164
N13670 X1.6383 Y-1.218
N13675 X1.6444 Y-1.2182
N13680 X1.6508 Y-1.2168
N13685 X1.6578 Y-1.2138
N13690 X1.6651 Y-1.2089
N13695 X1.6728 Y-1.2021
N13700 X1.6963 Y-1.1786
N13705 X1.6973 Y-1.177
N13710 X1.6975 Y-1.1759
N13715 X1.6973 Y-1.1749
N13720 X1.6963 Y-1.1734
N13725 X1.6528 Y-1.1299
N13730 G3 X1.6524 Y-1.1296 Z-0.0299 I-0.0011 J-0.0011
N13735 X1.652 Y-1.1294 Z-0.0297 I-0.0007 J-0.0014
N13740 G1 X1.6516 Z-0.0294
N13745 X1.6514 Z-0.0289
N13750 X1.6513 Z-0.0284
N13755 G0 Z0.2
N13760 X1.7179 Y-1.0381
N13765 Z0.0394
N13770 G1 Z0.0129 F40
N13775 X1.7181 Z0.0121
N13780 X1.7186 Y-1.0382 Z0.0116
N13785 X1.7194 Y-1.0384 Z0.0113
N13790 X1.7196
N13795 X1.7216 Y-1.0389
N13800 X1.7236 Y-1.0395 Z0.0112
N13805 X1.7256 Y-1.0403 Z0.0111
N13810 X1.7276 Y-1.0411 Z0.011
N13815 X1.7282 Y-1.0414
N13820 X1.7319 Y-1.0434 Z0.0109
N13825 X1.735 Y-1.0454 Z0.0107
N13830 X1.7355 Y-1.0457
N13835 X1.7378 Y-1.0474 Z0.0106
N13840 X1.7395 Y-1.0487 Z0.0105
N13845 X1.7415 Y-1.0504
N13850 X1.7425 Y-1.0513 Z0.0104
N13855 X1.7454 Y-1.0541 Z0.0103
N13860 X1.7829 Y-1.0915 Z0.0084
N13865 X1.7831 Y-1.0917
N13870 X1.7835 Y-1.0914
N13875 X1.7864 Y-1.0885 Z0.0082
N13880 X1.7866 Y-1.0882
N13885 X1.7863 Y-1.0879
N13890 X1.7494 Y-1.051 Z0.0064
N13895 X1.74 Y-1.0426 Z0.006
N13900 X1.7314 Y-1.0369 Z0.0056
N13905 X1.7233 Y-1.0336 Z0.0053
N13910 X1.7158 Y-1.0323 Z0.005
N13915 X1.7084 Y-1.0329 Z0.0048
N13920 X1.7009 Y-1.0355 Z0.0045
N13925 X1.6931 Y-1.0402 Z0.0042
N13930 X1.6849 Y-1.0474 Z0.0038
N13935 X1.6779 Y-1.0554 Z0.0034
N13940 X1.6731 Y-1.0634 Z0.0031
N13945 X1.6705 Y-1.0709 Z0.0028
N13950 X1.6699 Y-1.0782 Z0.0026
N13955 X1.6701 Y-1.0792 Z0.0025
N13960 X1.6712 Y-1.0858 Z0.0023
N13965 X1.6745 Y-1.0939 Z0.002
N13970 X1.6801 Y-1.1024 Z0.0016
N13975 X1.6879 Y-1.1112 Z0.0012
N13980 X1.6919 Y-1.1152 Z0.001
N13985 X1.7256 Y-1.1489 Z-0.0006
N13990 X1.7258 Y-1.149
N13995 X1.7261 Y-1.1488 Z-0.0007
N14000 X1.7289 Y-1.1459 Z-0.0008
N14005 X1.7291 Y-1.1457
N14010 X1.7288 Y-1.1453
N14015 X1.6919 Y-1.1084 Z-0.0027
N14020 X1.6886 Y-1.1049 Z-0.0028
N14025 X1.6868 Y-1.1029 Z-0.0029
N14030 X1.6852 Y-1.1009 Z-0.003
N14035 X1.6837 Y-1.0989 Z-0.0031
N14040 X1.682 Y-1.0964 Z-0.0032
N14045 X1.6811 Y-1.095 Z-0.0033
N14050 X1.6799 Y-1.093
N14055 X1.6789 Y-1.091 Z-0.0034
N14060 X1.678 Y-1.089 Z-0.0035
N14065 X1.6772 Y-1.087 Z-0.0036
N14070 X1.6765 Y-1.0851
N14075 X1.676 Y-1.0831 Z-0.0037
N14080 X1.6755 Y-1.0811 Z-0.0038
N14085 X1.6752 Y-1.0791 Z-0.0039
N14090 X1.675 Y-1.0771
N14095 X1.6749 Y-1.0751 Z-0.004
N14100 X1.675 Y-1.0731 Z-0.0041
N14105 X1.6751 Y-1.0712
N14110 X1.6754 Y-1.0692 Z-0.0042
N14115 X1.6758 Y-1.0672 Z-0.0043
N14120 X1.6764 Y-1.0652
N14125 X1.6771 Y-1.0632 Z-0.0044
N14130 X1.678 Y-1.0611 Z-0.0045
N14135 X1.6789 Y-1.0593 Z-0.0046
N14140 X1.68 Y-1.0573
N14145 X1.6813 Y-1.0553 Z-0.0047
N14150 X1.6823 Y-1.0539 Z-0.0048
N14155 X1.6828 Y-1.0533
N14160 X1.6867 Y-1.0489 Z-0.005
N14165 X1.6883 Y-1.0474 Z-0.0051
N14170 X1.6907 Y-1.0454 Z-0.0052
N14175 X1.6919 Y-1.0445 Z-0.0053
N14180 X1.6934 Y-1.0434
N14185 X1.6958 Y-1.0419 Z-0.0054
N14190 X1.6978 Y-1.0409 Z-0.0055
N14195 X1.6998 Y-1.04 Z-0.0056
N14200 X1.7018 Y-1.0393 Z-0.0057
N14205 X1.7028 Y-1.039
N14210 X1.7038 Y-1.0387
N14215 X1.7058 Y-1.0382 Z-0.0058
N14220 X1.7067 Y-1.038
N14225 X1.7077 Y-1.0379 Z-0.0059
N14230 X1.7097 Y-1.0377
N14235 X1.7107 Y-1.0376 Z-0.006
N14240 X1.7137 Z-0.0061
N14245 X1.7157 Y-1.0378
N14250 X1.7177 Y-1.038 Z-0.0062
N14255 X1.7186 Y-1.0382
N14260 X1.7196 Y-1.0384 Z-0.0063
N14265 X1.7216 Y-1.0389 Z-0.0064
N14270 X1.7236 Y-1.0395
N14275 X1.7256 Y-1.0403 Z-0.0065
N14280 X1.7276 Y-1.0411 Z-0.0066
N14285 X1.7282 Y-1.0414
N14290 X1.7319 Y-1.0434 Z-0.0068
N14295 X1.735 Y-1.0454 Z-0.0069
N14300 X1.7355 Y-1.0457
N14305 X1.7378 Y-1.0474 Z-0.007
N14310 X1.7395 Y-1.0487 Z-0.0071
N14315 X1.7415 Y-1.0504 Z-0.0072
N14320 X1.7425 Y-1.0513
N14325 X1.7454 Y-1.0541 Z-0.0074
N14330 X1.7829 Y-1.0915 Z-0.0092
N14335 X1.7831 Y-1.0917
N14340 X1.7835 Y-1.0914
N14345 X1.7864 Y-1.0885 Z-0.0094
N14350 X1.7866 Y-1.0882
N14355 X1.7863 Y-1.0879
N14360 X1.7494 Y-1.051 Z-0.0112
N14365 X1.74 Y-1.0426 Z-0.0117
N14370 X1.7314 Y-1.0369 Z-0.012
N14375 X1.7233 Y-1.0336 Z-0.0123
N14380 X1.7158 Y-1.0323 Z-0.0126
N14385 X1.7084 Y-1.0329 Z-0.0128
N14390 X1.7009 Y-1.0355 Z-0.0131
N14395 X1.6931 Y-1.0402 Z-0.0134
N14400 X1.6849 Y-1.0474 Z-0.0138
N14405 X1.6779 Y-1.0554 Z-0.0142
N14410 X1.6731 Y-1.0634 Z-0.0145
N14415 X1.6705 Y-1.0709 Z-0.0148
N14420 X1.6699 Y-1.0782 Z-0.0151
N14425 X1.6701 Y-1.0792
N14430 X1.6712 Y-1.0858 Z-0.0153
N14435 X1.6745 Y-1.0939 Z-0.0156
N14440 X1.6801 Y-1.1024 Z-0.016
N14445 X1.6879 Y-1.1112 Z-0.0164
N14450 X1.6919 Y-1.1152 Z-0.0166
N14455 X1.7256 Y-1.1489 Z-0.0183
N14460 X1.7258 Y-1.149
N14465 X1.7261 Y-1.1488
N14470 X1.7289 Y-1.1459 Z-0.0184
N14475 X1.7291 Y-1.1457
N14480 X1.7288 Y-1.1453
N14485 X1.6919 Y-1.1084 Z-0.0203
N14490 X1.6886 Y-1.1049 Z-0.0204
N14495 X1.6868 Y-1.1029 Z-0.0205
N14500 X1.6852 Y-1.1009 Z-0.0206
N14505 X1.6837 Y-1.0989 Z-0.0207
N14510 X1.682 Y-1.0964 Z-0.0208
N14515 X1.6811 Y-1.095 Z-0.0209
N14520 X1.6799 Y-1.093 Z-0.021
N14525 X1.6789 Y-1.091
N14530 X1.678 Y-1.089 Z-0.0211
N14535 X1.6772 Y-1.087 Z-0.0212
N14540 X1.6765 Y-1.0851 Z-0.0213
N14545 X1.676 Y-1.0831
N14550 X1.6755 Y-1.0811 Z-0.0214
N14555 X1.6752 Y-1.0791 Z-0.0215
N14560 X1.675 Y-1.0771
N14565 X1.6749 Y-1.0751 Z-0.0216
N14570 X1.675 Y-1.0731 Z-0.0217
N14575 X1.6751 Y-1.0712
N14580 X1.6754 Y-1.0692 Z-0.0218
N14585 X1.6758 Y-1.0672 Z-0.0219
N14590 X1.6764 Y-1.0652 Z-0.022
N14595 X1.6771 Y-1.0632
N14600 X1.678 Y-1.0611 Z-0.0221
N14605 X1.6789 Y-1.0593 Z-0.0222
N14610 X1.68 Y-1.0573 Z-0.0223
N14615 X1.6813 Y-1.0553
N14620 X1.6823 Y-1.0539 Z-0.0224
N14625 X1.6828 Y-1.0533
N14630 X1.6867 Y-1.0489 Z-0.0226
N14635 X1.6883 Y-1.0474 Z-0.0227
N14640 X1.6907 Y-1.0454 Z-0.0228
N14645 X1.6919 Y-1.0445 Z-0.0229
N14650 X1.6934 Y-1.0434
N14655 X1.6958 Y-1.0419 Z-0.023
N14660 X1.6978 Y-1.0409 Z-0.0231
N14665 X1.6998 Y-1.04 Z-0.0232
N14670 X1.7018 Y-1.0393 Z-0.0233
N14675 X1.7028 Y-1.039
N14680 X1.7038 Y-1.0387
N14685 X1.7058 Y-1.0382 Z-0.0234
N14690 X1.7067 Y-1.038
N14695 X1.7077 Y-1.0379 Z-0.0235
N14700 X1.7097 Y-1.0377 Z-0.0236
N14705 X1.7107 Y-1.0376
N14710 X1.7137 Z-0.0237
N14715 X1.7157 Y-1.0378 Z-0.0238
N14720 X1.7177 Y-1.038
N14725 X1.7186 Y-1.0382 Z-0.0239
N14730 X1.7196 Y-1.0384
N14735 X1.7216 Y-1.0389 Z-0.024
N14740 X1.7236 Y-1.0395
N14745 X1.7256 Y-1.0403 Z-0.0241
N14750 X1.7276 Y-1.0411 Z-0.0242
N14755 X1.7282 Y-1.0414
N14760 X1.7319 Y-1.0434 Z-0.0244
N14765 X1.735 Y-1.0454 Z-0.0245
N14770 X1.7355 Y-1.0457
N14775 X1.7378 Y-1.0474 Z-0.0246
N14780 X1.7395 Y-1.0487 Z-0.0247
N14785 X1.7415 Y-1.0504 Z-0.0248
N14790 X1.7425 Y-1.0513
N14795 X1.7454 Y-1.0541 Z-0.025
N14800 X1.7829 Y-1.0915 Z-0.0268
N14805 X1.7831 Y-1.0917
N14810 X1.7835 Y-1.0914
N14815 X1.7864 Y-1.0885 Z-0.027
N14820 X1.7866 Y-1.0882
N14825 X1.7863 Y-1.0879
N14830 X1.7494 Y-1.051 Z-0.0288
N14835 X1.74 Y-1.0426 Z-0.0293
N14840 X1.7314 Y-1.0369 Z-0.0296
N14845 X1.7233 Y-1.0336 Z-0.0299
N14850 X1.7216 Y-1.0333 Z-0.03
N14855 X1.7158 Y-1.0323
N14860 X1.7084 Y-1.0329
N14865 X1.7009 Y-1.0355
N14870 X1.6931 Y-1.0402
N14875 X1.6849 Y-1.0474
N14880 X1.6779 Y-1.0554
N14885 X1.6731 Y-1.0634
N14890 X1.6705 Y-1.0709
N14895 X1.6699 Y-1.0782
N14900 X1.6701 Y-1.0792
N14905 X1.6712 Y-1.0858
N14910 X1.6745 Y-1.0939
N14915 X1.6801 Y-1.1024
N14920 X1.6879 Y-1.1112
N14925 X1.6919 Y-1.1152
N14930 X1.7256 Y-1.1489
N14935 X1.7258 Y-1.149
N14940 X1.7261 Y-1.1488
N14945 X1.7289 Y-1.1459
N14950 X1.7291 Y-1.1457
N14955 X1.7288 Y-1.1453
N14960 X1.6919 Y-1.1084
N14965 X1.6886 Y-1.1049
N14970 X1.6868 Y-1.1029
N14975 X1.6852 Y-1.1009
N14980 X1.6837 Y-1.0989
N14985 X1.682 Y-1.0964
N14990 X1.6811 Y-1.095
N14995 X1.6799 Y-1.093
N15000 X1.6789 Y-1.091
N15005 X1.678 Y-1.089
N15010 X1.6772 Y-1.087
N15015 X1.6765 Y-1.0851
N15020 X1.676 Y-1.0831
N15025 X1.6755 Y-1.0811
N15030 X1.6752 Y-1.0791
N15035 X1.675 Y-1.0771
N15040 X1.6749 Y-1.0751
N15045 X1.675 Y-1.0731
N15050 X1.6751 Y-1.0712
N15055 X1.6754 Y-1.0692
N15060 X1.6758 Y-1.0672
N15065 X1.6764 Y-1.0652
N15070 X1.6771 Y-1.0632
N15075 X1.678 Y-1.0611
N15080 X1.6789 Y-1.0593
N15085 X1.68 Y-1.0573
N15090 X1.6813 Y-1.0553
N15095 X1.6823 Y-1.0539
N15100 X1.6828 Y-1.0533
N15105 X1.6867 Y-1.0489
N15110 X1.6883 Y-1.0474
N15115 X1.6907 Y-1.0454
N15120 X1.6919 Y-1.0445
N15125 X1.6934 Y-1.0434
N15130 X1.6958 Y-1.0419
N15135 X1.6978 Y-1.0409
N15140 X1.6998 Y-1.04
N15145 X1.7018 Y-1.0393
N15150 X1.7028 Y-1.039
N15155 X1.7038 Y-1.0387
N15160 X1.7058 Y-1.0382
N15165 X1.7067 Y-1.038
N15170 X1.7077 Y-1.0379
N15175 X1.7097 Y-1.0377
N15180 X1.7107 Y-1.0376
N15185 X1.7137
N15190 X1.7157 Y-1.0378
N15195 X1.7177 Y-1.038
N15200 X1.7186 Y-1.0382
N15205 X1.7196 Y-1.0384
N15210 X1.7216 Y-1.0389
N15215 X1.7236 Y-1.0395
N15220 X1.7256 Y-1.0403
N15225 X1.7276 Y-1.0411
N15230 X1.7282 Y-1.0414
N15235 X1.7319 Y-1.0434
N15240 X1.735 Y-1.0454
N15245 X1.7355 Y-1.0457
N15250 X1.7378 Y-1.0474
N15255 X1.7395 Y-1.0487
N15260 X1.7415 Y-1.0504
N15265 X1.7425 Y-1.0513
N15270 X1.7454 Y-1.0541
N15275 X1.7829 Y-1.0915
N15280 X1.7831 Y-1.0917
N15285 X1.7835 Y-1.0914
N15290 X1.7864 Y-1.0885
N15295 X1.7866 Y-1.0882
N15300 X1.7863 Y-1.0879
N15305 X1.7494 Y-1.051
N15310 X1.74 Y-1.0426
N15315 X1.7314 Y-1.0369
N15320 X1.7233 Y-1.0336
N15325 X1.7216 Y-1.0333
N15330 G3 X1.7211 Z-0.0299 I-0.0003 J-0.0015
N15335 X1.7207 Y-1.0334 Z-0.0297 I0.0002 J-0.0015
N15340 G1 X1.7204 Y-1.0336 Z-0.0294
N15345 X1.7202 Y-1.0337 Z-0.0289
N15350 Y-1.0338 Z-0.0284
N15355 G0 Z0.2
N15360 X1.8159 Y-1.0121
N15365 Z0.0394
N15370 G1 Z0.0129 F40
N15375 X1.816 Y-1.0122 Z0.0121
N15380 X1.8164 Y-1.0126 Z0.0116
N15385 X1.8169 Y-1.0131 Z0.0113
N15390 X1.8324 Y-1.0286 Z0.0106
N15395 X1.8329 Y-1.0292 Z0.0105
N15400 X1.8334 Y-1.03
N15405 X1.8339 Y-1.031
N15410 X1.8342 Y-1.032 Z0.0104
N15415 X1.8344 Y-1.033
N15420 Y-1.034
N15425 X1.8343 Y-1.035 Z0.0103
N15430 X1.8341 Y-1.036
N15435 X1.8337 Y-1.0369
N15440 X1.8333 Y-1.0378 Z0.0102
N15445 X1.8327 Y-1.0387
N15450 X1.832 Y-1.0394
N15455 X1.81 Y-1.0614 Z0.0091
N15460 X1.8099 Y-1.0616
N15465 Y-1.0617
N15470 X1.8101 Y-1.062 Z0.009
N15475 X1.8112 Y-1.0631
N15480 X1.8115 Y-1.0633
N15485 X1.8118 Y-1.063
N15490 X1.8702 Y-1.0046 Z0.0061
N15495 X1.8704 Y-1.0044
N15500 X1.8702 Y-1.0041
N15505 X1.869 Y-1.0029 Z0.006
N15510 X1.8687 Y-1.0028
N15515 X1.8684 Y-1.003
N15520 X1.8462 Y-1.0252 Z0.0049
N15525 X1.8455 Y-1.0258 Z0.0048
N15530 X1.8446 Y-1.0263
N15535 X1.8436 Y-1.0267
N15540 X1.8426 Y-1.027 Z0.0047
N15545 X1.8416 Y-1.0272
N15550 X1.8406
N15555 X1.8396 Y-1.0271 Z0.0046
N15560 X1.8386 Y-1.0268
N15565 X1.8377 Y-1.0264
N15570 X1.8372 Y-1.0262 Z0.0045
N15575 X1.8362 Y-1.0255
N15580 X1.8355 Y-1.0248
N15585 X1.7727 Y-0.9621 Z0.0014
N15590 X1.7726 Y-0.9622
N15595 X1.7695 Y-0.9652 Z0.0012
N15600 X1.7694 Y-0.9655
N15605 X1.7696 Y-0.9658
N15610 X1.7712 Y-0.9674 Z0.0011
N15615 X1.8324 Y-1.0286 Z-0.0019
N15620 X1.8329 Y-1.0292
N15625 X1.8334 Y-1.03 Z-0.002
N15630 X1.8339 Y-1.031
N15635 X1.8342 Y-1.032
N15640 X1.8344 Y-1.033 Z-0.0021
N15645 Y-1.034
N15650 X1.8343 Y-1.035 Z-0.0022
N15655 X1.8341 Y-1.036
N15660 X1.8337 Y-1.0369
N15665 X1.8333 Y-1.0378 Z-0.0023
N15670 X1.8327 Y-1.0387
N15675 X1.832 Y-1.0394
N15680 X1.81 Y-1.0614 Z-0.0034
N15685 X1.8099 Y-1.0616
N15690 Y-1.0617
N15695 X1.8101 Y-1.062
N15700 X1.8112 Y-1.0631 Z-0.0035
N15705 X1.8115 Y-1.0633
N15710 X1.8118 Y-1.063
N15715 X1.8702 Y-1.0046 Z-0.0064
N15720 X1.8704 Y-1.0044
N15725 X1.8702 Y-1.0041
N15730 X1.869 Y-1.0029 Z-0.0065
N15735 X1.8687 Y-1.0028
N15740 X1.8684 Y-1.003
N15745 X1.8462 Y-1.0252 Z-0.0076
N15750 X1.8455 Y-1.0258
N15755 X1.8446 Y-1.0263 Z-0.0077
N15760 X1.8436 Y-1.0267
N15765 X1.8426 Y-1.027 Z-0.0078
N15770 X1.8416 Y-1.0272
N15775 X1.8406
N15780 X1.8396 Y-1.0271 Z-0.0079
N15785 X1.8386 Y-1.0268
N15790 X1.8377 Y-1.0264
N15795 X1.8372 Y-1.0262
N15800 X1.8362 Y-1.0255 Z-0.008
N15805 X1.8355 Y-1.0248
N15810 X1.7727 Y-0.9621 Z-0.0111
N15815 X1.7726 Y-0.9622
N15820 X1.7695 Y-0.9652 Z-0.0113
N15825 X1.7694 Y-0.9655
N15830 X1.7696 Y-0.9658
N15835 X1.7712 Y-0.9674 Z-0.0114
N15840 X1.8324 Y-1.0286 Z-0.0144
N15845 X1.8329 Y-1.0292
N15850 X1.8334 Y-1.03 Z-0.0145
N15855 X1.8339 Y-1.031
N15860 X1.8342 Y-1.032
N15865 X1.8344 Y-1.033 Z-0.0146
N15870 Y-1.034
N15875 X1.8343 Y-1.035
N15880 X1.8341 Y-1.036 Z-0.0147
N15885 X1.8337 Y-1.0369
N15890 X1.8333 Y-1.0378
N15895 X1.8327 Y-1.0387 Z-0.0148
N15900 X1.832 Y-1.0394
N15905 X1.81 Y-1.0614 Z-0.0159
N15910 X1.8099 Y-1.0616
N15915 Y-1.0617
N15920 X1.8101 Y-1.062
N15925 X1.8112 Y-1.0631 Z-0.016
N15930 X1.8115 Y-1.0633
N15935 X1.8118 Y-1.063
N15940 X1.8702 Y-1.0046 Z-0.0189
N15945 X1.8704 Y-1.0044
N15950 X1.8702 Y-1.0041
N15955 X1.869 Y-1.0029 Z-0.019
N15960 X1.8687 Y-1.0028
N15965 X1.8684 Y-1.003
N15970 X1.8462 Y-1.0252 Z-0.0201
N15975 X1.8455 Y-1.0258
N15980 X1.8446 Y-1.0263 Z-0.0202
N15985 X1.8436 Y-1.0267
N15990 X1.8426 Y-1.027
N15995 X1.8416 Y-1.0272 Z-0.0203
N16000 X1.8406
N16005 X1.8396 Y-1.0271
N16010 X1.8386 Y-1.0268 Z-0.0204
N16015 X1.8377 Y-1.0264
N16020 X1.8372 Y-1.0262
N16025 X1.8362 Y-1.0255 Z-0.0205
N16030 X1.8355 Y-1.0248
N16035 X1.7727 Y-0.9621 Z-0.0236
N16040 X1.7726 Y-0.9622
N16045 X1.7695 Y-0.9652 Z-0.0238
N16050 X1.7694 Y-0.9655
N16055 X1.7696 Y-0.9658
N16060 X1.7712 Y-0.9674 Z-0.0239
N16065 X1.8324 Y-1.0286 Z-0.0269
N16070 X1.8329 Y-1.0292
N16075 X1.8334 Y-1.03 Z-0.027
N16080 X1.8339 Y-1.031
N16085 X1.8342 Y-1.032
N16090 X1.8344 Y-1.033 Z-0.0271
N16095 Y-1.034
N16100 X1.8343 Y-1.035
N16105 X1.8341 Y-1.036 Z-0.0272
N16110 X1.8337 Y-1.0369
N16115 X1.8333 Y-1.0378
N16120 X1.8327 Y-1.0387 Z-0.0273
N16125 X1.832 Y-1.0394
N16130 X1.81 Y-1.0614 Z-0.0284
N16135 X1.8099 Y-1.0616
N16140 Y-1.0617
N16145 X1.8101 Y-1.062
N16150 X1.8112 Y-1.0631 Z-0.0285
N16155 X1.8115 Y-1.0633
N16160 X1.8118 Y-1.063
N16165 X1.8421 Y-1.0328 Z-0.03
N16170 X1.8702 Y-1.0046
N16175 X1.8704 Y-1.0044
N16180 X1.8702 Y-1.0041
N16185 X1.869 Y-1.0029
N16190 X1.8687 Y-1.0028
N16195 X1.8684 Y-1.003
N16200 X1.8462 Y-1.0252
N16205 X1.8455 Y-1.0258
N16210 X1.8446 Y-1.0263
N16215 X1.8436 Y-1.0267
N16220 X1.8426 Y-1.027
N16225 X1.8416 Y-1.0272
N16230 X1.8406
N16235 X1.8396 Y-1.0271
N16240 X1.8386 Y-1.0268
N16245 X1.8377 Y-1.0264
N16250 X1.8372 Y-1.0262
N16255 X1.8362 Y-1.0255
N16260 X1.8355 Y-1.0248
N16265 X1.7727 Y-0.9621
N16270 X1.7726 Y-0.9622
N16275 X1.7695 Y-0.9652
N16280 X1.7694 Y-0.9655
N16285 X1.7696 Y-0.9658
N16290 X1.7712 Y-0.9674
N16295 X1.8324 Y-1.0286
N16300 X1.8329 Y-1.0292
N16305 X1.8334 Y-1.03
N16310 X1.8339 Y-1.031
N16315 X1.8342 Y-1.032
N16320 X1.8344 Y-1.033
N16325 Y-1.034
N16330 X1.8343 Y-1.035
N16335 X1.8341 Y-1.036
N16340 X1.8337 Y-1.0369
N16345 X1.8333 Y-1.0378
N16350 X1.8327 Y-1.0387
N16355 X1.832 Y-1.0394
N16360 X1.81 Y-1.0614
N16365 X1.8099 Y-1.0616
N16370 Y-1.0617
N16375 X1.8101 Y-1.062
N16380 X1.8112 Y-1.0631
N16385 X1.8115 Y-1.0633
N16390 X1.8118 Y-1.063
N16395 X1.8421 Y-1.0328
N16400 G3 X1.8424 Y-1.0324 Z-0.0299 I-0.0011 J0.0011
N16405 X1.8425 Y-1.032 Z-0.0297 I-0.0014 J0.0007
N16410 G1 Y-1.0316 Z-0.0294
N16415 Y-1.0314 Z-0.0289
N16420 Y-1.0313 Z-0.0284
N16425 G0 Z0.6

(Horizontal Logo)
N16430 M9
N16435 X1.7506 Y-1.7255
N16440 Z0.6
N16445 Z0.0185
N16450 G1 Z0.0129 F40
N16455 X1.7505 Y-1.7254 Z0.0124
N16460 X1.7503 Z0.012
N16465 X1.75 Y-1.7253 Z0.0117
N16470 G3 X1.7496 Y-1.7252 Z0.0114 I-0.0022 J-0.0071
N16475 X1.7491 Y-1.7251 Z0.0113 I-0.0018 J-0.0072
N16480 X1.7464 Y-1.7396 Z0.0105 I-0.0013 J-0.0073
N16485 X1.7491 Y-1.7251 Z0.0097 I0.0013 J0.0073
N16490 X1.7464 Y-1.7396 Z0.0089 I-0.0013 J-0.0073
N16495 X1.7491 Y-1.7251 Z0.0081 I0.0013 J0.0073
N16500 X1.7464 Y-1.7396 Z0.0073 I-0.0013 J-0.0073
N16505 X1.7491 Y-1.7251 Z0.0065 I0.0013 J0.0073
N16510 X1.7464 Y-1.7396 Z0.0056 I-0.0013 J-0.0073
N16515 X1.7491 Y-1.7251 Z0.0048 I0.0013 J0.0073
N16520 X1.7464 Y-1.7396 Z0.004 I-0.0013 J-0.0073
N16525 X1.7491 Y-1.7251 Z0.0032 I0.0013 J0.0073
N16530 X1.7464 Y-1.7396 Z0.0024 I-0.0013 J-0.0073
N16535 X1.7491 Y-1.7251 Z0.0016 I0.0013 J0.0073
N16540 X1.7464 Y-1.7396 Z0.0008 I-0.0013 J-0.0073
N16545 X1.7491 Y-1.7251 Z0 I0.0013 J0.0073
N16550 X1.7464 Y-1.7396 Z-0.0009 I-0.0013 J-0.0073
N16555 X1.7491 Y-1.7251 Z-0.0017 I0.0013 J0.0073
N16560 X1.7464 Y-1.7396 Z-0.0025 I-0.0013 J-0.0073
N16565 X1.7491 Y-1.7251 Z-0.0033 I0.0013 J0.0073
N16570 X1.7464 Y-1.7396 Z-0.0041 I-0.0013 J-0.0073
N16575 X1.7491 Y-1.7251 Z-0.0049 I0.0013 J0.0073
N16580 X1.7464 Y-1.7396 Z-0.0057 I-0.0013 J-0.0073
N16585 X1.7491 Y-1.7251 Z-0.0065 I0.0013 J0.0073
N16590 X1.7464 Y-1.7396 Z-0.0074 I-0.0013 J-0.0073
N16595 X1.7491 Y-1.7251 Z-0.0082 I0.0013 J0.0073
N16600 X1.7464 Y-1.7396 Z-0.009 I-0.0013 J-0.0073
N16605 X1.7491 Y-1.7251 Z-0.0098 I0.0013 J0.0073
N16610 X1.7464 Y-1.7396 Z-0.0106 I-0.0013 J-0.0073
N16615 X1.7491 Y-1.7251 Z-0.0114 I0.0013 J0.0073
N16620 X1.7464 Y-1.7396 Z-0.0122 I-0.0013 J-0.0073
N16625 X1.7491 Y-1.7251 Z-0.013 I0.0013 J0.0073
N16630 X1.7464 Y-1.7396 Z-0.0139 I-0.0013 J-0.0073
N16635 X1.7491 Y-1.7251 Z-0.0147 I0.0013 J0.0073
N16640 X1.7464 Y-1.7396 Z-0.0155 I-0.0013 J-0.0073
N16645 X1.7491 Y-1.7251 Z-0.0163 I0.0013 J0.0073
N16650 X1.7464 Y-1.7396 Z-0.0171 I-0.0013 J-0.0073
N16655 X1.7491 Y-1.7251 Z-0.0179 I0.0013 J0.0073
N16660 X1.7464 Y-1.7396 Z-0.0187 I-0.0013 J-0.0073
N16665 X1.7491 Y-1.7251 Z-0.0196 I0.0013 J0.0073
N16670 X1.7464 Y-1.7396 Z-0.0204 I-0.0013 J-0.0073
N16675 X1.7491 Y-1.7251 Z-0.0212 I0.0013 J0.0073
N16680 X1.7464 Y-1.7396 Z-0.022 I-0.0013 J-0.0073
N16685 X1.7491 Y-1.7251 Z-0.0228 I0.0013 J0.0073
N16690 X1.7464 Y-1.7396 Z-0.0236 I-0.0013 J-0.0073
N16695 X1.7491 Y-1.7251 Z-0.0244 I0.0013 J0.0073
N16700 X1.7464 Y-1.7396 Z-0.0252 I-0.0013 J-0.0073
N16705 X1.7491 Y-1.7251 Z-0.0261 I0.0013 J0.0073
N16710 X1.7464 Y-1.7396 Z-0.0269 I-0.0013 J-0.0073
N16715 X1.7491 Y-1.7251 Z-0.0277 I0.0013 J0.0073
N16720 X1.7464 Y-1.7396 Z-0.0285 I-0.0013 J-0.0073
N16725 X1.7491 Y-1.7251 Z-0.0293 I0.0013 J0.0073
N16730 X1.7433 Y-1.7382 Z-0.03 I-0.0013 J-0.0073
N16735 G2 X1.7443 Y-1.739 I-0.0225 J-0.0296
N16740 G3 X1.7481 Y-1.7372 I0.0015 J0.0018
N16745 G1 Y-1.7345
N16750 G3 X1.7443 Y-1.7327 I-0.0024
N16755 G2 X1.7435 Y-1.7333 I-0.0229 J0.0293
N16760 G1 X1.7429 Y-1.7337
N16765 G3 Y-1.7379 I0.0015 J-0.0021
N16770 G2 X1.7433 Y-1.7382 I-0.0221 J-0.0299
N16775 G3 X1.7455 Y-1.7379 I0.0009 J0.0012
N16780 G1 X1.7459 Y-1.7373 Z-0.0298
N16785 X1.7463 Y-1.7369 Z-0.0292
N16790 X1.7464 Y-1.7367 Z-0.0284
N16795 G0 Z0.2
N16800 X1.6071 Y-1.7308
N16805 Z0.0129
N16810 G1 Z0.0124 F40
N16815 X1.6069 Y-1.731 Z0.012
N16820 X1.6067 Y-1.7313 Z0.0117
N16825 G3 X1.6065 Y-1.7316 Z0.0114 I0.0062 J-0.0041
N16830 X1.6063 Y-1.732 Z0.0113 I0.0064 J-0.0037
N16835 X1.6195 Y-1.7387 Z0.0105 I0.0066 J-0.0033
N16840 X1.6063 Y-1.732 Z0.0097 I-0.0066 J0.0033
N16845 X1.6195 Y-1.7387 Z0.0089 I0.0066 J-0.0033
N16850 X1.6063 Y-1.732 Z0.0081 I-0.0066 J0.0033
N16855 X1.6195 Y-1.7387 Z0.0073 I0.0066 J-0.0033
N16860 X1.6063 Y-1.732 Z0.0065 I-0.0066 J0.0033
N16865 X1.6195 Y-1.7387 Z0.0056 I0.0066 J-0.0033
N16870 X1.6063 Y-1.732 Z0.0048 I-0.0066 J0.0033
N16875 X1.6195 Y-1.7387 Z0.004 I0.0066 J-0.0033
N16880 X1.6063 Y-1.732 Z0.0032 I-0.0066 J0.0033
N16885 X1.6195 Y-1.7387 Z0.0024 I0.0066 J-0.0033
N16890 X1.6063 Y-1.732 Z0.0016 I-0.0066 J0.0033
N16895 X1.6195 Y-1.7387 Z0.0008 I0.0066 J-0.0033
N16900 X1.6063 Y-1.732 Z0 I-0.0066 J0.0033
N16905 X1.6195 Y-1.7387 Z-0.0009 I0.0066 J-0.0033
N16910 X1.6063 Y-1.732 Z-0.0017 I-0.0066 J0.0033
N16915 X1.6195 Y-1.7387 Z-0.0025 I0.0066 J-0.0033
N16920 X1.6063 Y-1.732 Z-0.0033 I-0.0066 J0.0033
N16925 X1.6195 Y-1.7387 Z-0.0041 I0.0066 J-0.0033
N16930 X1.6063 Y-1.732 Z-0.0049 I-0.0066 J0.0033
N16935 X1.6195 Y-1.7387 Z-0.0057 I0.0066 J-0.0033
N16940 X1.6063 Y-1.732 Z-0.0065 I-0.0066 J0.0033
N16945 X1.6195 Y-1.7387 Z-0.0074 I0.0066 J-0.0033
N16950 X1.6063 Y-1.732 Z-0.0082 I-0.0066 J0.0033
N16955 X1.6195 Y-1.7387 Z-0.009 I0.0066 J-0.0033
N16960 X1.6063 Y-1.732 Z-0.0098 I-0.0066 J0.0033
N16965 X1.6195 Y-1.7387 Z-0.0106 I0.0066 J-0.0033
N16970 X1.6063 Y-1.732 Z-0.0114 I-0.0066 J0.0033
N16975 X1.6195 Y-1.7387 Z-0.0122 I0.0066 J-0.0033
N16980 X1.6063 Y-1.732 Z-0.013 I-0.0066 J0.0033
N16985 X1.6195 Y-1.7387 Z-0.0139 I0.0066 J-0.0033
N16990 X1.6063 Y-1.732 Z-0.0147 I-0.0066 J0.0033
N16995 X1.6195 Y-1.7387 Z-0.0155 I0.0066 J-0.0033
N17000 X1.6063 Y-1.732 Z-0.0163 I-0.0066 J0.0033
N17005 X1.6195 Y-1.7387 Z-0.0171 I0.0066 J-0.0033
N17010 X1.6063 Y-1.732 Z-0.0179 I-0.0066 J0.0033
N17015 X1.6195 Y-1.7387 Z-0.0187 I0.0066 J-0.0033
N17020 X1.6063 Y-1.732 Z-0.0196 I-0.0066 J0.0033
N17025 X1.6195 Y-1.7387 Z-0.0204 I0.0066 J-0.0033
N17030 X1.6063 Y-1.732 Z-0.0212 I-0.0066 J0.0033
N17035 X1.6195 Y-1.7387 Z-0.022 I0.0066 J-0.0033
N17040 X1.6063 Y-1.732 Z-0.0228 I-0.0066 J0.0033
N17045 X1.6195 Y-1.7387 Z-0.0236 I0.0066 J-0.0033
N17050 X1.6063 Y-1.732 Z-0.0244 I-0.0066 J0.0033
N17055 X1.6195 Y-1.7387 Z-0.0252 I0.0066 J-0.0033
N17060 X1.6063 Y-1.732 Z-0.0261 I-0.0066 J0.0033
N17065 X1.6195 Y-1.7387 Z-0.0269 I0.0066 J-0.0033
N17070 X1.6063 Y-1.732 Z-0.0277 I-0.0066 J0.0033
N17075 X1.6195 Y-1.7387 Z-0.0285 I0.0066 J-0.0033
N17080 X1.6063 Y-1.732 Z-0.0293 I-0.0066 J0.0033
N17085 X1.6173 Y-1.7413 Z-0.03 I0.0066 J-0.0033
N17090 G2 X1.6221 Y-1.7381 I0.0338 J-0.0455
N17095 G3 Y-1.7334 I-0.0014 J0.0024
N17100 G2 X1.61 Y-1.7238 I0.0319 J0.0523
N17105 G3 X1.6064 Y-1.7253 I-0.0015 J-0.0015
N17110 G1 Y-1.7464
N17115 G3 X1.6101 Y-1.7478 I0.0021
N17120 G2 X1.6157 Y-1.7426 I0.0374 J-0.0343
N17125 X1.6173 Y-1.7413 I0.0354 J-0.0442
N17130 G3 X1.6177 Y-1.7391 I-0.0009 J0.0013
N17135 G1 X1.6172 Y-1.7385 Z-0.0298
N17140 X1.6169 Y-1.738 Z-0.0292
N17145 X1.6167 Y-1.7379 Z-0.0284
N17150 G0 Z0.2
N17155 X1.6045 Y-1.9509
N17160 Z0.024
N17165 G1 Z0.0129 F40
N17170 Z0.0124
N17175 X1.6043 Y-1.951 Z0.012
N17180 X1.604 Y-1.9511 Z0.0117
N17185 G3 X1.6036 Y-1.9512 Z0.0114 I0.0025 J-0.007
N17190 X1.6031 Y-1.9514 Z0.0113 I0.0029 J-0.0068
N17195 X1.6098 Y-1.9647 Z0.0105 I0.0033 J-0.0066
N17200 X1.6031 Y-1.9514 Z0.0097 I-0.0033 J0.0066
N17205 X1.6098 Y-1.9647 Z0.0089 I0.0033 J-0.0066
N17210 X1.6031 Y-1.9514 Z0.0081 I-0.0033 J0.0066
N17215 X1.6098 Y-1.9647 Z0.0073 I0.0033 J-0.0066
N17220 X1.6031 Y-1.9514 Z0.0065 I-0.0033 J0.0066
N17225 X1.6098 Y-1.9647 Z0.0056 I0.0033 J-0.0066
N17230 X1.6031 Y-1.9514 Z0.0048 I-0.0033 J0.0066
N17235 X1.6098 Y-1.9647 Z0.004 I0.0033 J-0.0066
N17240 X1.6031 Y-1.9514 Z0.0032 I-0.0033 J0.0066
N17245 X1.6098 Y-1.9647 Z0.0024 I0.0033 J-0.0066
N17250 X1.6031 Y-1.9514 Z0.0016 I-0.0033 J0.0066
N17255 X1.6098 Y-1.9647 Z0.0008 I0.0033 J-0.0066
N17260 X1.6031 Y-1.9514 Z0 I-0.0033 J0.0066
N17265 X1.6098 Y-1.9647 Z-0.0009 I0.0033 J-0.0066
N17270 X1.6031 Y-1.9514 Z-0.0017 I-0.0033 J0.0066
N17275 X1.6098 Y-1.9647 Z-0.0025 I0.0033 J-0.0066
N17280 X1.6031 Y-1.9514 Z-0.0033 I-0.0033 J0.0066
N17285 X1.6098 Y-1.9647 Z-0.0041 I0.0033 J-0.0066
N17290 X1.6031 Y-1.9514 Z-0.0049 I-0.0033 J0.0066
N17295 X1.6098 Y-1.9647 Z-0.0057 I0.0033 J-0.0066
N17300 X1.6031 Y-1.9514 Z-0.0065 I-0.0033 J0.0066
N17305 X1.6098 Y-1.9647 Z-0.0074 I0.0033 J-0.0066
N17310 X1.6031 Y-1.9514 Z-0.0082 I-0.0033 J0.0066
N17315 X1.6098 Y-1.9647 Z-0.009 I0.0033 J-0.0066
N17320 X1.6031 Y-1.9514 Z-0.0098 I-0.0033 J0.0066
N17325 X1.6098 Y-1.9647 Z-0.0106 I0.0033 J-0.0066
