%
(1003)
(Bottom of workpiece)
(T1 D=0.25 CR=0.125 - ZMIN=0.1 - ball end mill)
N10 G90
N15 G28 G91 Z0
N20 G90

(Pocket)
N25 M9
N30 T1 M6
N35 S1000 M3
N40 M8
N45 G0 X1.6013 Y1.4978
N50 Z1.1
N55 Z0.6894
N60 G1 Z0.6825 F40
N65 G3 X1.6014 Y1.4984 Z0.677 I-0.0312 J0.0022
N70 Y1.5002 Z0.6719 I-0.0312 J0.0016
N75 X1.6013 Y1.503 Z0.6672 I-0.0312 J-0.0002
N80 X1.6007 Y1.5068 Z0.6633 I-0.0311 J-0.003
N85 X1.5994 Y1.5111 Z0.6602 I-0.0305 J-0.0068
N90 X1.5972 Y1.5157 Z0.6583 I-0.0292 J-0.0111
N95 X1.594 Y1.5202 Z0.6575 I-0.027 J-0.0157
N100 X1.5889 Y1.525 Z0.6573 I-0.0239 J-0.0202
N105 X1.5514 Y1.475 Z0.6538 I-0.0187 J-0.025
N110 X1.5889 Y1.525 Z0.6504 I0.0187 J0.025
N115 X1.5514 Y1.475 Z0.647 I-0.0187 J-0.025
N120 X1.5889 Y1.525 Z0.6435 I0.0187 J0.025
N125 X1.5514 Y1.475 Z0.6401 I-0.0187 J-0.025
N130 X1.5889 Y1.525 Z0.6367 I0.0187 J0.025
N135 X1.5514 Y1.475 Z0.6333 I-0.0187 J-0.025
N140 X1.5889 Y1.525 Z0.6298 I0.0187 J0.025
N145 X1.5514 Y1.475 Z0.6264 I-0.0187 J-0.025
N150 X1.5889 Y1.525 Z0.623 I0.0187 J0.025
N155 X1.5514 Y1.475 Z0.6195 I-0.0187 J-0.025
N160 X1.5889 Y1.525 Z0.6161 I0.0187 J0.025
N165 X1.5514 Y1.475 Z0.6127 I-0.0187 J-0.025
N170 X1.5889 Y1.525 Z0.6093 I0.0187 J0.025
N175 X1.5514 Y1.475 Z0.6058 I-0.0187 J-0.025
N180 X1.5889 Y1.525 Z0.6024 I0.0187 J0.025
N185 X1.5514 Y1.475 Z0.599 I-0.0187 J-0.025
N190 X1.5889 Y1.525 Z0.5955 I0.0187 J0.025
N195 X1.5514 Y1.475 Z0.5921 I-0.0187 J-0.025
N200 X1.5889 Y1.525 Z0.5887 I0.0187 J0.025
N205 X1.5514 Y1.475 Z0.5853 I-0.0188 J-0.025
N210 X1.5889 Y1.525 Z0.5818 I0.0188 J0.025
N215 X1.5514 Y1.475 Z0.5784 I-0.0188 J-0.025
N220 X1.5889 Y1.525 Z0.575 I0.0188 J0.025
N225 X1.5514 Y1.475 Z0.5715 I-0.0188 J-0.025
N230 X1.5889 Y1.525 Z0.5681 I0.0188 J0.025
N235 X1.5514 Y1.475 Z0.5647 I-0.0188 J-0.025
N240 X1.5889 Y1.525 Z0.5613 I0.0188 J0.025
N245 X1.5514 Y1.475 Z0.5578 I-0.0188 J-0.025
N250 X1.5889 Y1.525 Z0.5544 I0.0188 J0.025
N255 X1.5514 Y1.475 Z0.551 I-0.0188 J-0.025
N260 X1.5889 Y1.525 Z0.5475 I0.0188 J0.025
N265 X1.5514 Y1.475 Z0.5441 I-0.0188 J-0.025
N270 X1.5889 Y1.525 Z0.5407 I0.0188 J0.025
N275 X1.5514 Y1.475 Z0.5373 I-0.0188 J-0.025
N280 X1.5889 Y1.525 Z0.5338 I0.0188 J0.025
N285 X1.5514 Y1.475 Z0.5304 I-0.0188 J-0.025
N290 X1.5889 Y1.525 Z0.527 I0.0188 J0.025
N295 X1.5514 Y1.475 Z0.5235 I-0.0188 J-0.025
N300 X1.5889 Y1.525 Z0.5201 I0.0188 J0.025
N305 X1.5514 Y1.475 Z0.5167 I-0.0188 J-0.025
N310 X1.5889 Y1.525 Z0.5133 I0.0188 J0.025
N315 X1.5514 Y1.475 Z0.5098 I-0.0188 J-0.025
N320 X1.5889 Y1.525 Z0.5064 I0.0188 J0.025
N325 X1.5514 Y1.475 Z0.503 I-0.0188 J-0.025
N330 X1.5889 Y1.525 Z0.4995 I0.0188 J0.025
N335 X1.5514 Y1.475 Z0.4961 I-0.0188 J-0.025
N340 X1.5889 Y1.525 Z0.4927 I0.0188 J0.025
N345 X1.5514 Y1.475 Z0.4893 I-0.0188 J-0.025
N350 X1.5889 Y1.525 Z0.4858 I0.0188 J0.025
N355 X1.5514 Y1.475 Z0.4824 I-0.0188 J-0.025
N360 X1.5889 Y1.525 Z0.479 I0.0188 J0.025
N365 X1.5514 Y1.475 Z0.4756 I-0.0188 J-0.025
N370 X1.5889 Y1.525 Z0.4721 I0.0188 J0.025
N375 X1.5514 Y1.475 Z0.4687 I-0.0188 J-0.025
N380 X1.5889 Y1.525 Z0.4653 I0.0188 J0.025
N385 X1.5514 Y1.475 Z0.4618 I-0.0188 J-0.025
N390 X1.5889 Y1.525 Z0.4584 I0.0188 J0.025
N395 X1.5514 Y1.475 Z0.455 I-0.0188 J-0.025
N400 X1.5889 Y1.525 Z0.4516 I0.0188 J0.025
N405 X1.5514 Y1.475 Z0.4481 I-0.0188 J-0.025
N410 X1.5889 Y1.525 Z0.4447 I0.0188 J0.025
N415 X1.5514 Y1.475 Z0.4413 I-0.0188 J-0.025
N420 X1.5889 Y1.525 Z0.4378 I0.0188 J0.025
N425 X1.5514 Y1.475 Z0.4344 I-0.0188 J-0.025
N430 X1.5889 Y1.525 Z0.431 I0.0188 J0.025
N435 X1.5514 Y1.475 Z0.4276 I-0.0188 J-0.025
N440 X1.5889 Y1.525 Z0.4241 I0.0188 J0.025
N445 X1.5514 Y1.475 Z0.4207 I-0.0188 J-0.025
N450 X1.5889 Y1.525 Z0.4173 I0.0188 J0.025
N455 X1.5514 Y1.475 Z0.4138 I-0.0188 J-0.025
N460 X1.5889 Y1.525 Z0.4104 I0.0188 J0.025
N465 X1.5514 Y1.475 Z0.407 I-0.0188 J-0.025
N470 X1.5889 Y1.525 Z0.4036 I0.0188 J0.025
N475 X1.5514 Y1.475 Z0.4001 I-0.0188 J-0.025
N480 X1.5889 Y1.525 Z0.3967 I0.0188 J0.025
N485 X1.5514 Y1.475 Z0.3933 I-0.0188 J-0.025
N490 X1.5889 Y1.525 Z0.3898 I0.0188 J0.025
N495 X1.5514 Y1.475 Z0.3864 I-0.0188 J-0.025
N500 X1.5889 Y1.525 Z0.383 I0.0188 J0.025
N505 X1.5514 Y1.475 Z0.3796 I-0.0188 J-0.025
N510 X1.5889 Y1.525 Z0.3761 I0.0188 J0.025
N515 X1.5514 Y1.475 Z0.3727 I-0.0188 J-0.025
N520 X1.5889 Y1.525 Z0.3693 I0.0188 J0.025
N525 X1.5514 Y1.475 Z0.3658 I-0.0188 J-0.025
N530 X1.5889 Y1.525 Z0.3624 I0.0188 J0.025
N535 X1.5389 Y1.5 Z0.36 I-0.0188 J-0.025
N540 G1 Y1.4875
N545 G3 X1.5868 Y1.4396 I0.0479
N550 G1 X1.6119
N555 G3 X1.6598 Y1.4875 J0.0479
N560 G1 Y1.5125
N565 G3 X1.6119 Y1.5605 I-0.0479
N570 G1 X1.5862
N575 G3 X1.5389 Y1.5131 J-0.0473
N580 G1 Y1.5
N585 G2 X1.4868 Y1.4396 I-0.061
N590 G3 X1.4583 Y1.3651 I0.0067 J-0.0452
N595 X1.4951 Y1.3479 I0.0368 J0.0307
N600 G1 X1.7036
N605 G3 X1.7515 Y1.3958 J0.0479
N610 G1 Y1.6042
N615 G3 X1.7036 Y1.6521 I-0.0479
N620 G1 X1.4945
N625 G3 X1.4472 Y1.6048 J-0.0473
N630 G1 Y1.3958
N635 G3 X1.4583 Y1.3651 I0.0479
N640 G2 X1.4877 Y1.3014 I-0.1034 J-0.0863
N645 G3 X1.5413 Y1.2562 I0.0536 J0.0091
N650 G1 X1.7953
N655 G3 X1.8432 Y1.3041 J0.0479
N660 G1 Y1.6959
N665 G3 X1.7953 Y1.7438 I-0.0479
N670 G1 X1.4028
N675 G3 X1.3555 Y1.6965 J-0.0473
N680 G1 Y1.3041
N685 G3 X1.4034 Y1.2562 I0.0479
N690 G1 X1.5413
N695 G2 X1.61 Y1.2103 J-0.0745
N700 G3 X1.6788 Y1.1645 I0.0688 J0.0287
N705 G1 X1.887
N710 G3 X1.9349 Y1.2124 J0.0479
N715 G1 Y1.7876
N720 G3 X1.887 Y1.8355 I-0.0479
N725 G1 X1.3111
N730 G3 X1.2638 Y1.7882 J-0.0473
N735 G1 Y1.2124
N740 G3 X1.3117 Y1.1645 I0.0479
N745 G1 X1.6788
N750 G2 X1.7476 Y1.1186 J-0.0745
N755 G3 X1.8164 Y1.0728 I0.0688 J0.0287
N760 G1 X1.9787
N765 G3 X2.0266 Y1.1207 J0.0479
N770 G1 Y1.8793
N775 G3 X1.9787 Y1.9272 I-0.0479
N780 G1 X1.2194
N785 G3 X1.1721 Y1.8799 J-0.0473
N790 G1 Y1.1207
N795 G3 X1.22 Y1.0728 I0.0479
N800 G1 X1.8164
N805 G2 X1.8851 Y1.0269 J-0.0745
N810 G3 X1.9539 Y0.9811 I0.0688 J0.0287
N815 G1 X2.071
N820 G3 X2.1183 Y1.0284 J0.0473
N825 G1 Y1.9379
N830 G3 X2.0372 Y2.0189 I-0.081
N835 G1 X1.1278
N840 G3 X1.0805 Y1.9716 J-0.0473
N845 G1 Y1.0284
N850 G3 X1.1278 Y0.9811 I0.0473
N855 G1 X1.9539
N860 G2 X2.0312 Y0.9261 J-0.0818
N865 G3 X2.1126 Y0.8773 I0.0698 J0.0242
N870 G1 X2.137 Y0.8811
N875 X2.1702 Y0.8979
N880 X2.1732 Y0.8998
N885 X2.1995 Y0.9262
N890 X2.2029 Y0.9321
N895 X2.2182 Y0.9623
N900 X2.2242 Y0.9998
N905 Y2.0002
N910 X2.2172 Y2.0408
N915 X2.1982 Y2.0752
N920 X2.1947
N925 X2.1886 Y2.0691
N930 X2.1616 Y2.0959
N935 X2.1619 Y2.098
N940 X2.1663 Y2.1025
N945 X2.1665 Y2.1047
N950 X2.137 Y2.1186
N955 X2.1339 Y2.1198
N960 X2.0995 Y2.1248
N965 X1.0992
N970 X1.0617 Y2.1189
N975 X1.0285 Y2.1021
N980 X1.0256 Y2.1002
N985 X0.9992 Y2.0738
N990 X0.9958 Y2.0679
N995 X0.9805 Y2.0377
N1000 X0.9745 Y2.0002
N1005 Y0.9998
N1010 X0.9805 Y0.9623
N1015 X0.9973 Y0.9291
N1020 X0.9992 Y0.9262
N1025 X1.0256 Y0.8998
N1030 X1.0315 Y0.8964
N1035 X1.0617 Y0.8811
N1040 X1.0992 Y0.8752
N1045 X2.0995
N1050 X2.1126 Y0.8773
N1055 G3 X2.1198 Y0.8981 I-0.002 J0.0123
N1060 G1 X1.566 Y1.4954
N1065 G3 X1.5482 Y1.4959 I-0.0092 J-0.0085
N1070 X1.5479 Y1.4781 I0.0086 J-0.009
N1075 X1.5925 Y1.5219 Z0.3566 I0.0223 J0.0219
N1080 X1.5479 Y1.4781 Z0.3531 I-0.0223 J-0.0219
N1085 X1.5925 Y1.5219 Z0.3497 I0.0223 J0.0219
N1090 X1.5479 Y1.4781 Z0.3463 I-0.0223 J-0.0219
N1095 X1.5925 Y1.5219 Z0.3429 I0.0223 J0.0219
N1100 X1.5479 Y1.4781 Z0.3394 I-0.0223 J-0.0219
N1105 X1.5925 Y1.5219 Z0.336 I0.0223 J0.0219
N1110 X1.5479 Y1.4781 Z0.3326 I-0.0223 J-0.0219
N1115 X1.5925 Y1.5219 Z0.3291 I0.0223 J0.0219
N1120 X1.5479 Y1.4781 Z0.3257 I-0.0223 J-0.0219
N1125 X1.5925 Y1.5219 Z0.3223 I0.0223 J0.0219
N1130 X1.5479 Y1.4781 Z0.3189 I-0.0223 J-0.0219
N1135 X1.5925 Y1.5219 Z0.3154 I0.0223 J0.0219
N1140 X1.5479 Y1.4781 Z0.312 I-0.0223 J-0.0219
N1145 X1.5925 Y1.5219 Z0.3086 I0.0223 J0.0219
N1150 X1.5479 Y1.4781 Z0.3051 I-0.0223 J-0.0219
N1155 X1.5925 Y1.5219 Z0.3017 I0.0223 J0.0219
N1160 X1.5479 Y1.4781 Z0.2983 I-0.0223 J-0.0219
N1165 X1.5925 Y1.5219 Z0.2949 I0.0223 J0.0219
N1170 X1.5479 Y1.4781 Z0.2914 I-0.0223 J-0.0219
N1175 X1.5925 Y1.5219 Z0.288 I0.0223 J0.0219
N1180 X1.5479 Y1.4781 Z0.2846 I-0.0223 J-0.0219
N1185 X1.5925 Y1.5219 Z0.2811 I0.0223 J0.0219
N1190 X1.5479 Y1.4781 Z0.2777 I-0.0223 J-0.0219
N1195 X1.5925 Y1.5219 Z0.2743 I0.0223 J0.0219
N1200 X1.5479 Y1.4781 Z0.2709 I-0.0223 J-0.0219
N1205 X1.5925 Y1.5219 Z0.2674 I0.0223 J0.0219
N1210 X1.5479 Y1.4781 Z0.264 I-0.0223 J-0.0219
N1215 X1.5925 Y1.5219 Z0.2606 I0.0223 J0.0219
N1220 X1.5479 Y1.4781 Z0.2571 I-0.0223 J-0.0219
N1225 X1.5925 Y1.5219 Z0.2537 I0.0223 J0.0219
N1230 X1.5479 Y1.4781 Z0.2503 I-0.0223 J-0.0219
N1235 X1.5925 Y1.5219 Z0.2469 I0.0223 J0.0219
N1240 X1.5479 Y1.4781 Z0.2434 I-0.0223 J-0.0219
N1245 X1.5925 Y1.5219 Z0.24 I0.0223 J0.0219
N1250 X1.5479 Y1.4781 Z0.2366 I-0.0223 J-0.0219
N1255 X1.5925 Y1.5219 Z0.2332 I0.0223 J0.0219
N1260 X1.5479 Y1.4781 Z0.2297 I-0.0223 J-0.0219
N1265 X1.5925 Y1.5219 Z0.2263 I0.0223 J0.0219
N1270 X1.5479 Y1.4781 Z0.2229 I-0.0223 J-0.0219
N1275 X1.5925 Y1.5219 Z0.2194 I0.0223 J0.0219
N1280 X1.5479 Y1.4781 Z0.216 I-0.0223 J-0.0219
N1285 X1.5925 Y1.5219 Z0.2126 I0.0223 J0.0219
N1290 X1.5389 Y1.5 Z0.21 I-0.0223 J-0.0219
N1295 G1 Y1.4875
N1300 G3 X1.5868 Y1.4396 I0.0479
N1305 G1 X1.6119
N1310 G3 X1.6598 Y1.4875 J0.0479
N1315 G1 Y1.5125
N1320 G3 X1.6119 Y1.5605 I-0.0479
N1325 G1 X1.5862
N1330 G3 X1.5389 Y1.5131 J-0.0473
N1335 G1 Y1.5
N1340 G2 X1.4868 Y1.4396 I-0.061
N1345 G3 X1.4583 Y1.3651 I0.0067 J-0.0452
N1350 X1.4951 Y1.3479 I0.0368 J0.0307
N1355 G1 X1.7036
N1360 G3 X1.7515 Y1.3958 J0.0479
N1365 G1 Y1.6042
N1370 G3 X1.7036 Y1.6521 I-0.0479
N1375 G1 X1.4945
N1380 G3 X1.4472 Y1.6048 J-0.0473
N1385 G1 Y1.3958
N1390 G3 X1.4583 Y1.3651 I0.0479
N1395 G2 X1.4877 Y1.3014 I-0.1034 J-0.0863
N1400 G3 X1.5413 Y1.2562 I0.0536 J0.0091
N1405 G1 X1.7953
N1410 G3 X1.8432 Y1.3041 J0.0479
N1415 G1 Y1.6959
N1420 G3 X1.7953 Y1.7438 I-0.0479
N1425 G1 X1.4028
N1430 G3 X1.3555 Y1.6965 J-0.0473
N1435 G1 Y1.3041
N1440 G3 X1.4034 Y1.2562 I0.0479
N1445 G1 X1.5413
N1450 G2 X1.61 Y1.2103 J-0.0745
N1455 G3 X1.6788 Y1.1645 I0.0688 J0.0287
N1460 G1 X1.887
N1465 G3 X1.9349 Y1.2124 J0.0479
N1470 G1 Y1.7876
N1475 G3 X1.887 Y1.8355 I-0.0479
N1480 G1 X1.3111
N1485 G3 X1.2638 Y1.7882 J-0.0473
N1490 G1 Y1.2124
N1495 G3 X1.3117 Y1.1645 I0.0479
N1500 G1 X1.6788
N1505 G2 X1.7476 Y1.1186 J-0.0745
N1510 G3 X1.8164 Y1.0728 I0.0688 J0.0287
N1515 G1 X1.9787
N1520 G3 X2.0266 Y1.1207 J0.0479
N1525 G1 Y1.8793
N1530 G3 X1.9787 Y1.9272 I-0.0479
N1535 G1 X1.2194
N1540 G3 X1.1721 Y1.8799 J-0.0473
N1545 G1 Y1.1207
N1550 G3 X1.22 Y1.0728 I0.0479
N1555 G1 X1.8164
N1560 G2 X1.8851 Y1.0269 J-0.0745
N1565 G3 X1.9539 Y0.9811 I0.0688 J0.0287
N1570 G1 X2.071
N1575 G3 X2.1183 Y1.0284 J0.0473
N1580 G1 Y1.9379
N1585 G3 X2.0372 Y2.0189 I-0.081
N1590 G1 X1.1278
N1595 G3 X1.0805 Y1.9716 J-0.0473
N1600 G1 Y1.0284
N1605 G3 X1.1278 Y0.9811 I0.0473
N1610 G1 X1.9539
N1615 G2 X2.0312 Y0.9261 J-0.0818
N1620 G3 X2.1126 Y0.8773 I0.0698 J0.0242
N1625 G1 X2.137 Y0.8811
N1630 X2.1702 Y0.8979
N1635 X2.1732 Y0.8998
N1640 X2.1995 Y0.9262
N1645 X2.2029 Y0.9321
N1650 X2.2182 Y0.9623
N1655 X2.2242 Y0.9998
N1660 Y2.0002
N1665 X2.2172 Y2.0408
N1670 X2.1982 Y2.0752
N1675 X2.1947
N1680 X2.1886 Y2.0691
N1685 X2.1616 Y2.0959
N1690 X2.1619 Y2.098
N1695 X2.1663 Y2.1025
N1700 X2.1665 Y2.1047
N1705 X2.137 Y2.1186
N1710 X2.1339 Y2.1198
N1715 X2.0995 Y2.1248
N1720 X1.0992
N1725 X1.0617 Y2.1189
N1730 X1.0285 Y2.1021
N1735 X1.0256 Y2.1002
N1740 X0.9992 Y2.0738
N1745 X0.9958 Y2.0679
N1750 X0.9805 Y2.0377
N1755 X0.9745 Y2.0002
N1760 Y0.9998
N1765 X0.9805 Y0.9623
N1770 X0.9973 Y0.9291
N1775 X0.9992 Y0.9262
N1780 X1.0256 Y0.8998
N1785 X1.0315 Y0.8964
N1790 X1.0617 Y0.8811
N1795 X1.0992 Y0.8752
N1800 X2.0995
N1805 X2.1126 Y0.8773
N1810 G3 X2.1199 Y0.898 I-0.002 J0.0123
N1815 G1 X1.5613 Y1.5134
N1820 G3 X1.54 Y1.5083 I-0.0093 J-0.0084
N1825 X1.6003 Y1.4917 Z0.2066 I0.0301 J-0.0083
N1830 X1.54 Y1.5083 Z0.2031 I-0.0301 J0.0083
N1835 X1.6003 Y1.4917 Z0.1997 I0.0301 J-0.0083
N1840 X1.54 Y1.5083 Z0.1963 I-0.0301 J0.0083
N1845 X1.6003 Y1.4917 Z0.1929 I0.0301 J-0.0083
N1850 X1.54 Y1.5083 Z0.1894 I-0.0301 J0.0083
N1855 X1.6003 Y1.4917 Z0.186 I0.0301 J-0.0083
N1860 X1.54 Y1.5083 Z0.1826 I-0.0301 J0.0083
N1865 X1.6003 Y1.4917 Z0.1791 I0.0301 J-0.0083
N1870 X1.54 Y1.5083 Z0.1757 I-0.0301 J0.0083
N1875 X1.6003 Y1.4917 Z0.1723 I0.0301 J-0.0083
N1880 X1.54 Y1.5083 Z0.1689 I-0.0301 J0.0083
N1885 X1.6003 Y1.4917 Z0.1654 I0.0301 J-0.0083
N1890 X1.54 Y1.5083 Z0.162 I-0.0301 J0.0083
N1895 X1.6003 Y1.4917 Z0.1586 I0.0301 J-0.0083
N1900 X1.54 Y1.5083 Z0.1551 I-0.0301 J0.0083
N1905 X1.6003 Y1.4917 Z0.1517 I0.0301 J-0.0083
N1910 X1.54 Y1.5083 Z0.1483 I-0.0301 J0.0083
N1915 X1.6003 Y1.4917 Z0.1449 I0.0301 J-0.0083
N1920 X1.54 Y1.5083 Z0.1414 I-0.0301 J0.0083
N1925 X1.6003 Y1.4917 Z0.138 I0.0301 J-0.0083
N1930 X1.54 Y1.5083 Z0.1346 I-0.0301 J0.0083
N1935 X1.6003 Y1.4917 Z0.1311 I0.0301 J-0.0083
N1940 X1.54 Y1.5083 Z0.1277 I-0.0301 J0.0083
N1945 X1.6003 Y1.4917 Z0.1243 I0.0301 J-0.0083
N1950 X1.54 Y1.5083 Z0.1209 I-0.0301 J0.0083
N1955 X1.6003 Y1.4917 Z0.1174 I0.0301 J-0.0083
N1960 X1.54 Y1.5083 Z0.114 I-0.0301 J0.0083
N1965 X1.6003 Y1.4917 Z0.1106 I0.0301 J-0.0083
N1970 X1.54 Y1.5083 Z0.1071 I-0.0301 J0.0083
N1975 X1.6003 Y1.4917 Z0.1037 I0.0301 J-0.0083
N1980 X1.5744 Y1.531 Z0.1019 I-0.0301 J0.0083
N1985 X1.5389 Y1.5 Z0.1 I-0.0042 J-0.031
N1990 G1 Y1.4875
N1995 G3 X1.5868 Y1.4396 I0.0479
N2000 G1 X1.6119
N2005 G3 X1.6598 Y1.4875 J0.0479
N2010 G1 Y1.5125
N2015 G3 X1.6119 Y1.5605 I-0.0479
N2020 G1 X1.5862
N2025 G3 X1.5389 Y1.5131 J-0.0473
N2030 G1 Y1.5
N2035 G2 X1.4868 Y1.4396 I-0.061
N2040 G3 X1.4583 Y1.3651 I0.0067 J-0.0452
N2045 X1.4951 Y1.3479 I0.0368 J0.0307
N2050 G1 X1.7036
N2055 G3 X1.7515 Y1.3958 J0.0479
N2060 G1 Y1.6042
N2065 G3 X1.7036 Y1.6521 I-0.0479
N2070 G1 X1.4945
N2075 G3 X1.4472 Y1.6048 J-0.0473
N2080 G1 Y1.3958
N2085 G3 X1.4583 Y1.3651 I0.0479
N2090 G2 X1.4877 Y1.3014 I-0.1034 J-0.0863
N2095 G3 X1.5413 Y1.2562 I0.0536 J0.0091
N2100 G1 X1.7953
N2105 G3 X1.8432 Y1.3041 J0.0479
N2110 G1 Y1.6959
N2115 G3 X1.7953 Y1.7438 I-0.0479
N2120 G1 X1.4028
N2125 G3 X1.3555 Y1.6965 J-0.0473
N2130 G1 Y1.3041
N2135 G3 X1.4034 Y1.2562 I0.0479
N2140 G1 X1.5413
N2145 G2 X1.61 Y1.2103 J-0.0745
N2150 G3 X1.6788 Y1.1645 I0.0688 J0.0287
N2155 G1 X1.887
N2160 G3 X1.9349 Y1.2124 J0.0479
N2165 G1 Y1.7876
N2170 G3 X1.887 Y1.8355 I-0.0479
N2175 G1 X1.3111
N2180 G3 X1.2638 Y1.7882 J-0.0473
N2185 G1 Y1.2124
N2190 G3 X1.3117 Y1.1645 I0.0479
N2195 G1 X1.6788
N2200 G2 X1.7476 Y1.1186 J-0.0745
N2205 G3 X1.8164 Y1.0728 I0.0688 J0.0287
N2210 G1 X1.9787
N2215 G3 X2.0266 Y1.1207 J0.0479
N2220 G1 Y1.8793
N2225 G3 X1.9787 Y1.9272 I-0.0479
N2230 G1 X1.2194
N2235 G3 X1.1721 Y1.8799 J-0.0473
N2240 G1 Y1.1207
N2245 G3 X1.22 Y1.0728 I0.0479
N2250 G1 X1.8164
N2255 G2 X1.8851 Y1.0269 J-0.0745
N2260 G3 X1.9539 Y0.9811 I0.0688 J0.0287
N2265 G1 X2.071
N2270 G3 X2.1183 Y1.0284 J0.0473
N2275 G1 Y1.9379
N2280 G3 X2.0372 Y2.0189 I-0.081
N2285 G1 X1.1278
N2290 G3 X1.0805 Y1.9716 J-0.0473
N2295 G1 Y1.0284
N2300 G3 X1.1278 Y0.9811 I0.0473
N2305 G1 X1.9539
N2310 G2 X2.0312 Y0.9261 J-0.0818
N2315 G3 X2.1126 Y0.8773 I0.0698 J0.0242
N2320 G1 X2.137 Y0.8811
N2325 X2.1702 Y0.8979
N2330 X2.1732 Y0.8998
N2335 X2.1995 Y0.9262
N2340 X2.2029 Y0.9321
N2345 X2.2182 Y0.9623
N2350 X2.2242 Y0.9998
N2355 Y2.0002
N2360 X2.2172 Y2.0408
N2365 X2.1982 Y2.0752
N2370 X2.1947
N2375 X2.1886 Y2.0691
N2380 X2.1616 Y2.0959
N2385 X2.1619 Y2.098
N2390 X2.1663 Y2.1025
N2395 X2.1665 Y2.1047
N2400 X2.137 Y2.1186
N2405 X2.1339 Y2.1198
N2410 X2.0995 Y2.1248
N2415 X1.0992
N2420 X1.0617 Y2.1189
N2425 X1.0285 Y2.1021
N2430 X1.0256 Y2.1002
N2435 X0.9992 Y2.0738
N2440 X0.9958 Y2.0679
N2445 X0.9805 Y2.0377
N2450 X0.9745 Y2.0002
N2455 Y0.9998
N2460 X0.9805 Y0.9623
N2465 X0.9973 Y0.9291
N2470 X0.9992 Y0.9262
N2475 X1.0256 Y0.8998
N2480 X1.0315 Y0.8964
N2485 X1.0617 Y0.8811
N2490 X1.0992 Y0.8752
N2495 X2.0995
N2500 X2.1126 Y0.8773
N2505 G3 X2.1179 Y0.8787 Z0.1006 I-0.0039 J0.0247
N2510 X2.1226 Y0.8812 Z0.1025 I-0.0093 J0.0232
N2515 X2.1263 Y0.8842 Z0.1055 I-0.0139 J0.0208
N2520 X2.1289 Y0.8872 Z0.1094 I-0.0176 J0.0178
N2525 X2.1305 Y0.8897 Z0.1142 I-0.0202 J0.0148
N2530 X2.1313 Y0.8913 Z0.1194 I-0.0218 J0.0123
N2535 X2.1316 Y0.8919 Z0.125 I-0.0226 J0.0106
N2540 G0 Z1.1

(Ramp)
N2545 M8
N2550 X0.8457 Y0.9753
N2555 Z1.1
N2560 Z0.385
N2565 G1 X0.8454 Z0.3811 F40
N2570 X0.8445 Z0.3773
N2575 X0.843 Z0.3737
N2580 X0.841 Z0.3703
N2585 X0.8384 Z0.3673
N2590 X0.8354 Z0.3648
N2595 X0.8321 Z0.3627
N2600 X0.8285 Z0.3612
N2605 X0.8247 Z0.3603
N2610 X0.8207 Z0.36
N2615 G3 X0.7957 Y0.9503 J-0.025
N2620 G1 X0.7959 Y0.9494
N2625 X0.7971 Y0.9426 Z0.3599
N2630 X0.7985 Y0.9358
N2635 X0.8001 Y0.9289
N2640 X0.8018 Y0.9221 Z0.3598
N2645 X0.8026 Y0.9192
N2650 X0.8037 Y0.9152
N2655 X0.8058 Y0.9084 Z0.3597
N2660 X0.808 Y0.9016
N2665 X0.8094 Y0.8975 Z0.3596
N2670 X0.8104 Y0.8947
N2675 X0.813 Y0.8879
N2680 X0.8158 Y0.881 Z0.3595
N2685 X0.8163 Y0.88
N2690 X0.8188 Y0.8742
N2695 X0.822 Y0.8674 Z0.3594
N2700 X0.8231 Y0.865
N2705 X0.8254 Y0.8605
N2710 X0.829 Y0.8537 Z0.3593
N2715 X0.8299 Y0.8519
N2720 X0.8328 Y0.8468
N2725 X0.8368 Y0.8401 Z0.3592
N2730 X0.8369 Y0.84
N2735 X0.8412 Y0.8332 Z0.3591
N2740 X0.8436 Y0.8294
N2745 X0.8457 Y0.8263
N2750 X0.8505 Y0.8196 Z0.359
N2755 Y0.8195
N2760 X0.8557 Y0.8126
N2765 X0.8573 Y0.8105
N2770 X0.8611 Y0.8058 Z0.3589
N2775 X0.8641 Y0.8021
N2780 X0.8668 Y0.799
N2785 X0.871 Y0.7942 Z0.3588
N2790 X0.8729 Y0.7921
N2795 X0.8778 Y0.7869 Z0.3587
N2800 X0.8794 Y0.7853
N2805 X0.8847 Y0.78
N2810 X0.8863 Y0.7784
N2815 X0.8915 Y0.7735 Z0.3586
N2820 X0.8936 Y0.7716
N2825 X0.8983 Y0.7674
N2830 X0.9015 Y0.7648 Z0.3585
N2835 X0.9052 Y0.7617
N2840 X0.9099 Y0.7579
N2845 X0.912 Y0.7563 Z0.3584
N2850 X0.9189 Y0.7512
N2855 X0.919 Y0.7511
N2860 X0.9257 Y0.7463 Z0.3583
N2865 X0.9287 Y0.7443
N2870 X0.9325 Y0.7418
N2875 X0.9394 Y0.7375 Z0.3582
N2880 X0.9395 Y0.7374
N2885 X0.9462 Y0.7334
N2890 X0.9513 Y0.7306 Z0.3581
N2895 X0.953 Y0.7296
N2900 X0.9599 Y0.726
N2905 X0.9644 Y0.7237 Z0.358
N2910 X0.9667 Y0.7226
N2915 X0.9736 Y0.7194
N2920 X0.9794 Y0.7169 Z0.3579
N2925 X0.9804 Y0.7164
N2930 X0.9872 Y0.7137
N2935 X0.9941 Y0.7111 Z0.3578
N2940 X0.9968 Y0.7101
N2945 X1.0009 Y0.7086
N2950 X1.0078 Y0.7064 Z0.3577
N2955 X1.0146 Y0.7043
N2960 X1.0186 Y0.7032 Z0.3576
N2965 X1.0214 Y0.7025
N2970 X1.0283 Y0.7007
N2975 X1.0351 Y0.6992 Z0.3575
N2980 X1.042 Y0.6978
N2985 X1.0488 Y0.6965 Z0.3574
N2990 X1.0497 Y0.6964
N2995 X1.0556 Y0.6954
N3000 X1.0625 Y0.6945 Z0.3573
N3005 X1.0693 Y0.6937
N3010 X1.0762 Y0.6931 Z0.3572
N3015 X1.083 Y0.6927
N3020 X1.0898 Y0.6924 Z0.3571
N3025 X1.0967 Y0.6922
N3030 X1.1035
N3035 X2.0952 Z0.3504
N3040 X2.1021 Z0.3503
N3045 X2.1089 Y0.6924
N3050 X2.1157 Y0.6927 Z0.3502
N3055 X2.1226 Y0.6931
N3060 X2.1294 Y0.6937 Z0.3501
N3065 X2.1363 Y0.6945
N3070 X2.1431 Y0.6954 Z0.35
N3075 X2.149 Y0.6964
N3080 X2.1499 Y0.6965
N3085 X2.1568 Y0.6978 Z0.3499
N3090 X2.1636 Y0.6992
N3095 X2.1705 Y0.7007
N3100 X2.1773 Y0.7025 Z0.3498
N3105 X2.1802 Y0.7032
N3110 X2.1841 Y0.7043
N3115 X2.191 Y0.7064 Z0.3497
N3120 X2.1978 Y0.7086
N3125 X2.2019 Y0.7101 Z0.3496
N3130 X2.2046 Y0.7111
N3135 X2.2115 Y0.7137
N3140 X2.2183 Y0.7164 Z0.3495
N3145 X2.2194 Y0.7169
N3150 X2.2252 Y0.7194
N3155 X2.232 Y0.7226 Z0.3494
N3160 X2.2343 Y0.7237
N3165 X2.2388 Y0.726
N3170 X2.2457 Y0.7296 Z0.3493
N3175 X2.2475 Y0.7306
N3180 X2.2525 Y0.7334
N3185 X2.2592 Y0.7374 Z0.3492
N3190 X2.2594 Y0.7375
N3195 X2.2662 Y0.7418 Z0.3491
N3200 X2.27 Y0.7443
N3205 X2.273 Y0.7463
N3210 X2.2798 Y0.7511 Z0.349
N3215 X2.2799 Y0.7512
N3220 X2.2867 Y0.7563
N3225 X2.2889 Y0.7579
N3230 X2.2936 Y0.7617 Z0.3489
N3235 X2.2973 Y0.7648
N3240 X2.3004 Y0.7674
N3245 X2.3051 Y0.7716 Z0.3488
N3250 X2.3072 Y0.7735
N3255 X2.3125 Y0.7784 Z0.3487
N3260 X2.3141 Y0.78
N3265 X2.3193 Y0.7853
N3270 X2.3209 Y0.7869
N3275 X2.3258 Y0.7921 Z0.3486
N3280 X2.3278 Y0.7942
N3285 X2.3319 Y0.799
N3290 X2.3346 Y0.8021 Z0.3485
N3295 X2.3377 Y0.8058
N3300 X2.3414 Y0.8105
N3305 X2.3431 Y0.8126 Z0.3484
N3310 X2.3482 Y0.8195
N3315 X2.3483 Y0.8196
N3320 X2.353 Y0.8263 Z0.3483
N3325 X2.3551 Y0.8294
N3330 X2.3576 Y0.8332
N3335 X2.3619 Y0.84 Z0.3482
N3340 X2.362 Y0.8401
N3345 X2.3659 Y0.8468
N3350 X2.3688 Y0.8519 Z0.3481
N3355 X2.3698 Y0.8537
N3360 X2.3734 Y0.8605
N3365 X2.3756 Y0.865 Z0.348
N3370 X2.3768 Y0.8674
N3375 X2.3799 Y0.8742
N3380 X2.3825 Y0.88 Z0.3479
N3385 X2.3829 Y0.881
N3390 X2.3857 Y0.8879
N3395 X2.3883 Y0.8947 Z0.3478
N3400 X2.3893 Y0.8975
N3405 X2.3907 Y0.9016
N3410 X2.393 Y0.9084 Z0.3477
N3415 X2.395 Y0.9152
N3420 X2.3961 Y0.9192 Z0.3476
N3425 X2.3969 Y0.9221
N3430 X2.3986 Y0.9289
N3435 X2.4002 Y0.9358 Z0.3475
N3440 X2.4016 Y0.9426
N3445 X2.4028 Y0.9494 Z0.3474
N3450 X2.403 Y0.9503
N3455 X2.4039 Y0.9563
N3460 X2.4049 Y0.9631 Z0.3473
N3465 X2.4056 Y0.97
N3470 X2.4062 Y0.9768 Z0.3472
N3475 X2.4067 Y0.9836
N3480 X2.407 Y0.9905 Z0.3471
N3485 X2.4071 Y0.9973
N3490 X2.4072 Y1.0041
N3495 Y1.9959 Z0.3404
N3500 X2.4071 Y2.0027 Z0.3403
N3505 X2.407 Y2.0095
N3510 X2.4067 Y2.0164 Z0.3402
N3515 X2.4062 Y2.0232
N3520 X2.4056 Y2.03 Z0.3401
N3525 X2.4049 Y2.0369
N3530 X2.4039 Y2.0437 Z0.34
N3535 X2.403 Y2.0497
N3540 X2.4028 Y2.0506
N3545 X2.4016 Y2.0574 Z0.3399
N3550 X2.4002 Y2.0642
N3555 X2.3986 Y2.0711
N3560 X2.3969 Y2.0779 Z0.3398
N3565 X2.3961 Y2.0808
N3570 X2.395 Y2.0848
N3575 X2.393 Y2.0916 Z0.3397
N3580 X2.3907 Y2.0984
N3585 X2.3893 Y2.1025 Z0.3396
N3590 X2.3883 Y2.1053
N3595 X2.3857 Y2.1121
N3600 X2.3829 Y2.119 Z0.3395
N3605 X2.3825 Y2.12
N3610 X2.3799 Y2.1258
N3615 X2.3768 Y2.1326 Z0.3394
N3620 X2.3756 Y2.135
N3625 X2.3734 Y2.1395
N3630 X2.3698 Y2.1463 Z0.3393
N3635 X2.3688 Y2.1481
N3640 X2.3659 Y2.1532
N3645 X2.362 Y2.1599 Z0.3392
N3650 X2.3619 Y2.16
N3655 X2.3576 Y2.1668 Z0.3391
N3660 X2.3551 Y2.1706
N3665 X2.353 Y2.1737
N3670 X2.3483 Y2.1804 Z0.339
N3675 X2.3482 Y2.1805
N3680 X2.3431 Y2.1874
N3685 X2.3414 Y2.1895
N3690 X2.3377 Y2.1942 Z0.3389
N3695 X2.3346 Y2.1979
N3700 X2.3319 Y2.201
N3705 X2.3278 Y2.2058 Z0.3388
N3710 X2.3258 Y2.2079
N3715 X2.3209 Y2.2131 Z0.3387
N3720 X2.3193 Y2.2147
N3725 X2.3141 Y2.22
N3730 X2.3125 Y2.2216
N3735 X2.3072 Y2.2265 Z0.3386
N3740 X2.3051 Y2.2284
N3745 X2.3004 Y2.2326
N3750 X2.2973 Y2.2352 Z0.3385
N3755 X2.2936 Y2.2383
N3760 X2.2889 Y2.2421
N3765 X2.2867 Y2.2437 Z0.3384
N3770 X2.2799 Y2.2488
N3775 X2.2798 Y2.2489
N3780 X2.273 Y2.2537 Z0.3383
N3785 X2.27 Y2.2557
N3790 X2.2662 Y2.2582
N3795 X2.2594 Y2.2625 Z0.3382
N3800 X2.2592 Y2.2626
N3805 X2.2525 Y2.2666
N3810 X2.2475 Y2.2694 Z0.3381
N3815 X2.2457 Y2.2704
N3820 X2.2388 Y2.274
N3825 X2.2343 Y2.2763 Z0.338
N3830 X2.232 Y2.2774
N3835 X2.2252 Y2.2806
N3840 X2.2194 Y2.2831 Z0.3379
N3845 X2.2183 Y2.2836
N3850 X2.2115 Y2.2863
N3855 X2.2046 Y2.2889 Z0.3378
N3860 X2.2019 Y2.2899
N3865 X2.1978 Y2.2914
N3870 X2.191 Y2.2936 Z0.3377
N3875 X2.1841 Y2.2957
N3880 X2.1802 Y2.2968 Z0.3376
N3885 X2.1773 Y2.2975
N3890 X2.1705 Y2.2993
N3895 X2.1636 Y2.3008 Z0.3375
N3900 X2.1568 Y2.3022
N3905 X2.1499 Y2.3035 Z0.3374
N3910 X2.149 Y2.3036
N3915 X2.1431 Y2.3046
N3920 X2.1363 Y2.3055 Z0.3373
N3925 X2.1294 Y2.3063
N3930 X2.1226 Y2.3069 Z0.3372
N3935 X2.1157 Y2.3073
N3940 X2.1089 Y2.3076 Z0.3371
N3945 X2.1021 Y2.3078
N3950 X2.0952
N3955 X1.1035 Z0.3304
N3960 X1.0967 Z0.3303
N3965 X1.0898 Y2.3076
N3970 X1.083 Y2.3073 Z0.3302
N3975 X1.0762 Y2.3069
N3980 X1.0693 Y2.3063 Z0.3301
N3985 X1.0625 Y2.3055
N3990 X1.0556 Y2.3046 Z0.33
N3995 X1.0497 Y2.3036
N4000 X1.0488 Y2.3035
N4005 X1.042 Y2.3022 Z0.3299
N4010 X1.0351 Y2.3008
N4015 X1.0283 Y2.2993
N4020 X1.0214 Y2.2975 Z0.3298
N4025 X1.0185 Y2.2968
N4030 X1.0146 Y2.2957
N4035 X1.0078 Y2.2936 Z0.3297
N4040 X1.0009 Y2.2914
N4045 X0.9968 Y2.2899 Z0.3296
N4050 X0.9941 Y2.2889
N4055 X0.9872 Y2.2863
N4060 X0.9804 Y2.2836 Z0.3295
N4065 X0.9794 Y2.2831
N4070 X0.9736 Y2.2806
N4075 X0.9667 Y2.2774 Z0.3294
N4080 X0.9644 Y2.2763
N4085 X0.9599 Y2.274
N4090 X0.953 Y2.2704 Z0.3293
N4095 X0.9513 Y2.2694
N4100 X0.9462 Y2.2666
N4105 X0.9395 Y2.2626 Z0.3292
N4110 X0.9394 Y2.2625
N4115 X0.9325 Y2.2582 Z0.3291
N4120 X0.9287 Y2.2557
N4125 X0.9257 Y2.2537
N4130 X0.919 Y2.2489 Z0.329
N4135 X0.9189 Y2.2488
N4140 X0.912 Y2.2437
N4145 X0.9099 Y2.2421
N4150 X0.9052 Y2.2383 Z0.3289
N4155 X0.9015 Y2.2352
N4160 X0.8983 Y2.2326
N4165 X0.8936 Y2.2284 Z0.3288
N4170 X0.8915 Y2.2264
N4175 X0.8863 Y2.2216 Z0.3287
N4180 X0.8847 Y2.22
N4185 X0.8794 Y2.2147
N4190 X0.8778 Y2.2131
N4195 X0.8729 Y2.2079 Z0.3286
N4200 X0.871 Y2.2058
N4205 X0.8668 Y2.201
N4210 X0.8641 Y2.1979 Z0.3285
N4215 X0.8611 Y2.1942
N4220 X0.8573 Y2.1895
N4225 X0.8557 Y2.1874 Z0.3284
N4230 X0.8505 Y2.1805
N4235 Y2.1804
N4240 X0.8457 Y2.1737 Z0.3283
N4245 X0.8436 Y2.1706
N4250 X0.8412 Y2.1668
N4255 X0.8369 Y2.16 Z0.3282
N4260 X0.8368 Y2.1599
N4265 X0.8328 Y2.1532
N4270 X0.8299 Y2.1481 Z0.3281
N4275 X0.829 Y2.1463
N4280 X0.8254 Y2.1395
N4285 X0.8231 Y2.1349 Z0.328
N4290 X0.822 Y2.1326
N4295 X0.8188 Y2.1258
N4300 X0.8163 Y2.12 Z0.3279
N4305 X0.8158 Y2.119
N4310 X0.813 Y2.1121
N4315 X0.8104 Y2.1053 Z0.3278
N4320 X0.8094 Y2.1025
N4325 X0.808 Y2.0984
N4330 X0.8058 Y2.0916 Z0.3277
N4335 X0.8037 Y2.0848
N4340 X0.8026 Y2.0808 Z0.3276
N4345 X0.8018 Y2.0779
N4350 X0.8001 Y2.0711
N4355 X0.7985 Y2.0642 Z0.3275
N4360 X0.7971 Y2.0574
N4365 X0.7959 Y2.0506 Z0.3274
N4370 X0.7957 Y2.0497
N4375 X0.7948 Y2.0437
N4380 X0.7939 Y2.0369 Z0.3273
N4385 X0.7931 Y2.03
N4390 X0.7925 Y2.0232 Z0.3272
N4395 X0.792 Y2.0164
N4400 X0.7917 Y2.0095 Z0.3271
N4405 X0.7916 Y2.0027
N4410 X0.7915 Y1.9959
N4415 Y1.0041 Z0.3204
N4420 X0.7916 Y0.9973 Z0.3203
N4425 X0.7917 Y0.9905
N4430 X0.792 Y0.9836 Z0.3202
N4435 X0.7925 Y0.9768
N4440 X0.7931 Y0.97 Z0.3201
N4445 X0.7939 Y0.9631
N4450 X0.7948 Y0.9563 Z0.32
N4455 X0.7957 Y0.9503
N4460 X0.7973 Y0.9428 Z0.3199
N4465 X0.7989 Y0.9352
N4470 X0.8006 Y0.9278 Z0.3198
N4475 X0.8026 Y0.9204
N4480 X0.8047 Y0.913 Z0.3197
N4485 X0.807 Y0.9057
N4490 X0.8095 Y0.8985 Z0.3196
N4495 X0.8122 Y0.8913
N4500 X0.8151 Y0.8841 Z0.3195
N4505 X0.8182 Y0.877
N4510 X0.8213 Y0.8703 Z0.3194
N4515 X0.8245 Y0.8637
N4520 X0.8281 Y0.8568 Z0.3193
N4525 X0.8318 Y0.8501
N4530 X0.8358 Y0.8434 Z0.3192
N4535 X0.8398 Y0.8368
N4540 X0.8441 Y0.8304 Z0.3191
N4545 X0.8485 Y0.824
N4550 X0.8529 Y0.818 Z0.319
N4555 X0.8574 Y0.8121
N4560 X0.8624 Y0.806 Z0.3189
N4565 X0.8675 Y0.7999
N4570 X0.8726 Y0.7942 Z0.3188
N4575 X0.8779 Y0.7886
N4580 X0.8831 Y0.7834 Z0.3187
N4585 X0.8884 Y0.7782
N4590 X0.8941 Y0.773 Z0.3186
N4595 X0.8999 Y0.768
N4600 X0.906 Y0.7629 Z0.3185
N4605 X0.9122 Y0.7581 Z0.3184
N4610 X0.9182 Y0.7536
N4615 X0.9242 Y0.7493 Z0.3183
N4620 X0.9306 Y0.745
N4625 X0.9371 Y0.7409 Z0.3182
N4630 X0.9437 Y0.7369
N4635 X0.9504 Y0.7331 Z0.3181
N4640 X0.9572 Y0.7295
N4645 X0.964 Y0.726 Z0.318
N4650 X0.9707 Y0.7229
N4655 X0.9775 Y0.7199 Z0.3179
N4660 X0.9846 Y0.7169
N4665 X0.9917 Y0.7142 Z0.3178
N4670 X0.9989 Y0.7116
N4675 X1.0061 Y0.7092 Z0.3177
N4680 X1.0135 Y0.707
N4685 X1.0208 Y0.705 Z0.3176
N4690 X1.0283 Y0.7031
N4695 X1.0359 Y0.7014 Z0.3175
N4700 X1.0433 Y0.7
N4705 X1.0506 Y0.6987 Z0.3174
N4710 X1.0582 Y0.6976
N4715 X1.0657 Y0.6967 Z0.3173
N4720 X1.0733 Y0.696
N4725 X1.0809 Y0.6954 Z0.3172
N4730 X1.0885 Y0.6951
N4735 X1.0961 Y0.6949 Z0.3171
N4740 X1.1034
N4745 X1.1249 Y0.6951 Z0.3169
N4750 X1.1672 Y0.6953 Z0.3166
N4755 X1.2096 Y0.6955 Z0.3163
N4760 X1.252 Y0.6958 Z0.3161
N4765 X1.2943 Y0.696 Z0.3158
N4770 X1.3367 Y0.6963 Z0.3155
N4775 X1.379 Y0.6965 Z0.3152
N4780 X1.4214 Y0.6967 Z0.3149
N4785 X1.4637 Y0.697 Z0.3146
N4790 X1.5061 Y0.6972 Z0.3143
N4795 X1.5484 Y0.6975 Z0.3141
N4800 X1.5908 Y0.6977 Z0.3138
N4805 X1.6332 Y0.6979 Z0.3135
N4810 X1.6755 Y0.6981 Z0.3132
N4815 X1.7179 Y0.6984 Z0.3129
N4820 X1.7602 Y0.6986 Z0.3126
N4825 X1.8026 Y0.6988 Z0.3123
N4830 X1.8449 Y0.6991 Z0.3121
N4835 X1.8873 Y0.6993 Z0.3118
N4840 X1.9297 Y0.6995 Z0.3115
N4845 X1.972 Y0.6997 Z0.3112
N4850 X2.0144 Y0.6999 Z0.3109
N4855 X2.0567 Y0.7002 Z0.3106
N4860 X2.0921 Y0.7003 Z0.3104
N4865 X2.0992 Y0.7004 Z0.3103
N4870 X2.1066 Y0.7005
N4875 X2.114 Y0.7009 Z0.3102
N4880 X2.1215 Y0.7014
N4885 X2.1289 Y0.7021 Z0.3101
N4890 X2.1363 Y0.703
N4895 X2.1437 Y0.7041 Z0.31
N4900 X2.1511 Y0.7053
N4905 X2.1584 Y0.7068 Z0.3099
N4910 X2.1657 Y0.7084
N4915 X2.1729 Y0.7102 Z0.3098
N4920 X2.1801 Y0.7122
N4925 X2.1873 Y0.7143 Z0.3097
N4930 X2.1944 Y0.7167
N4935 X2.2014 Y0.7192 Z0.3096
N4940 X2.2084 Y0.7219
N4945 X2.2153 Y0.7247 Z0.3095
N4950 X2.2222 Y0.7278
N4955 X2.229 Y0.731 Z0.3094
N4960 X2.2356 Y0.7344
N4965 X2.2422 Y0.7379 Z0.3093
N4970 X2.2488 Y0.7416
N4975 X2.2552 Y0.7455 Z0.3092
N4980 X2.2614 Y0.7495
N4985 X2.2675 Y0.7536 Z0.3091
N4990 X2.2736 Y0.7579
N4995 X2.2795 Y0.7624 Z0.309
N5000 X2.2854 Y0.767
N5005 X2.2912 Y0.7717 Z0.3089
N5010 X2.2968 Y0.7766
N5015 X2.3023 Y0.7817 Z0.3088
N5020 X2.3076 Y0.7869
N5025 X2.3129 Y0.7922 Z0.3087
N5030 X2.318 Y0.7976
N5035 X2.323 Y0.8032 Z0.3086
N5040 X2.3277 Y0.8088
N5045 X2.3324 Y0.8145 Z0.3085
N5050 X2.337 Y0.8205
N5055 X2.3414 Y0.8266 Z0.3084
N5060 X2.3457 Y0.8327
N5065 X2.3498 Y0.839 Z0.3083
N5070 X2.3536 Y0.8452
N5075 X2.3573 Y0.8515 Z0.3082
N5080 X2.361 Y0.858
N5085 X2.3644 Y0.8647 Z0.3081
N5090 X2.3677 Y0.8714
N5095 X2.3708 Y0.8781 Z0.308
N5100 X2.3738 Y0.885
N5105 X2.3766 Y0.8919 Z0.3079
N5110 X2.3792 Y0.8989
N5115 X2.3816 Y0.9059 Z0.3078
N5120 X2.3838 Y0.913
N5125 X2.3859 Y0.9201 Z0.3077
N5130 X2.3878 Y0.9273
N5135 X2.3895 Y0.9345 Z0.3076
N5140 X2.391 Y0.9418
N5145 X2.3924 Y0.9491 Z0.3075
N5150 X2.3935 Y0.9565
N5155 X2.3945 Y0.9638 Z0.3074
N5160 X2.3953 Y0.9712
N5165 X2.3959 Y0.9786 Z0.3073
N5170 X2.3963 Y0.986
N5175 X2.3966 Y0.9934 Z0.3072
N5180 X2.3967 Y1.0006
N5185 X2.3966 Y1.0079 Z0.3071
N5190 X2.3964 Y1.0502 Z0.3068
N5195 X2.3962 Y1.0926 Z0.3065
N5200 X2.396 Y1.1349 Z0.3063
N5205 X2.3958 Y1.1773 Z0.306
N5210 X2.3956 Y1.2196 Z0.3057
N5215 X2.3954 Y1.262 Z0.3054
N5220 X2.3952 Y1.3044 Z0.3051
N5225 X2.3951 Y1.3467 Z0.3048
N5230 X2.3949 Y1.3891 Z0.3045
N5235 X2.3947 Y1.4314 Z0.3043
N5240 X2.3945 Y1.4738 Z0.304
N5245 X2.3943 Y1.5161 Z0.3037
N5250 X2.3941 Y1.5585 Z0.3034
N5255 X2.3939 Y1.6009 Z0.3031
N5260 X2.3937 Y1.6432 Z0.3028
N5265 X2.3936 Y1.6856 Z0.3025
N5270 X2.3934 Y1.7279 Z0.3023
N5275 X2.3932 Y1.7703 Z0.302
N5280 X2.393 Y1.8126 Z0.3017
N5285 X2.3928 Y1.855 Z0.3014
N5290 X2.3926 Y1.8974 Z0.3011
N5295 X2.3925 Y1.9397 Z0.3008
N5300 X2.3923 Y1.9892 Z0.3005
N5305 X2.3922 Y1.9963 Z0.3004
N5310 X2.3921 Y2.0035
N5315 X2.3919 Y2.0108 Z0.3003
N5320 X2.3915 Y2.0181
N5325 X2.3909 Y2.0254 Z0.3002
N5330 X2.3901 Y2.0326
N5335 X2.3892 Y2.0399 Z0.3001
N5340 X2.388 Y2.0471
N5345 X2.3867 Y2.0543 Z0.3
N5350 X2.3852 Y2.0614
N5355 X2.3836 Y2.0685 Z0.2999
N5360 X2.3817 Y2.0756
N5365 X2.3797 Y2.0826 Z0.2998
N5370 X2.3775 Y2.0896
N5375 X2.3751 Y2.0965 Z0.2997
N5380 X2.3726 Y2.1033
N5385 X2.3699 Y2.1101 Z0.2996
N5390 X2.367 Y2.1168
N5395 X2.364 Y2.1233
N5400 X2.3608 Y2.1299 Z0.2995
N5405 X2.3575 Y2.1363
N5410 X2.3539 Y2.1427 Z0.2994
N5415 X2.3503 Y2.149
N5420 X2.3464 Y2.1553 Z0.2993
N5425 X2.3423 Y2.1615
N5430 X2.3382 Y2.1675 Z0.2992
N5435 X2.3339 Y2.1734
N5440 X2.3295 Y2.1791 Z0.2991
N5445 X2.325 Y2.1848
N5450 X2.3203 Y2.1903 Z0.299
N5455 X2.3154 Y2.1958
N5460 X2.3104 Y2.2011 Z0.2989
N5465 X2.3053 Y2.2063
N5470 X2.3 Y2.2114 Z0.2988
N5475 X2.2947 Y2.2163
N5480 X2.2892 Y2.2211 Z0.2987
N5485 X2.2836 Y2.2258
N5490 X2.2779 Y2.2302 Z0.2986
N5495 X2.2721 Y2.2346
N5500 X2.2661 Y2.2388 Z0.2985
N5505 X2.26 Y2.243
N5510 X2.2539 Y2.2469 Z0.2984
N5515 X2.2477 Y2.2506
N5520 X2.2413 Y2.2543 Z0.2983
N5525 X2.2349 Y2.2577
N5530 X2.2284 Y2.261 Z0.2982
N5535 X2.2218 Y2.2641
N5540 X2.2153 Y2.2671 Z0.2981
N5545 X2.2086 Y2.2698
N5550 X2.2019 Y2.2725 Z0.298
N5555 X2.195 Y2.2749
N5560 X2.1881 Y2.2772 Z0.2979
N5565 X2.1811 Y2.2793
N5570 X2.1741 Y2.2813 Z0.2978
N5575 X2.1671 Y2.2831
N5580 X2.16 Y2.2846 Z0.2977
N5585 X2.1528 Y2.2861
N5590 X2.1457 Y2.2873 Z0.2976
N5595 X2.1385 Y2.2884
N5600 X2.1313 Y2.2892 Z0.2975
N5605 X2.1241 Y2.2899
N5610 X2.1168 Y2.2905 Z0.2974
N5615 X2.1096 Y2.2908
N5620 X2.1023 Y2.291 Z0.2973
N5625 X2.095
N5630 X2.0527 Y2.2908 Z0.297
N5635 X2.0103 Y2.2907 Z0.2967
N5640 X1.968 Y2.2905 Z0.2964
N5645 X1.9256 Y2.2903 Z0.2961
N5650 X1.8832 Y2.2902 Z0.2958
N5655 X1.8409 Y2.29 Z0.2956
N5660 X1.7985 Y2.2899 Z0.2953
N5665 X1.7562 Y2.2897 Z0.295
N5670 X1.7138 Y2.2895 Z0.2947
N5675 X1.6715 Y2.2894 Z0.2944
N5680 X1.6291 Y2.2892 Z0.2941
N5685 X1.5868 Y2.2891 Z0.2938
N5690 X1.5444 Y2.2889 Z0.2936
N5695 X1.502 Y2.2888 Z0.2933
N5700 X1.4597 Y2.2886 Z0.293
N5705 X1.4173 Y2.2885 Z0.2927
N5710 X1.375 Y2.2883 Z0.2924
N5715 X1.3326 Y2.2882 Z0.2921
N5720 X1.2903 Y2.288 Z0.2918
N5725 X1.2479 Y2.2879 Z0.2916
N5730 X1.2055 Y2.2878 Z0.2913
N5735 X1.1632 Y2.2876 Z0.291
N5740 X1.1208 Y2.2875 Z0.2907
N5745 X1.1067 Y2.2874 Z0.2906
N5750 X1.0996
N5755 X1.0925 Y2.2872 Z0.2905
N5760 X1.0853 Y2.2869
N5765 X1.0782 Y2.2864 Z0.2904
N5770 X1.071 Y2.2858
N5775 X1.0639 Y2.2849 Z0.2903
N5780 X1.0568 Y2.2839
N5785 X1.0497 Y2.2827 Z0.2902
N5790 X1.0427 Y2.2813
N5795 X1.0357 Y2.2798 Z0.2901
N5800 X1.0287 Y2.2781
N5805 X1.0218 Y2.2762 Z0.29
N5810 X1.015 Y2.2741
N5815 X1.0081 Y2.2719 Z0.2899
N5820 X1.0014 Y2.2695
N5825 X0.9947 Y2.2669 Z0.2898
N5830 X0.9881 Y2.2642
N5835 X0.9815 Y2.2613 Z0.2897
N5840 X0.975 Y2.2582
N5845 X0.9686 Y2.255 Z0.2896
N5850 X0.9623 Y2.2516
N5855 X0.9561 Y2.2481 Z0.2895
N5860 X0.9499 Y2.2444
N5865 X0.9439 Y2.2406 Z0.2894
N5870 X0.9379 Y2.2366
N5875 X0.9321 Y2.2325 Z0.2893
N5880 X0.9264 Y2.2282
N5885 X0.9207 Y2.2237 Z0.2892
N5890 X0.9152 Y2.2192
N5895 X0.9098 Y2.2145
N5900 X0.9045 Y2.2097 Z0.2891
N5905 X0.8993 Y2.2047
N5910 X0.8943 Y2.1996 Z0.289
N5915 X0.8894 Y2.1944
N5920 X0.8846 Y2.1891 Z0.2889
N5925 X0.88 Y2.1837
N5930 X0.8755 Y2.1781 Z0.2888
N5935 X0.8711 Y2.1724
N5940 X0.8669 Y2.1667 Z0.2887
N5945 X0.8628 Y2.1608
N5950 X0.8589 Y2.1548 Z0.2886
N5955 X0.8551 Y2.1488
N5960 X0.8515 Y2.1426 Z0.2885
N5965 X0.848 Y2.1364
N5970 X0.8446 Y2.13 Z0.2884
N5975 X0.8415 Y2.1236
N5980 X0.8385 Y2.1171 Z0.2883
N5985 X0.8356 Y2.1105
N5990 X0.833 Y2.1039 Z0.2882
N5995 X0.8305 Y2.0972
N6000 X0.8281 Y2.0905 Z0.2881
N6005 X0.8259 Y2.0837
N6010 X0.8239 Y2.0768 Z0.288
N6015 X0.8221 Y2.0699
N6020 X0.8205 Y2.0629 Z0.2879
N6025 X0.819 Y2.0559
N6030 X0.8177 Y2.0489 Z0.2878
N6035 X0.8165 Y2.0419
N6040 X0.8156 Y2.0348 Z0.2877
N6045 X0.8148 Y2.0277
N6050 X0.8142 Y2.0206 Z0.2876
N6055 X0.8138 Y2.0135
N6060 X0.8135 Y2.0063
N6065 Y1.9992 Z0.2875
N6070 Y1.9921
N6075 X0.8136 Y1.9568 Z0.2872
N6080 X0.8137 Y1.9004 Z0.2868
N6085 X0.8139 Y1.8439 Z0.2865
N6090 X0.8141 Y1.7874 Z0.2861
N6095 X0.8143 Y1.7309 Z0.2857
N6100 X0.8144 Y1.6745 Z0.2853
N6105 X0.8146 Y1.618 Z0.2849
N6110 X0.8148 Y1.5615 Z0.2846
N6115 X0.8149 Y1.505 Z0.2842
N6120 X0.8151 Y1.4486 Z0.2838
N6125 X0.8152 Y1.3921 Z0.2834
N6130 X0.8154 Y1.3356 Z0.283
N6135 X0.8156 Y1.2791 Z0.2826
N6140 X0.8157 Y1.2227 Z0.2823
N6145 X0.8159 Y1.1662 Z0.2819
N6150 X0.816 Y1.1097 Z0.2815
N6155 X0.8162 Y1.0532 Z0.2811
N6160 X0.8163 Y1.0109 Z0.2808
N6165 X0.8164 Y0.9967 Z0.2807
N6170 X0.817 Y0.9826 Z0.2806
N6175 X0.8183 Y0.9686
N6180 X0.8203 Y0.9546 Z0.2805
N6185 X0.823 Y0.9407 Z0.2804
N6190 X0.8264 Y0.927 Z0.2803
N6195 X0.8304 Y0.9135 Z0.2802
N6200 X0.8351 Y0.9002 Z0.2801
N6205 X0.8394 Y0.8898 Z0.28
N6210 X0.8423 Y0.8832 Z0.2799
N6215 X0.8454 Y0.8766
N6220 X0.8487 Y0.8701 Z0.2798
N6225 X0.8522 Y0.8636
N6230 X0.8559 Y0.8572 Z0.2797
N6235 X0.8597 Y0.8509
N6240 X0.8637 Y0.8448 Z0.2796
N6245 X0.8678 Y0.8387
N6250 X0.8721 Y0.8328 Z0.2795
N6255 X0.8765 Y0.827
N6260 X0.8811 Y0.8212 Z0.2794
N6265 X0.8859 Y0.8156
N6270 X0.8908 Y0.8101 Z0.2793
N6275 X0.8959 Y0.8047
N6280 X0.901 Y0.7995 Z0.2792
N6285 X0.9063 Y0.7945
N6290 X0.9116 Y0.7896 Z0.2791
N6295 X0.9171 Y0.7849
N6300 X0.9228 Y0.7802 Z0.279
N6305 X0.9287 Y0.7756
N6310 X0.9346 Y0.7713 Z0.2789
N6315 X0.9406 Y0.767
N6320 X0.9466 Y0.7631 Z0.2788
N6325 X0.9527 Y0.7593
N6330 X0.9591 Y0.7555 Z0.2787
N6335 X0.9655 Y0.7519
N6340 X0.972 Y0.7485 Z0.2786
N6345 X0.9786 Y0.7453
N6350 X0.9853 Y0.7423 Z0.2785
N6355 X0.992 Y0.7394
N6360 X0.9988 Y0.7367 Z0.2784
N6365 X1.0057 Y0.7342
N6370 X1.0127 Y0.7318 Z0.2783
N6375 X1.0196 Y0.7297
N6380 X1.0267 Y0.7277 Z0.2782
N6385 X1.0338 Y0.7259
N6390 X1.0409 Y0.7243 Z0.2781
N6395 X1.0481 Y0.7229
N6400 X1.0552 Y0.7216 Z0.278
N6405 X1.0624 Y0.7206
N6410 X1.0697 Y0.7197 Z0.2779
N6415 X1.077 Y0.719
N6420 X1.0843 Y0.7186 Z0.2778
N6425 X1.0916 Y0.7183
N6430 X1.0988 Y0.7181 Z0.2777
N6435 X1.106
N6440 X1.1623 Y0.7183 Z0.2773
N6445 X1.2186 Y0.7184 Z0.2769
N6450 X1.275 Y0.7185 Z0.2765
N6455 X1.3313 Y0.7187 Z0.2761
N6460 X1.3877 Y0.7188 Z0.2757
N6465 X1.444 Y0.7189 Z0.2753
N6470 X1.5004 Y0.7191 Z0.2749
N6475 X1.5567 Y0.7192 Z0.2745
N6480 X1.613 Y0.7193 Z0.2742
N6485 X1.6694 Y0.7195 Z0.2738
N6490 X1.7257 Y0.7196 Z0.2734
N6495 X1.7821 Y0.7197 Z0.273
N6500 X1.8384 Y0.7198 Z0.2726
N6505 X1.8947 Y0.72 Z0.2722
N6510 X1.9511 Y0.7201 Z0.2718
N6515 X2.0074 Y0.7202 Z0.2714
N6520 X2.0638 Y0.7203 Z0.271
N6525 X2.0919 Y0.7204 Z0.2708
N6530 X2.0991
N6535 X2.1063 Y0.7205 Z0.2707
N6540 X2.1135 Y0.7209
N6545 X2.1207 Y0.7214 Z0.2706
N6550 X2.1279 Y0.722
N6555 X2.1352 Y0.7229 Z0.2705
N6560 X2.1423 Y0.724
N6565 X2.1494 Y0.7252 Z0.2704
N6570 X2.1565 Y0.7266
N6575 X2.1636 Y0.7282 Z0.2703
N6580 X2.1706 Y0.73
N6585 X2.1776 Y0.732 Z0.2702
N6590 X2.1845 Y0.7342
N6595 X2.1913 Y0.7365 Z0.2701
N6600 X2.1981 Y0.739
N6605 X2.2049 Y0.7417 Z0.27
N6610 X2.2116 Y0.7445
N6615 X2.2182 Y0.7475 Z0.2699
N6620 X2.2247 Y0.7507
N6625 X2.2311 Y0.7541 Z0.2698
N6630 X2.2375 Y0.7577
N6635 X2.2437 Y0.7614 Z0.2697
N6640 X2.2498 Y0.7652
N6645 X2.2557 Y0.7691 Z0.2696
N6650 X2.2617 Y0.7733
N6655 X2.2675 Y0.7776 Z0.2695
N6660 X2.2733 Y0.7821
N6665 X2.2789 Y0.7868 Z0.2694
N6670 X2.2843 Y0.7915
N6675 X2.2896 Y0.7963 Z0.2693
N6680 X2.2948 Y0.8013
N6685 X2.2999 Y0.8065 Z0.2692
N6690 X2.3049 Y0.8118
N6695 X2.3097 Y0.8172 Z0.2691
N6700 X2.3143 Y0.8227
N6705 X2.3188 Y0.8283 Z0.269
N6710 X2.3233 Y0.8341
N6715 X2.3275 Y0.84 Z0.2689
N6720 X2.3316 Y0.846
N6725 X2.3355 Y0.8521 Z0.2688
N6730 X2.3393 Y0.8583
N6735 X2.3429 Y0.8646 Z0.2687
N6740 X2.3463 Y0.8709
N6745 X2.3495 Y0.8773 Z0.2686
N6750 X2.3526 Y0.8839
N6755 X2.3556 Y0.8905 Z0.2685
N6760 X2.3583 Y0.8972
N6765 X2.3609 Y0.9039 Z0.2684
N6770 X2.3633 Y0.9107
N6775 X2.3655 Y0.9176 Z0.2683
N6780 X2.3676 Y0.9246
N6785 X2.3695 Y0.9315 Z0.2682
N6790 X2.3711 Y0.9386
N6795 X2.3727 Y0.9456 Z0.2681
N6800 X2.374 Y0.9527
N6805 X2.3751 Y0.9599 Z0.268
N6810 X2.3761 Y0.967
N6815 X2.3768 Y0.9742 Z0.2679
N6820 X2.3774 Y0.9814
N6825 X2.3778 Y0.9886 Z0.2678
N6830 X2.378 Y0.9958
N6835 X2.3781 Y1.003 Z0.2677
N6840 X2.378 Y1.0453 Z0.2674
N6845 X2.3779 Y1.1017 Z0.267
N6850 X2.3778 Y1.158 Z0.2667
N6855 X2.3777 Y1.2144 Z0.2663
N6860 X2.3776 Y1.2707 Z0.2659
N6865 X2.3775 Y1.327 Z0.2655
N6870 X2.3774 Y1.3834 Z0.2651
N6875 X2.3773 Y1.4397 Z0.2647
N6880 X2.3772 Y1.4961 Z0.2643
N6885 X2.3771 Y1.5524 Z0.2639
N6890 X2.377 Y1.6087 Z0.2635
N6895 X2.3769 Y1.6651 Z0.2631
N6900 Y1.7214 Z0.2627
N6905 X2.3768 Y1.7778 Z0.2624
N6910 X2.3767 Y1.8341 Z0.262
N6915 X2.3766 Y1.8905 Z0.2616
N6920 X2.3765 Y1.9468 Z0.2612
N6925 X2.3764 Y1.9962 Z0.2608
N6930 Y2.0033
N6935 X2.3762 Y2.0105 Z0.2607
N6940 X2.3758 Y2.0176
N6945 X2.3752 Y2.0248 Z0.2606
N6950 X2.3744 Y2.0319
N6955 X2.3735 Y2.039 Z0.2605
N6960 X2.3723 Y2.0461
N6965 X2.371 Y2.0532 Z0.2604
N6970 X2.3695 Y2.0602
N6975 X2.3678 Y2.0672 Z0.2603
N6980 X2.366 Y2.0741
N6985 X2.3639 Y2.081 Z0.2602
N6990 X2.3617 Y2.0878
N6995 X2.3593 Y2.0946 Z0.2601
N7000 X2.3567 Y2.1013
N7005 X2.354 Y2.108 Z0.26
N7010 X2.3511 Y2.1145
N7015 X2.348 Y2.121
N7020 X2.3448 Y2.1274 Z0.2599
N7025 X2.3414 Y2.1337
N7030 X2.3378 Y2.1399 Z0.2598
N7035 X2.3341 Y2.1461
N7040 X2.3302 Y2.1521 Z0.2597
N7045 X2.3261 Y2.158
N7050 X2.3219 Y2.1639 Z0.2596
N7055 X2.3176 Y2.1696
N7060 X2.3132 Y2.1751 Z0.2595
N7065 X2.3085 Y2.1807
N7070 X2.3037 Y2.1861 Z0.2594
N7075 X2.2988 Y2.1913
N7080 X2.2938 Y2.1963 Z0.2593
N7085 X2.2886 Y2.2013
N7090 X2.2833 Y2.2062 Z0.2592
N7095 X2.2779 Y2.2109
N7100 X2.2724 Y2.2154 Z0.2591
N7105 X2.2667 Y2.2198
N7110 X2.2609 Y2.2241 Z0.259
N7115 X2.2551 Y2.2282
N7120 X2.2491 Y2.2322 Z0.2589
N7125 X2.243 Y2.236
N7130 X2.2368 Y2.2397 Z0.2588
N7135 X2.2306 Y2.2431
N7140 X2.2242 Y2.2464 Z0.2587
N7145 X2.2178 Y2.2496
N7150 X2.2112 Y2.2526 Z0.2586
N7155 X2.2046 Y2.2555
N7160 X2.198 Y2.2581 Z0.2585
N7165 X2.1912 Y2.2606
N7170 X2.1844 Y2.2629 Z0.2584
N7175 X2.1776 Y2.265
N7180 X2.1707 Y2.2669 Z0.2583
N7185 X2.1637 Y2.2687
N7190 X2.1567 Y2.2703 Z0.2582
N7195 X2.1497 Y2.2717
N7200 X2.1426 Y2.2729 Z0.2581
N7205 X2.1355 Y2.274
N7210 X2.1284 Y2.2748 Z0.258
N7215 X2.1213 Y2.2755
N7220 X2.1141 Y2.276 Z0.2579
N7225 X2.107 Y2.2763
N7230 X2.0999 Y2.2764 Z0.2578
N7235 X2.0857 Z0.2577
N7240 X2.0576 Z0.2575
N7245 X2.0294 Z0.2573
N7250 X2.0012 Y2.2763 Z0.2571
N7255 X1.3251 Y2.2755 Z0.2524
N7260 X1.311 Z0.2523
N7265 X1.1279 Y2.2752 Z0.2511
N7270 X1.1138 Z0.251
N7275 X1.0997 Y2.2751 Z0.2509
N7280 X1.0926 Y2.275 Z0.2508
N7285 X1.0855 Y2.2747
N7290 X1.0784 Y2.2742 Z0.2507
N7295 X1.0713 Y2.2735
N7300 X1.0642 Y2.2727 Z0.2506
N7305 X1.0571 Y2.2716
N7310 X1.0501 Y2.2704 Z0.2505
N7315 X1.0431 Y2.269
N7320 X1.0362 Y2.2674 Z0.2504
N7325 X1.0293 Y2.2657
N7330 X1.0224 Y2.2637 Z0.2503
N7335 X1.0156 Y2.2616
N7340 X1.0088 Y2.2593 Z0.2502
N7345 X1.0021 Y2.2568
N7350 X0.9955 Y2.2542 Z0.2501
N7355 X0.9889 Y2.2514
N7360 X0.9825 Y2.2484 Z0.25
N7365 X0.9761 Y2.2453
N7370 X0.9698 Y2.242 Z0.2499
N7375 X0.9635 Y2.2385
N7380 X0.9574 Y2.2349 Z0.2498
N7385 X0.9514 Y2.2311
N7390 X0.9454 Y2.2272
N7395 X0.9396 Y2.2231 Z0.2497
N7400 X0.9339 Y2.2188
N7405 X0.9282 Y2.2144 Z0.2496
N7410 X0.9228 Y2.2099
N7415 X0.9174 Y2.2053 Z0.2495
N7420 X0.9121 Y2.2004
N7425 X0.907 Y2.1955 Z0.2494
N7430 X0.902 Y2.1904
N7435 X0.8971 Y2.1853 Z0.2493
N7440 X0.8924 Y2.1799
N7445 X0.8878 Y2.1745 Z0.2492
N7450 X0.8833 Y2.1689
N7455 X0.879 Y2.1633 Z0.2491
N7460 X0.8749 Y2.1575
N7465 X0.8708 Y2.1516 Z0.249
N7470 X0.867 Y2.1456
N7475 X0.8633 Y2.1395 Z0.2489
N7480 X0.8598 Y2.1333
N7485 X0.8564 Y2.127 Z0.2488
N7490 X0.8532 Y2.1207
N7495 X0.8501 Y2.1143 Z0.2487
N7500 X0.8473 Y2.1078
N7505 X0.8445 Y2.1012 Z0.2486
N7510 X0.842 Y2.0945
N7515 X0.8396 Y2.0878 Z0.2485
N7520 X0.8374 Y2.0811
N7525 X0.8354 Y2.0742 Z0.2484
N7530 X0.8336 Y2.0674
N7535 X0.8319 Y2.0604 Z0.2483
N7540 X0.8304 Y2.0535
N7545 X0.8291 Y2.0465 Z0.2482
N7550 X0.828 Y2.0394
N7555 X0.827 Y2.0324 Z0.2481
N7560 X0.8263 Y2.0253
N7565 X0.8257 Y2.0182 Z0.248
N7570 X0.8253 Y2.0112
N7575 X0.8251 Y2.004 Z0.2479
N7580 Y1.997
N7585 X0.8252 Y1.9195 Z0.2473
N7590 X0.8254 Y1.849 Z0.2469
N7595 Y1.8349 Z0.2468
N7600 X0.8261 Y1.5392 Z0.2447
N7605 Y1.5251 Z0.2446
N7610 X0.8262 Y1.511 Z0.2445
N7615 Y1.4969 Z0.2444
N7620 X0.827 Y1.187 Z0.2423
N7625 Y1.1588 Z0.2421
N7630 X0.8274 Y1.0039 Z0.241
N7635 X0.8277 Y0.9898 Z0.2409
N7640 X0.8287 Y0.9757 Z0.2408
N7645 X0.8304 Y0.9618 Z0.2407
N7650 X0.8328 Y0.9479 Z0.2406
N7655 X0.836 Y0.9341 Z0.2405
N7660 X0.8398 Y0.9206 Z0.2404
N7665 X0.8444 Y0.9072 Z0.2403
N7670 X0.8496 Y0.8942 Z0.2402
N7675 X0.8555 Y0.8814 Z0.2401
N7680 X0.862 Y0.8689 Z0.24
N7685 X0.8638 Y0.8656
N7690 X0.8678 Y0.859 Z0.2399
N7695 X0.872 Y0.8525
N7700 X0.8764 Y0.846 Z0.2398
N7705 X0.8809 Y0.8396
N7710 X0.8855 Y0.8336 Z0.2397
N7715 X0.8902 Y0.8278
N7720 X0.8952 Y0.8219 Z0.2396
N7725 X0.9004 Y0.8161
N7730 X0.9057 Y0.8106 Z0.2395
N7735 X0.9112 Y0.8052
N7740 X0.9168 Y0.7999 Z0.2394
N7745 X0.9226 Y0.7948
N7750 X0.9286 Y0.7898 Z0.2393
N7755 X0.9347 Y0.7851 Z0.2392
N7760 X0.9406 Y0.7806
N7765 X0.9467 Y0.7764 Z0.2391
N7770 X0.9532 Y0.7721
N7775 X0.9599 Y0.768 Z0.239
N7780 X0.9665 Y0.7641
N7785 X0.9733 Y0.7604 Z0.2389
N7790 X0.9802 Y0.7569
N7795 X0.9873 Y0.7536 Z0.2388
N7800 X0.9943 Y0.7505
N7805 X1.0014 Y0.7477 Z0.2387
N7810 X1.0087 Y0.745
N7815 X1.016 Y0.7425 Z0.2386
N7820 X1.0233 Y0.7402 Z0.2385
N7825 X1.0307 Y0.7382
N7830 X1.0382 Y0.7364 Z0.2384
N7835 X1.0457 Y0.7347
N7840 X1.0532 Y0.7333 Z0.2383
N7845 X1.0607 Y0.7321
N7850 X1.0684 Y0.7311 Z0.2382
N7855 X1.076 Y0.7303
N7860 X1.0836 Y0.7298 Z0.2381
N7865 X1.0911 Y0.7295
N7870 X1.0986 Y0.7293 Z0.238
N7875 X1.106
N7880 X1.2048 Y0.7296 Z0.2373
N7885 X1.2189 Z0.2372
N7890 X1.5437 Y0.7307 Z0.2349
N7895 X1.5578 Z0.2348
N7900 X1.6001 Y0.7309 Z0.2345
N7905 X1.939 Y0.732 Z0.2321
N7910 X2.0942 Y0.7325 Z0.231
N7915 X2.1016
N7920 X2.109 Y0.7328 Z0.2309
N7925 X2.1165 Y0.7332
N7930 X2.124 Y0.7338 Z0.2308
N7935 X2.1317 Y0.7347
N7940 X2.1395 Y0.7358 Z0.2307
N7945 X2.1469 Y0.7371
N7950 X2.1544 Y0.7386 Z0.2306
N7955 X2.1617 Y0.7403
N7960 X2.1691 Y0.7422 Z0.2305
N7965 X2.1763 Y0.7443 Z0.2304
N7970 X2.1835 Y0.7467
N7975 X2.1904 Y0.7491 Z0.2303
N7980 X2.1973 Y0.7518
N7985 X2.2043 Y0.7547 Z0.2302
N7990 X2.2112 Y0.7578
N7995 X2.2181 Y0.7612 Z0.2301
N8000 X2.2249 Y0.7647
N8005 X2.2315 Y0.7684 Z0.23
N8010 X2.238 Y0.7723
N8015 X2.2445 Y0.7764 Z0.2299
N8020 X2.2508 Y0.7807
N8025 X2.2568 Y0.785 Z0.2298
N8030 X2.2627 Y0.7894
N8035 X2.2687 Y0.7943 Z0.2297
N8040 X2.2746 Y0.7993
N8045 X2.2802 Y0.8044 Z0.2296
N8050 X2.2857 Y0.8097 Z0.2295
N8055 X2.2909 Y0.815
N8060 X2.296 Y0.8204 Z0.2294
N8065 X2.301 Y0.8261
N8070 X2.3059 Y0.8319 Z0.2293
N8075 X2.3106 Y0.838
N8080 X2.3152 Y0.8442 Z0.2292
N8085 X2.3194 Y0.8502
N8090 X2.3235 Y0.8564 Z0.2291
N8095 X2.3275 Y0.8629
N8100 X2.3313 Y0.8694 Z0.229
N8105 X2.3349 Y0.8761
N8110 X2.3383 Y0.8829 Z0.2289
N8115 X2.3415 Y0.8898
N8120 X2.3446 Y0.8967 Z0.2288
N8125 X2.3474 Y0.9037
N8130 X2.35 Y0.9107 Z0.2287
N8135 X2.3525 Y0.918 Z0.2286
N8140 X2.3547 Y0.9252
N8145 X2.3567 Y0.9325 Z0.2285
N8150 X2.3585 Y0.9398
N8155 X2.3601 Y0.9472 Z0.2284
N8160 X2.3615 Y0.9546
N8165 X2.3627 Y0.962 Z0.2283
N8170 X2.3636 Y0.9695
N8175 X2.3644 Y0.977 Z0.2282
N8180 X2.3649 Y0.9845
N8185 X2.3653 Y0.992 Z0.2281
N8190 X2.3654 Y0.9995
N8195 Y1.0066 Z0.228
N8200 X2.3648 Y1.169 Z0.2269
N8205 Y1.1831 Z0.2268
N8210 X2.3636 Y1.4937 Z0.2246
N8215 X2.3635 Y1.5078 Z0.2245
N8220 X2.3631 Y1.6349 Z0.2236
N8225 X2.363 Y1.649 Z0.2235
N8230 X2.3616 Y1.9949 Z0.2211
N8235 X2.3615 Y2.002 Z0.221
N8240 X2.3614 Y2.0094
N8245 X2.361 Y2.0168 Z0.2209
N8250 X2.3603 Y2.0244
N8255 X2.3594 Y2.0319 Z0.2208
N8260 X2.3584 Y2.0393
N8265 X2.3571 Y2.0466 Z0.2207
N8270 X2.3556 Y2.0538
N8275 X2.3539 Y2.0611 Z0.2206
N8280 X2.3521 Y2.0683
N8285 X2.35 Y2.0754 Z0.2205
N8290 X2.3477 Y2.0825
N8295 X2.3452 Y2.0895 Z0.2204
N8300 X2.3426 Y2.0962
N8305 X2.3398 Y2.1029 Z0.2203
N8310 X2.3367 Y2.1097
N8315 X2.3335 Y2.1164 Z0.2202
N8320 X2.33 Y2.123
N8325 X2.3264 Y2.1295 Z0.2201
N8330 X2.3226 Y2.1359
N8335 X2.3186 Y2.1422 Z0.22
N8340 X2.3143 Y2.1484
N8345 X2.31 Y2.1545 Z0.2199
N8350 X2.3055 Y2.1603 Z0.2198
N8355 X2.3009 Y2.166
N8360 X2.2961 Y2.1717 Z0.2197
N8365 X2.2911 Y2.1772
N8370 X2.286 Y2.1825 Z0.2196
N8375 X2.2807 Y2.1877
N8380 X2.2753 Y2.1928 Z0.2195
N8385 X2.2697 Y2.1977
N8390 X2.264 Y2.2024 Z0.2194
N8395 X2.2581 Y2.207
N8400 X2.2523 Y2.2113 Z0.2193
N8405 X2.2463 Y2.2155
N8410 X2.2401 Y2.2196 Z0.2192
N8415 X2.2337 Y2.2235
N8420 X2.2273 Y2.2273 Z0.2191
N8425 X2.2208 Y2.2308
N8430 X2.2141 Y2.2341 Z0.219
N8435 X2.2074 Y2.2373
N8440 X2.2006 Y2.2403 Z0.2189
N8445 X2.1937 Y2.243
N8450 X2.1868 Y2.2456 Z0.2188
N8455 X2.1798 Y2.248
N8460 X2.1727 Y2.2501 Z0.2187
N8465 X2.1655 Y2.2521
N8470 X2.1584 Y2.2539 Z0.2186
N8475 X2.1511 Y2.2554
N8480 X2.1439 Y2.2568 Z0.2185
N8485 X2.1366 Y2.258
N8490 X2.1293 Y2.2589 Z0.2184
N8495 X2.1219 Y2.2596
N8500 X2.1146 Y2.2602 Z0.2183
N8505 X2.1073 Y2.2605 Z0.2182
N8510 X2.1 Y2.2606
N8515 X2.0927 Z0.2181
N8520 X1.9798 Y2.2601 Z0.2174
N8525 X1.9657 Z0.2173
N8530 X1.9092 Y2.2598 Z0.2169
N8535 X1.5986 Y2.2585 Z0.2147
N8540 X1.3727 Y2.2575 Z0.2131
N8545 X1.2739 Y2.2571 Z0.2124
N8550 X1.1045 Y2.2563 Z0.2112
N8555 X1.0973
N8560 X1.0901 Y2.2561 Z0.2111
N8565 X1.0829 Y2.2557
N8570 X1.0757 Y2.2551 Z0.211
N8575 X1.0684 Y2.2542
N8580 X1.0611 Y2.2532 Z0.2109
N8585 X1.0539 Y2.2519
N8590 X1.0468 Y2.2505 Z0.2108
N8595 X1.0398 Y2.2488
N8600 X1.0327 Y2.247 Z0.2107
N8605 X1.0258 Y2.245
N8610 X1.0189 Y2.2427 Z0.2106
N8615 X1.0121 Y2.2403
N8620 X1.0054 Y2.2377 Z0.2105
N8625 X0.9987 Y2.2349
N8630 X0.9921 Y2.2319 Z0.2104
N8635 X0.9856 Y2.2287
N8640 X0.9791 Y2.2254 Z0.2103
N8645 X0.9728 Y2.2218
N8650 X0.9666 Y2.2181 Z0.2102
N8655 X0.9604 Y2.2142
N8660 X0.9544 Y2.2101 Z0.2101
N8665 X0.9486 Y2.2059
N8670 X0.9429 Y2.2015 Z0.21
N8675 X0.9372 Y2.1969
N8680 X0.9316 Y2.1922 Z0.2099
N8685 X0.9263 Y2.1873 Z0.2098
N8690 X0.921 Y2.1823
N8695 X0.916 Y2.1772 Z0.2097
N8700 X0.9111 Y2.1719
N8705 X0.9063 Y2.1665 Z0.2096
N8710 X0.9017 Y2.1609
N8715 X0.8972 Y2.1551 Z0.2095
N8720 X0.8928 Y2.1493
N8725 X0.8887 Y2.1434 Z0.2094
N8730 X0.8848 Y2.1374
N8735 X0.881 Y2.1312 Z0.2093
N8740 X0.8774 Y2.1249
N8745 X0.8739 Y2.1186 Z0.2092
N8750 X0.8707 Y2.1121
N8755 X0.8676 Y2.1055 Z0.2091
N8760 X0.8647 Y2.0989
N8765 X0.862 Y2.0922 Z0.209
N8770 X0.8595 Y2.0854
N8775 X0.8572 Y2.0786 Z0.2089
N8780 X0.8551 Y2.0716
N8785 X0.8531 Y2.0647 Z0.2088
N8790 X0.8514 Y2.0577
N8795 X0.8499 Y2.0506 Z0.2087
N8800 X0.8486 Y2.0435
N8805 X0.8474 Y2.0364 Z0.2086
N8810 X0.8465 Y2.0292
N8815 X0.8458 Y2.022 Z0.2085
N8820 X0.8453 Y2.0148
N8825 X0.845 Y2.0076 Z0.2084
N8830 X0.8448 Y2.0004
N8835 Y1.9863 Z0.2083
N8840 X0.8451 Y1.9157 Z0.2078
N8845 X0.8452 Y1.9016 Z0.2077
N8850 X0.8453 Y1.8875 Z0.2076
N8855 X0.8471 Y1.5063 Z0.2049
N8860 Y1.4922 Z0.2048
N8865 X0.8477 Y1.3651 Z0.2039
N8870 X0.8478 Y1.351 Z0.2038
N8875 X0.8494 Y1.0122 Z0.2015
N8880 X0.8495 Y0.9981 Z0.2014
N8885 X0.8497 Y0.991 Z0.2013
N8890 X0.8501 Y0.9839
N8895 X0.8507 Y0.9768 Z0.2012
N8900 X0.8516 Y0.9698
N8905 X0.8526 Y0.9628 Z0.2011
N8910 X0.8538 Y0.9558
N8915 X0.8552 Y0.9489 Z0.201
N8920 X0.8568 Y0.942
N8925 X0.8586 Y0.9351 Z0.2009
N8930 X0.8606 Y0.9283
N8935 X0.8628 Y0.9216 Z0.2008
N8940 X0.8651 Y0.9149
N8945 X0.8704 Y0.9018 Z0.2007
N8950 X0.8733 Y0.8954 Z0.2006
N8955 X0.8764 Y0.889
N8960 X0.8797 Y0.8828 Z0.2005
N8965 X0.8832 Y0.8766
N8970 X0.8906 Y0.8646 Z0.2004
N8975 X0.8987 Y0.853 Z0.2003
N8980 X0.9074 Y0.8419 Z0.2002
N8985 X0.9168 Y0.8313 Z0.2001
N8990 X0.9234 Y0.8245 Z0.2
N8995 X0.9294 Y0.8188 Z0.1999
N9000 X0.9355 Y0.8132
N9005 X0.9417 Y0.808 Z0.1998
N9010 X0.9482 Y0.803
N9015 X0.9544 Y0.7984 Z0.1997
N9020 X0.9608 Y0.7939
N9025 X0.9679 Y0.7894 Z0.1996
N9030 X0.9751 Y0.7851 Z0.1995
N9035 X0.982 Y0.7813
N9040 X0.989 Y0.7777 Z0.1994
N9045 X0.9964 Y0.7742
N9050 X1.004 Y0.7709 Z0.1993
N9055 X1.0116 Y0.7679 Z0.1992
N9060 X1.0194 Y0.7652
N9065 X1.0271 Y0.7627 Z0.1991
N9070 X1.0349 Y0.7605
N9075 X1.0427 Y0.7586 Z0.199
N9080 X1.0505 Y0.7569
N9085 X1.0584 Y0.7554 Z0.1989
N9090 X1.0664 Y0.7542 Z0.1988
N9095 X1.0744 Y0.7533
N9100 X1.0823 Y0.7526 Z0.1987
N9105 X1.0903 Y0.7522
N9110 X1.0984 Y0.752 Z0.1986
N9115 X1.1055
N9120 X1.5359 Y0.7542 Z0.1955
N9125 X1.55 Y0.7543 Z0.1954
N9130 X1.6064 Y0.7546 Z0.195
N9135 X1.7475 Y0.7553 Z0.1939
N9140 X2.0932 Y0.7572 Z0.1914
N9145 X2.1003
N9150 X2.1082 Y0.7575 Z0.1913
N9155 X2.116 Y0.7579
N9160 X2.1238 Y0.7587 Z0.1912
N9165 X2.1316 Y0.7597
N9170 X2.1394 Y0.7609 Z0.1911
N9175 X2.1471 Y0.7624
N9180 X2.1548 Y0.7641 Z0.191
N9185 X2.1624 Y0.7661 Z0.1909
N9190 X2.17 Y0.7683
N9195 X2.1775 Y0.7708 Z0.1908
N9200 X2.185 Y0.7736
N9205 X2.1924 Y0.7766 Z0.1907
N9210 X2.1997 Y0.7799
N9215 X2.2069 Y0.7833 Z0.1906
N9220 X2.2137 Y0.7869 Z0.1905
N9225 X2.2204 Y0.7907
N9230 X2.2273 Y0.7949 Z0.1904
N9235 X2.2341 Y0.7994
N9240 X2.2403 Y0.8038 Z0.1903
N9245 X2.2464 Y0.8084
N9250 X2.2526 Y0.8133 Z0.1902
N9255 X2.2586 Y0.8185
N9260 X2.2642 Y0.8236 Z0.1901
N9265 X2.2696 Y0.8289 Z0.19
N9270 X2.2753 Y0.8348
N9275 X2.2807 Y0.8409 Z0.1899
N9280 X2.2858 Y0.8469
N9285 X2.2907 Y0.8531 Z0.1898
N9290 X2.2952 Y0.8593
N9295 X2.2995 Y0.8655 Z0.1897
N9300 X2.3039 Y0.8724 Z0.1896
N9305 X2.3081 Y0.8793
N9310 X2.3118 Y0.886 Z0.1895
N9315 X2.3153 Y0.8929
N9320 X2.3186 Y0.9001 Z0.1894
N9325 X2.3218 Y0.9073
N9330 X2.3247 Y0.9148 Z0.1893
N9335 X2.3274 Y0.9223
N9340 X2.3298 Y0.9297 Z0.1892
N9345 X2.3319 Y0.9373 Z0.1891
N9350 X2.3338 Y0.9449
N9355 X2.3355 Y0.9525 Z0.189
N9360 X2.3369 Y0.9602
N9365 X2.338 Y0.968 Z0.1889
N9370 X2.3389 Y0.9757
N9375 X2.3396 Y0.9834 Z0.1888
N9380 X2.34 Y0.9912 Z0.1887
N9385 X2.3401 Y0.999
N9390 Y1.0061 Z0.1886
N9395 X2.3392 Y1.1684 Z0.1875
N9400 X2.3374 Y1.4929 Z0.1851
N9405 Y1.507 Z0.185
N9410 X2.3364 Y1.6764 Z0.1838
N9415 X2.3346 Y1.9939 Z0.1815
N9420 Y2.0009
N9425 X2.3343 Y2.0086 Z0.1814
N9430 X2.3339 Y2.0162
N9435 X2.3331 Y2.0237 Z0.1813
N9440 X2.3322 Y2.0313
N9445 X2.331 Y2.0388 Z0.1812
N9450 X2.3295 Y2.0463
N9455 X2.3278 Y2.0537 Z0.1811
N9460 X2.3259 Y2.0611
N9465 X2.3237 Y2.0684 Z0.181
N9470 X2.3213 Y2.0757 Z0.1809
N9475 X2.3186 Y2.0829
N9480 X2.3157 Y2.0901 Z0.1808
N9485 X2.3126 Y2.0971
N9490 X2.3092 Y2.1041 Z0.1807
N9495 X2.3058 Y2.1107
N9500 X2.3021 Y2.1172 Z0.1806
N9505 X2.298 Y2.1239
N9510 X2.2937 Y2.1304 Z0.1805
N9515 X2.2894 Y2.1365 Z0.1804
N9520 X2.2849 Y2.1425
N9525 X2.2802 Y2.1484 Z0.1803
N9530 X2.2752 Y2.1542
N9535 X2.2701 Y2.1597 Z0.1802
N9540 X2.265 Y2.165
N9545 X2.2593 Y2.1704 Z0.1801
N9550 X2.2535 Y2.1757
N9555 X2.2476 Y2.1806 Z0.18
N9560 X2.2416 Y2.1853
N9565 X2.2356 Y2.1897 Z0.1799
N9570 X2.2295 Y2.1939
N9575 X2.223 Y2.1981 Z0.1798
N9580 X2.2163 Y2.2021 Z0.1797
N9585 X2.2097 Y2.2057
N9590 X2.2031 Y2.2091 Z0.1796
N9595 X2.1961 Y2.2124
N9600 X2.1891 Y2.2154 Z0.1795
N9605 X2.1819 Y2.2182
N9610 X2.1747 Y2.2208 Z0.1794
N9615 X2.1675 Y2.2231
N9620 X2.1601 Y2.2252 Z0.1793
N9625 X2.1528 Y2.227
N9630 X2.1454 Y2.2286 Z0.1792
N9635 X2.138 Y2.23 Z0.1791
N9640 X2.1304 Y2.2311
N9645 X2.1229 Y2.232 Z0.179
N9650 X2.1154 Y2.2326
N9655 X2.1079 Y2.233 Z0.1789
N9660 X2.1003 Y2.2331
N9665 X2.0932 Z0.1788
N9670 X1.8463 Y2.2317 Z0.177
N9675 X1.804 Y2.2314 Z0.1767
N9680 X1.6064 Y2.2303 Z0.1753
N9685 X1.5923 Y2.2302 Z0.1752
N9690 X1.5359 Y2.2299 Z0.1748
N9695 X1.5218 Y2.2298 Z0.1747
N9700 X1.1055 Y2.2273 Z0.1717
N9705 X1.0984 Y2.2272
N9710 X1.0911 Y2.2269 Z0.1716
N9715 X1.0837 Y2.2265
N9720 X1.0764 Y2.2258 Z0.1715
N9725 X1.0691 Y2.2248
N9730 X1.0618 Y2.2237 Z0.1714
N9735 X1.0546 Y2.2223 Z0.1713
N9740 X1.0474 Y2.2206
N9745 X1.0403 Y2.2188 Z0.1712
N9750 X1.0332 Y2.2166
N9755 X1.0262 Y2.2143 Z0.1711
N9760 X1.0192 Y2.2117
N9765 X1.0124 Y2.2089 Z0.171
N9770 X1.0056 Y2.2059
N9775 X0.9989 Y2.2027 Z0.1709
N9780 X0.9925 Y2.1993
N9785 X0.9861 Y2.1957 Z0.1708
N9790 X0.9798 Y2.1918
N9795 X0.9735 Y2.1877 Z0.1707
N9800 X0.9676 Y2.1835
N9805 X0.9618 Y2.1792 Z0.1706
N9810 X0.956 Y2.1745
N9815 X0.9505 Y2.1697 Z0.1705
N9820 X0.9451 Y2.1648
N9825 X0.9399 Y2.1598 Z0.1704
N9830 X0.9348 Y2.1544 Z0.1703
N9835 X0.9298 Y2.1488
N9840 X0.925 Y2.1432 Z0.1702
N9845 X0.9205 Y2.1374
N9850 X0.9162 Y2.1315 Z0.1701
N9855 X0.9121 Y2.1256
N9860 X0.9081 Y2.1193 Z0.17
N9865 X0.9043 Y2.1129
N9870 X0.9008 Y2.1065 Z0.1699
N9875 X0.8975 Y2.1001
N9880 X0.8943 Y2.0934 Z0.1698
N9885 X0.8914 Y2.0866
N9890 X0.8887 Y2.0797 Z0.1697
N9895 X0.8862 Y2.0728
N9900 X0.884 Y2.0658 Z0.1696
N9905 X0.882 Y2.0588
N9910 X0.8802 Y2.0517 Z0.1695
N9915 X0.8787 Y2.0445
N9920 X0.8774 Y2.0373 Z0.1694
N9925 X0.8763 Y2.0301 Z0.1693
N9930 X0.8755 Y2.0228
N9935 X0.8748 Y2.0155 Z0.1692
N9940 X0.8745 Y2.0082
N9945 X0.8743 Y2.0009 Z0.1691
N9950 X0.8744 Y1.9939
N9955 X0.8764 Y1.6623 Z0.1667
N9960 X0.8766 Y1.6341 Z0.1665
N9965 X0.8767 Y1.6199 Z0.1664
N9970 X0.8775 Y1.493 Z0.1655
N9975 X0.8799 Y1.112 Z0.1627
N9980 X0.8804 Y1.0273 Z0.1621
N9985 X0.8805 Y1.0132 Z0.162
N9990 X0.8806 Y0.9991 Z0.1619
N9995 X0.8809 Y0.992
N10000 X0.8813 Y0.9849 Z0.1618
N10005 X0.882 Y0.9778
N10010 X0.8829 Y0.9708 Z0.1617
N10015 X0.8841 Y0.9638
N10020 X0.8854 Y0.9568 Z0.1616
N10025 X0.887 Y0.9499
N10030 X0.8888 Y0.943 Z0.1615
N10035 X0.8908 Y0.9362
N10040 X0.8931 Y0.9295 Z0.1614
N10045 X0.8956 Y0.9228
N10050 X0.8982 Y0.9163 Z0.1613
N10055 X0.9011 Y0.9098
N10060 X0.9042 Y0.9034 Z0.1612
N10065 X0.9075 Y0.8971
N10070 X0.911 Y0.891 Z0.1611
N10075 X0.9147 Y0.8849
N10080 X0.9186 Y0.879 Z0.161
N10085 X0.9227 Y0.8732
N10090 X0.927 Y0.8676 Z0.1609
N10095 X0.9314 Y0.862
N10100 X0.936 Y0.8567 Z0.1608
N10105 X0.9408 Y0.8515
N10110 X0.9458 Y0.8464 Z0.1607
N10115 X0.9509 Y0.8415
N10120 X0.9561 Y0.8368 Z0.1606
N10125 X0.9616 Y0.8322
N10130 X0.9671 Y0.8279 Z0.1605
N10135 X0.9786 Y0.8197 Z0.1604
N10140 X0.9907 Y0.8123 Z0.1603
N10145 X1.0032 Y0.8057 Z0.1602
N10150 X1.016 Y0.7999 Z0.1601
N10155 X1.029 Y0.795 Z0.16
N10160 X1.0374 Y0.7924 Z0.1599
N10165 X1.0458 Y0.7901
N10170 X1.0543 Y0.7881 Z0.1598
N10175 X1.0629 Y0.7865 Z0.1597
N10180 X1.0715 Y0.7852
N10185 X1.0802 Y0.7843 Z0.1596
N10190 X1.0886 Y0.7837 Z0.1595
N10195 X1.0971 Y0.7835
N10200 X1.1043 Z0.1594
N10205 X1.534 Y0.7865 Z0.1562
N10210 X1.5904 Y0.7868 Z0.1558
N10215 X1.6185 Y0.787 Z0.1556
N10220 X1.9424 Y0.7893 Z0.1532
N10225 X1.9847 Y0.7896 Z0.1529
N10230 X2.0977 Y0.7905 Z0.152
N10235 X2.1059 Y0.7907
N10240 X2.1141 Y0.7912 Z0.1519
N10245 X2.1224 Y0.792 Z0.1518
N10250 X2.1308 Y0.7932
N10255 X2.1391 Y0.7947 Z0.1517
N10260 X2.1473 Y0.7966 Z0.1516
N10265 X2.1555 Y0.7988
N10270 X2.1635 Y0.8013 Z0.1515
N10275 X2.1714 Y0.8041
N10280 X2.1791 Y0.8072 Z0.1514
N10285 X2.1869 Y0.8107 Z0.1513
N10290 X2.1946 Y0.8145
N10295 X2.2015 Y0.8183 Z0.1512
N10300 X2.2082 Y0.8223
N10305 X2.2154 Y0.827 Z0.1511
N10310 X2.2224 Y0.832 Z0.151
N10315 X2.2293 Y0.8374
N10320 X2.2361 Y0.8432 Z0.1509
N10325 X2.2419 Y0.8486 Z0.1508
N10330 X2.2476 Y0.8542
N10335 X2.2537 Y0.8607 Z0.1507
N10340 X2.2594 Y0.8675 Z0.1506
N10345 X2.2643 Y0.8737
N10350 X2.269 Y0.8801 Z0.1505
N10355 X2.2737 Y0.8872
N10360 X2.2782 Y0.8945 Z0.1504
N10365 X2.2823 Y0.9019 Z0.1503
N10370 X2.2861 Y0.9095
N10375 X2.2896 Y0.9172 Z0.1502
N10380 X2.2928 Y0.925 Z0.1501
N10385 X2.2956 Y0.9329
N10390 X2.2981 Y0.9409 Z0.15
N10395 X2.3003 Y0.949
N10400 X2.3022 Y0.9571 Z0.1499
N10405 X2.3037 Y0.9652 Z0.1498
N10410 X2.3049 Y0.9733
N10415 X2.3058 Y0.9817 Z0.1497
N10420 X2.3063 Y0.99
N10425 X2.3065 Y0.9977 Z0.1496
N10430 Y1.0055 Z0.1495
N10435 X2.3049 Y1.2308 Z0.1479
N10440 X2.3048 Y1.2449 Z0.1478
N10445 X2.303 Y1.4843 Z0.146
N10450 X2.3029 Y1.4984 Z0.1459
N10455 X2.3009 Y1.7659 Z0.1439
N10460 X2.2991 Y1.9988 Z0.1421
N10465 X2.2989 Y2.0064
N10470 X2.2984 Y2.0144 Z0.142
N10475 X2.2976 Y2.0224
N10480 X2.2964 Y2.0303 Z0.1419
N10485 X2.295 Y2.0381 Z0.1418
N10490 X2.2932 Y2.0459
N10495 X2.2911 Y2.0536 Z0.1417
N10500 X2.2887 Y2.0613
N10505 X2.2859 Y2.0689 Z0.1416
N10510 X2.2829 Y2.0764 Z0.1415
N10515 X2.2796 Y2.0837
N10520 X2.2759 Y2.091 Z0.1414
N10525 X2.272 Y2.0981
N10530 X2.268 Y2.1047 Z0.1413
N10535 X2.2637 Y2.1111 Z0.1412
N10540 X2.2555 Y2.1223 Z0.1411
N10545 X2.2507 Y2.1281
N10550 X2.2457 Y2.1337 Z0.141
N10555 X2.2376 Y2.1419 Z0.1409
N10560 X2.229 Y2.1497
N10565 X2.218 Y2.1584 Z0.1408
N10570 X2.2068 Y2.1661 Z0.1406
N10575 X2.2002 Y2.1701
N10580 X2.1936 Y2.1738 Z0.1405
N10585 X2.1866 Y2.1774
N10590 X2.1795 Y2.1806 Z0.1404
N10595 X2.1724 Y2.1836
N10600 X2.1652 Y2.1863 Z0.1403
N10605 X2.1576 Y2.1887 Z0.1402
N10610 X2.1499 Y2.1909
N10615 X2.1421 Y2.1928 Z0.1401
N10620 X2.1343 Y2.1943
N10625 X2.1264 Y2.1955 Z0.14
N10630 X2.1184 Y2.1964 Z0.1399
N10635 X2.1103 Y2.197
N10640 X2.1021 Y2.1973 Z0.1398
N10645 X2.095
N10650 X2.0456 Y2.1969 Z0.1394
N10655 X1.9611 Y2.1963 Z0.1388
N10660 X1.9329 Y2.1961 Z0.1386
N10665 X1.8343 Y2.1953 Z0.1378
N10670 X1.8202 Y2.1952 Z0.1377
N10675 X1.6653 Y2.194 Z0.1366
N10680 X1.609 Y2.1935 Z0.1362
N10685 X1.5949 Y2.1934 Z0.136
N10690 X1.3415 Y2.1913 Z0.1342
N10695 X1.1019 Y2.1893 Z0.1324
N10700 X1.0944 Y2.1891 Z0.1323
N10705 X1.0869 Y2.1887
N10710 X1.0793 Y2.1879 Z0.1322
N10715 X1.0718 Y2.1869 Z0.1321
N10720 X1.0643 Y2.1855
N10725 X1.0568 Y2.1838 Z0.132
N10730 X1.0495 Y2.1819
N10735 X1.0422 Y2.1796 Z0.1319
N10740 X1.0351 Y2.1771
N10745 X1.028 Y2.1743 Z0.1318
N10750 X1.0211 Y2.1712 Z0.1317
N10755 X1.0142 Y2.1678
N10760 X1.0077 Y2.1643 Z0.1316
N10765 X1.0014 Y2.1605
N10770 X0.995 Y2.1563 Z0.1315
N10775 X0.9888 Y2.1519
N10780 X0.9826 Y2.1471 Z0.1314
N10785 X0.9767 Y2.1421
N10790 X0.9712 Y2.1371 Z0.1313
N10795 X0.966 Y2.1319 Z0.1312
N10800 X0.9606 Y2.1262
N10805 X0.9556 Y2.1203 Z0.1311
N10810 X0.951 Y2.1145
N10815 X0.9467 Y2.1086 Z0.131
N10820 X0.9424 Y2.1022
N10825 X0.9384 Y2.0957 Z0.1309
N10830 X0.9347 Y2.0891
N10835 X0.9313 Y2.0823 Z0.1308
N10840 X0.9281 Y2.0754 Z0.1307
N10845 X0.9252 Y2.0684
N10850 X0.9227 Y2.0615 Z0.1306
N10855 X0.9205 Y2.0545
N10860 X0.9185 Y2.0473 Z0.1305
N10865 X0.9167 Y2.04
N10870 X0.9153 Y2.0326 Z0.1304
N10875 X0.9142 Y2.0252
N10880 X0.9133 Y2.0175 Z0.1303
N10885 X0.9128 Y2.0097 Z0.1302
N10890 X0.9126 Y2.0025
N10895 Y1.9952 Z0.1301
N10900 X0.9153 Y1.6713 Z0.1277
N10905 X0.9154 Y1.6572 Z0.1276
N10910 X0.9168 Y1.5023 Z0.1265
N10915 X0.9174 Y1.4319 Z0.1259
N10920 X0.918 Y1.3615 Z0.1254
N10925 X0.9181 Y1.3474 Z0.1253
N10930 X0.9193 Y1.2206 Z0.1243
N10935 X0.9194 Y1.2066 Z0.1242
N10940 X0.9213 Y1.0023 Z0.1227
N10945 X0.9215 Y0.9952
N10950 X0.9219 Y0.988 Z0.1226
N10955 X0.9226 Y0.9809
N10960 X0.9236 Y0.9738 Z0.1225
N10965 X0.9249 Y0.9668
N10970 X0.9265 Y0.9598 Z0.1224
N10975 X0.9283 Y0.9529 Z0.1223
N10980 X0.9305 Y0.9461
N10985 X0.9329 Y0.9393 Z0.1222
N10990 X0.9355 Y0.9327
N10995 X0.9385 Y0.9262 Z0.1221
N11000 X0.9417 Y0.9198
N11005 X0.9451 Y0.9135 Z0.122
N11010 X0.9488 Y0.9074
N11015 X0.9527 Y0.9015 Z0.1219
N11020 X0.9568 Y0.8957
N11025 X0.9612 Y0.8901 Z0.1218
N11030 X0.9658 Y0.8846
N11035 X0.9707 Y0.8794 Z0.1217
N11040 X0.9757 Y0.8743
N11045 X0.9809 Y0.8695 Z0.1216
N11050 X0.9863 Y0.8649
N11055 X0.9919 Y0.8605 Z0.1215
N11060 X0.9976 Y0.8563 Z0.1214
N11065 X1.0035 Y0.8523
N11070 X1.0096 Y0.8486 Z0.1213
N11075 X1.0159 Y0.8452
N11080 X1.0222 Y0.842 Z0.1212
N11085 X1.0286 Y0.839
N11090 X1.0352 Y0.8364 Z0.1211
N11095 X1.0419 Y0.8339
N11100 X1.0486 Y0.8318 Z0.121
N11105 X1.0555 Y0.8299
N11110 X1.0624 Y0.8283 Z0.1209
N11115 X1.0693 Y0.827
N11120 X1.0763 Y0.826 Z0.1208
N11125 X1.0834 Y0.8252
N11130 X1.0975 Y0.8246 Z0.1207
N11135 X1.1116 Z0.1205
N11140 X1.1397 Y0.8249 Z0.1203
N11145 X1.1538 Y0.825 Z0.1202
N11150 X1.182 Y0.8253 Z0.12
N11155 X1.1847 Y0.8252
N11160 X1.1988 Y0.8255 Z0.1199
N11165 X1.4524 Y0.8281 Z0.1179
N11170 X1.6072 Y0.8297 Z0.1167
N11175 X1.7057 Y0.8307 Z0.1159
N11180 X1.7198 Y0.8309 Z0.1158
N11185 X1.8467 Y0.8322 Z0.1148
N11190 X1.8608 Y0.8324 Z0.1147
N11195 X2.0861 Y0.835 Z0.1129
N11200 X2.0999 Y0.8351 Z0.1128
N11205 X2.1087 Y0.8355
N11210 X2.1175 Y0.8364 Z0.1127
N11215 X2.1261 Y0.8377 Z0.1126
N11220 X2.1346 Y0.8395
N11225 X2.1433 Y0.8418 Z0.1125
N11230 X2.1519 Y0.8446 Z0.1124
N11235 X2.1598 Y0.8477
N11240 X2.1676 Y0.8511 Z0.1123
N11245 X2.1754 Y0.8551 Z0.1122
N11250 X2.183 Y0.8595
N11255 X2.1903 Y0.8642 Z0.1121
N11260 X2.1974 Y0.8694 Z0.112
N11265 X2.2041 Y0.8749
N11270 X2.2106 Y0.8807 Z0.1119
N11275 X2.2167 Y0.8869 Z0.1118
N11280 X2.2225 Y0.8934
N11285 X2.228 Y0.9002 Z0.1117
N11290 X2.2331 Y0.9073 Z0.1116
N11295 X2.2379 Y0.9148
N11300 X2.2422 Y0.9225 Z0.1115
N11305 X2.2458 Y0.9295 Z0.1114
N11310 X2.249 Y0.9368
N11315 X2.2521 Y0.9451 Z0.1113
N11320 X2.2549 Y0.9535 Z0.1112
N11325 X2.257 Y0.9617
N11330 X2.2587 Y0.97 Z0.1111
N11335 X2.26 Y0.9785 Z0.111
N11340 X2.2609 Y0.987
N11345 X2.2613 Y0.9956 Z0.1109
N11350 Y1.0042 Z0.1108
N11355 X2.261 Y1.0323 Z0.1106
N11360 X2.2584 Y1.2435 Z0.109
N11365 X2.2581 Y1.2717 Z0.1088
N11370 X2.2572 Y1.3422 Z0.1082
N11375 X2.2563 Y1.4126 Z0.1076
N11380 X2.2561 Y1.4267 Z0.1075
N11385 X2.2549 Y1.511 Z0.1069
N11390 X2.2539 Y1.5815 Z0.1063
N11395 X2.2537 Y1.5955 Z0.1062
N11400 X2.2525 Y1.68 Z0.1055
N11405 X2.2523 Y1.6941 Z0.1054
N11410 X2.2506 Y1.8068 Z0.1046
N11415 X2.2503 Y1.8209 Z0.1044
N11420 X2.2479 Y1.9617 Z0.1033
N11425 X2.2476 Y1.9758 Z0.1032
N11430 X2.2473 Y1.9899 Z0.1031
N11435 X2.2472 Y1.9973
N11440 X2.2469 Y2.0048 Z0.103
N11445 X2.2463 Y2.0126 Z0.1029
N11450 X2.2453 Y2.0203
N11455 X2.2438 Y2.028 Z0.1028
N11460 X2.2419 Y2.0355
N11465 X2.2396 Y2.043 Z0.1027
N11470 X2.237 Y2.0504
N11475 X2.2339 Y2.0576 Z0.1026
N11480 X2.2305 Y2.0646 Z0.1025
N11485 X2.2268 Y2.0713
N11490 X2.2227 Y2.0778 Z0.1024
N11495 X2.215 Y2.0883 Z0.1023
N11500 X2.2116 Y2.0924
N11505 X2.2081 Y2.0965 Z0.1022
N11510 X2.2065 Y2.0986
N11515 X2.2051 Y2.1008
N11520 X2.2026 Y2.1053 Z0.1021
N11525 X2.2019 Y2.1065
N11530 X2.2016 Y2.1071
N11535 X2.2015 Y2.1075
N11540 X2.2014 Y2.1076
N11545 X2.2013 Y2.1078
N11550 X2.2011
N11555 X2.201 Y2.1079
N11560 X2.2006 Y2.108
N11565 X2.2 Y2.1083
N11570 X2.1987 Y2.1088
N11575 X2.194 Y2.111
N11580 X2.1909 Y2.1126 Z0.102
N11585 X2.1879 Y2.1145
N11590 X2.1822 Y2.1184
N11595 X2.1727 Y2.1242 Z0.1019
N11600 X2.1659 Y2.1278 Z0.1018
N11605 X2.1589 Y2.131 Z0.1017
N11610 X2.1519 Y2.1338
N11615 X2.1447 Y2.1362 Z0.1016
N11620 X2.1372 Y2.1383
N11625 X2.1297 Y2.1399 Z0.1015
N11630 X2.1222 Y2.1412
N11635 X2.1147 Y2.142 Z0.1014
N11640 X2.1071 Y2.1424
N11645 X2.0995 Z0.1013
N11650 X2.0855 Y2.1418 Z0.1012
N11655 X2.0714 Y2.1413 Z0.1011
N11660 X2.0573 Y2.1407 Z0.101
N11665 X2.015 Y2.1385 Z0.1006
N11670 X2.001 Y2.1373 Z0.1005
N11675 X1.9869 Y2.1362 Z0.1004
N11680 X1.9798 Y2.1356
N11685 G3 X1.9569 Y2.1087 I0.002 J-0.0249
N11690 G1 X1.9573 Y2.1048 Z0.1007
N11695 X1.9576 Y2.101 Z0.1016
N11700 X1.9579 Y2.0973 Z0.1031
N11705 X1.9581 Y2.094 Z0.1051
N11710 X1.9584 Y2.091 Z0.1077
N11715 X1.9586 Y2.0885 Z0.1107
N11720 X1.9587 Y2.0865 Z0.114
N11725 X1.9589 Y2.085 Z0.1176
N11730 Y2.084 Z0.1214
N11735 X1.959 Y2.0837 Z0.1254
N11740 G0 Z0.7
N11745 X1.9595 Y2.0827
N11750 Z0.18
N11755 G1 Z0.125 F40
N11760 Y2.083 Z0.1211
N11765 Y2.0839 Z0.1173
N11770 Y2.0854 Z0.1137
N11775 Y2.0874 Z0.1103
N11780 Y2.09 Z0.1073
N11785 Y2.093 Z0.1048
N11790 Y2.0963 Z0.1027
N11795 Y2.0999 Z0.1012
N11800 Y2.1038 Z0.1003
N11805 Y2.1077 Z0.1
N11810 G3 X1.9346 Y2.1327 I-0.025
N11815 G1 X1.8148 Y2.1329
N11820 X1.808
N11825 X1.6028 Y2.1324
N11830 X1.5959
N11835 X1.3908 Y2.1329
N11840 X1.3839
N11845 X1.1035 Y2.1325
N11850 X1.0967
N11855 X1.0898 Y2.1322
N11860 X1.083 Y2.1314
N11865 X1.0762 Y2.1304
N11870 X1.0693 Y2.1289
N11875 X1.0625 Y2.1271
N11880 X1.0583 Y2.1258
N11885 X1.0556 Y2.1249
N11890 X1.0488 Y2.1222
N11895 X1.042 Y2.1191
N11900 X1.0416 Y2.119
N11905 X1.0351 Y2.1156
N11910 X1.0293 Y2.1121
N11915 X1.0283 Y2.1115
N11920 X1.0214 Y2.1068
N11925 X1.0195 Y2.1053
N11930 X1.0146 Y2.1014
N11935 X1.0112 Y2.0984
N11940 X1.0078 Y2.0953
N11945 X1.0041 Y2.0916
N11950 X1.0009 Y2.0882
N11955 X0.998 Y2.0848
N11960 X0.9941 Y2.0799
N11965 X0.9926 Y2.0779
N11970 X0.9879 Y2.0711
N11975 X0.9872 Y2.07
N11980 X0.9838 Y2.0642
N11985 X0.9804 Y2.0578
N11990 X0.9802 Y2.0574
N11995 X0.9771 Y2.0506
N12000 X0.9745 Y2.0437
N12005 X0.9736 Y2.041
N12010 X0.9723 Y2.0369
N12015 X0.9704 Y2.03
N12020 X0.969 Y2.0232
N12025 X0.9679 Y2.0164
N12030 X0.9672 Y2.0095
N12035 X0.9668 Y2.0027
N12040 X0.9669 Y1.9959
N12045 X0.9665 Y1.7154
N12050 Y1.7086
N12055 X0.967 Y1.5034
N12060 Y1.4966
N12065 X0.9665 Y1.2914
N12070 Y1.2846
N12075 X0.9667 Y1.1205
N12080 X0.9669 Y1.0041
N12085 X0.9668 Y0.9973
N12090 X0.9672 Y0.9905
N12095 X0.9679 Y0.9836
N12100 X0.9688 Y0.9783
N12105 X0.969 Y0.9768
N12110 X0.9704 Y0.97
N12115 X0.9723 Y0.9631
N12120 X0.9736 Y0.959
N12125 X0.9745 Y0.9563
N12130 X0.9771 Y0.9494
N12135 X0.9802 Y0.9426
N12140 X0.9804 Y0.9422
N12145 X0.9838 Y0.9358
N12150 X0.9872 Y0.93
N12155 X0.9879 Y0.9289
N12160 X0.9926 Y0.9221
N12165 X0.9941 Y0.9201
N12170 X0.998 Y0.9152
N12175 X1.0009 Y0.9118
N12180 X1.0041 Y0.9084
N12185 X1.0078 Y0.9047
N12190 X1.0112 Y0.9016
N12195 X1.0146 Y0.8986
N12200 X1.0195 Y0.8947
N12205 X1.0214 Y0.8932
N12210 X1.0283 Y0.8885
N12215 X1.0293 Y0.8879
N12220 X1.0351 Y0.8844
N12225 X1.0416 Y0.881
N12230 X1.042 Y0.8809
N12235 X1.0488 Y0.8778
N12240 X1.0556 Y0.8751
N12245 X1.0583 Y0.8742
N12250 X1.0625 Y0.8729
N12255 X1.0693 Y0.8711
N12260 X1.0762 Y0.8696
N12265 X1.083 Y0.8686
N12270 X1.0898 Y0.8678
N12275 X1.0967 Y0.8675
N12280 X1.1035
N12285 X1.3839 Y0.8671
N12290 X1.3908
N12295 X1.5959 Y0.8676
N12300 X1.6028
N12305 X1.808 Y0.8671
N12310 X1.8148
N12315 X2.0952 Y0.8675
N12320 X2.1021
N12325 X2.1089 Y0.8678
N12330 X2.1157 Y0.8686
N12335 X2.1226 Y0.8696
N12340 X2.1294 Y0.8711
N12345 X2.1363 Y0.8729
N12350 X2.1404 Y0.8742
N12355 X2.1431 Y0.8751
N12360 X2.1499 Y0.8778
N12365 X2.1568 Y0.8809
N12370 X2.1571 Y0.881
N12375 X2.1636 Y0.8844
N12380 X2.1694 Y0.8879
N12385 X2.1705 Y0.8885
N12390 X2.1773 Y0.8932
N12395 X2.1793 Y0.8947
N12400 X2.1841 Y0.8986
N12405 X2.1876 Y0.9016
N12410 X2.191 Y0.9047
N12415 X2.1946 Y0.9084
N12420 X2.1978 Y0.9118
N12425 X2.2008 Y0.9152
N12430 X2.2046 Y0.9201
N12435 X2.2061 Y0.9221
N12440 X2.2108 Y0.9289
N12445 X2.2115 Y0.9299
N12450 X2.2149 Y0.9358
N12455 X2.2183 Y0.9422
N12460 X2.2185 Y0.9426
N12465 X2.2216 Y0.9494
N12470 X2.2242 Y0.9563
N12475 X2.2252 Y0.959
N12480 X2.2265 Y0.9631
N12485 X2.2283 Y0.97
N12490 X2.2297 Y0.9768
N12495 X2.2308 Y0.9836
N12500 X2.2315 Y0.9905
N12505 X2.2319 Y0.9973
N12510 X2.2318 Y1.0041
N12515 X2.2322 Y1.2846
N12520 Y1.2914
N12525 X2.2318 Y1.4966
N12530 Y1.5034
N12535 X2.2322 Y1.7086
N12540 Y1.7154
N12545 X2.2318 Y1.9959
N12550 X2.2319 Y2.0027
N12555 X2.2315 Y2.0095
N12560 X2.2308 Y2.0164
N12565 X2.2297 Y2.0232
N12570 X2.2283 Y2.03
N12575 X2.2265 Y2.0369
N12580 X2.2252 Y2.041
N12585 X2.2242 Y2.0437
N12590 X2.2216 Y2.0506
N12595 X2.2185 Y2.0574
N12600 X2.2183 Y2.0578
N12605 X2.2149 Y2.0642
N12610 X2.2115 Y2.0701
N12615 X2.2108 Y2.0711
N12620 X2.2061 Y2.0779
N12625 X2.2046 Y2.0799
N12630 X2.2007 Y2.0848
N12635 X2.1992 Y2.0916
N12640 Y2.095
N12645 X2.1986 Y2.0984
N12650 X2.1978 Y2.1019
N12655 X2.1975 Y2.1033
N12660 X2.1974 Y2.1038
N12665 X2.1973 Y2.104
N12670 Y2.1041
N12675 X2.1972 Y2.1042
N12680 X2.1969
N12685 X2.1963 Y2.1044
N12690 X2.1951 Y2.1047
N12695 X2.1925 Y2.1053
N12700 X2.191 Y2.1056
N12705 X2.1875 Y2.1062
N12710 X2.1841 Y2.1065
N12715 X2.1773 Y2.1071
N12720 X2.1705 Y2.1115
N12725 X2.1694 Y2.1121
N12730 X2.1636 Y2.1156
N12735 X2.1571 Y2.119
N12740 X2.1568 Y2.1191
N12745 X2.1499 Y2.1222
N12750 X2.1431 Y2.1249
N12755 X2.1404 Y2.1258
N12760 X2.1363 Y2.1271
N12765 X2.1294 Y2.1289
N12770 X2.1226 Y2.1304
N12775 X2.1157 Y2.1314
N12780 X2.1089 Y2.1322
N12785 X2.1021 Y2.1325
N12790 X2.0952
N12795 X1.9346 Y2.1327
N12800 G3 X1.9095 Y2.1077 J-0.025
N12805 G1 Y2.1038 Z0.1003
N12810 Y2.1 Z0.1012
N12815 Y2.0964 Z0.1027
N12820 Y2.093 Z0.1048
N12825 Y2.0901 Z0.1073
N12830 Y2.0875 Z0.1103
N12835 Y2.0855 Z0.1137
N12840 Y2.084 Z0.1173
N12845 Y2.083 Z0.1211
N12850 Y2.0827 Z0.125
N12855 G0 Z1.1
N12860 M9
N12865 G28 G91 Z0
N12870 M30
%
