%
(1003)
(Bottom of workpiece)
(T4 D=0.25 CR=0 - ZMIN=-0.75 - flat end mill)
N10 G90
N15 G28 G91 Z0
N20 G90

(Face1)
N25 M9
N30 T4 M6
N35 S1000 M3
N40 M9
N45 G0 X3.1625 Y0.1083
N50 Z0.6
N55 Z0.2
N60 G1 Z-0.365 F40
N65 X3.1622 Z-0.3689
N70 X3.1613 Z-0.3727
N75 X3.1598 Z-0.3763
N80 X3.1577 Z-0.3797
N85 X3.1552 Z-0.3827
N90 X3.1522 Z-0.3852
N95 X3.1488 Z-0.3873
N100 X3.1452 Z-0.3888
N105 X3.1414 Z-0.3897
N110 X3.1375 Z-0.39
N115 X3
N120 X0
N125 G2 Y0.3391 J0.1154
N130 G1 X3
N135 G3 Y0.57 J0.1154
N140 G1 X0
N145 G2 Y0.8009 J0.1154
N150 G1 X3
N155 G3 Y1.0318 J0.1154
N160 G1 X0
N165 G2 Y1.2627 J0.1154
N170 G1 X3
N175 G3 Y1.4936 J0.1154
N180 G1 X0
N185 G2 Y1.7245 J0.1154
N190 G1 X3
N195 G3 Y1.9553 J0.1154
N200 G1 X0
N205 G2 Y2.1862 J0.1154
N210 G1 X3
N215 G3 Y2.4171 J0.1154
N220 G1 X0
N225 G2 Y2.648 J0.1154
N230 G1 X3
N235 G3 Y2.8789 J0.1154
N240 G1 X0
N245 X-0.0039 Z-0.3897
N250 X-0.0077 Z-0.3888
N255 X-0.0113 Z-0.3873
N260 X-0.0147 Z-0.3852
N265 X-0.0177 Z-0.3827
N270 X-0.0202 Z-0.3797
N275 X-0.0223 Z-0.3763
N280 X-0.0238 Z-0.3727
N285 X-0.0247 Z-0.3689
N290 X-0.025 Z-0.365
N295 G0 Z0.6

(2D Contour2)
N300 M9
N305 X0.4 Y1.475
N310 Z0.6
N315 Z0.2894
N320 G1 Z-0.225 F40
N325 X0.4003 Z-0.2289
N330 X0.4012 Z-0.2327
N335 X0.4027 Z-0.2363
N340 X0.4048 Z-0.2397
N345 X0.4073 Z-0.2427
N350 X0.4103 Z-0.2452
N355 X0.4137 Z-0.2473
N360 X0.4173 Z-0.2488
N365 X0.4211 Z-0.2497
N370 X0.425 Z-0.25
N375 X0.45
N380 G3 X0.475 Y1.5 J0.025
N385 G1 Y1.999
N390 G2 X0.4751 Y2.0034 I0.125
N395 G1 X0.4763 Y2.0389
N400 G2 X0.477 Y2.0478 I0.1249 J-0.0044
N405 G1 X0.4807 Y2.0831
N410 G2 X0.482 Y2.0918 I0.1243 J-0.0133
N415 G1 X0.4882 Y2.1267
N420 G2 X0.4901 Y2.1353 I0.123 J-0.022
N425 G1 X0.4988 Y2.1697
N430 G2 X0.5012 Y2.1779 I0.1212 J-0.0307
N435 G1 X0.5114 Y2.2092
N440 G2 X0.5143 Y2.217 I0.1188 J-0.0389
N445 G1 X0.5266 Y2.2476
N450 G2 X0.5299 Y2.2551 I0.116 J-0.0467
N455 G1 X0.5442 Y2.2848
N460 G2 X0.548 Y2.2921 I0.1126 J-0.0542
N465 G1 X0.5642 Y2.3208
N470 G2 X0.5683 Y2.3275 I0.1088 J-0.0615
N475 G1 X0.5848 Y2.3528
N480 G2 X0.5891 Y2.359 I0.1047 J-0.0682
N485 G1 X0.607 Y2.3832
N490 G2 X0.6117 Y2.3892 I0.1004 J-0.0744
N495 G1 X0.6311 Y2.4123
N500 G2 X0.6361 Y2.418 I0.0958 J-0.0803
N505 G1 X0.657 Y2.4399
N510 G2 X0.6623 Y2.4452 I0.0907 J-0.086
N515 G1 X0.6841 Y2.4656
N520 G2 X0.6897 Y2.4705 I0.0854 J-0.0913
N525 G1 X0.7126 Y2.4895
N530 G2 X0.7184 Y2.4941 I0.0798 J-0.0962
N535 G1 X0.7424 Y2.5117
N540 G2 X0.7485 Y2.5159 I0.074 J-0.1008
N545 G1 X0.7735 Y2.5321
N550 G2 X0.7801 Y2.5361 I0.0679 J-0.105
N555 G1 X0.8081 Y2.5518
N560 G2 X0.8151 Y2.5555 I0.0612 J-0.109
N565 G1 X0.8441 Y2.5694
N570 G2 X0.8514 Y2.5726 I0.0541 J-0.1127
N575 G1 X0.8812 Y2.5847
N580 G2 X0.8888 Y2.5874 I0.0468 J-0.1159
N585 G1 X0.9193 Y2.5975
N590 G2 X0.9274 Y2.5999 I0.0393 J-0.1187
N595 G1 X0.9622 Y2.6089
N600 G2 X0.971 Y2.6108 I0.0311 J-0.1211
N605 G1 X1.0064 Y2.6172
N610 G2 X1.0153 Y2.6185 I0.0223 J-0.123
N615 G1 X1.051 Y2.6224
N620 G2 X1.06 Y2.623 I0.0134 J-0.1243
N625 G1 X1.0959 Y2.6243
N630 G2 X1.1004 Y2.6244 I0.0045 J-0.1249
N635 G1 X2.0984
N640 G2 X2.1028 Y2.6243 J-0.125
N645 G1 X2.1383 Y2.623
N650 G2 X2.1472 Y2.6224 I-0.0044 J-0.1249
N655 G1 X2.1824 Y2.6186
N660 G2 X2.1912 Y2.6174 I-0.0133 J-0.1243
N665 G1 X2.2261 Y2.6111
N670 G2 X2.2347 Y2.6093 I-0.022 J-0.123
N675 G1 X2.2691 Y2.6006
N680 G2 X2.2773 Y2.5982 I-0.0307 J-0.1212
N685 G1 X2.3086 Y2.5879
N690 G2 X2.3163 Y2.5851 I-0.0389 J-0.1188
N695 G1 X2.347 Y2.5728
N700 G2 X2.3545 Y2.5694 I-0.0466 J-0.116
N705 G1 X2.3842 Y2.5552
N710 G2 X2.3915 Y2.5513 I-0.0542 J-0.1126
N715 G1 X2.4202 Y2.5352
N720 G2 X2.4269 Y2.5311 I-0.0615 J-0.1088
N725 G1 X2.4522 Y2.5146
N730 G2 X2.4584 Y2.5103 I-0.0682 J-0.1047
N735 G1 X2.4826 Y2.4923
N740 G2 X2.4885 Y2.4877 I-0.0744 J-0.1004
N745 G1 X2.5117 Y2.4682
N750 G2 X2.5173 Y2.4632 I-0.0803 J-0.0958
N755 G1 X2.5393 Y2.4424
N760 G2 X2.5446 Y2.4371 I-0.086 J-0.0907
N765 G1 X2.565 Y2.4153
N770 G2 X2.5699 Y2.4097 I-0.0913 J-0.0854
N775 G1 X2.5889 Y2.3868
N780 G2 X2.5935 Y2.3809 I-0.0962 J-0.0798
N785 G1 X2.6111 Y2.357
N790 G2 X2.6153 Y2.3508 I-0.1008 J-0.074
N795 G1 X2.6315 Y2.3259
N800 G2 X2.6354 Y2.3193 I-0.105 J-0.0679
N805 G1 X2.6511 Y2.2913
N810 G2 X2.6549 Y2.2842 I-0.109 J-0.0612
N815 G1 X2.6688 Y2.2553
N820 G2 X2.672 Y2.248 I-0.1127 J-0.0541
N825 G1 X2.684 Y2.2181
N830 G2 X2.6868 Y2.2106 I-0.1159 J-0.0468
N835 G1 X2.6969 Y2.1801
N840 G2 X2.6993 Y2.1719 I-0.1187 J-0.0393
N845 G1 X2.7082 Y2.1371
N850 G2 X2.7101 Y2.1284 I-0.1211 J-0.0311
N855 G1 X2.7166 Y2.093
N860 G2 X2.7179 Y2.0841 I-0.123 J-0.0223
N865 G1 X2.7217 Y2.0484
N870 G2 X2.7224 Y2.0394 I-0.1243 J-0.0134
N875 G1 X2.7237 Y2.0035
N880 G2 Y1.999 I-0.1249 J-0.0045
N885 G1 Y1.001
N890 G2 Y0.9966 I-0.125
N895 G1 X2.7224 Y0.9611
N900 G2 X2.7218 Y0.9522 I-0.1249 J0.0044
N905 G1 X2.718 Y0.9169
N910 G2 X2.7167 Y0.9082 I-0.1243 J0.0133
N915 G1 X2.7105 Y0.8733
N920 G2 X2.7086 Y0.8647 I-0.123 J0.022
N925 G1 X2.6999 Y0.8303
N930 G2 X2.6975 Y0.8221 I-0.1212 J0.0307
N935 G1 X2.6873 Y0.7908
N940 G2 X2.6845 Y0.783 I-0.1188 J0.0389
N945 G1 X2.6721 Y0.7524
N950 G2 X2.6688 Y0.7449 I-0.116 J0.0466
N955 G1 X2.6545 Y0.7151
N960 G2 X2.6507 Y0.7079 I-0.1126 J0.0542
N965 G1 X2.6345 Y0.6792
N970 G2 X2.6304 Y0.6725 I-0.1088 J0.0615
N975 G1 X2.614 Y0.6472
N980 G2 X2.6097 Y0.641 I-0.1047 J0.0682
N985 G1 X2.5917 Y0.6167
N990 G2 X2.587 Y0.6108 I-0.1004 J0.0744
N995 G1 X2.5676 Y0.5877
N1000 G2 X2.5626 Y0.582 I-0.0958 J0.0803
N1005 G1 X2.5418 Y0.5601
N1010 G2 X2.5364 Y0.5548 I-0.0907 J0.086
N1015 G1 X2.5147 Y0.5344
N1020 G2 X2.5091 Y0.5295 I-0.0854 J0.0913
N1025 G1 X2.4862 Y0.5104
N1030 G2 X2.4803 Y0.5059 I-0.0798 J0.0962
N1035 G1 X2.4563 Y0.4883
N1040 G2 X2.4502 Y0.4841 I-0.074 J0.1008
N1045 G1 X2.4252 Y0.4679
N1050 G2 X2.4186 Y0.4639 I-0.0679 J0.105
N1055 G1 X2.3907 Y0.4482
N1060 G2 X2.3836 Y0.4445 I-0.0612 J0.109
N1065 G1 X2.3547 Y0.4306
N1070 G2 X2.3473 Y0.4274 I-0.0541 J0.1127
N1075 G1 X2.3175 Y0.4153
N1080 G2 X2.31 Y0.4126 I-0.0468 J0.1159
N1085 G1 X2.2795 Y0.4025
N1090 G2 X2.2713 Y0.4001 I-0.0393 J0.1187
N1095 G1 X2.2365 Y0.3911
N1100 G2 X2.2277 Y0.3892 I-0.0311 J0.1211
N1105 G1 X2.1924 Y0.3828
N1110 G2 X2.1835 Y0.3815 I-0.0223 J0.123
N1115 G1 X2.1477 Y0.3776
N1120 G2 X2.1388 Y0.377 I-0.0134 J0.1243
N1125 G1 X2.1029 Y0.3757
N1130 G2 X2.0984 Y0.3756 I-0.0045 J0.1249
N1135 G1 X1.1004
N1140 G2 X1.0959 Y0.3757 J0.125
N1145 G1 X1.0604 Y0.377
N1150 G2 X1.0516 Y0.3776 I0.0044 J0.1249
N1155 G1 X1.0163 Y0.3814
N1160 G2 X1.0075 Y0.3826 I0.0133 J0.1243
N1165 G1 X0.9727 Y0.3889
N1170 G2 X0.964 Y0.3907 I0.022 J0.123
N1175 G1 X0.9297 Y0.3994
N1180 G2 X0.9215 Y0.4018 I0.0307 J0.1212
N1185 G1 X0.8902 Y0.4121
N1190 G2 X0.8824 Y0.4149 I0.0389 J0.1188
N1195 G1 X0.8518 Y0.4272
N1200 G2 X0.8442 Y0.4306 I0.0466 J0.116
N1205 G1 X0.8145 Y0.4448
N1210 G2 X0.8072 Y0.4487 I0.0542 J0.1126
N1215 G1 X0.7786 Y0.4648
N1220 G2 X0.7718 Y0.4689 I0.0615 J0.1088
N1225 G1 X0.7466 Y0.4854
N1230 G2 X0.7404 Y0.4897 I0.0682 J0.1047
N1235 G1 X0.7161 Y0.5077
N1240 G2 X0.7102 Y0.5123 I0.0744 J0.1004
N1245 G1 X0.6871 Y0.5317
N1250 G2 X0.6814 Y0.5368 I0.0803 J0.0958
N1255 G1 X0.6594 Y0.5576
N1260 G2 X0.6541 Y0.5629 I0.086 J0.0907
N1265 G1 X0.6338 Y0.5847
N1270 G2 X0.6288 Y0.5903 I0.0913 J0.0854
N1275 G1 X0.6098 Y0.6132
N1280 G2 X0.6052 Y0.6191 I0.0962 J0.0798
N1285 G1 X0.5876 Y0.643
N1290 G2 X0.5834 Y0.6492 I0.1008 J0.074
N1295 G1 X0.5673 Y0.6741
N1300 G2 X0.5633 Y0.6807 I0.105 J0.0679
N1305 G1 X0.5476 Y0.7087
N1310 G2 X0.5439 Y0.7158 I0.109 J0.0612
N1315 G1 X0.53 Y0.7447
N1320 G2 X0.5267 Y0.7521 I0.1127 J0.0541
N1325 G1 X0.5147 Y0.7819
N1330 G2 X0.5119 Y0.7894 I0.1159 J0.0468
N1335 G1 X0.5018 Y0.8199
N1340 G2 X0.4995 Y0.8281 I0.1187 J0.0393
N1345 G1 X0.4905 Y0.8629
N1350 G2 X0.4886 Y0.8717 I0.1211 J0.0311
N1355 G1 X0.4822 Y0.907
N1360 G2 X0.4809 Y0.9159 I0.123 J0.0223
N1365 G1 X0.477 Y0.9516
N1370 G2 X0.4764 Y0.9606 I0.1243 J0.0135
N1375 G1 X0.4751 Y0.9965
N1380 G2 X0.475 Y1.001 I0.1249 J0.0045
N1385 G1 Y1.5
N1390 G3 X0.45 Y1.525 I-0.025
N1395 G1 X0.425
N1400 X0.4211 Z-0.2497
N1405 X0.4173 Z-0.2488
N1410 X0.4137 Z-0.2473
N1415 X0.4103 Z-0.2452
N1420 X0.4073 Z-0.2427
N1425 X0.4048 Z-0.2397
N1430 X0.4027 Z-0.2363
N1435 X0.4012 Z-0.2327
N1440 X0.4003 Z-0.2289
N1445 X0.4 Z-0.225
N1450 Y1.475
N1455 Z-0.475
N1460 X0.4003 Z-0.4789
N1465 X0.4012 Z-0.4827
N1470 X0.4027 Z-0.4863
N1475 X0.4048 Z-0.4897
N1480 X0.4073 Z-0.4927
N1485 X0.4103 Z-0.4952
N1490 X0.4137 Z-0.4973
N1495 X0.4173 Z-0.4988
N1500 X0.4211 Z-0.4997
N1505 X0.425 Z-0.5
N1510 X0.45
N1515 G3 X0.475 Y1.5 J0.025
N1520 G1 Y1.999
N1525 G2 X0.4751 Y2.0034 I0.125
N1530 G1 X0.4763 Y2.0389
N1535 G2 X0.477 Y2.0478 I0.1249 J-0.0044
N1540 G1 X0.4807 Y2.0831
N1545 G2 X0.482 Y2.0918 I0.1243 J-0.0133
N1550 G1 X0.4882 Y2.1267
N1555 G2 X0.4901 Y2.1353 I0.123 J-0.022
N1560 G1 X0.4988 Y2.1697
N1565 G2 X0.5012 Y2.1779 I0.1212 J-0.0307
N1570 G1 X0.5114 Y2.2092
N1575 G2 X0.5143 Y2.217 I0.1188 J-0.0389
N1580 G1 X0.5266 Y2.2476
N1585 G2 X0.5299 Y2.2551 I0.116 J-0.0467
N1590 G1 X0.5442 Y2.2848
N1595 G2 X0.548 Y2.2921 I0.1126 J-0.0542
N1600 G1 X0.5642 Y2.3208
N1605 G2 X0.5683 Y2.3275 I0.1088 J-0.0615
N1610 G1 X0.5848 Y2.3528
N1615 G2 X0.5891 Y2.359 I0.1047 J-0.0682
N1620 G1 X0.607 Y2.3832
N1625 G2 X0.6117 Y2.3892 I0.1004 J-0.0744
N1630 G1 X0.6311 Y2.4123
N1635 G2 X0.6361 Y2.418 I0.0958 J-0.0803
N1640 G1 X0.657 Y2.4399
N1645 G2 X0.6623 Y2.4452 I0.0907 J-0.086
N1650 G1 X0.6841 Y2.4656
N1655 G2 X0.6897 Y2.4705 I0.0854 J-0.0913
N1660 G1 X0.7126 Y2.4895
N1665 G2 X0.7184 Y2.4941 I0.0798 J-0.0962
N1670 G1 X0.7424 Y2.5117
N1675 G2 X0.7485 Y2.5159 I0.074 J-0.1008
N1680 G1 X0.7735 Y2.5321
N1685 G2 X0.7801 Y2.5361 I0.0679 J-0.105
N1690 G1 X0.8081 Y2.5518
N1695 G2 X0.8151 Y2.5555 I0.0612 J-0.109
N1700 G1 X0.8441 Y2.5694
N1705 G2 X0.8514 Y2.5726 I0.0541 J-0.1127
N1710 G1 X0.8812 Y2.5847
N1715 G2 X0.8888 Y2.5874 I0.0468 J-0.1159
N1720 G1 X0.9193 Y2.5975
N1725 G2 X0.9274 Y2.5999 I0.0393 J-0.1187
N1730 G1 X0.9622 Y2.6089
N1735 G2 X0.971 Y2.6108 I0.0311 J-0.1211
N1740 G1 X1.0064 Y2.6172
N1745 G2 X1.0153 Y2.6185 I0.0223 J-0.123
N1750 G1 X1.051 Y2.6224
N1755 G2 X1.06 Y2.623 I0.0134 J-0.1243
N1760 G1 X1.0959 Y2.6243
N1765 G2 X1.1004 Y2.6244 I0.0045 J-0.1249
N1770 G1 X2.0984
N1775 G2 X2.1028 Y2.6243 J-0.125
N1780 G1 X2.1383 Y2.623
N1785 G2 X2.1472 Y2.6224 I-0.0044 J-0.1249
N1790 G1 X2.1824 Y2.6186
N1795 G2 X2.1912 Y2.6174 I-0.0133 J-0.1243
N1800 G1 X2.2261 Y2.6111
N1805 G2 X2.2347 Y2.6093 I-0.022 J-0.123
N1810 G1 X2.2691 Y2.6006
N1815 G2 X2.2773 Y2.5982 I-0.0307 J-0.1212
N1820 G1 X2.3086 Y2.5879
N1825 G2 X2.3163 Y2.5851 I-0.0389 J-0.1188
N1830 G1 X2.347 Y2.5728
N1835 G2 X2.3545 Y2.5694 I-0.0466 J-0.116
N1840 G1 X2.3842 Y2.5552
N1845 G2 X2.3915 Y2.5513 I-0.0542 J-0.1126
N1850 G1 X2.4202 Y2.5352
N1855 G2 X2.4269 Y2.5311 I-0.0615 J-0.1088
N1860 G1 X2.4522 Y2.5146
N1865 G2 X2.4584 Y2.5103 I-0.0682 J-0.1047
N1870 G1 X2.4826 Y2.4923
N1875 G2 X2.4885 Y2.4877 I-0.0744 J-0.1004
N1880 G1 X2.5117 Y2.4682
N1885 G2 X2.5173 Y2.4632 I-0.0803 J-0.0958
N1890 G1 X2.5393 Y2.4424
N1895 G2 X2.5446 Y2.4371 I-0.086 J-0.0907
N1900 G1 X2.565 Y2.4153
N1905 G2 X2.5699 Y2.4097 I-0.0913 J-0.0854
N1910 G1 X2.5889 Y2.3868
N1915 G2 X2.5935 Y2.3809 I-0.0962 J-0.0798
N1920 G1 X2.6111 Y2.357
N1925 G2 X2.6153 Y2.3508 I-0.1008 J-0.074
N1930 G1 X2.6315 Y2.3259
N1935 G2 X2.6354 Y2.3193 I-0.105 J-0.0679
N1940 G1 X2.6511 Y2.2913
N1945 G2 X2.6549 Y2.2842 I-0.109 J-0.0612
N1950 G1 X2.6688 Y2.2553
N1955 G2 X2.672 Y2.248 I-0.1127 J-0.0541
N1960 G1 X2.684 Y2.2181
N1965 G2 X2.6868 Y2.2106 I-0.1159 J-0.0468
N1970 G1 X2.6969 Y2.1801
N1975 G2 X2.6993 Y2.1719 I-0.1187 J-0.0393
N1980 G1 X2.7082 Y2.1371
N1985 G2 X2.7101 Y2.1284 I-0.1211 J-0.0311
N1990 G1 X2.7166 Y2.093
N1995 G2 X2.7179 Y2.0841 I-0.123 J-0.0223
N2000 G1 X2.7217 Y2.0484
N2005 G2 X2.7224 Y2.0394 I-0.1243 J-0.0134
N2010 G1 X2.7237 Y2.0035
N2015 G2 Y1.999 I-0.1249 J-0.0045
N2020 G1 Y1.001
N2025 G2 Y0.9966 I-0.125
N2030 G1 X2.7224 Y0.9611
N2035 G2 X2.7218 Y0.9522 I-0.1249 J0.0044
N2040 G1 X2.718 Y0.9169
N2045 G2 X2.7167 Y0.9082 I-0.1243 J0.0133
N2050 G1 X2.7105 Y0.8733
N2055 G2 X2.7086 Y0.8647 I-0.123 J0.022
N2060 G1 X2.6999 Y0.8303
N2065 G2 X2.6975 Y0.8221 I-0.1212 J0.0307
N2070 G1 X2.6873 Y0.7908
N2075 G2 X2.6845 Y0.783 I-0.1188 J0.0389
N2080 G1 X2.6721 Y0.7524
N2085 G2 X2.6688 Y0.7449 I-0.116 J0.0466
N2090 G1 X2.6545 Y0.7151
N2095 G2 X2.6507 Y0.7079 I-0.1126 J0.0542
N2100 G1 X2.6345 Y0.6792
N2105 G2 X2.6304 Y0.6725 I-0.1088 J0.0615
N2110 G1 X2.614 Y0.6472
N2115 G2 X2.6097 Y0.641 I-0.1047 J0.0682
N2120 G1 X2.5917 Y0.6167
N2125 G2 X2.587 Y0.6108 I-0.1004 J0.0744
N2130 G1 X2.5676 Y0.5877
N2135 G2 X2.5626 Y0.582 I-0.0958 J0.0803
N2140 G1 X2.5418 Y0.5601
N2145 G2 X2.5364 Y0.5548 I-0.0907 J0.086
N2150 G1 X2.5147 Y0.5344
N2155 G2 X2.5091 Y0.5295 I-0.0854 J0.0913
N2160 G1 X2.4862 Y0.5104
N2165 G2 X2.4803 Y0.5059 I-0.0798 J0.0962
N2170 G1 X2.4563 Y0.4883
N2175 G2 X2.4502 Y0.4841 I-0.074 J0.1008
N2180 G1 X2.4252 Y0.4679
N2185 G2 X2.4186 Y0.4639 I-0.0679 J0.105
N2190 G1 X2.3907 Y0.4482
N2195 G2 X2.3836 Y0.4445 I-0.0612 J0.109
N2200 G1 X2.3547 Y0.4306
N2205 G2 X2.3473 Y0.4274 I-0.0541 J0.1127
N2210 G1 X2.3175 Y0.4153
N2215 G2 X2.31 Y0.4126 I-0.0468 J0.1159
N2220 G1 X2.2795 Y0.4025
N2225 G2 X2.2713 Y0.4001 I-0.0393 J0.1187
N2230 G1 X2.2365 Y0.3911
N2235 G2 X2.2277 Y0.3892 I-0.0311 J0.1211
N2240 G1 X2.1924 Y0.3828
N2245 G2 X2.1835 Y0.3815 I-0.0223 J0.123
N2250 G1 X2.1477 Y0.3776
N2255 G2 X2.1388 Y0.377 I-0.0134 J0.1243
N2260 G1 X2.1029 Y0.3757
N2265 G2 X2.0984 Y0.3756 I-0.0045 J0.1249
N2270 G1 X1.1004
N2275 G2 X1.0959 Y0.3757 J0.125
N2280 G1 X1.0604 Y0.377
N2285 G2 X1.0516 Y0.3776 I0.0044 J0.1249
N2290 G1 X1.0163 Y0.3814
N2295 G2 X1.0075 Y0.3826 I0.0133 J0.1243
N2300 G1 X0.9727 Y0.3889
N2305 G2 X0.964 Y0.3907 I0.022 J0.123
N2310 G1 X0.9297 Y0.3994
N2315 G2 X0.9215 Y0.4018 I0.0307 J0.1212
N2320 G1 X0.8902 Y0.4121
N2325 G2 X0.8824 Y0.4149 I0.0389 J0.1188
N2330 G1 X0.8518 Y0.4272
N2335 G2 X0.8442 Y0.4306 I0.0466 J0.116
N2340 G1 X0.8145 Y0.4448
N2345 G2 X0.8072 Y0.4487 I0.0542 J0.1126
N2350 G1 X0.7786 Y0.4648
N2355 G2 X0.7718 Y0.4689 I0.0615 J0.1088
N2360 G1 X0.7466 Y0.4854
N2365 G2 X0.7404 Y0.4897 I0.0682 J0.1047
N2370 G1 X0.7161 Y0.5077
N2375 G2 X0.7102 Y0.5123 I0.0744 J0.1004
N2380 G1 X0.6871 Y0.5317
N2385 G2 X0.6814 Y0.5368 I0.0803 J0.0958
N2390 G1 X0.6594 Y0.5576
N2395 G2 X0.6541 Y0.5629 I0.086 J0.0907
N2400 G1 X0.6338 Y0.5847
N2405 G2 X0.6288 Y0.5903 I0.0913 J0.0854
N2410 G1 X0.6098 Y0.6132
N2415 G2 X0.6052 Y0.6191 I0.0962 J0.0798
N2420 G1 X0.5876 Y0.643
N2425 G2 X0.5834 Y0.6492 I0.1008 J0.074
N2430 G1 X0.5673 Y0.6741
N2435 G2 X0.5633 Y0.6807 I0.105 J0.0679
N2440 G1 X0.5476 Y0.7087
N2445 G2 X0.5439 Y0.7158 I0.109 J0.0612
N2450 G1 X0.53 Y0.7447
N2455 G2 X0.5267 Y0.7521 I0.1127 J0.0541
N2460 G1 X0.5147 Y0.7819
N2465 G2 X0.5119 Y0.7894 I0.1159 J0.0468
N2470 G1 X0.5018 Y0.8199
N2475 G2 X0.4995 Y0.8281 I0.1187 J0.0393
N2480 G1 X0.4905 Y0.8629
N2485 G2 X0.4886 Y0.8717 I0.1211 J0.0311
N2490 G1 X0.4822 Y0.907
N2495 G2 X0.4809 Y0.9159 I0.123 J0.0223
N2500 G1 X0.477 Y0.9516
N2505 G2 X0.4764 Y0.9606 I0.1243 J0.0135
N2510 G1 X0.4751 Y0.9965
N2515 G2 X0.475 Y1.001 I0.1249 J0.0045
N2520 G1 Y1.5
N2525 G3 X0.45 Y1.525 I-0.025
N2530 G1 X0.425
N2535 X0.4211 Z-0.4997
N2540 X0.4173 Z-0.4988
N2545 X0.4137 Z-0.4973
N2550 X0.4103 Z-0.4952
N2555 X0.4073 Z-0.4927
N2560 X0.4048 Z-0.4897
N2565 X0.4027 Z-0.4863
N2570 X0.4012 Z-0.4827
N2575 X0.4003 Z-0.4789
N2580 X0.4 Z-0.475
N2585 Y1.475
N2590 Z-0.6875
N2595 X0.425
N2600 X0.45
N2605 G3 X0.475 Y1.5 J0.025
N2610 G1 Y1.625
N2615 Y1.75 Z-0.75
N2620 Y1.999
N2625 G2 X0.4751 Y2.0034 I0.125
N2630 G1 X0.4763 Y2.0389
N2635 G2 X0.477 Y2.0478 I0.1249 J-0.0044
N2640 G1 X0.4807 Y2.0831
N2645 G2 X0.482 Y2.0918 I0.1243 J-0.0133
N2650 G1 X0.4882 Y2.1267
N2655 G2 X0.4901 Y2.1353 I0.123 J-0.022
N2660 G1 X0.4988 Y2.1697
N2665 G2 X0.5012 Y2.1779 I0.1212 J-0.0307
N2670 G1 X0.5114 Y2.2092
N2675 G2 X0.5143 Y2.217 I0.1188 J-0.0389
N2680 G1 X0.5266 Y2.2476
N2685 G2 X0.5299 Y2.2551 I0.116 J-0.0467
N2690 G1 X0.5442 Y2.2848
N2695 G2 X0.548 Y2.2921 I0.1126 J-0.0542
N2700 G1 X0.5642 Y2.3208
N2705 G2 X0.5683 Y2.3275 I0.1088 J-0.0615
N2710 G1 X0.5848 Y2.3528
N2715 G2 X0.5891 Y2.359 I0.1047 J-0.0682
N2720 G1 X0.607 Y2.3832
N2725 G2 X0.6117 Y2.3892 I0.1004 J-0.0744
N2730 G1 X0.6311 Y2.4123
N2735 G2 X0.6361 Y2.418 I0.0958 J-0.0803
N2740 G1 X0.657 Y2.4399
N2745 G2 X0.6623 Y2.4452 I0.0907 J-0.086
N2750 G1 X0.6841 Y2.4656
N2755 G2 X0.6897 Y2.4705 I0.0854 J-0.0913
N2760 G1 X0.7126 Y2.4895
N2765 G2 X0.7184 Y2.4941 I0.0798 J-0.0962
N2770 G1 X0.7424 Y2.5117
N2775 G2 X0.7485 Y2.5159 I0.074 J-0.1008
N2780 G1 X0.7735 Y2.5321
N2785 G2 X0.7801 Y2.5361 I0.0679 J-0.105
N2790 G1 X0.8081 Y2.5518
N2795 G2 X0.8151 Y2.5555 I0.0612 J-0.109
N2800 G1 X0.8441 Y2.5694
N2805 G2 X0.8514 Y2.5726 I0.0541 J-0.1127
N2810 G1 X0.8812 Y2.5847
N2815 G2 X0.8888 Y2.5874 I0.0468 J-0.1159
N2820 G1 X0.9193 Y2.5975
N2825 G2 X0.9274 Y2.5999 I0.0393 J-0.1187
N2830 G1 X0.9622 Y2.6089
N2835 G2 X0.971 Y2.6108 I0.0311 J-0.1211
N2840 G1 X1.0064 Y2.6172
N2845 G2 X1.0153 Y2.6185 I0.0223 J-0.123
N2850 G1 X1.051 Y2.6224
N2855 G2 X1.06 Y2.623 I0.0134 J-0.1243
N2860 G1 X1.0959 Y2.6243
N2865 G2 X1.1004 Y2.6244 I0.0045 J-0.1249
N2870 G1 X1.3494
N2875 X1.4744 Z-0.6875
N2880 X1.7244
N2885 X1.8494 Z-0.75
N2890 X2.0984
N2895 G2 X2.1028 Y2.6243 J-0.125
N2900 G1 X2.1383 Y2.623
N2905 G2 X2.1472 Y2.6224 I-0.0044 J-0.1249
N2910 G1 X2.1824 Y2.6186
N2915 G2 X2.1912 Y2.6174 I-0.0133 J-0.1243
N2920 G1 X2.2261 Y2.6111
N2925 G2 X2.2347 Y2.6093 I-0.022 J-0.123
N2930 G1 X2.2691 Y2.6006
N2935 G2 X2.2773 Y2.5982 I-0.0307 J-0.1212
N2940 G1 X2.3086 Y2.5879
N2945 G2 X2.3163 Y2.5851 I-0.0389 J-0.1188
N2950 G1 X2.347 Y2.5728
N2955 G2 X2.3545 Y2.5694 I-0.0466 J-0.116
N2960 G1 X2.3842 Y2.5552
N2965 G2 X2.3915 Y2.5513 I-0.0542 J-0.1126
N2970 G1 X2.4202 Y2.5352
N2975 G2 X2.4269 Y2.5311 I-0.0615 J-0.1088
N2980 G1 X2.4522 Y2.5146
N2985 G2 X2.4584 Y2.5103 I-0.0682 J-0.1047
N2990 G1 X2.4826 Y2.4923
N2995 G2 X2.4885 Y2.4877 I-0.0744 J-0.1004
N3000 G1 X2.5117 Y2.4682
N3005 G2 X2.5173 Y2.4632 I-0.0803 J-0.0958
N3010 G1 X2.5393 Y2.4424
N3015 G2 X2.5446 Y2.4371 I-0.086 J-0.0907
N3020 G1 X2.565 Y2.4153
N3025 G2 X2.5699 Y2.4097 I-0.0913 J-0.0854
N3030 G1 X2.5889 Y2.3868
N3035 G2 X2.5935 Y2.3809 I-0.0962 J-0.0798
N3040 G1 X2.6111 Y2.357
N3045 G2 X2.6153 Y2.3508 I-0.1008 J-0.074
N3050 G1 X2.6315 Y2.3259
N3055 G2 X2.6354 Y2.3193 I-0.105 J-0.0679
N3060 G1 X2.6511 Y2.2913
N3065 G2 X2.6549 Y2.2842 I-0.109 J-0.0612
N3070 G1 X2.6688 Y2.2553
N3075 G2 X2.672 Y2.248 I-0.1127 J-0.0541
N3080 G1 X2.684 Y2.2181
N3085 G2 X2.6868 Y2.2106 I-0.1159 J-0.0468
N3090 G1 X2.6969 Y2.1801
N3095 G2 X2.6993 Y2.1719 I-0.1187 J-0.0393
N3100 G1 X2.7082 Y2.1371
N3105 G2 X2.7101 Y2.1284 I-0.1211 J-0.0311
N3110 G1 X2.7166 Y2.093
N3115 G2 X2.7179 Y2.0841 I-0.123 J-0.0223
N3120 G1 X2.7217 Y2.0484
N3125 G2 X2.7224 Y2.0394 I-0.1243 J-0.0134
N3130 G1 X2.7237 Y2.0035
N3135 G2 Y1.999 I-0.1249 J-0.0045
N3140 G1 Y1.75
N3145 Y1.625 Z-0.6875
N3150 Y1.375
N3155 Y1.25 Z-0.75
N3160 Y1.001
N3165 G2 Y0.9966 I-0.125
N3170 G1 X2.7224 Y0.9611
N3175 G2 X2.7218 Y0.9522 I-0.1249 J0.0044
N3180 G1 X2.718 Y0.9169
N3185 G2 X2.7167 Y0.9082 I-0.1243 J0.0133
N3190 G1 X2.7105 Y0.8733
N3195 G2 X2.7086 Y0.8647 I-0.123 J0.022
N3200 G1 X2.6999 Y0.8303
N3205 G2 X2.6975 Y0.8221 I-0.1212 J0.0307
N3210 G1 X2.6873 Y0.7908
N3215 G2 X2.6845 Y0.783 I-0.1188 J0.0389
N3220 G1 X2.6721 Y0.7524
N3225 G2 X2.6688 Y0.7449 I-0.116 J0.0466
N3230 G1 X2.6545 Y0.7151
N3235 G2 X2.6507 Y0.7079 I-0.1126 J0.0542
N3240 G1 X2.6345 Y0.6792
N3245 G2 X2.6304 Y0.6725 I-0.1088 J0.0615
N3250 G1 X2.614 Y0.6472
N3255 G2 X2.6097 Y0.641 I-0.1047 J0.0682
N3260 G1 X2.5917 Y0.6167
N3265 G2 X2.587 Y0.6108 I-0.1004 J0.0744
N3270 G1 X2.5676 Y0.5877
N3275 G2 X2.5626 Y0.582 I-0.0958 J0.0803
N3280 G1 X2.5418 Y0.5601
N3285 G2 X2.5364 Y0.5548 I-0.0907 J0.086
N3290 G1 X2.5147 Y0.5344
N3295 G2 X2.5091 Y0.5295 I-0.0854 J0.0913
N3300 G1 X2.4862 Y0.5104
N3305 G2 X2.4803 Y0.5059 I-0.0798 J0.0962
N3310 G1 X2.4563 Y0.4883
N3315 G2 X2.4502 Y0.4841 I-0.074 J0.1008
N3320 G1 X2.4252 Y0.4679
N3325 G2 X2.4186 Y0.4639 I-0.0679 J0.105
N3330 G1 X2.3907 Y0.4482
N3335 G2 X2.3836 Y0.4445 I-0.0612 J0.109
N3340 G1 X2.3547 Y0.4306
N3345 G2 X2.3473 Y0.4274 I-0.0541 J0.1127
N3350 G1 X2.3175 Y0.4153
N3355 G2 X2.31 Y0.4126 I-0.0468 J0.1159
N3360 G1 X2.2795 Y0.4025
N3365 G2 X2.2713 Y0.4001 I-0.0393 J0.1187
N3370 G1 X2.2365 Y0.3911
N3375 G2 X2.2277 Y0.3892 I-0.0311 J0.1211
N3380 G1 X2.1924 Y0.3828
N3385 G2 X2.1835 Y0.3815 I-0.0223 J0.123
N3390 G1 X2.1477 Y0.3776
N3395 G2 X2.1388 Y0.377 I-0.0134 J0.1243
N3400 G1 X2.1029 Y0.3757
N3405 G2 X2.0984 Y0.3756 I-0.0045 J0.1249
N3410 G1 X1.8494
N3415 X1.7244 Z-0.6875
N3420 X1.4744
N3425 X1.3494 Z-0.75
N3430 X1.1004
N3435 G2 X1.0959 Y0.3757 J0.125
N3440 G1 X1.0604 Y0.377
N3445 G2 X1.0516 Y0.3776 I0.0044 J0.1249
N3450 G1 X1.0163 Y0.3814
N3455 G2 X1.0075 Y0.3826 I0.0133 J0.1243
N3460 G1 X0.9727 Y0.3889
N3465 G2 X0.964 Y0.3907 I0.022 J0.123
N3470 G1 X0.9297 Y0.3994
N3475 G2 X0.9215 Y0.4018 I0.0307 J0.1212
N3480 G1 X0.8902 Y0.4121
N3485 G2 X0.8824 Y0.4149 I0.0389 J0.1188
N3490 G1 X0.8518 Y0.4272
N3495 G2 X0.8442 Y0.4306 I0.0466 J0.116
N3500 G1 X0.8145 Y0.4448
N3505 G2 X0.8072 Y0.4487 I0.0542 J0.1126
N3510 G1 X0.7786 Y0.4648
N3515 G2 X0.7718 Y0.4689 I0.0615 J0.1088
N3520 G1 X0.7466 Y0.4854
N3525 G2 X0.7404 Y0.4897 I0.0682 J0.1047
N3530 G1 X0.7161 Y0.5077
N3535 G2 X0.7102 Y0.5123 I0.0744 J0.1004
N3540 G1 X0.6871 Y0.5317
N3545 G2 X0.6814 Y0.5368 I0.0803 J0.0958
N3550 G1 X0.6594 Y0.5576
N3555 G2 X0.6541 Y0.5629 I0.086 J0.0907
N3560 G1 X0.6338 Y0.5847
N3565 G2 X0.6288 Y0.5903 I0.0913 J0.0854
N3570 G1 X0.6098 Y0.6132
N3575 G2 X0.6052 Y0.6191 I0.0962 J0.0798
N3580 G1 X0.5876 Y0.643
N3585 G2 X0.5834 Y0.6492 I0.1008 J0.074
N3590 G1 X0.5673 Y0.6741
N3595 G2 X0.5633 Y0.6807 I0.105 J0.0679
N3600 G1 X0.5476 Y0.7087
N3605 G2 X0.5439 Y0.7158 I0.109 J0.0612
N3610 G1 X0.53 Y0.7447
N3615 G2 X0.5267 Y0.7521 I0.1127 J0.0541
N3620 G1 X0.5147 Y0.7819
N3625 G2 X0.5119 Y0.7894 I0.1159 J0.0468
N3630 G1 X0.5018 Y0.8199
N3635 G2 X0.4995 Y0.8281 I0.1187 J0.0393
N3640 G1 X0.4905 Y0.8629
N3645 G2 X0.4886 Y0.8717 I0.1211 J0.0311
N3650 G1 X0.4822 Y0.907
N3655 G2 X0.4809 Y0.9159 I0.123 J0.0223
N3660 G1 X0.477 Y0.9516
N3665 G2 X0.4764 Y0.9606 I0.1243 J0.0135
N3670 G1 X0.4751 Y0.9965
N3675 G2 X0.475 Y1.001 I0.1249 J0.0045
N3680 G1 Y1.25
N3685 Y1.375 Z-0.6875
N3690 Y1.5
N3695 G3 X0.45 Y1.525 I-0.025
N3700 G1 X0.4
N3705 G0 Z0.6

(Contour2)
N3710 M9
N3715 X0.5696 Y0.9411
N3720 Z0.6
N3725 Z-0.315
N3730 G3 X0.5879 Y1.1779 Z-0.328 I0.0092 J0.1184 F40
N3735 X0.5696 Y0.9411 Z-0.3411 I-0.0092 J-0.1184
N3740 X0.5879 Y1.1779 Z-0.3541 I0.0092 J0.1184
N3745 X0.5696 Y0.9411 Z-0.3671 I-0.0092 J-0.1184
N3750 X0.5879 Y1.1779 Z-0.3801 I0.0092 J0.1184
N3755 X0.5696 Y0.9411 Z-0.3932 I-0.0092 J-0.1184
N3760 X0.5879 Y1.1779 Z-0.4062 I0.0092 J0.1184
N3765 X0.46 Y1.0575 Z-0.4131 I-0.0092 J-0.1184
N3770 X0.5918 Y0.9415 Z-0.42 I0.1187 J0.002
N3775 G1 X0.7223 Y0.9559
N3780 X0.7221 Y0.9578
N3785 X0.7212 Y0.9658
N3790 X0.7206 Y0.9737
N3795 X0.7201 Y0.9817
N3800 X0.7198 Y0.9897
N3805 X0.7197 Y0.9977
N3810 Y1.0056
N3815 X0.7196 Y1.4601
N3820 Y1.4681
N3825 Y1.5
N3830 Y1.5319
N3835 Y1.5399
N3840 X0.7197 Y1.9944
N3845 Y2.0023
N3850 X0.7198 Y2.0103
N3855 X0.7201 Y2.0183
N3860 X0.7206 Y2.0263
N3865 X0.7212 Y2.0342
N3870 X0.7221 Y2.0422
N3875 X0.7223 Y2.0441
N3880 X0.7231 Y2.0502
N3885 X0.7242 Y2.0582
N3890 X0.7256 Y2.0661
N3895 X0.7271 Y2.0741
N3900 X0.7288 Y2.0821
N3905 X0.7302 Y2.0884
N3910 X0.7306 Y2.0901
N3915 X0.7327 Y2.098
N3920 X0.7349 Y2.106
N3925 X0.7374 Y2.114
N3930 X0.7382 Y2.1166
N3935 X0.74 Y2.1219
N3940 X0.7428 Y2.1299
N3945 X0.7458 Y2.1379
N3950 X0.7462 Y2.1388
N3955 X0.749 Y2.1459
N3960 X0.7525 Y2.1538
N3965 X0.7542 Y2.1575
N3970 X0.7561 Y2.1618
N3975 X0.76 Y2.1698
N3980 X0.7621 Y2.1739
N3985 X0.7641 Y2.1778
N3990 X0.7685 Y2.1857
N3995 X0.7701 Y2.1885
N4000 X0.7731 Y2.1937
N4005 X0.778 Y2.2017
N4010 X0.7781 Y2.2018
N4015 X0.7832 Y2.2097
N4020 X0.7861 Y2.2139
N4025 X0.7886 Y2.2176
N4030 X0.794 Y2.2252
N4035 X0.7943 Y2.2256
N4040 X0.8004 Y2.2336
N4045 X0.802 Y2.2356
N4050 X0.8068 Y2.2416
N4055 X0.81 Y2.2453
N4060 X0.8136 Y2.2495
N4065 X0.8179 Y2.2544
N4070 X0.8208 Y2.2575
N4075 X0.8259 Y2.263
N4080 X0.8284 Y2.2655
N4085 X0.8339 Y2.271
N4090 X0.8364 Y2.2734
N4095 X0.8419 Y2.2786
N4100 X0.845 Y2.2814
N4105 X0.8498 Y2.2858
N4110 X0.8541 Y2.2894
N4115 X0.8578 Y2.2925
N4120 X0.8638 Y2.2974
N4125 X0.8658 Y2.299
N4130 X0.8738 Y2.305
N4135 X0.8742 Y2.3053
N4140 X0.8817 Y2.3108
N4145 X0.8854 Y2.3133
N4150 X0.8897 Y2.3162
N4155 X0.8976 Y2.3213
N4160 X0.8977 Y2.3214
N4165 X0.9057 Y2.3262
N4170 X0.9108 Y2.3293
N4175 X0.9136 Y2.3309
N4180 X0.9216 Y2.3352
N4185 X0.9255 Y2.3372
N4190 X0.9296 Y2.3393
N4195 X0.9376 Y2.3432
N4200 X0.9419 Y2.3452
N4205 X0.9455 Y2.3469
N4210 X0.9535 Y2.3503
N4215 X0.9606 Y2.3532
N4220 X0.9615 Y2.3535
N4225 X0.9694 Y2.3566
N4230 X0.9774 Y2.3594
N4235 X0.9827 Y2.3612
N4240 X0.9854 Y2.362
N4245 X0.9934 Y2.3644
N4250 X1.0013 Y2.3667
N4255 X1.0093 Y2.3687
N4260 X1.011 Y2.3691
N4265 X1.0173 Y2.3706
N4270 X1.0253 Y2.3723
N4275 X1.0332 Y2.3738
N4280 X1.0412 Y2.3751
N4285 X1.0492 Y2.3763
N4290 X1.0553 Y2.3771
N4295 X1.0572 Y2.3773
N4300 X1.0651 Y2.3781
N4305 X1.0731 Y2.3788
N4310 X1.0811 Y2.3793
N4315 X1.0891 Y2.3796
N4320 X1.097 Y2.3797
N4325 X1.105 Y2.3796
N4330 X1.5595 Y2.3798
N4335 X1.5675
N4340 X1.5994
N4345 X1.6313
N4350 X1.6392
N4355 X2.0937 Y2.3796
N4360 X2.1017 Y2.3797
N4365 X2.1097 Y2.3796
N4370 X2.1177 Y2.3793
N4375 X2.1256 Y2.3788
N4380 X2.1336 Y2.3781
N4385 X2.1416 Y2.3773
N4390 X2.1434 Y2.3771
N4395 X2.1496 Y2.3763
N4400 X2.1575 Y2.3751
N4405 X2.1655 Y2.3738
N4410 X2.1735 Y2.3723
N4415 X2.1814 Y2.3706
N4420 X2.1878 Y2.3691
N4425 X2.1894 Y2.3687
N4430 X2.1974 Y2.3667
N4435 X2.2054 Y2.3644
N4440 X2.2133 Y2.362
N4445 X2.216 Y2.3612
N4450 X2.2213 Y2.3594
N4455 X2.2293 Y2.3566
N4460 X2.2373 Y2.3535
N4465 X2.2382 Y2.3532
N4470 X2.2452 Y2.3503
N4475 X2.2532 Y2.3469
N4480 X2.2569 Y2.3452
N4485 X2.2612 Y2.3432
N4490 X2.2692 Y2.3393
N4495 X2.2732 Y2.3372
N4500 X2.2771 Y2.3352
N4505 X2.2851 Y2.3309
N4510 X2.2879 Y2.3293
N4515 X2.2931 Y2.3262
N4520 X2.3011 Y2.3214
N4525 X2.3012 Y2.3213
N4530 X2.309 Y2.3162
N4535 X2.3133 Y2.3133
N4540 X2.317 Y2.3108
N4545 X2.3245 Y2.3053
N4550 X2.325 Y2.305
N4555 X2.3329 Y2.299
N4560 X2.3349 Y2.2974
N4565 X2.3409 Y2.2925
N4570 X2.3447 Y2.2894
N4575 X2.3489 Y2.2858
N4580 X2.3538 Y2.2814
N4585 X2.3569 Y2.2786
N4590 X2.3623 Y2.2734
N4595 X2.3648 Y2.271
N4600 X2.3704 Y2.2655
N4605 X2.3728 Y2.263
N4610 X2.3779 Y2.2575
N4615 X2.3808 Y2.2544
N4620 X2.3851 Y2.2495
N4625 X2.3888 Y2.2453
N4630 X2.3919 Y2.2416
N4635 X2.3967 Y2.2356
N4640 X2.3983 Y2.2336
N4645 X2.4044 Y2.2256
N4650 X2.4047 Y2.2252
N4655 X2.4101 Y2.2176
N4660 X2.4127 Y2.2139
N4665 X2.4156 Y2.2097
N4670 X2.4207 Y2.2018
N4675 Y2.2017
N4680 X2.4256 Y2.1937
N4685 X2.4286 Y2.1885
N4690 X2.4302 Y2.1857
N4695 X2.4346 Y2.1778
N4700 X2.4366 Y2.1739
N4705 X2.4387 Y2.1698
N4710 X2.4426 Y2.1618
N4715 X2.4446 Y2.1575
N4720 X2.4463 Y2.1538
N4725 X2.4497 Y2.1459
N4730 X2.4526 Y2.1388
N4735 X2.4529 Y2.1379
N4740 X2.4559 Y2.1299
N4745 X2.4587 Y2.1219
N4750 X2.4605 Y2.1166
N4755 X2.4614 Y2.114
N4760 X2.4638 Y2.106
N4765 X2.466 Y2.098
N4770 X2.4681 Y2.0901
N4775 X2.4685 Y2.0884
N4780 X2.47 Y2.0821
N4785 X2.4717 Y2.0741
N4790 X2.4732 Y2.0661
N4795 X2.4745 Y2.0582
N4800 X2.4757 Y2.0502
N4805 X2.4765 Y2.0441
N4810 X2.4767 Y2.0422
N4815 X2.4775 Y2.0342
N4820 X2.4782 Y2.0263
N4825 X2.4787 Y2.0183
N4830 X2.479 Y2.0103
N4835 X2.4791 Y2.0023
N4840 X2.479 Y1.9944
N4845 X2.4792 Y1.5399
N4850 Y1.5319
N4855 Y1.5
N4860 Y1.4681
N4865 Y1.4601
N4870 X2.479 Y1.0056
N4875 X2.4791 Y0.9977
N4880 X2.479 Y0.9897
N4885 X2.4787 Y0.9817
N4890 X2.4782 Y0.9737
N4895 X2.4775 Y0.9658
N4900 X2.4767 Y0.9578
N4905 X2.4765 Y0.9559
N4910 X2.4757 Y0.9498
N4915 X2.4745 Y0.9418
N4920 X2.4732 Y0.9339
N4925 X2.4717 Y0.9259
N4930 X2.47 Y0.9179
N4935 X2.4685 Y0.9116
N4940 X2.4681 Y0.9099
N4945 X2.466 Y0.902
N4950 X2.4638 Y0.894
N4955 X2.4614 Y0.886
N4960 X2.4605 Y0.8834
N4965 X2.4587 Y0.8781
N4970 X2.4559 Y0.8701
N4975 X2.4529 Y0.8621
N4980 X2.4526 Y0.8612
N4985 X2.4497 Y0.8541
N4990 X2.4463 Y0.8462
N4995 X2.4446 Y0.8425
N5000 X2.4426 Y0.8382
N5005 X2.4387 Y0.8302
N5010 X2.4366 Y0.8261
N5015 X2.4346 Y0.8222
N5020 X2.4302 Y0.8143
N5025 X2.4286 Y0.8115
N5030 X2.4256 Y0.8063
N5035 X2.4207 Y0.7983
N5040 Y0.7982
N5045 X2.4156 Y0.7903
N5050 X2.4127 Y0.7861
N5055 X2.4101 Y0.7824
N5060 X2.4047 Y0.7748
N5065 X2.4044 Y0.7744
N5070 X2.3983 Y0.7664
N5075 X2.3967 Y0.7644
N5080 X2.3919 Y0.7584
N5085 X2.3888 Y0.7547
N5090 X2.3851 Y0.7505
N5095 X2.3808 Y0.7456
N5100 X2.3779 Y0.7425
N5105 X2.3728 Y0.737
N5110 X2.3704 Y0.7345
N5115 X2.3648 Y0.729
N5120 X2.3623 Y0.7266
N5125 X2.3569 Y0.7214
N5130 X2.3538 Y0.7186
N5135 X2.3489 Y0.7142
N5140 X2.3447 Y0.7106
N5145 X2.3409 Y0.7075
N5150 X2.3349 Y0.7026
N5155 X2.3329 Y0.701
N5160 X2.325 Y0.695
N5165 X2.3245 Y0.6947
N5170 X2.317 Y0.6892
N5175 X2.3133 Y0.6867
N5180 X2.309 Y0.6838
N5185 X2.3012 Y0.6787
N5190 X2.3011 Y0.6786
N5195 X2.2931 Y0.6738
N5200 X2.2879 Y0.6707
N5205 X2.2851 Y0.6691
N5210 X2.2771 Y0.6648
N5215 X2.2732 Y0.6628
N5220 X2.2692 Y0.6607
N5225 X2.2612 Y0.6568
N5230 X2.2569 Y0.6548
N5235 X2.2532 Y0.6531
N5240 X2.2452 Y0.6497
N5245 X2.2382 Y0.6468
N5250 X2.2373 Y0.6465
N5255 X2.2293 Y0.6434
N5260 X2.2213 Y0.6406
N5265 X2.216 Y0.6388
N5270 X2.2133 Y0.638
N5275 X2.2054 Y0.6356
N5280 X2.1974 Y0.6333
N5285 X2.1894 Y0.6313
N5290 X2.1878 Y0.6309
N5295 X2.1814 Y0.6294
N5300 X2.1735 Y0.6277
N5305 X2.1655 Y0.6262
N5310 X2.1575 Y0.6249
N5315 X2.1496 Y0.6237
N5320 X2.1434 Y0.6229
N5325 X2.1416 Y0.6227
N5330 X2.1336 Y0.6219
N5335 X2.1256 Y0.6212
N5340 X2.1177 Y0.6207
N5345 X2.1097 Y0.6204
N5350 X2.1017 Y0.6203
N5355 X2.0937 Y0.6204
N5360 X1.6392 Y0.6202
N5365 X1.6313
N5370 X1.5994
N5375 X1.5675
N5380 X1.5595
N5385 X1.105 Y0.6204
N5390 X1.097 Y0.6203
N5395 X1.0891 Y0.6204
N5400 X1.0811 Y0.6207
N5405 X1.0731 Y0.6212
N5410 X1.0651 Y0.6219
N5415 X1.0572 Y0.6227
N5420 X1.0553 Y0.6229
N5425 X1.0492 Y0.6237
N5430 X1.0412 Y0.6249
N5435 X1.0332 Y0.6262
N5440 X1.0253 Y0.6277
N5445 X1.0173 Y0.6294
N5450 X1.011 Y0.6309
N5455 X1.0093 Y0.6313
N5460 X1.0013 Y0.6333
N5465 X0.9934 Y0.6356
N5470 X0.9854 Y0.638
N5475 X0.9827 Y0.6388
N5480 X0.9774 Y0.6406
N5485 X0.9694 Y0.6434
N5490 X0.9615 Y0.6465
N5495 X0.9606 Y0.6468
N5500 X0.9535 Y0.6497
N5505 X0.9455 Y0.6531
N5510 X0.9419 Y0.6548
N5515 X0.9376 Y0.6568
N5520 X0.9296 Y0.6607
N5525 X0.9255 Y0.6628
N5530 X0.9216 Y0.6648
N5535 X0.9136 Y0.6691
N5540 X0.9108 Y0.6707
N5545 X0.9057 Y0.6738
N5550 X0.8977 Y0.6786
N5555 X0.8976 Y0.6787
N5560 X0.8897 Y0.6838
N5565 X0.8854 Y0.6867
N5570 X0.8817 Y0.6892
N5575 X0.8742 Y0.6947
N5580 X0.8738 Y0.695
N5585 X0.8658 Y0.701
N5590 X0.8638 Y0.7026
N5595 X0.8578 Y0.7075
N5600 X0.8541 Y0.7106
N5605 X0.8498 Y0.7142
N5610 X0.845 Y0.7186
N5615 X0.8419 Y0.7214
N5620 X0.8364 Y0.7266
N5625 X0.8339 Y0.729
N5630 X0.8284 Y0.7345
N5635 X0.8259 Y0.737
N5640 X0.8208 Y0.7425
N5645 X0.8179 Y0.7456
N5650 X0.8136 Y0.7505
N5655 X0.81 Y0.7547
N5660 X0.8068 Y0.7584
N5665 X0.802 Y0.7644
N5670 X0.8004 Y0.7664
N5675 X0.7943 Y0.7744
N5680 X0.794 Y0.7748
N5685 X0.7886 Y0.7824
N5690 X0.7861 Y0.7861
N5695 X0.7832 Y0.7903
N5700 X0.7781 Y0.7982
N5705 X0.778 Y0.7983
N5710 X0.7731 Y0.8063
N5715 X0.7701 Y0.8115
N5720 X0.7685 Y0.8143
N5725 X0.7641 Y0.8222
N5730 X0.7621 Y0.8261
N5735 X0.76 Y0.8302
N5740 X0.7561 Y0.8382
N5745 X0.7542 Y0.8425
N5750 X0.7525 Y0.8462
N5755 X0.749 Y0.8541
N5760 X0.7462 Y0.8612
N5765 X0.7458 Y0.8621
N5770 X0.7428 Y0.8701
N5775 X0.74 Y0.8781
N5780 X0.7382 Y0.8834
N5785 X0.7374 Y0.886
N5790 X0.7349 Y0.894
N5795 X0.7327 Y0.902
N5800 X0.7306 Y0.9099
N5805 X0.7302 Y0.9116
N5810 X0.7288 Y0.9179
N5815 X0.7271 Y0.9259
N5820 X0.7256 Y0.9339
N5825 X0.7242 Y0.9418
N5830 X0.7231 Y0.9498
N5835 X0.7223 Y0.9559
N5840 X0.5173 Y0.9306
N5845 G3 X0.5192 Y1.0604 Z-0.4271 I0.0009 J0.0649
N5850 X0.5173 Y0.9306 Z-0.4342 I-0.0009 J-0.0649
N5855 X0.5192 Y1.0604 Z-0.4414 I0.0009 J0.0649
N5860 X0.5173 Y0.9306 Z-0.4485 I-0.0009 J-0.0649
N5865 X0.5192 Y1.0604 Z-0.4556 I0.0009 J0.0649
N5870 X0.5173 Y0.9306 Z-0.4627 I-0.0009 J-0.0649
N5875 X0.5192 Y1.0604 Z-0.4698 I0.0009 J0.0649
N5880 X0.5173 Y0.9306 Z-0.477 I-0.0009 J-0.0649
N5885 X0.5192 Y1.0604 Z-0.4841 I0.0009 J0.0649
N5890 X0.5173 Y0.9306 Z-0.4912 I-0.0009 J-0.0649
N5895 X0.5192 Y1.0604 Z-0.4983 I0.0009 J0.0649
N5900 X0.5173 Y0.9306 Z-0.5054 I-0.0009 J-0.0649
N5905 X0.5192 Y1.0604 Z-0.5126 I0.0009 J0.0649
N5910 X0.4534 Y0.9918 Z-0.5163 I-0.0009 J-0.0649
N5915 X0.5264 Y0.9311 Z-0.52 I0.0648 J0.0036
N5920 G1 X0.5979 Y0.9402
N5925 X0.5977 Y0.9418
N5930 X0.5968 Y0.9498
N5935 X0.5961 Y0.9578
N5940 X0.5955 Y0.9658
N5945 X0.595 Y0.9737
N5950 X0.5947 Y0.9801
N5955 X0.5946 Y0.9817
N5960 X0.5944 Y0.9897
N5965 X0.5943 Y0.9977
N5970 Y1.0056
N5975 X0.5942 Y1.3644
N5980 Y1.3724
N5985 Y1.5
N5990 Y1.6276
N5995 Y1.6356
N6000 X0.5943 Y1.9944
N6005 Y2.0023
N6010 X0.5944 Y2.0103
N6015 X0.5946 Y2.0183
N6020 X0.5947 Y2.0199
N6025 X0.595 Y2.0263
N6030 X0.5955 Y2.0342
N6035 X0.5961 Y2.0422
N6040 X0.5968 Y2.0502
N6045 X0.5977 Y2.0582
N6050 X0.5987 Y2.0661
N6055 X0.5998 Y2.0741
N6060 X0.6011 Y2.0821
N6065 X0.6025 Y2.0901
N6070 X0.6027 Y2.0908
N6075 X0.604 Y2.098
N6080 X0.6057 Y2.106
N6085 X0.6075 Y2.114
N6090 X0.6094 Y2.1219
N6095 X0.6106 Y2.1267
N6100 X0.6115 Y2.1299
N6105 X0.6137 Y2.1379
N6110 X0.616 Y2.1459
N6115 X0.6185 Y2.1538
N6120 X0.6186 Y2.1541
N6125 X0.6212 Y2.1618
N6130 X0.6239 Y2.1698
N6135 X0.6266 Y2.177
N6140 X0.6269 Y2.1778
N6145 X0.63 Y2.1857
N6150 X0.6332 Y2.1937
N6155 X0.6346 Y2.1969
N6160 X0.6366 Y2.2017
N6165 X0.6402 Y2.2097
N6170 X0.6425 Y2.2148
N6175 X0.6439 Y2.2176
N6180 X0.6478 Y2.2256
N6185 X0.6505 Y2.2309
N6190 X0.6519 Y2.2336
N6195 X0.6562 Y2.2416
N6200 X0.6585 Y2.2458
N6205 X0.6606 Y2.2495
N6210 X0.6652 Y2.2575
N6215 X0.6664 Y2.2596
N6220 X0.6701 Y2.2655
N6225 X0.6744 Y2.2724
N6230 X0.6751 Y2.2734
N6235 X0.6804 Y2.2814
N6240 X0.6858 Y2.2894
N6245 X0.6904 Y2.2957
N6250 X0.6916 Y2.2974
N6255 X0.6975 Y2.3053
N6260 X0.6983 Y2.3064
N6265 X0.7037 Y2.3133
N6270 X0.7063 Y2.3166
N6275 X0.7101 Y2.3213
N6280 X0.7143 Y2.3263
N6285 X0.7168 Y2.3293
N6290 X0.7223 Y2.3354
N6295 X0.7239 Y2.3372
N6300 X0.7302 Y2.3442
N6305 X0.7312 Y2.3452
N6310 X0.7382 Y2.3525
N6315 X0.7388 Y2.3532
N6320 X0.7462 Y2.3605
N6325 X0.7468 Y2.3612
N6330 X0.7542 Y2.3682
N6335 X0.7552 Y2.3691
N6340 X0.7621 Y2.3755
N6345 X0.7639 Y2.3771
N6350 X0.7701 Y2.3825
N6355 X0.7731 Y2.3851
N6360 X0.7781 Y2.3893
N6365 X0.7828 Y2.3931
N6370 X0.7861 Y2.3957
N6375 X0.7929 Y2.401
N6380 X0.794 Y2.4019
N6385 X0.802 Y2.4078
N6390 X0.8036 Y2.409
N6395 X0.81 Y2.4135
N6400 X0.8179 Y2.419
N6405 X0.8259 Y2.4242
N6410 X0.827 Y2.4249
N6415 X0.8339 Y2.4293
N6420 X0.8398 Y2.4329
N6425 X0.8419 Y2.4341
N6430 X0.8498 Y2.4388
N6435 X0.8536 Y2.4409
N6440 X0.8578 Y2.4432
N6445 X0.8658 Y2.4475
N6450 X0.8685 Y2.4489
N6455 X0.8738 Y2.4516
N6460 X0.8817 Y2.4555
N6465 X0.8846 Y2.4568
N6470 X0.8897 Y2.4592
N6475 X0.8977 Y2.4628
N6480 X0.9025 Y2.4648
N6485 X0.9057 Y2.4662
N6490 X0.9136 Y2.4694
N6495 X0.9216 Y2.4725
N6500 X0.9224 Y2.4728
N6505 X0.9296 Y2.4755
N6510 X0.9376 Y2.4782
N6515 X0.9453 Y2.4808
N6520 X0.9455
N6525 X0.9535 Y2.4834
N6530 X0.9615 Y2.4857
N6535 X0.9694 Y2.4879
N6540 X0.9727 Y2.4887
N6545 X0.9774 Y2.49
N6550 X0.9854 Y2.4919
N6555 X0.9934 Y2.4937
N6560 X1.0013 Y2.4954
N6565 X1.0085 Y2.4967
N6570 X1.0093 Y2.4969
N6575 X1.0173 Y2.4983
N6580 X1.0253 Y2.4995
N6585 X1.0332 Y2.5006
N6590 X1.0412 Y2.5017
N6595 X1.0492 Y2.5025
N6600 X1.0572 Y2.5033
N6605 X1.0651 Y2.5039
N6610 X1.0731 Y2.5044
N6615 X1.0795 Y2.5047
N6620 X1.0811
N6625 X1.0891 Y2.505
N6630 X1.097 Y2.5051
N6635 X1.105
N6640 X1.4638
N6645 X1.4718
N6650 X1.5994
N6655 X1.7269
N6660 X1.7349
N6665 X2.0937
N6670 X2.1017
N6675 X2.1097 Y2.505
N6680 X2.1177 Y2.5047
N6685 X2.1193
N6690 X2.1256 Y2.5044
N6695 X2.1336 Y2.5039
N6700 X2.1416 Y2.5033
N6705 X2.1496 Y2.5025
N6710 X2.1575 Y2.5017
N6715 X2.1655 Y2.5006
N6720 X2.1735 Y2.4995
N6725 X2.1814 Y2.4983
N6730 X2.1894 Y2.4969
N6735 X2.1902 Y2.4967
N6740 X2.1974 Y2.4954
N6745 X2.2054 Y2.4937
N6750 X2.2133 Y2.4919
N6755 X2.2213 Y2.49
N6760 X2.2261 Y2.4887
N6765 X2.2293 Y2.4879
N6770 X2.2373 Y2.4857
N6775 X2.2452 Y2.4834
N6780 X2.2532 Y2.4808
N6785 X2.2535
N6790 X2.2612 Y2.4782
N6795 X2.2692 Y2.4755
N6800 X2.2763 Y2.4728
N6805 X2.2771 Y2.4725
N6810 X2.2851 Y2.4694
N6815 X2.2931 Y2.4662
N6820 X2.2963 Y2.4648
N6825 X2.3011 Y2.4628
N6830 X2.309 Y2.4592
N6835 X2.3141 Y2.4568
N6840 X2.317 Y2.4555
N6845 X2.325 Y2.4516
N6850 X2.3302 Y2.4489
N6855 X2.3329 Y2.4475
N6860 X2.3409 Y2.4432
N6865 X2.3451 Y2.4409
N6870 X2.3489 Y2.4388
N6875 X2.3569 Y2.4341
N6880 X2.3589 Y2.4329
N6885 X2.3648 Y2.4293
N6890 X2.3717 Y2.4249
N6895 X2.3728 Y2.4242
N6900 X2.3808 Y2.419
N6905 X2.3888 Y2.4135
N6910 X2.3951 Y2.409
N6915 X2.3967 Y2.4078
N6920 X2.4047 Y2.4019
N6925 X2.4058 Y2.401
N6930 X2.4127 Y2.3957
N6935 X2.416 Y2.3931
N6940 X2.4207 Y2.3893
N6945 X2.4256 Y2.3851
N6950 X2.4286 Y2.3825
N6955 X2.4348 Y2.3771
N6960 X2.4366 Y2.3755
N6965 X2.4436 Y2.3691
N6970 X2.4446 Y2.3682
N6975 X2.4519 Y2.3612
N6980 X2.4526 Y2.3605
N6985 X2.4599 Y2.3532
N6990 X2.4605 Y2.3525
N6995 X2.4675 Y2.3452
N7000 X2.4685 Y2.3442
N7005 X2.4749 Y2.3372
N7010 X2.4765 Y2.3354
N7015 X2.4819 Y2.3293
N7020 X2.4844 Y2.3263
N7025 X2.4886 Y2.3213
N7030 X2.4924 Y2.3166
N7035 X2.4951 Y2.3133
N7040 X2.5004 Y2.3065
N7045 X2.5012 Y2.3053
N7050 X2.5072 Y2.2974
N7055 X2.5084 Y2.2957
N7060 X2.5129 Y2.2894
N7065 X2.5184 Y2.2814
N7070 X2.5236 Y2.2734
N7075 X2.5243 Y2.2724
N7080 X2.5286 Y2.2655
N7085 X2.5323 Y2.2596
N7090 X2.5335 Y2.2575
N7095 X2.5382 Y2.2495
N7100 X2.5403 Y2.2458
N7105 X2.5426 Y2.2416
N7110 X2.5468 Y2.2336
N7115 X2.5482 Y2.2309
N7120 X2.5509 Y2.2256
N7125 X2.5548 Y2.2176
N7130 X2.5562 Y2.2148
N7135 X2.5586 Y2.2097
N7140 X2.5621 Y2.2017
N7145 X2.5642 Y2.1969
N7150 X2.5656 Y2.1937
N7155 X2.5688 Y2.1857
N7160 X2.5719 Y2.1778
N7165 X2.5722 Y2.177
N7170 X2.5748 Y2.1698
N7175 X2.5776 Y2.1618
N7180 X2.5801 Y2.1541
N7185 X2.5802 Y2.1538
N7190 X2.5827 Y2.1459
N7195 X2.5851 Y2.1379
N7200 X2.5873 Y2.1299
N7205 X2.5881 Y2.1267
N7210 X2.5893 Y2.1219
N7215 X2.5912 Y2.114
N7220 X2.593 Y2.106
N7225 X2.5947 Y2.098
N7230 X2.5961 Y2.0908
N7235 X2.5962 Y2.0901
N7240 X2.5976 Y2.0821
N7245 X2.5989 Y2.0741
N7250 X2.6 Y2.0661
N7255 X2.601 Y2.0582
N7260 X2.6019 Y2.0502
N7265 X2.6026 Y2.0422
N7270 X2.6033 Y2.0342
N7275 X2.6038 Y2.0263
N7280 X2.6041 Y2.0199
N7285 Y2.0183
N7290 X2.6044 Y2.0103
N7295 X2.6045 Y2.0023
N7300 Y1.9944
N7305 Y1.6356
N7310 Y1.6276
N7315 Y1.5
N7320 Y1.3724
N7325 Y1.3644
N7330 Y1.0056
N7335 Y0.9977
N7340 X2.6044 Y0.9897
N7345 X2.6041 Y0.9817
N7350 Y0.9801
N7355 X2.6038 Y0.9737
N7360 X2.6033 Y0.9658
N7365 X2.6026 Y0.9578
N7370 X2.6019 Y0.9498
N7375 X2.601 Y0.9418
N7380 X2.6 Y0.9339
N7385 X2.5989 Y0.9259
N7390 X2.5976 Y0.9179
N7395 X2.5962 Y0.9099
N7400 X2.5961 Y0.9092
N7405 X2.5947 Y0.902
N7410 X2.593 Y0.894
N7415 X2.5912 Y0.886
N7420 X2.5893 Y0.8781
N7425 X2.5881 Y0.8733
N7430 X2.5873 Y0.8701
N7435 X2.5851 Y0.8621
N7440 X2.5827 Y0.8541
N7445 X2.5802 Y0.8462
N7450 X2.5801 Y0.8459
N7455 X2.5776 Y0.8382
N7460 X2.5748 Y0.8302
N7465 X2.5722 Y0.823
N7470 X2.5719 Y0.8222
N7475 X2.5688 Y0.8143
N7480 X2.5656 Y0.8063
N7485 X2.5642 Y0.8031
N7490 X2.5621 Y0.7983
N7495 X2.5586 Y0.7903
N7500 X2.5562 Y0.7852
N7505 X2.5548 Y0.7824
N7510 X2.5509 Y0.7744
N7515 X2.5482 Y0.7691
N7520 X2.5468 Y0.7664
N7525 X2.5426 Y0.7584
N7530 X2.5403 Y0.7542
N7535 X2.5381 Y0.7505
N7540 X2.5335 Y0.7425
N7545 X2.5323 Y0.7404
N7550 X2.5286 Y0.7345
N7555 X2.5243 Y0.7276
N7560 X2.5236 Y0.7266
N7565 X2.5184 Y0.7186
N7570 X2.5129 Y0.7106
N7575 X2.5084 Y0.7043
N7580 X2.5072 Y0.7026
N7585 X2.5012 Y0.6947
N7590 X2.5004 Y0.6935
N7595 X2.4951 Y0.6867
N7600 X2.4924 Y0.6834
N7605 X2.4886 Y0.6787
N7610 X2.4844 Y0.6737
N7615 X2.4819 Y0.6707
N7620 X2.4765 Y0.6646
N7625 X2.4749 Y0.6628
N7630 X2.4685 Y0.6558
N7635 X2.4675 Y0.6548
N7640 X2.4605 Y0.6475
N7645 X2.4599 Y0.6468
N7650 X2.4526 Y0.6395
N7655 X2.4519 Y0.6388
N7660 X2.4446 Y0.6318
N7665 X2.4436 Y0.6309
N7670 X2.4366 Y0.6245
N7675 X2.4348 Y0.6229
N7680 X2.4286 Y0.6175
N7685 X2.4256 Y0.6149
N7690 X2.4207 Y0.6107
N7695 X2.416 Y0.6069
N7700 X2.4127 Y0.6043
N7705 X2.4058 Y0.599
N7710 X2.4047 Y0.5981
N7715 X2.3967 Y0.5922
N7720 X2.3951 Y0.591
N7725 X2.3888 Y0.5865
N7730 X2.3808 Y0.581
N7735 X2.3728 Y0.5758
N7740 X2.3717 Y0.5751
N7745 X2.3648 Y0.5707
N7750 X2.3589 Y0.5671
N7755 X2.3569 Y0.5659
N7760 X2.3489 Y0.5612
N7765 X2.3451 Y0.5591
N7770 X2.3409 Y0.5568
N7775 X2.3329 Y0.5525
N7780 X2.3302 Y0.5511
N7785 X2.325 Y0.5484
N7790 X2.317 Y0.5445
N7795 X2.3141 Y0.5432
N7800 X2.309 Y0.5408
N7805 X2.3011 Y0.5372
N7810 X2.2963 Y0.5352
N7815 X2.2931 Y0.5338
N7820 X2.2851 Y0.5306
N7825 X2.2771 Y0.5275
N7830 X2.2763 Y0.5272
N7835 X2.2692 Y0.5245
N7840 X2.2612 Y0.5218
N7845 X2.2535 Y0.5192
N7850 X2.2532
N7855 X2.2452 Y0.5166
N7860 X2.2373 Y0.5143
N7865 X2.2293 Y0.5121
N7870 X2.2261 Y0.5113
N7875 X2.2213 Y0.51
N7880 X2.2133 Y0.5081
N7885 X2.2054 Y0.5063
N7890 X2.1974 Y0.5046
N7895 X2.1902 Y0.5033
N7900 X2.1894 Y0.5031
N7905 X2.1814 Y0.5017
N7910 X2.1735 Y0.5005
N7915 X2.1655 Y0.4994
N7920 X2.1575 Y0.4983
N7925 X2.1496 Y0.4975
N7930 X2.1416 Y0.4967
N7935 X2.1336 Y0.4961
N7940 X2.1256 Y0.4956
N7945 X2.1193 Y0.4953
N7950 X2.1177
N7955 X2.1097 Y0.495
N7960 X2.1017 Y0.4949
N7965 X2.0937
N7970 X1.7349
N7975 X1.7269
N7980 X1.5994
N7985 X1.4718
N7990 X1.4638
N7995 X1.105
N8000 X1.097
N8005 X1.0891 Y0.495
N8010 X1.0811 Y0.4953
N8015 X1.0795
N8020 X1.0731 Y0.4956
N8025 X1.0651 Y0.4961
N8030 X1.0572 Y0.4967
N8035 X1.0492 Y0.4975
N8040 X1.0412 Y0.4983
N8045 X1.0332 Y0.4994
N8050 X1.0253 Y0.5005
N8055 X1.0173 Y0.5017
N8060 X1.0093 Y0.5031
N8065 X1.0085 Y0.5033
N8070 X1.0013 Y0.5046
N8075 X0.9934 Y0.5063
N8080 X0.9854 Y0.5081
N8085 X0.9774 Y0.51
N8090 X0.9727 Y0.5113
N8095 X0.9694 Y0.5121
N8100 X0.9615 Y0.5143
N8105 X0.9535 Y0.5166
N8110 X0.9455 Y0.5192
N8115 X0.9453
N8120 X0.9376 Y0.5218
N8125 X0.9296 Y0.5245
N8130 X0.9224 Y0.5272
N8135 X0.9216 Y0.5275
N8140 X0.9136 Y0.5306
N8145 X0.9057 Y0.5338
N8150 X0.9025 Y0.5352
N8155 X0.8977 Y0.5372
N8160 X0.8897 Y0.5408
N8165 X0.8846 Y0.5432
N8170 X0.8817 Y0.5445
N8175 X0.8738 Y0.5484
N8180 X0.8685 Y0.5511
N8185 X0.8658 Y0.5525
N8190 X0.8578 Y0.5568
N8195 X0.8536 Y0.5591
N8200 X0.8498 Y0.5612
N8205 X0.8419 Y0.5659
N8210 X0.8398 Y0.5671
N8215 X0.8339 Y0.5707
N8220 X0.827 Y0.5751
N8225 X0.8259 Y0.5758
N8230 X0.8179 Y0.581
N8235 X0.81 Y0.5865
N8240 X0.8036 Y0.591
N8245 X0.802 Y0.5922
N8250 X0.794 Y0.5981
N8255 X0.7929 Y0.599
N8260 X0.7861 Y0.6043
N8265 X0.7828 Y0.6069
N8270 X0.7781 Y0.6107
N8275 X0.7731 Y0.6149
N8280 X0.7701 Y0.6175
N8285 X0.7639 Y0.6229
N8290 X0.7621 Y0.6245
N8295 X0.7552 Y0.6309
N8300 X0.7542 Y0.6318
N8305 X0.7468 Y0.6388
N8310 X0.7462 Y0.6395
N8315 X0.7388 Y0.6468
N8320 X0.7382 Y0.6475
N8325 X0.7312 Y0.6548
N8330 X0.7302 Y0.6558
N8335 X0.7239 Y0.6628
N8340 X0.7223 Y0.6646
N8345 X0.7168 Y0.6707
N8350 X0.7143 Y0.6737
N8355 X0.7101 Y0.6787
N8360 X0.7063 Y0.6834
N8365 X0.7037 Y0.6867
N8370 X0.6983 Y0.6936
N8375 X0.6975 Y0.6947
N8380 X0.6916 Y0.7026
N8385 X0.6904 Y0.7043
N8390 X0.6858 Y0.7106
N8395 X0.6804 Y0.7186
N8400 X0.6751 Y0.7266
N8405 X0.6744 Y0.7276
N8410 X0.6701 Y0.7345
N8415 X0.6664 Y0.7404
N8420 X0.6652 Y0.7425
N8425 X0.6606 Y0.7505
N8430 X0.6585 Y0.7542
N8435 X0.6562 Y0.7584
N8440 X0.6519 Y0.7664
N8445 X0.6505 Y0.7691
N8450 X0.6478 Y0.7744
N8455 X0.6439 Y0.7824
N8460 X0.6425 Y0.7852
N8465 X0.6402 Y0.7903
N8470 X0.6366 Y0.7983
N8475 X0.6346 Y0.8031
N8480 X0.6332 Y0.8063
N8485 X0.63 Y0.8143
N8490 X0.6269 Y0.8222
N8495 X0.6266 Y0.823
N8500 X0.6239 Y0.8302
N8505 X0.6212 Y0.8382
N8510 X0.6186 Y0.8459
N8515 X0.6185 Y0.8462
N8520 X0.616 Y0.8541
N8525 X0.6137 Y0.8621
N8530 X0.6115 Y0.8701
N8535 X0.6106 Y0.8733
N8540 X0.6094 Y0.8781
N8545 X0.6075 Y0.886
N8550 X0.6057 Y0.894
N8555 X0.604 Y0.902
N8560 X0.6027 Y0.9092
N8565 X0.6025 Y0.9099
N8570 X0.6011 Y0.9179
N8575 X0.5998 Y0.9259
N8580 X0.5987 Y0.9339
N8585 X0.5979 Y0.9402
N8590 X0.4031 Y0.9367
N8595 G3 X0.4854 Y1.0346 Z-0.527 I0.0411 J0.049
N8600 X0.4031 Y0.9367 Z-0.534 I-0.0411 J-0.049
N8605 X0.4854 Y1.0346 Z-0.541 I0.0411 J0.049
N8610 X0.4031 Y0.9367 Z-0.548 I-0.0411 J-0.049
N8615 X0.4854 Y1.0346 Z-0.5551 I0.0411 J0.049
N8620 X0.4031 Y0.9367 Z-0.5621 I-0.0411 J-0.049
N8625 X0.4854 Y1.0346 Z-0.5691 I0.0411 J0.049
N8630 X0.4031 Y0.9367 Z-0.5761 I-0.0411 J-0.049
N8635 X0.4854 Y1.0346 Z-0.5831 I0.0411 J0.049
N8640 X0.4031 Y0.9367 Z-0.5901 I-0.0411 J-0.049
N8645 X0.4854 Y1.0346 Z-0.5971 I0.0411 J0.049
N8650 X0.4031 Y0.9367 Z-0.6041 I-0.0411 J-0.049
N8655 X0.4854 Y1.0346 Z-0.6112 I0.0411 J0.049
N8660 X0.4031 Y0.9367 Z-0.6182 I-0.0411 J-0.049
N8665 X0.4521 Y0.9222 Z-0.62 I0.0411 J0.049
N8670 G1 X0.5236 Y0.931
N8675 X0.5232 Y0.9339
N8680 X0.5229 Y0.9367
N8685 X0.5224 Y0.9418
N8690 X0.5216 Y0.9498
N8695 X0.5209 Y0.9578
N8700 X0.5204 Y0.9658
N8705 X0.52 Y0.9737
N8710 X0.5197 Y0.9817
N8715 X0.5194 Y0.9897
N8720 X0.5193 Y0.9977
N8725 Y1.0056
N8730 Y1.2448
N8735 Y1.5
N8740 Y1.7552
N8745 Y1.9944
N8750 Y2.0023
N8755 X0.5194 Y2.0103
N8760 X0.5197 Y2.0183
N8765 X0.52 Y2.0263
N8770 X0.5204 Y2.0342
N8775 X0.5209 Y2.0422
N8780 X0.5216 Y2.0502
N8785 X0.5224 Y2.0582
N8790 X0.5232 Y2.0661
N8795 X0.5242 Y2.0741
N8800 X0.5253 Y2.0821
N8805 X0.5265 Y2.0901
N8810 X0.5278 Y2.098
N8815 X0.5293 Y2.106
N8820 X0.5308 Y2.114
N8825 X0.5325 Y2.1219
N8830 X0.5343 Y2.1299
N8835 X0.5362 Y2.1379
N8840 X0.5382 Y2.1459
N8845 X0.5389 Y2.1483
N8850 X0.5403 Y2.1538
N8855 X0.5426 Y2.1618
N8860 X0.545 Y2.1698
N8865 X0.5475 Y2.1778
N8870 X0.5502 Y2.1857
N8875 X0.5529 Y2.1937
N8880 X0.5548 Y2.1989
N8885 X0.5559 Y2.2017
N8890 X0.5589 Y2.2097
N8895 X0.5628 Y2.2195
N8900 X0.5654 Y2.2256
N8905 X0.5688 Y2.2336
N8910 X0.5708 Y2.238
N8915 X0.5724 Y2.2416
N8920 X0.5761 Y2.2495
N8925 X0.58 Y2.2575
N8930 X0.5841 Y2.2655
N8935 X0.5867 Y2.2706
N8940 X0.5882 Y2.2734
N8945 X0.5926 Y2.2814
N8950 X0.5947 Y2.2852
N8955 X0.5971 Y2.2894
N8960 X0.6018 Y2.2974
N8965 X0.6027 Y2.2988
N8970 X0.6067 Y2.3053
N8975 X0.6106 Y2.3117
N8980 X0.6117 Y2.3133
N8985 X0.6169 Y2.3213
N8990 X0.6186 Y2.3238
N8995 X0.6223 Y2.3293
N9000 X0.6266 Y2.3353
N9005 X0.6279 Y2.3372
N9010 X0.6337 Y2.3452
N9015 X0.6346 Y2.3463
N9020 X0.6398 Y2.3532
N9025 X0.6425 Y2.3568
N9030 X0.646 Y2.3612
N9035 X0.6505 Y2.3667
N9040 X0.6525 Y2.3691
N9045 X0.6592 Y2.3771
N9050 X0.6662 Y2.3851
N9055 X0.6664 Y2.3854
N9060 X0.6734 Y2.3931
N9065 X0.6744 Y2.3942
N9070 X0.6809 Y2.401
N9075 X0.6887 Y2.409
N9080 X0.6904 Y2.4107
N9085 X0.6983 Y2.4185
N9090 X0.7052 Y2.4249
N9095 X0.7063 Y2.426
N9100 X0.714 Y2.4329
N9105 X0.7143 Y2.4332
N9110 X0.7223 Y2.4402
N9115 X0.7302 Y2.4469
N9120 X0.7326 Y2.4489
N9125 X0.7382 Y2.4533
N9130 X0.7426 Y2.4568
N9135 X0.7462 Y2.4596
N9140 X0.7531 Y2.4648
N9145 X0.7542 Y2.4656
N9150 X0.7621 Y2.4714
N9155 X0.764 Y2.4728
N9160 X0.7701 Y2.477
N9165 X0.7756 Y2.4808
N9170 X0.7781 Y2.4825
N9175 X0.7861 Y2.4877
N9180 X0.7877 Y2.4887
N9185 X0.794 Y2.4927
N9190 X0.8005 Y2.4967
N9195 X0.802 Y2.4976
N9200 X0.81 Y2.5022
N9205 X0.8142 Y2.5047
N9210 X0.8179 Y2.5068
N9215 X0.8259 Y2.5111
N9220 X0.8288 Y2.5127
N9225 X0.8339 Y2.5153
N9230 X0.8419 Y2.5194
N9235 X0.8498 Y2.5232
N9240 X0.8578 Y2.527
N9245 X0.8614 Y2.5286
N9250 X0.8658 Y2.5306
N9255 X0.8738 Y2.534
N9260 X0.8799 Y2.5366
N9265 X0.8897 Y2.5405
N9270 X0.8977 Y2.5435
N9275 X0.9005 Y2.5446
N9280 X0.9057 Y2.5464
N9285 X0.9136 Y2.5492
N9290 X0.9216 Y2.5518
N9295 X0.9296 Y2.5544
N9300 X0.9376 Y2.5567
N9305 X0.9455 Y2.559
N9310 X0.9511 Y2.5605
N9315 X0.9535 Y2.5611
N9320 X0.9615 Y2.5632
N9325 X0.9694 Y2.5651
N9330 X0.9774 Y2.5669
N9335 X0.9854 Y2.5685
N9340 X0.9934 Y2.5701
N9345 X1.0013 Y2.5715
N9350 X1.0093 Y2.5728
N9355 X1.0173 Y2.5741
N9360 X1.0253 Y2.5751
N9365 X1.0332 Y2.5761
N9370 X1.0412 Y2.577
N9375 X1.0492 Y2.5778
N9380 X1.0572 Y2.5784
N9385 X1.0651 Y2.5789
N9390 X1.0731 Y2.5794
N9395 X1.0811 Y2.5797
N9400 X1.0891 Y2.5799
N9405 X1.097 Y2.5801
N9410 X1.105
N9415 X1.3442
N9420 X1.5994 Y2.58
N9425 X1.8545 Y2.5801
N9430 X2.0937
N9435 X2.1017
N9440 X2.1097 Y2.5799
N9445 X2.1177 Y2.5797
N9450 X2.1256 Y2.5794
N9455 X2.1336 Y2.5789
N9460 X2.1416 Y2.5784
N9465 X2.1496 Y2.5778
N9470 X2.1575 Y2.577
N9475 X2.1655 Y2.5761
N9480 X2.1735 Y2.5751
N9485 X2.1814 Y2.5741
N9490 X2.1894 Y2.5728
N9495 X2.1974 Y2.5715
N9500 X2.2054 Y2.5701
N9505 X2.2133 Y2.5685
N9510 X2.2213 Y2.5669
N9515 X2.2293 Y2.5651
N9520 X2.2373 Y2.5632
N9525 X2.2452 Y2.5611
N9530 X2.2477 Y2.5605
N9535 X2.2532 Y2.559
N9540 X2.2612 Y2.5567
N9545 X2.2692 Y2.5544
N9550 X2.2771 Y2.5518
N9555 X2.2851 Y2.5492
N9560 X2.2931 Y2.5464
N9565 X2.2983 Y2.5446
N9570 X2.3011 Y2.5435
N9575 X2.309 Y2.5405
N9580 X2.3188 Y2.5366
N9585 X2.325 Y2.534
N9590 X2.3329 Y2.5306
N9595 X2.3373 Y2.5286
N9600 X2.3409 Y2.527
N9605 X2.3489 Y2.5232
N9610 X2.3569 Y2.5194
N9615 X2.3648 Y2.5153
N9620 X2.3699 Y2.5127
N9625 X2.3728 Y2.5111
N9630 X2.3808 Y2.5068
N9635 X2.3845 Y2.5047
N9640 X2.3888 Y2.5022
N9645 X2.3967 Y2.4976
N9650 X2.3982 Y2.4967
N9655 X2.4047 Y2.4927
N9660 X2.411 Y2.4887
N9665 X2.4127 Y2.4877
N9670 X2.4207 Y2.4825
N9675 X2.4232 Y2.4808
N9680 X2.4286 Y2.477
N9685 X2.4347 Y2.4728
N9690 X2.4366 Y2.4714
N9695 X2.4446 Y2.4656
N9700 X2.4457 Y2.4648
N9705 X2.4526 Y2.4596
N9710 X2.4561 Y2.4568
N9715 X2.4605 Y2.4533
N9720 X2.4661 Y2.4489
N9725 X2.4685 Y2.4469
N9730 X2.4765 Y2.4402
N9735 X2.4844 Y2.4332
N9740 X2.4848 Y2.4329
N9745 X2.4924 Y2.426
N9750 X2.4935 Y2.4249
N9755 X2.5004 Y2.4185
N9760 X2.5084 Y2.4107
N9765 X2.5101 Y2.409
N9770 X2.5179 Y2.401
N9775 X2.5243 Y2.3942
N9780 X2.5253 Y2.3931
N9785 X2.5323 Y2.3854
N9790 X2.5326 Y2.3851
N9795 X2.5395 Y2.3771
N9800 X2.5463 Y2.3691
N9805 X2.5482 Y2.3667
N9810 X2.5527 Y2.3612
N9815 X2.5562 Y2.3568
N9820 X2.559 Y2.3532
N9825 X2.5642 Y2.3463
N9830 X2.565 Y2.3452
N9835 X2.5708 Y2.3372
N9840 X2.5722 Y2.3353
N9845 X2.5764 Y2.3293
N9850 X2.5801 Y2.3238
N9855 X2.5818 Y2.3213
N9860 X2.587 Y2.3133
N9865 X2.5881 Y2.3117
N9870 X2.5921 Y2.3053
N9875 X2.5961 Y2.2988
N9880 X2.597 Y2.2974
N9885 X2.6016 Y2.2894
N9890 X2.6041 Y2.2852
N9895 X2.6061 Y2.2814
N9900 X2.6105 Y2.2734
N9905 X2.612 Y2.2706
N9910 X2.6147 Y2.2655
N9915 X2.6187 Y2.2575
N9920 X2.6226 Y2.2495
N9925 X2.6263 Y2.2416
N9930 X2.628 Y2.238
N9935 X2.63 Y2.2336
N9940 X2.6334 Y2.2256
N9945 X2.6359 Y2.2195
N9950 X2.6399 Y2.2097
N9955 X2.6429 Y2.2017
N9960 X2.6439 Y2.1989
N9965 X2.6458 Y2.1937
N9970 X2.6486 Y2.1857
N9975 X2.6512 Y2.1778
N9980 X2.6537 Y2.1698
N9985 X2.6561 Y2.1618
N9990 X2.6584 Y2.1538
N9995 X2.6599 Y2.1483
N10000 X2.6605 Y2.1459
N10005 X2.6626 Y2.1379
N10010 X2.6644 Y2.1299
N10015 X2.6662 Y2.1219
N10020 X2.6679 Y2.114
N10025 X2.6694 Y2.106
N10030 X2.6709 Y2.098
N10035 X2.6722 Y2.0901
N10040 X2.6734 Y2.0821
N10045 X2.6745 Y2.0741
N10050 X2.6755 Y2.0661
N10055 X2.6764 Y2.0582
N10060 X2.6771 Y2.0502
N10065 X2.6778 Y2.0422
N10070 X2.6783 Y2.0342
N10075 X2.6788 Y2.0263
N10080 X2.6791 Y2.0183
N10085 X2.6793 Y2.0103
N10090 X2.6794 Y2.0023
N10095 Y1.9944
N10100 X2.6795 Y1.7552
N10105 X2.6794 Y1.5
N10110 X2.6795 Y1.2448
N10115 X2.6794 Y1.0056
N10120 Y0.9977
N10125 X2.6793 Y0.9897
N10130 X2.6791 Y0.9817
N10135 X2.6788 Y0.9737
N10140 X2.6783 Y0.9658
N10145 X2.6778 Y0.9578
N10150 X2.6771 Y0.9498
N10155 X2.6764 Y0.9418
N10160 X2.6755 Y0.9339
N10165 X2.6745 Y0.9259
N10170 X2.6734 Y0.9179
N10175 X2.6722 Y0.9099
N10180 X2.6709 Y0.902
N10185 X2.6694 Y0.894
N10190 X2.6679 Y0.886
N10195 X2.6662 Y0.8781
N10200 X2.6644 Y0.8701
N10205 X2.6626 Y0.8621
N10210 X2.6605 Y0.8541
N10215 X2.6599 Y0.8517
N10220 X2.6584 Y0.8462
N10225 X2.6561 Y0.8382
N10230 X2.6537 Y0.8302
N10235 X2.6512 Y0.8222
N10240 X2.6486 Y0.8143
N10245 X2.6458 Y0.8063
N10250 X2.6439 Y0.8011
N10255 X2.6429 Y0.7983
N10260 X2.6399 Y0.7903
N10265 X2.6359 Y0.7805
N10270 X2.6334 Y0.7744
N10275 X2.63 Y0.7664
N10280 X2.628 Y0.762
N10285 X2.6263 Y0.7584
N10290 X2.6226 Y0.7505
N10295 X2.6187 Y0.7425
N10300 X2.6147 Y0.7345
N10305 X2.612 Y0.7294
N10310 X2.6105 Y0.7266
N10315 X2.6061 Y0.7186
N10320 X2.6041 Y0.7148
N10325 X2.6016 Y0.7106
N10330 X2.597 Y0.7026
N10335 X2.5961 Y0.7012
N10340 X2.5921 Y0.6947
N10345 X2.5881 Y0.6883
N10350 X2.587 Y0.6867
N10355 X2.5818 Y0.6787
N10360 X2.5801 Y0.6762
N10365 X2.5764 Y0.6707
N10370 X2.5722 Y0.6647
N10375 X2.5708 Y0.6628
N10380 X2.565 Y0.6548
N10385 X2.5642 Y0.6537
N10390 X2.559 Y0.6468
N10395 X2.5562 Y0.6432
N10400 X2.5527 Y0.6388
N10405 X2.5482 Y0.6333
N10410 X2.5463 Y0.6309
N10415 X2.5395 Y0.6229
N10420 X2.5326 Y0.6149
N10425 X2.5323 Y0.6146
N10430 X2.5253 Y0.6069
N10435 X2.5243 Y0.6058
N10440 X2.5179 Y0.599
N10445 X2.5101 Y0.591
N10450 X2.5084 Y0.5893
N10455 X2.5004 Y0.5815
N10460 X2.4935 Y0.5751
N10465 X2.4924 Y0.574
N10470 X2.4848 Y0.5671
N10475 X2.4844 Y0.5668
N10480 X2.4765 Y0.5598
N10485 X2.4685 Y0.5531
N10490 X2.4661 Y0.5511
N10495 X2.4605 Y0.5467
N10500 X2.4561 Y0.5432
N10505 X2.4526 Y0.5404
N10510 X2.4457 Y0.5352
N10515 X2.4446 Y0.5344
N10520 X2.4366 Y0.5286
N10525 X2.4347 Y0.5272
N10530 X2.4286 Y0.523
N10535 X2.4232 Y0.5192
N10540 X2.4207 Y0.5175
N10545 X2.4127 Y0.5123
N10550 X2.411 Y0.5113
N10555 X2.4047 Y0.5073
N10560 X2.3982 Y0.5033
N10565 X2.3967 Y0.5024
N10570 X2.3888 Y0.4978
N10575 X2.3845 Y0.4953
N10580 X2.3808 Y0.4932
N10585 X2.3728 Y0.4889
N10590 X2.3699 Y0.4873
N10595 X2.3648 Y0.4847
N10600 X2.3569 Y0.4806
N10605 X2.3489 Y0.4768
N10610 X2.3409 Y0.473
N10615 X2.3373 Y0.4714
N10620 X2.3329 Y0.4694
N10625 X2.325 Y0.466
N10630 X2.3188 Y0.4634
N10635 X2.309 Y0.4595
N10640 X2.3011 Y0.4565
N10645 X2.2983 Y0.4554
N10650 X2.2931 Y0.4536
N10655 X2.2851 Y0.4508
N10660 X2.2771 Y0.4482
N10665 X2.2692 Y0.4456
N10670 X2.2612 Y0.4433
N10675 X2.2532 Y0.441
N10680 X2.2477 Y0.4395
N10685 X2.2452 Y0.4389
N10690 X2.2373 Y0.4368
N10695 X2.2293 Y0.4349
N10700 X2.2213 Y0.4331
N10705 X2.2133 Y0.4315
N10710 X2.2054 Y0.4299
N10715 X2.1974 Y0.4285
N10720 X2.1894 Y0.4272
N10725 X2.1814 Y0.4259
N10730 X2.1735 Y0.4249
N10735 X2.1655 Y0.4239
N10740 X2.1575 Y0.423
N10745 X2.1496 Y0.4222
N10750 X2.1416 Y0.4216
N10755 X2.1336 Y0.4211
N10760 X2.1256 Y0.4206
N10765 X2.1177 Y0.4203
N10770 X2.1097 Y0.4201
N10775 X2.1017 Y0.4199
N10780 X2.0937
N10785 X1.8545
N10790 X1.5994 Y0.42
N10795 X1.3442 Y0.4199
N10800 X1.105
N10805 X1.097
N10810 X1.0891 Y0.4201
N10815 X1.0811 Y0.4203
N10820 X1.0731 Y0.4206
N10825 X1.0651 Y0.4211
N10830 X1.0572 Y0.4216
N10835 X1.0492 Y0.4222
N10840 X1.0412 Y0.423
N10845 X1.0332 Y0.4239
N10850 X1.0253 Y0.4249
N10855 X1.0173 Y0.4259
N10860 X1.0093 Y0.4272
N10865 X1.0013 Y0.4285
N10870 X0.9934 Y0.4299
N10875 X0.9854 Y0.4315
N10880 X0.9774 Y0.4331
N10885 X0.9694 Y0.4349
N10890 X0.9615 Y0.4368
N10895 X0.9535 Y0.4389
N10900 X0.9511 Y0.4395
N10905 X0.9455 Y0.441
N10910 X0.9376 Y0.4433
N10915 X0.9296 Y0.4456
N10920 X0.9216 Y0.4482
N10925 X0.9136 Y0.4508
N10930 X0.9057 Y0.4536
N10935 X0.9005 Y0.4554
N10940 X0.8977 Y0.4565
N10945 X0.8897 Y0.4595
N10950 X0.8799 Y0.4634
N10955 X0.8738 Y0.466
N10960 X0.8658 Y0.4694
N10965 X0.8614 Y0.4714
N10970 X0.8578 Y0.473
N10975 X0.8498 Y0.4768
N10980 X0.8419 Y0.4806
N10985 X0.8339 Y0.4847
N10990 X0.8288 Y0.4873
N10995 X0.8259 Y0.4889
N11000 X0.8179 Y0.4932
N11005 X0.8142 Y0.4953
N11010 X0.81 Y0.4978
N11015 X0.802 Y0.5024
N11020 X0.8005 Y0.5033
N11025 X0.794 Y0.5073
N11030 X0.7877 Y0.5113
N11035 X0.7861 Y0.5123
N11040 X0.7781 Y0.5175
N11045 X0.7756 Y0.5192
N11050 X0.7701 Y0.523
N11055 X0.764 Y0.5272
N11060 X0.7621 Y0.5286
N11065 X0.7542 Y0.5344
N11070 X0.7531 Y0.5352
N11075 X0.7462 Y0.5404
N11080 X0.7426 Y0.5432
N11085 X0.7382 Y0.5467
N11090 X0.7326 Y0.5511
N11095 X0.7302 Y0.5531
N11100 X0.7223 Y0.5598
N11105 X0.7143 Y0.5668
N11110 X0.714 Y0.5671
N11115 X0.7063 Y0.574
N11120 X0.7052 Y0.5751
N11125 X0.6983 Y0.5815
N11130 X0.6904 Y0.5893
N11135 X0.6887 Y0.591
N11140 X0.6809 Y0.599
N11145 X0.6744 Y0.6058
N11150 X0.6734 Y0.6069
N11155 X0.6664 Y0.6146
N11160 X0.6662 Y0.6149
N11165 X0.6592 Y0.6229
N11170 X0.6525 Y0.6309
N11175 X0.6505 Y0.6333
N11180 X0.646 Y0.6388
N11185 X0.6425 Y0.6432
N11190 X0.6398 Y0.6468
N11195 X0.6346 Y0.6537
N11200 X0.6337 Y0.6548
N11205 X0.6279 Y0.6628
N11210 X0.6266 Y0.6647
N11215 X0.6223 Y0.6707
N11220 X0.6186 Y0.6762
N11225 X0.6169 Y0.6787
N11230 X0.6117 Y0.6867
N11235 X0.6106 Y0.6883
N11240 X0.6067 Y0.6947
N11245 X0.6027 Y0.7012
N11250 X0.6018 Y0.7026
N11255 X0.5971 Y0.7106
N11260 X0.5947 Y0.7148
N11265 X0.5926 Y0.7186
N11270 X0.5882 Y0.7266
N11275 X0.5867 Y0.7294
N11280 X0.5841 Y0.7345
N11285 X0.58 Y0.7425
N11290 X0.5761 Y0.7505
N11295 X0.5724 Y0.7584
N11300 X0.5708 Y0.762
N11305 X0.5688 Y0.7664
N11310 X0.5654 Y0.7744
N11315 X0.5628 Y0.7805
N11320 X0.5589 Y0.7903
N11325 X0.5559 Y0.7983
N11330 X0.5548 Y0.8011
N11335 X0.5529 Y0.8063
N11340 X0.5502 Y0.8143
N11345 X0.5475 Y0.8222
N11350 X0.545 Y0.8302
N11355 X0.5426 Y0.8382
N11360 X0.5403 Y0.8462
N11365 X0.5389 Y0.8517
N11370 X0.5382 Y0.8541
N11375 X0.5362 Y0.8621
N11380 X0.5343 Y0.8701
N11385 X0.5325 Y0.8781
N11390 X0.5308 Y0.886
N11395 X0.5293 Y0.894
N11400 X0.5278 Y0.902
N11405 X0.5265 Y0.9099
N11410 X0.5253 Y0.9179
N11415 X0.5242 Y0.9259
N11420 X0.5236 Y0.931
N11425 G0 Z-0.3971
N11430 X0.66 Y0.8253 Z-0.2842
N11435 X0.8613 Y0.6693 Z-0.2791
N11440 X1.0467 Y0.5256 Z-0.2906
N11445 X1.2352 Y0.3796 Z-0.4398
N11450 G1 Z-0.615 F40
N11455 X1.105 Z-0.6195
N11460 X1.097 Z-0.6198
N11465 X1.0891 Y0.3797 Z-0.6201
N11470 X1.0811 Y0.3799 Z-0.6204
N11475 X1.0731 Y0.3802 Z-0.6207
N11480 X1.0651 Y0.3806 Z-0.6209
N11485 X1.0572 Y0.3811 Z-0.6212
N11490 X1.0492 Y0.3817 Z-0.6215
N11495 X1.0412 Y0.3824 Z-0.6218
N11500 X1.0332 Y0.3832 Z-0.6221
N11505 X1.0293 Y0.3837 Z-0.6222
N11510 X1.0253 Y0.3841 Z-0.6223
N11515 X1.0173 Y0.3852 Z-0.6226
N11520 X1.0093 Y0.3863 Z-0.6229
N11525 X1.0013 Y0.3876 Z-0.6232
N11530 X0.9934 Y0.3889 Z-0.6235
N11535 X0.9854 Y0.3903 Z-0.6237
N11540 X0.9784 Y0.3917 Z-0.624
N11545 X0.9774 Y0.3919
N11550 X0.9694 Y0.3936 Z-0.6243
N11555 X0.9615 Y0.3953 Z-0.6246
N11560 X0.9535 Y0.3972 Z-0.6249
N11565 X0.9455 Y0.3992 Z-0.6252
N11570 X0.9376 Y0.4013 Z-0.6255
N11575 X0.9296 Y0.4035 Z-0.6258
N11580 X0.9216 Y0.4059 Z-0.626
N11585 X0.9159 Y0.4076 Z-0.6262
N11590 X0.9136 Y0.4083 Z-0.6263
N11595 X0.9057 Y0.4109 Z-0.6266
N11600 X0.8977 Y0.4136 Z-0.6269
N11605 X0.8919 Y0.4156 Z-0.6271
N11610 X0.8897 Y0.4164 Z-0.6272
N11615 X0.8817 Y0.4193 Z-0.6275
N11620 X0.8738 Y0.4224 Z-0.6278
N11625 X0.8658 Y0.4256 Z-0.6281
N11630 X0.8578 Y0.4289 Z-0.6284
N11635 X0.8498 Y0.4323 Z-0.6287
N11640 X0.8419 Y0.4359 Z-0.629
N11645 X0.8341 Y0.4395 Z-0.6293
N11650 X0.8339 Y0.4396
N11655 X0.8259 Y0.4435 Z-0.6296
N11660 X0.818 Y0.4475 Z-0.6299
N11665 X0.81 Y0.4516 Z-0.6303
N11670 X0.8029 Y0.4554 Z-0.6305
N11675 X0.802 Y0.4559 Z-0.6306
N11680 X0.794 Y0.4603 Z-0.6309
N11685 X0.7887 Y0.4634 Z-0.6311
N11690 X0.7861 Y0.465 Z-0.6312
N11695 X0.7781 Y0.4697 Z-0.6315
N11700 X0.7701 Y0.4746 Z-0.6319
N11705 X0.7627 Y0.4794 Z-0.6322
N11710 X0.7621 Y0.4797
N11715 X0.7542 Y0.485 Z-0.6325
N11720 X0.7507 Y0.4873 Z-0.6327
N11725 X0.7462 Y0.4904 Z-0.6329
N11730 X0.7392 Y0.4953 Z-0.6332
N11735 X0.7382 Y0.4961
N11740 X0.7302 Y0.5018 Z-0.6336
N11745 X0.7283 Y0.5033
N11750 X0.7223 Y0.5079 Z-0.6339
N11755 X0.7178 Y0.5113 Z-0.6341
N11760 X0.7143 Y0.5141 Z-0.6343
N11765 X0.7079 Y0.5192 Z-0.6345
N11770 X0.7063 Y0.5205 Z-0.6346
N11775 X0.6983 Y0.5272 Z-0.635
N11780 X0.6904 Y0.5341 Z-0.6353
N11785 X0.6891 Y0.5352 Z-0.6354
N11790 X0.6824 Y0.5411 Z-0.6357
N11795 X0.6802 Y0.5432 Z-0.6358
N11800 X0.6744 Y0.5486 Z-0.6361
N11805 X0.6717 Y0.5511 Z-0.6362
N11810 X0.6664 Y0.5562 Z-0.6365
N11815 X0.6635 Y0.5591 Z-0.6366
N11820 X0.6585 Y0.5641 Z-0.6369
N11825 X0.6556 Y0.5671 Z-0.637
N11830 X0.6505 Y0.5723 Z-0.6373
N11835 X0.6479 Y0.5751 Z-0.6374
N11840 X0.6425 Y0.5809 Z-0.6377
N11845 X0.6405 Y0.583 Z-0.6378
N11850 X0.6346 Y0.5897 Z-0.6381
N11855 X0.6334 Y0.591 Z-0.6382
N11860 X0.6266 Y0.5989 Z-0.6385
N11865 X0.6199 Y0.6069 Z-0.6389
N11870 X0.6186 Y0.6085 Z-0.639
N11875 X0.6135 Y0.6149 Z-0.6392
N11880 X0.6106 Y0.6185 Z-0.6394
N11885 X0.6073 Y0.6229 Z-0.6396
N11890 X0.6027 Y0.6289 Z-0.6399
N11895 X0.6012 Y0.6309
N11900 X0.5954 Y0.6388 Z-0.6403
N11905 X0.5947 Y0.6399
N11910 X0.5898 Y0.6468 Z-0.6406
N11915 X0.5867 Y0.6513 Z-0.6408
N11920 X0.5843 Y0.6548 Z-0.641
N11925 X0.5791 Y0.6628 Z-0.6413
N11930 X0.5787 Y0.6633
N11935 X0.574 Y0.6707 Z-0.6416
N11940 X0.5691 Y0.6787 Z-0.642
N11945 X0.5643 Y0.6867 Z-0.6423
N11950 X0.5628 Y0.6893 Z-0.6424
N11955 X0.5597 Y0.6947 Z-0.6426
N11960 X0.5553 Y0.7026 Z-0.6429
N11965 X0.5548 Y0.7035 Z-0.643
N11970 X0.551 Y0.7106 Z-0.6432
N11975 X0.5468 Y0.7186 Z-0.6436
N11980 X0.5429 Y0.7266 Z-0.6439
N11985 X0.539 Y0.7345 Z-0.6442
N11990 X0.5389 Y0.7348
N11995 X0.5353 Y0.7425 Z-0.6445
N12000 X0.5317 Y0.7505 Z-0.6448
N12005 X0.5283 Y0.7584 Z-0.6451
N12010 X0.5249 Y0.7664 Z-0.6454
N12015 X0.5218 Y0.7744 Z-0.6457
N12020 X0.5187 Y0.7824 Z-0.646
N12025 X0.5157 Y0.7903 Z-0.6463
N12030 X0.5149 Y0.7926 Z-0.6464
N12035 X0.513 Y0.7983 Z-0.6466
N12040 X0.5102 Y0.8063 Z-0.6469
N12045 X0.5077 Y0.8143 Z-0.6472
N12050 X0.507 Y0.8166 Z-0.6473
N12055 X0.5052 Y0.8222 Z-0.6475
N12060 X0.5029 Y0.8302 Z-0.6478
N12065 X0.5007 Y0.8382 Z-0.648
N12070 X0.4986 Y0.8462 Z-0.6483
N12075 X0.4966 Y0.8541 Z-0.6486
N12080 X0.4947 Y0.8621 Z-0.6489
N12085 X0.4929 Y0.8701 Z-0.6492
N12090 X0.4912 Y0.8781 Z-0.6495
N12095 X0.491 Y0.8791
N12100 X0.4897 Y0.886 Z-0.6498
N12105 X0.4882 Y0.894 Z-0.65
N12110 X0.4869 Y0.902 Z-0.6503
N12115 X0.4856 Y0.9099 Z-0.6506
N12120 X0.4846 Y0.9179 Z-0.6509
N12125 X0.4835 Y0.9259 Z-0.6512
N12130 X0.4831 Y0.9299 Z-0.6513
N12135 X0.4826 Y0.9339 Z-0.6514
N12140 X0.4818 Y0.9418 Z-0.6517
N12145 X0.4811 Y0.9498 Z-0.652
N12150 X0.4805 Y0.9578 Z-0.6523
N12155 X0.48 Y0.9658 Z-0.6526
N12160 X0.4796 Y0.9737 Z-0.6528
N12165 X0.4793 Y0.9817 Z-0.6531
N12170 X0.4791 Y0.9897 Z-0.6534
N12175 X0.479 Y0.9977 Z-0.6537
N12180 Y1.0056 Z-0.654
N12185 X0.4789 Y1.3037 Z-0.6644
N12190 Y1.3038
N12195 X0.4785 Y1.3039
N12200 X0.478
N12205 X0.477 Y1.3041
N12210 X0.4761 Y1.3043 Z-0.6645
N12215 X0.4756 Y1.3044
N12220 X0.4752 Y1.3045
N12225 X0.4756 Y1.3044
N12230 X0.4761 Y1.3043
N12235 X0.477 Y1.3041 Z-0.6646
N12240 X0.478 Y1.3039
N12245 X0.4785
N12250 X0.4789 Y1.3038
N12255 Y1.3037
N12260 X0.479 Y1.0056 Z-0.675
N12265 Y0.9977 Z-0.6753
N12270 X0.4791 Y0.9897 Z-0.6756
N12275 X0.4793 Y0.9817 Z-0.6759
N12280 X0.4796 Y0.9737 Z-0.6762
N12285 X0.48 Y0.9658 Z-0.6764
N12290 X0.4805 Y0.9578 Z-0.6767
N12295 X0.4811 Y0.9498 Z-0.677
N12300 X0.4818 Y0.9418 Z-0.6773
N12305 X0.4826 Y0.9339 Z-0.6776
N12310 X0.4831 Y0.9299 Z-0.6777
N12315 X0.4835 Y0.9259 Z-0.6778
N12320 X0.4846 Y0.9179 Z-0.6781
N12325 X0.4856 Y0.9099 Z-0.6784
N12330 X0.4869 Y0.902 Z-0.6787
N12335 X0.4882 Y0.894 Z-0.679
N12340 X0.4897 Y0.886 Z-0.6792
N12345 X0.491 Y0.8791 Z-0.6795
N12350 X0.4912 Y0.8781
N12355 X0.4929 Y0.8701 Z-0.6798
N12360 X0.4947 Y0.8621 Z-0.6801
N12365 X0.4966 Y0.8541 Z-0.6804
N12370 X0.4986 Y0.8462 Z-0.6807
N12375 X0.5007 Y0.8382 Z-0.681
N12380 X0.5029 Y0.8302 Z-0.6812
N12385 X0.5052 Y0.8222 Z-0.6815
N12390 X0.507 Y0.8166 Z-0.6817
N12395 X0.5077 Y0.8143 Z-0.6818
N12400 X0.5102 Y0.8063 Z-0.6821
N12405 X0.513 Y0.7983 Z-0.6824
N12410 X0.5149 Y0.7926 Z-0.6826
N12415 X0.5157 Y0.7903 Z-0.6827
N12420 X0.5187 Y0.7824 Z-0.683
N12425 X0.5218 Y0.7744 Z-0.6833
N12430 X0.5249 Y0.7664 Z-0.6836
N12435 X0.5283 Y0.7584 Z-0.6839
N12440 X0.5317 Y0.7505 Z-0.6842
N12445 X0.5353 Y0.7425 Z-0.6845
N12450 X0.5389 Y0.7348 Z-0.6848
N12455 X0.539 Y0.7345
N12460 X0.5429 Y0.7266 Z-0.6851
N12465 X0.5468 Y0.7186 Z-0.6854
N12470 X0.551 Y0.7106 Z-0.6858
N12475 X0.5548 Y0.7035 Z-0.686
N12480 X0.5553 Y0.7026 Z-0.6861
N12485 X0.5597 Y0.6947 Z-0.6864
N12490 X0.5628 Y0.6893 Z-0.6866
N12495 X0.5643 Y0.6867 Z-0.6867
N12500 X0.5691 Y0.6787 Z-0.687
N12505 X0.574 Y0.6707 Z-0.6874
N12510 X0.5787 Y0.6633 Z-0.6877
N12515 X0.5791 Y0.6628
N12520 X0.5843 Y0.6548 Z-0.688
N12525 X0.5867 Y0.6513 Z-0.6882
N12530 X0.5898 Y0.6468 Z-0.6884
N12535 X0.5947 Y0.6399 Z-0.6887
N12540 X0.5954 Y0.6388
N12545 X0.6012 Y0.6309 Z-0.6891
N12550 X0.6027 Y0.6289
N12555 X0.6073 Y0.6229 Z-0.6894
N12560 X0.6106 Y0.6185 Z-0.6896
N12565 X0.6135 Y0.6149 Z-0.6898
N12570 X0.6186 Y0.6085 Z-0.69
N12575 X0.6199 Y0.6069 Z-0.6901
N12580 X0.6266 Y0.5989 Z-0.6905
N12585 X0.6334 Y0.591 Z-0.6908
N12590 X0.6346 Y0.5897 Z-0.6909
N12595 X0.6405 Y0.583 Z-0.6912
N12600 X0.6425 Y0.5809 Z-0.6913
N12605 X0.6479 Y0.5751 Z-0.6916
N12610 X0.6505 Y0.5723 Z-0.6917
N12615 X0.6556 Y0.5671 Z-0.692
N12620 X0.6585 Y0.5641 Z-0.6921
N12625 X0.6635 Y0.5591 Z-0.6924
N12630 X0.6664 Y0.5562 Z-0.6925
N12635 X0.6717 Y0.5511 Z-0.6928
N12640 X0.6744 Y0.5486 Z-0.6929
N12645 X0.6802 Y0.5432 Z-0.6932
N12650 X0.6824 Y0.5411 Z-0.6933
N12655 X0.6891 Y0.5352 Z-0.6936
N12660 X0.6904 Y0.5341 Z-0.6937
N12665 X0.6983 Y0.5272 Z-0.694
N12670 X0.7063 Y0.5205 Z-0.6944
N12675 X0.7079 Y0.5192 Z-0.6945
N12680 X0.7143 Y0.5141 Z-0.6947
N12685 X0.7178 Y0.5113 Z-0.6949
N12690 X0.7223 Y0.5079 Z-0.6951
N12695 X0.7283 Y0.5033 Z-0.6954
N12700 X0.7302 Y0.5018
N12705 X0.7382 Y0.4961 Z-0.6958
N12710 X0.7392 Y0.4953
N12715 X0.7462 Y0.4904 Z-0.6961
N12720 X0.7507 Y0.4873 Z-0.6963
N12725 X0.7542 Y0.485 Z-0.6965
N12730 X0.7621 Y0.4797 Z-0.6968
N12735 X0.7627 Y0.4794
N12740 X0.7701 Y0.4746 Z-0.6971
N12745 X0.7781 Y0.4697 Z-0.6975
N12750 X0.7861 Y0.465 Z-0.6978
N12755 X0.7887 Y0.4634 Z-0.6979
N12760 X0.794 Y0.4603 Z-0.6981
N12765 X0.802 Y0.4559 Z-0.6984
N12770 X0.8029 Y0.4554 Z-0.6985
N12775 X0.81 Y0.4516 Z-0.6987
N12780 X0.818 Y0.4475 Z-0.6991
N12785 X0.8259 Y0.4435 Z-0.6994
N12790 X0.8339 Y0.4396 Z-0.6997
N12795 X0.8341 Y0.4395
N12800 X0.8419 Y0.4359 Z-0.7
N12805 X0.8498 Y0.4323 Z-0.7003
N12810 X0.8578 Y0.4289 Z-0.7006
N12815 X0.8658 Y0.4256 Z-0.7009
N12820 X0.8738 Y0.4224 Z-0.7012
N12825 X0.8817 Y0.4193 Z-0.7015
N12830 X0.8897 Y0.4164 Z-0.7018
N12835 X0.8919 Y0.4156 Z-0.7019
N12840 X0.8977 Y0.4136 Z-0.7021
N12845 X0.9057 Y0.4109 Z-0.7024
N12850 X0.9136 Y0.4083 Z-0.7027
N12855 X0.9159 Y0.4076 Z-0.7028
N12860 X0.9216 Y0.4059 Z-0.703
N12865 X0.9296 Y0.4035 Z-0.7033
N12870 X0.9376 Y0.4013 Z-0.7035
N12875 X0.9455 Y0.3992 Z-0.7038
N12880 X0.9535 Y0.3972 Z-0.7041
N12885 X0.9615 Y0.3953 Z-0.7044
N12890 X0.9694 Y0.3936 Z-0.7047
N12895 X0.9774 Y0.3919 Z-0.705
N12900 X0.9784 Y0.3917
N12905 X0.9854 Y0.3903 Z-0.7053
N12910 X0.9934 Y0.3889 Z-0.7055
N12915 X1.0013 Y0.3876 Z-0.7058
N12920 X1.0093 Y0.3863 Z-0.7061
N12925 X1.0173 Y0.3852 Z-0.7064
N12930 X1.0253 Y0.3841 Z-0.7067
N12935 X1.0293 Y0.3837 Z-0.7068
N12940 X1.0332 Y0.3832 Z-0.7069
N12945 X1.0412 Y0.3824 Z-0.7072
N12950 X1.0492 Y0.3817 Z-0.7075
N12955 X1.0572 Y0.3811 Z-0.7078
N12960 X1.0651 Y0.3806 Z-0.7081
N12965 X1.0731 Y0.3802 Z-0.7083
N12970 X1.0811 Y0.3799 Z-0.7086
N12975 X1.0891 Y0.3797 Z-0.7089
N12980 X1.097 Y0.3796 Z-0.7092
N12985 X1.105 Z-0.7095
N12990 X1.4031 Z-0.7199
N12995 X1.4032 Y0.3795
N13000 Y0.3791
N13005 X1.4033 Y0.3786
N13010 X1.4035 Y0.3777
N13015 X1.4037 Y0.3767 Z-0.72
N13020 X1.4038 Y0.3762
N13025 X1.4039 Y0.3758
N13030 X1.4038 Y0.3762
N13035 X1.4037 Y0.3767
N13040 X1.4035 Y0.3777
N13045 X1.4033 Y0.3786
N13050 X1.4032 Y0.3791
N13055 Y0.3795
N13060 X1.4031 Y0.3796
N13065 X1.105
N13070 X1.097
N13075 X1.0891 Y0.3797
N13080 X1.0811 Y0.3799
N13085 X1.0731 Y0.3802
N13090 X1.0651 Y0.3806
N13095 X1.0572 Y0.3811
N13100 X1.0492 Y0.3817
N13105 X1.0412 Y0.3824
N13110 X1.0332 Y0.3832
N13115 X1.0293 Y0.3837
N13120 X1.0253 Y0.3841
N13125 X1.0173 Y0.3852
N13130 X1.0093 Y0.3863
N13135 X1.0013 Y0.3876
N13140 X0.9934 Y0.3889
N13145 X0.9854 Y0.3903
N13150 X0.9784 Y0.3917
N13155 X0.9774 Y0.3919
N13160 X0.9694 Y0.3936
N13165 X0.9615 Y0.3953
N13170 X0.9535 Y0.3972
N13175 X0.9455 Y0.3992
N13180 X0.9376 Y0.4013
N13185 X0.9296 Y0.4035
N13190 X0.9216 Y0.4059
N13195 X0.9159 Y0.4076
N13200 X0.9136 Y0.4083
N13205 X0.9057 Y0.4109
N13210 X0.8977 Y0.4136
N13215 X0.8919 Y0.4156
N13220 X0.8897 Y0.4164
N13225 X0.8817 Y0.4193
N13230 X0.8738 Y0.4224
N13235 X0.8658 Y0.4256
N13240 X0.8578 Y0.4289
N13245 X0.8498 Y0.4323
N13250 X0.8419 Y0.4359
N13255 X0.8341 Y0.4395
N13260 X0.8339 Y0.4396
N13265 X0.8259 Y0.4435
N13270 X0.818 Y0.4475
N13275 X0.81 Y0.4516
N13280 X0.8029 Y0.4554
N13285 X0.802 Y0.4559
N13290 X0.794 Y0.4603
N13295 X0.7887 Y0.4634
N13300 X0.7861 Y0.465
N13305 X0.7781 Y0.4697
N13310 X0.7701 Y0.4746
N13315 X0.7627 Y0.4794
N13320 X0.7621 Y0.4797
N13325 X0.7542 Y0.485
N13330 X0.7507 Y0.4873
N13335 X0.7462 Y0.4904
N13340 X0.7392 Y0.4953
N13345 X0.7382 Y0.4961
N13350 X0.7302 Y0.5018
N13355 X0.7283 Y0.5033
N13360 X0.7223 Y0.5079
N13365 X0.7178 Y0.5113
N13370 X0.7143 Y0.5141
N13375 X0.7079 Y0.5192
N13380 X0.7063 Y0.5205
N13385 X0.6983 Y0.5272
N13390 X0.6904 Y0.5341
N13395 X0.6891 Y0.5352
N13400 X0.6824 Y0.5411
N13405 X0.6802 Y0.5432
N13410 X0.6744 Y0.5486
N13415 X0.6717 Y0.5511
N13420 X0.6664 Y0.5562
N13425 X0.6635 Y0.5591
N13430 X0.6585 Y0.5641
N13435 X0.6556 Y0.5671
N13440 X0.6505 Y0.5723
N13445 X0.6479 Y0.5751
N13450 X0.6425 Y0.5809
N13455 X0.6405 Y0.583
N13460 X0.6346 Y0.5897
N13465 X0.6334 Y0.591
N13470 X0.6266 Y0.5989
N13475 X0.6199 Y0.6069
N13480 X0.6186 Y0.6085
N13485 X0.6135 Y0.6149
N13490 X0.6106 Y0.6185
N13495 X0.6073 Y0.6229
N13500 X0.6027 Y0.6289
N13505 X0.6012 Y0.6309
N13510 X0.5954 Y0.6388
N13515 X0.5947 Y0.6399
N13520 X0.5898 Y0.6468
N13525 X0.5867 Y0.6513
N13530 X0.5843 Y0.6548
N13535 X0.5791 Y0.6628
N13540 X0.5787 Y0.6633
N13545 X0.574 Y0.6707
N13550 X0.5691 Y0.6787
N13555 X0.5643 Y0.6867
N13560 X0.5628 Y0.6893
N13565 X0.5597 Y0.6947
N13570 X0.5553 Y0.7026
N13575 X0.5548 Y0.7035
N13580 X0.551 Y0.7106
N13585 X0.5468 Y0.7186
N13590 X0.5429 Y0.7266
N13595 X0.539 Y0.7345
N13600 X0.5389 Y0.7348
N13605 X0.5353 Y0.7425
N13610 X0.5317 Y0.7505
N13615 X0.5283 Y0.7584
N13620 X0.5249 Y0.7664
N13625 X0.5218 Y0.7744
N13630 X0.5187 Y0.7824
N13635 X0.5157 Y0.7903
N13640 X0.5149 Y0.7926
N13645 X0.513 Y0.7983
N13650 X0.5102 Y0.8063
N13655 X0.5077 Y0.8143
N13660 X0.507 Y0.8166
N13665 X0.5052 Y0.8222
N13670 X0.5029 Y0.8302
N13675 X0.5007 Y0.8382
N13680 X0.4986 Y0.8462
N13685 X0.4966 Y0.8541
N13690 X0.4947 Y0.8621
N13695 X0.4929 Y0.8701
N13700 X0.4912 Y0.8781
N13705 X0.491 Y0.8791
N13710 X0.4897 Y0.886
N13715 X0.4882 Y0.894
N13720 X0.4869 Y0.902
N13725 X0.4856 Y0.9099
N13730 X0.4846 Y0.9179
N13735 X0.4835 Y0.9259
N13740 X0.4831 Y0.9299
N13745 X0.4826 Y0.9339
N13750 X0.4818 Y0.9418
N13755 X0.4811 Y0.9498
N13760 X0.4805 Y0.9578
N13765 X0.48 Y0.9658
N13770 X0.4796 Y0.9737
N13775 X0.4793 Y0.9817
N13780 X0.4791 Y0.9897
N13785 X0.479 Y0.9977
N13790 Y1.0056
N13795 X0.4789 Y1.3037
N13800 Y1.3038
N13805 X0.4785 Y1.3039
N13810 X0.478
N13815 X0.477 Y1.3041
N13820 X0.4761 Y1.3043
N13825 X0.4756 Y1.3044
N13830 X0.4752 Y1.3045
N13835 G0 Z-0.4398
N13840 X0.479 Y1.8642
N13845 G1 Z-0.615 F40
N13850 Y1.9944 Z-0.6195
N13855 Y2.0023 Z-0.6198
N13860 X0.4791 Y2.0103 Z-0.6201
N13865 X0.4793 Y2.0183 Z-0.6204
N13870 X0.4796 Y2.0263 Z-0.6207
N13875 X0.48 Y2.0342 Z-0.6209
N13880 X0.4805 Y2.0422 Z-0.6212
N13885 X0.4811 Y2.0502 Z-0.6215
N13890 X0.4818 Y2.0582 Z-0.6218
N13895 X0.4826 Y2.0661 Z-0.6221
N13900 X0.4831 Y2.0701 Z-0.6222
N13905 X0.4835 Y2.0741 Z-0.6223
N13910 X0.4846 Y2.0821 Z-0.6226
N13915 X0.4856 Y2.0901 Z-0.6229
N13920 X0.4869 Y2.098 Z-0.6232
N13925 X0.4882 Y2.106 Z-0.6235
N13930 X0.4897 Y2.114 Z-0.6237
N13935 X0.491 Y2.1209 Z-0.624
N13940 X0.4912 Y2.1219
N13945 X0.4929 Y2.1299 Z-0.6243
N13950 X0.4947 Y2.1379 Z-0.6246
N13955 X0.4966 Y2.1459 Z-0.6249
N13960 X0.4986 Y2.1538 Z-0.6252
N13965 X0.5007 Y2.1618 Z-0.6255
N13970 X0.5029 Y2.1698 Z-0.6258
N13975 X0.5052 Y2.1778 Z-0.626
N13980 X0.507 Y2.1834 Z-0.6262
N13985 X0.5077 Y2.1857 Z-0.6263
N13990 X0.5102 Y2.1937 Z-0.6266
N13995 X0.513 Y2.2017 Z-0.6269
N14000 X0.5149 Y2.2074 Z-0.6271
N14005 X0.5157 Y2.2097 Z-0.6272
N14010 X0.5187 Y2.2176 Z-0.6275
N14015 X0.5218 Y2.2256 Z-0.6278
N14020 X0.5249 Y2.2336 Z-0.6281
N14025 X0.5283 Y2.2416 Z-0.6284
N14030 X0.5317 Y2.2495 Z-0.6287
N14035 X0.5353 Y2.2575 Z-0.629
N14040 X0.5389 Y2.2652 Z-0.6293
N14045 X0.539 Y2.2655
N14050 X0.5429 Y2.2734 Z-0.6296
N14055 X0.5468 Y2.2814 Z-0.6299
N14060 X0.551 Y2.2894 Z-0.6303
N14065 X0.5548 Y2.2965 Z-0.6305
N14070 X0.5553 Y2.2974 Z-0.6306
N14075 X0.5597 Y2.3053 Z-0.6309
N14080 X0.5628 Y2.3107 Z-0.6311
N14085 X0.5643 Y2.3133 Z-0.6312
N14090 X0.5691 Y2.3213 Z-0.6315
N14095 X0.574 Y2.3293 Z-0.6319
N14100 X0.5787 Y2.3367 Z-0.6322
N14105 X0.5791 Y2.3372
N14110 X0.5843 Y2.3452 Z-0.6325
N14115 X0.5867 Y2.3487 Z-0.6327
N14120 X0.5898 Y2.3532 Z-0.6329
N14125 X0.5947 Y2.3601 Z-0.6332
N14130 X0.5954 Y2.3612
N14135 X0.6012 Y2.3691 Z-0.6336
N14140 X0.6027 Y2.3711
N14145 X0.6073 Y2.3771 Z-0.6339
N14150 X0.6106 Y2.3815 Z-0.6341
N14155 X0.6135 Y2.3851 Z-0.6343
N14160 X0.6186 Y2.3915 Z-0.6345
N14165 X0.6199 Y2.3931 Z-0.6346
N14170 X0.6266 Y2.4011 Z-0.635
N14175 X0.6334 Y2.409 Z-0.6353
N14180 X0.6346 Y2.4103 Z-0.6354
N14185 X0.6405 Y2.417 Z-0.6357
N14190 X0.6425 Y2.4191 Z-0.6358
N14195 X0.6479 Y2.4249 Z-0.6361
N14200 X0.6505 Y2.4277 Z-0.6362
N14205 X0.6556 Y2.4329 Z-0.6365
N14210 X0.6585 Y2.4359 Z-0.6366
N14215 X0.6635 Y2.4409 Z-0.6369
N14220 X0.6664 Y2.4438 Z-0.637
N14225 X0.6717 Y2.4489 Z-0.6373
N14230 X0.6744 Y2.4514 Z-0.6374
N14235 X0.6802 Y2.4568 Z-0.6377
N14240 X0.6824 Y2.4589 Z-0.6378
N14245 X0.6891 Y2.4648 Z-0.6381
N14250 X0.6904 Y2.4659 Z-0.6382
N14255 X0.6983 Y2.4728 Z-0.6385
N14260 X0.7063 Y2.4795 Z-0.6389
N14265 X0.7079 Y2.4808 Z-0.639
N14270 X0.7143 Y2.4859 Z-0.6392
N14275 X0.7178 Y2.4887 Z-0.6394
N14280 X0.7223 Y2.4921 Z-0.6396
N14285 X0.7283 Y2.4967 Z-0.6399
N14290 X0.7302 Y2.4982
N14295 X0.7382 Y2.5039 Z-0.6403
N14300 X0.7392 Y2.5047
N14305 X0.7462 Y2.5096 Z-0.6406
N14310 X0.7507 Y2.5127 Z-0.6408
N14315 X0.7542 Y2.515 Z-0.641
N14320 X0.7621 Y2.5203 Z-0.6413
N14325 X0.7627 Y2.5206
N14330 X0.7701 Y2.5254 Z-0.6416
N14335 X0.7781 Y2.5303 Z-0.642
N14340 X0.7861 Y2.535 Z-0.6423
N14345 X0.7887 Y2.5366 Z-0.6424
N14350 X0.794 Y2.5397 Z-0.6426
N14355 X0.802 Y2.5441 Z-0.6429
N14360 X0.8029 Y2.5446 Z-0.643
N14365 X0.81 Y2.5484 Z-0.6432
N14370 X0.818 Y2.5525 Z-0.6436
N14375 X0.8259 Y2.5565 Z-0.6439
N14380 X0.8339 Y2.5604 Z-0.6442
N14385 X0.8341 Y2.5605
N14390 X0.8419 Y2.5641 Z-0.6445
N14395 X0.8498 Y2.5677 Z-0.6448
N14400 X0.8578 Y2.5711 Z-0.6451
N14405 X0.8658 Y2.5744 Z-0.6454
N14410 X0.8738 Y2.5776 Z-0.6457
N14415 X0.8817 Y2.5807 Z-0.646
N14420 X0.8897 Y2.5836 Z-0.6463
N14425 X0.8919 Y2.5844 Z-0.6464
N14430 X0.8977 Y2.5864 Z-0.6466
N14435 X0.9057 Y2.5891 Z-0.6469
N14440 X0.9136 Y2.5917 Z-0.6472
N14445 X0.9159 Y2.5924 Z-0.6473
N14450 X0.9216 Y2.5941 Z-0.6475
N14455 X0.9296 Y2.5965 Z-0.6478
N14460 X0.9376 Y2.5987 Z-0.648
N14465 X0.9455 Y2.6008 Z-0.6483
N14470 X0.9535 Y2.6028 Z-0.6486
N14475 X0.9615 Y2.6047 Z-0.6489
N14480 X0.9694 Y2.6064 Z-0.6492
N14485 X0.9774 Y2.6081 Z-0.6495
N14490 X0.9784 Y2.6083
N14495 X0.9854 Y2.6097 Z-0.6498
N14500 X0.9934 Y2.6111 Z-0.65
N14505 X1.0013 Y2.6124 Z-0.6503
N14510 X1.0093 Y2.6137 Z-0.6506
N14515 X1.0173 Y2.6148 Z-0.6509
N14520 X1.0253 Y2.6159 Z-0.6512
N14525 X1.0293 Y2.6163 Z-0.6513
N14530 X1.0332 Y2.6168 Z-0.6514
N14535 X1.0412 Y2.6176 Z-0.6517
N14540 X1.0492 Y2.6183 Z-0.652
N14545 X1.0572 Y2.6189 Z-0.6523
N14550 X1.0651 Y2.6194 Z-0.6526
N14555 X1.0731 Y2.6198 Z-0.6528
N14560 X1.0811 Y2.6201 Z-0.6531
N14565 X1.0891 Y2.6203 Z-0.6534
N14570 X1.097 Y2.6204 Z-0.6537
N14575 X1.105 Z-0.654
N14580 X1.4031 Z-0.6644
N14585 X1.4032 Y2.6205
N14590 Y2.6209
N14595 X1.4033 Y2.6214
N14600 X1.4035 Y2.6223
N14605 X1.4037 Y2.6233 Z-0.6645
N14610 X1.4038 Y2.6238
N14615 X1.4039 Y2.6242
N14620 X1.4038 Y2.6238
N14625 X1.4037 Y2.6233
N14630 X1.4035 Y2.6223 Z-0.6646
N14635 X1.4033 Y2.6214
N14640 X1.4032 Y2.6209
N14645 Y2.6205
N14650 X1.4031 Y2.6204
N14655 X1.105 Z-0.675
N14660 X1.097 Z-0.6753
N14665 X1.0891 Y2.6203 Z-0.6756
N14670 X1.0811 Y2.6201 Z-0.6759
N14675 X1.0731 Y2.6198 Z-0.6762
N14680 X1.0651 Y2.6194 Z-0.6764
N14685 X1.0572 Y2.6189 Z-0.6767
N14690 X1.0492 Y2.6183 Z-0.677
N14695 X1.0412 Y2.6176 Z-0.6773
N14700 X1.0332 Y2.6168 Z-0.6776
N14705 X1.0293 Y2.6163 Z-0.6777
N14710 X1.0253 Y2.6159 Z-0.6778
N14715 X1.0173 Y2.6148 Z-0.6781
N14720 X1.0093 Y2.6137 Z-0.6784
N14725 X1.0013 Y2.6124 Z-0.6787
N14730 X0.9934 Y2.6111 Z-0.679
N14735 X0.9854 Y2.6097 Z-0.6792
N14740 X0.9784 Y2.6083 Z-0.6795
N14745 X0.9774 Y2.6081
N14750 X0.9694 Y2.6064 Z-0.6798
N14755 X0.9615 Y2.6047 Z-0.6801
N14760 X0.9535 Y2.6028 Z-0.6804
N14765 X0.9455 Y2.6008 Z-0.6807
N14770 X0.9376 Y2.5987 Z-0.681
N14775 X0.9296 Y2.5965 Z-0.6812
N14780 X0.9216 Y2.5941 Z-0.6815
N14785 X0.9159 Y2.5924 Z-0.6817
N14790 X0.9136 Y2.5917 Z-0.6818
N14795 X0.9057 Y2.5891 Z-0.6821
N14800 X0.8977 Y2.5864 Z-0.6824
N14805 X0.8919 Y2.5844 Z-0.6826
N14810 X0.8897 Y2.5836 Z-0.6827
N14815 X0.8817 Y2.5807 Z-0.683
N14820 X0.8738 Y2.5776 Z-0.6833
N14825 X0.8658 Y2.5744 Z-0.6836
N14830 X0.8578 Y2.5711 Z-0.6839
N14835 X0.8498 Y2.5677 Z-0.6842
N14840 X0.8419 Y2.5641 Z-0.6845
N14845 X0.8341 Y2.5605 Z-0.6848
N14850 X0.8339 Y2.5604
N14855 X0.8259 Y2.5565 Z-0.6851
N14860 X0.818 Y2.5525 Z-0.6854
N14865 X0.81 Y2.5484 Z-0.6858
N14870 X0.8029 Y2.5446 Z-0.686
N14875 X0.802 Y2.5441 Z-0.6861
N14880 X0.794 Y2.5397 Z-0.6864
N14885 X0.7887 Y2.5366 Z-0.6866
N14890 X0.7861 Y2.535 Z-0.6867
N14895 X0.7781 Y2.5303 Z-0.687
N14900 X0.7701 Y2.5254 Z-0.6874
N14905 X0.7627 Y2.5206 Z-0.6877
N14910 X0.7621 Y2.5203
N14915 X0.7542 Y2.515 Z-0.688
N14920 X0.7507 Y2.5127 Z-0.6882
N14925 X0.7462 Y2.5096 Z-0.6884
N14930 X0.7392 Y2.5047 Z-0.6887
N14935 X0.7382 Y2.5039
N14940 X0.7302 Y2.4982 Z-0.6891
N14945 X0.7283 Y2.4967
N14950 X0.7223 Y2.4921 Z-0.6894
N14955 X0.7178 Y2.4887 Z-0.6896
N14960 X0.7143 Y2.4859 Z-0.6898
N14965 X0.7079 Y2.4808 Z-0.69
N14970 X0.7063 Y2.4795 Z-0.6901
N14975 X0.6983 Y2.4728 Z-0.6905
N14980 X0.6904 Y2.4659 Z-0.6908
N14985 X0.6891 Y2.4648 Z-0.6909
N14990 X0.6824 Y2.4589 Z-0.6912
N14995 X0.6802 Y2.4568 Z-0.6913
N15000 X0.6744 Y2.4514 Z-0.6916
N15005 X0.6717 Y2.4489 Z-0.6917
N15010 X0.6664 Y2.4438 Z-0.692
N15015 X0.6635 Y2.4409 Z-0.6921
N15020 X0.6585 Y2.4359 Z-0.6924
N15025 X0.6556 Y2.4329 Z-0.6925
N15030 X0.6505 Y2.4277 Z-0.6928
N15035 X0.6479 Y2.4249 Z-0.6929
N15040 X0.6425 Y2.4191 Z-0.6932
N15045 X0.6405 Y2.417 Z-0.6933
N15050 X0.6346 Y2.4103 Z-0.6936
N15055 X0.6334 Y2.409 Z-0.6937
N15060 X0.6266 Y2.4011 Z-0.694
N15065 X0.6199 Y2.3931 Z-0.6944
N15070 X0.6186 Y2.3915 Z-0.6945
N15075 X0.6135 Y2.3851 Z-0.6947
N15080 X0.6106 Y2.3815 Z-0.6949
N15085 X0.6073 Y2.3771 Z-0.6951
N15090 X0.6027 Y2.3711 Z-0.6954
N15095 X0.6012 Y2.3691
N15100 X0.5954 Y2.3612 Z-0.6958
N15105 X0.5947 Y2.3601
N15110 X0.5898 Y2.3532 Z-0.6961
N15115 X0.5867 Y2.3487 Z-0.6963
N15120 X0.5843 Y2.3452 Z-0.6965
N15125 X0.5791 Y2.3372 Z-0.6968
N15130 X0.5787 Y2.3367
N15135 X0.574 Y2.3293 Z-0.6971
N15140 X0.5691 Y2.3213 Z-0.6975
N15145 X0.5643 Y2.3133 Z-0.6978
N15150 X0.5628 Y2.3107 Z-0.6979
N15155 X0.5597 Y2.3053 Z-0.6981
N15160 X0.5553 Y2.2974 Z-0.6984
N15165 X0.5548 Y2.2965 Z-0.6985
N15170 X0.551 Y2.2894 Z-0.6987
N15175 X0.5468 Y2.2814 Z-0.6991
N15180 X0.5429 Y2.2734 Z-0.6994
N15185 X0.539 Y2.2655 Z-0.6997
N15190 X0.5389 Y2.2652
N15195 X0.5353 Y2.2575 Z-0.7
N15200 X0.5317 Y2.2495 Z-0.7003
N15205 X0.5283 Y2.2416 Z-0.7006
N15210 X0.5249 Y2.2336 Z-0.7009
N15215 X0.5218 Y2.2256 Z-0.7012
N15220 X0.5187 Y2.2176 Z-0.7015
N15225 X0.5157 Y2.2097 Z-0.7018
N15230 X0.5149 Y2.2074 Z-0.7019
N15235 X0.513 Y2.2017 Z-0.7021
N15240 X0.5102 Y2.1937 Z-0.7024
N15245 X0.5077 Y2.1857 Z-0.7027
N15250 X0.507 Y2.1834 Z-0.7028
N15255 X0.5052 Y2.1778 Z-0.703
N15260 X0.5029 Y2.1698 Z-0.7033
N15265 X0.5007 Y2.1618 Z-0.7035
N15270 X0.4986 Y2.1538 Z-0.7038
N15275 X0.4966 Y2.1459 Z-0.7041
N15280 X0.4947 Y2.1379 Z-0.7044
N15285 X0.4929 Y2.1299 Z-0.7047
N15290 X0.4912 Y2.1219 Z-0.705
N15295 X0.491 Y2.1209
N15300 X0.4897 Y2.114 Z-0.7053
N15305 X0.4882 Y2.106 Z-0.7055
N15310 X0.4869 Y2.098 Z-0.7058
N15315 X0.4856 Y2.0901 Z-0.7061
N15320 X0.4846 Y2.0821 Z-0.7064
N15325 X0.4835 Y2.0741 Z-0.7067
N15330 X0.4831 Y2.0701 Z-0.7068
N15335 X0.4826 Y2.0661 Z-0.7069
N15340 X0.4818 Y2.0582 Z-0.7072
N15345 X0.4811 Y2.0502 Z-0.7075
N15350 X0.4805 Y2.0422 Z-0.7078
N15355 X0.48 Y2.0342 Z-0.7081
N15360 X0.4796 Y2.0263 Z-0.7083
N15365 X0.4793 Y2.0183 Z-0.7086
N15370 X0.4791 Y2.0103 Z-0.7089
N15375 X0.479 Y2.0023 Z-0.7092
N15380 Y1.9944 Z-0.7095
N15385 X0.4789 Y1.6963 Z-0.7199
N15390 Y1.6962
N15395 X0.4785 Y1.6961
N15400 X0.478
N15405 X0.477 Y1.6959
N15410 X0.4761 Y1.6957 Z-0.72
N15415 X0.4756 Y1.6956
N15420 X0.4752 Y1.6955
N15425 X0.4756 Y1.6956
N15430 X0.4761 Y1.6957
N15435 X0.477 Y1.6959
N15440 X0.478 Y1.6961
N15445 X0.4785
N15450 X0.4789 Y1.6962
N15455 Y1.6963
N15460 X0.479 Y1.9944
N15465 Y2.0023
N15470 X0.4791 Y2.0103
N15475 X0.4793 Y2.0183
N15480 X0.4796 Y2.0263
N15485 X0.48 Y2.0342
N15490 X0.4805 Y2.0422
N15495 X0.4811 Y2.0502
N15500 X0.4818 Y2.0582
N15505 X0.4826 Y2.0661
N15510 X0.4831 Y2.0701
N15515 X0.4835 Y2.0741
N15520 X0.4846 Y2.0821
N15525 X0.4856 Y2.0901
N15530 X0.4869 Y2.098
N15535 X0.4882 Y2.106
N15540 X0.4897 Y2.114
N15545 X0.491 Y2.1209
N15550 X0.4912 Y2.1219
N15555 X0.4929 Y2.1299
N15560 X0.4947 Y2.1379
N15565 X0.4966 Y2.1459
N15570 X0.4986 Y2.1538
N15575 X0.5007 Y2.1618
N15580 X0.5029 Y2.1698
N15585 X0.5052 Y2.1778
N15590 X0.507 Y2.1834
N15595 X0.5077 Y2.1857
N15600 X0.5102 Y2.1937
N15605 X0.513 Y2.2017
N15610 X0.5149 Y2.2074
N15615 X0.5157 Y2.2097
N15620 X0.5187 Y2.2176
N15625 X0.5218 Y2.2256
N15630 X0.5249 Y2.2336
N15635 X0.5283 Y2.2416
N15640 X0.5317 Y2.2495
N15645 X0.5353 Y2.2575
N15650 X0.5389 Y2.2652
N15655 X0.539 Y2.2655
N15660 X0.5429 Y2.2734
N15665 X0.5468 Y2.2814
N15670 X0.551 Y2.2894
N15675 X0.5548 Y2.2965
N15680 X0.5553 Y2.2974
N15685 X0.5597 Y2.3053
N15690 X0.5628 Y2.3107
N15695 X0.5643 Y2.3133
N15700 X0.5691 Y2.3213
N15705 X0.574 Y2.3293
N15710 X0.5787 Y2.3367
N15715 X0.5791 Y2.3372
N15720 X0.5843 Y2.3452
N15725 X0.5867 Y2.3487
N15730 X0.5898 Y2.3532
N15735 X0.5947 Y2.3601
N15740 X0.5954 Y2.3612
N15745 X0.6012 Y2.3691
N15750 X0.6027 Y2.3711
N15755 X0.6073 Y2.3771
N15760 X0.6106 Y2.3815
N15765 X0.6135 Y2.3851
N15770 X0.6186 Y2.3915
N15775 X0.6199 Y2.3931
N15780 X0.6266 Y2.4011
N15785 X0.6334 Y2.409
N15790 X0.6346 Y2.4103
N15795 X0.6405 Y2.417
N15800 X0.6425 Y2.4191
N15805 X0.6479 Y2.4249
N15810 X0.6505 Y2.4277
N15815 X0.6556 Y2.4329
N15820 X0.6585 Y2.4359
N15825 X0.6635 Y2.4409
N15830 X0.6664 Y2.4438
N15835 X0.6717 Y2.4489
N15840 X0.6744 Y2.4514
N15845 X0.6802 Y2.4568
N15850 X0.6824 Y2.4589
N15855 X0.6891 Y2.4648
N15860 X0.6904 Y2.4659
N15865 X0.6983 Y2.4728
N15870 X0.7063 Y2.4795
N15875 X0.7079 Y2.4808
N15880 X0.7143 Y2.4859
N15885 X0.7178 Y2.4887
N15890 X0.7223 Y2.4921
N15895 X0.7283 Y2.4967
N15900 X0.7302 Y2.4982
N15905 X0.7382 Y2.5039
N15910 X0.7392 Y2.5047
N15915 X0.7462 Y2.5096
N15920 X0.7507 Y2.5127
N15925 X0.7542 Y2.515
N15930 X0.7621 Y2.5203
N15935 X0.7627 Y2.5206
N15940 X0.7701 Y2.5254
N15945 X0.7781 Y2.5303
N15950 X0.7861 Y2.535
N15955 X0.7887 Y2.5366
N15960 X0.794 Y2.5397
N15965 X0.802 Y2.5441
N15970 X0.8029 Y2.5446
N15975 X0.81 Y2.5484
N15980 X0.818 Y2.5525
N15985 X0.8259 Y2.5565
N15990 X0.8339 Y2.5604
N15995 X0.8341 Y2.5605
N16000 X0.8419 Y2.5641
N16005 X0.8498 Y2.5677
N16010 X0.8578 Y2.5711
N16015 X0.8658 Y2.5744
N16020 X0.8738 Y2.5776
N16025 X0.8817 Y2.5807
N16030 X0.8897 Y2.5836
N16035 X0.8919 Y2.5844
N16040 X0.8977 Y2.5864
N16045 X0.9057 Y2.5891
N16050 X0.9136 Y2.5917
N16055 X0.9159 Y2.5924
N16060 X0.9216 Y2.5941
N16065 X0.9296 Y2.5965
N16070 X0.9376 Y2.5987
N16075 X0.9455 Y2.6008
N16080 X0.9535 Y2.6028
N16085 X0.9615 Y2.6047
N16090 X0.9694 Y2.6064
N16095 X0.9774 Y2.6081
N16100 X0.9784 Y2.6083
N16105 X0.9854 Y2.6097
N16110 X0.9934 Y2.6111
N16115 X1.0013 Y2.6124
N16120 X1.0093 Y2.6137
N16125 X1.0173 Y2.6148
N16130 X1.0253 Y2.6159
N16135 X1.0293 Y2.6163
N16140 X1.0332 Y2.6168
N16145 X1.0412 Y2.6176
N16150 X1.0492 Y2.6183
N16155 X1.0572 Y2.6189
N16160 X1.0651 Y2.6194
N16165 X1.0731 Y2.6198
N16170 X1.0811 Y2.6201
N16175 X1.0891 Y2.6203
N16180 X1.097 Y2.6204
N16185 X1.105
N16190 X1.4031
N16195 X1.4032 Y2.6205
N16200 Y2.6209
N16205 X1.4033 Y2.6214
N16210 X1.4035 Y2.6223
N16215 X1.4037 Y2.6233
N16220 X1.4038 Y2.6238
N16225 X1.4039 Y2.6242
N16230 G0 Z-0.4398
N16235 X1.9635 Y2.6204
N16240 G1 Z-0.615 F40
N16245 X2.0937 Z-0.6195
N16250 X2.1017 Z-0.6198
N16255 X2.1097 Y2.6203 Z-0.6201
N16260 X2.1177 Y2.6201 Z-0.6204
N16265 X2.1256 Y2.6198 Z-0.6207
N16270 X2.1336 Y2.6194 Z-0.6209
N16275 X2.1416 Y2.6189 Z-0.6212
N16280 X2.1496 Y2.6183 Z-0.6215
N16285 X2.1575 Y2.6176 Z-0.6218
N16290 X2.1655 Y2.6168 Z-0.6221
N16295 X2.1694 Y2.6163 Z-0.6222
N16300 X2.1735 Y2.6159 Z-0.6223
N16305 X2.1814 Y2.6148 Z-0.6226
N16310 X2.1894 Y2.6137 Z-0.6229
N16315 X2.1974 Y2.6124 Z-0.6232
N16320 X2.2054 Y2.6111 Z-0.6235
N16325 X2.2133 Y2.6097 Z-0.6237
N16330 X2.2203 Y2.6083 Z-0.624
N16335 X2.2213 Y2.6081
N16340 X2.2293 Y2.6064 Z-0.6243
N16345 X2.2373 Y2.6047 Z-0.6246
N16350 X2.2452 Y2.6028 Z-0.6249
N16355 X2.2532 Y2.6008 Z-0.6252
N16360 X2.2612 Y2.5987 Z-0.6255
N16365 X2.2692 Y2.5965 Z-0.6258
N16370 X2.2771 Y2.5941 Z-0.626
N16375 X2.2828 Y2.5924 Z-0.6262
N16380 X2.2851 Y2.5917 Z-0.6263
N16385 X2.2931 Y2.5891 Z-0.6266
N16390 X2.3011 Y2.5864 Z-0.6269
N16395 X2.3068 Y2.5844 Z-0.6271
N16400 X2.309 Y2.5836 Z-0.6272
N16405 X2.317 Y2.5807 Z-0.6275
N16410 X2.325 Y2.5776 Z-0.6278
N16415 X2.3329 Y2.5744 Z-0.6281
N16420 X2.3409 Y2.5711 Z-0.6284
N16425 X2.3489 Y2.5677 Z-0.6287
N16430 X2.3569 Y2.5641 Z-0.629
N16435 X2.3646 Y2.5605 Z-0.6293
N16440 X2.3648 Y2.5604
N16445 X2.3728 Y2.5565 Z-0.6296
N16450 X2.3808 Y2.5525 Z-0.6299
N16455 X2.3888 Y2.5484 Z-0.6303
N16460 X2.3959 Y2.5446 Z-0.6305
N16465 X2.3967 Y2.5441 Z-0.6306
N16470 X2.4047 Y2.5397 Z-0.6309
N16475 X2.41 Y2.5366 Z-0.6311
N16480 X2.4127 Y2.535 Z-0.6312
N16485 X2.4207 Y2.5303 Z-0.6315
N16490 X2.4286 Y2.5254 Z-0.6319
N16495 X2.436 Y2.5206 Z-0.6322
N16500 X2.4366 Y2.5203
N16505 X2.4446 Y2.515 Z-0.6325
N16510 X2.4481 Y2.5127 Z-0.6327
N16515 X2.4526 Y2.5096 Z-0.6329
N16520 X2.4595 Y2.5047 Z-0.6332
N16525 X2.4605 Y2.5039
N16530 X2.4685 Y2.4982 Z-0.6336
N16535 X2.4704 Y2.4967
N16540 X2.4765 Y2.4921 Z-0.6339
N16545 X2.4809 Y2.4887 Z-0.6341
N16550 X2.4844 Y2.4859 Z-0.6343
N16555 X2.4909 Y2.4808 Z-0.6345
N16560 X2.4924 Y2.4795 Z-0.6346
N16565 X2.5004 Y2.4728 Z-0.635
N16570 X2.5084 Y2.4659 Z-0.6353
N16575 X2.5096 Y2.4648 Z-0.6354
N16580 X2.5163 Y2.4589 Z-0.6357
N16585 X2.5185 Y2.4568 Z-0.6358
N16590 X2.5243 Y2.4514 Z-0.6361
N16595 X2.5271 Y2.4489 Z-0.6362
N16600 X2.5323 Y2.4438 Z-0.6365
N16605 X2.5353 Y2.4409 Z-0.6366
N16610 X2.5403 Y2.4359 Z-0.6369
N16615 X2.5432 Y2.4329 Z-0.637
N16620 X2.5482 Y2.4277 Z-0.6373
N16625 X2.5508 Y2.4249 Z-0.6374
N16630 X2.5562 Y2.4191 Z-0.6377
N16635 X2.5582 Y2.417 Z-0.6378
N16640 X2.5642 Y2.4103 Z-0.6381
N16645 X2.5653 Y2.409 Z-0.6382
N16650 X2.5722 Y2.4011 Z-0.6385
N16655 X2.5789 Y2.3931 Z-0.6389
N16660 X2.5801 Y2.3915 Z-0.639
N16665 X2.5853 Y2.3851 Z-0.6392
N16670 X2.5881 Y2.3815 Z-0.6394
N16675 X2.5915 Y2.3771 Z-0.6396
N16680 X2.5961 Y2.3711 Z-0.6399
N16685 X2.5975 Y2.3691
N16690 X2.6033 Y2.3612 Z-0.6403
N16695 X2.6041 Y2.3601
N16700 X2.6089 Y2.3532 Z-0.6406
N16705 X2.612 Y2.3487 Z-0.6408
N16710 X2.6144 Y2.3452 Z-0.641
N16715 X2.6196 Y2.3372 Z-0.6413
N16720 X2.62 Y2.3367
N16725 X2.6247 Y2.3293 Z-0.6416
N16730 X2.6297 Y2.3213 Z-0.642
N16735 X2.6344 Y2.3133 Z-0.6423
N16740 X2.6359 Y2.3107 Z-0.6424
N16745 X2.639 Y2.3053 Z-0.6426
N16750 X2.6434 Y2.2974 Z-0.6429
N16755 X2.6439 Y2.2965 Z-0.643
N16760 X2.6477 Y2.2894 Z-0.6432
N16765 X2.6519 Y2.2814 Z-0.6436
N16770 X2.6559 Y2.2734 Z-0.6439
N16775 X2.6598 Y2.2655 Z-0.6442
N16780 X2.6599 Y2.2652
N16785 X2.6634 Y2.2575 Z-0.6445
N16790 X2.667 Y2.2495 Z-0.6448
N16795 X2.6705 Y2.2416 Z-0.6451
N16800 X2.6738 Y2.2336 Z-0.6454
N16805 X2.677 Y2.2256 Z-0.6457
N16810 X2.68 Y2.2176 Z-0.646
N16815 X2.683 Y2.2097 Z-0.6463
N16820 X2.6838 Y2.2074 Z-0.6464
N16825 X2.6858 Y2.2017 Z-0.6466
N16830 X2.6885 Y2.1937 Z-0.6469
N16835 X2.691 Y2.1857 Z-0.6472
N16840 X2.6918 Y2.1834 Z-0.6473
N16845 X2.6935 Y2.1778 Z-0.6475
N16850 X2.6958 Y2.1698 Z-0.6478
N16855 X2.6981 Y2.1618 Z-0.648
N16860 X2.7002 Y2.1538 Z-0.6483
N16865 X2.7022 Y2.1459 Z-0.6486
N16870 X2.7041 Y2.1379 Z-0.6489
N16875 X2.7058 Y2.1299 Z-0.6492
N16880 X2.7075 Y2.1219 Z-0.6495
N16885 X2.7077 Y2.1209
N16890 X2.709 Y2.114 Z-0.6498
N16895 X2.7105 Y2.106 Z-0.65
N16900 X2.7118 Y2.098 Z-0.6503
N16905 X2.7131 Y2.0901 Z-0.6506
N16910 X2.7142 Y2.0821 Z-0.6509
N16915 X2.7152 Y2.0741 Z-0.6512
N16920 X2.7157 Y2.0701 Z-0.6513
N16925 X2.7161 Y2.0661 Z-0.6514
N16930 X2.717 Y2.0582 Z-0.6517
N16935 X2.7176 Y2.0502 Z-0.652
N16940 X2.7183 Y2.0422 Z-0.6523
N16945 X2.7188 Y2.0342 Z-0.6526
N16950 X2.7192 Y2.0263 Z-0.6528
N16955 X2.7195 Y2.0183 Z-0.6531
N16960 X2.7197 Y2.0103 Z-0.6534
N16965 Y2.0023 Z-0.6537
N16970 X2.7198 Y1.9944 Z-0.654
N16975 Y1.6963 Z-0.6644
N16980 X2.7199 Y1.6962
N16985 X2.7203 Y1.6961
N16990 X2.7208
N16995 X2.7217 Y1.6959
N17000 X2.7227 Y1.6957 Z-0.6645
N17005 X2.7232 Y1.6956
N17010 X2.7236 Y1.6955
N17015 X2.7232 Y1.6956
N17020 X2.7227 Y1.6957
N17025 X2.7217 Y1.6959 Z-0.6646
N17030 X2.7208 Y1.6961
N17035 X2.7203
N17040 X2.7199 Y1.6962
N17045 X2.7198 Y1.6963
N17050 Y1.9944 Z-0.675
N17055 X2.7197 Y2.0023 Z-0.6753
N17060 Y2.0103 Z-0.6756
N17065 X2.7195 Y2.0183 Z-0.6759
N17070 X2.7192 Y2.0263 Z-0.6762
N17075 X2.7188 Y2.0342 Z-0.6764
N17080 X2.7183 Y2.0422 Z-0.6767
N17085 X2.7176 Y2.0502 Z-0.677
N17090 X2.717 Y2.0582 Z-0.6773
N17095 X2.7161 Y2.0661 Z-0.6776
N17100 X2.7157 Y2.0701 Z-0.6777
N17105 X2.7152 Y2.0741 Z-0.6778
N17110 X2.7142 Y2.0821 Z-0.6781
N17115 X2.7131 Y2.0901 Z-0.6784
N17120 X2.7118 Y2.098 Z-0.6787
N17125 X2.7105 Y2.106 Z-0.679
N17130 X2.709 Y2.114 Z-0.6792
N17135 X2.7077 Y2.1209 Z-0.6795
N17140 X2.7075 Y2.1219
N17145 X2.7058 Y2.1299 Z-0.6798
N17150 X2.7041 Y2.1379 Z-0.6801
N17155 X2.7022 Y2.1459 Z-0.6804
N17160 X2.7002 Y2.1538 Z-0.6807
N17165 X2.6981 Y2.1618 Z-0.681
N17170 X2.6958 Y2.1698 Z-0.6812
N17175 X2.6935 Y2.1778 Z-0.6815
N17180 X2.6918 Y2.1834 Z-0.6817
N17185 X2.691 Y2.1857 Z-0.6818
N17190 X2.6885 Y2.1937 Z-0.6821
N17195 X2.6858 Y2.2017 Z-0.6824
N17200 X2.6838 Y2.2074 Z-0.6826
N17205 X2.683 Y2.2097 Z-0.6827
N17210 X2.68 Y2.2176 Z-0.683
N17215 X2.677 Y2.2256 Z-0.6833
N17220 X2.6738 Y2.2336 Z-0.6836
N17225 X2.6705 Y2.2416 Z-0.6839
N17230 X2.667 Y2.2495 Z-0.6842
N17235 X2.6634 Y2.2575 Z-0.6845
N17240 X2.6599 Y2.2652 Z-0.6848
N17245 X2.6598 Y2.2655
N17250 X2.6559 Y2.2734 Z-0.6851
N17255 X2.6519 Y2.2814 Z-0.6854
N17260 X2.6477 Y2.2894 Z-0.6858
N17265 X2.6439 Y2.2965 Z-0.686
N17270 X2.6434 Y2.2974 Z-0.6861
N17275 X2.639 Y2.3053 Z-0.6864
N17280 X2.6359 Y2.3107 Z-0.6866
N17285 X2.6344 Y2.3133 Z-0.6867
N17290 X2.6297 Y2.3213 Z-0.687
N17295 X2.6247 Y2.3293 Z-0.6874
N17300 X2.62 Y2.3367 Z-0.6877
N17305 X2.6196 Y2.3372
N17310 X2.6144 Y2.3452 Z-0.688
N17315 X2.612 Y2.3487 Z-0.6882
N17320 X2.6089 Y2.3532 Z-0.6884
N17325 X2.6041 Y2.3601 Z-0.6887
N17330 X2.6033 Y2.3612
N17335 X2.5975 Y2.3691 Z-0.6891
N17340 X2.5961 Y2.3711
N17345 X2.5915 Y2.3771 Z-0.6894
N17350 X2.5881 Y2.3815 Z-0.6896
N17355 X2.5853 Y2.3851 Z-0.6898
N17360 X2.5801 Y2.3915 Z-0.69
N17365 X2.5789 Y2.3931 Z-0.6901
N17370 X2.5722 Y2.4011 Z-0.6905
N17375 X2.5653 Y2.409 Z-0.6908
N17380 X2.5642 Y2.4103 Z-0.6909
N17385 X2.5582 Y2.417 Z-0.6912
N17390 X2.5562 Y2.4191 Z-0.6913
N17395 X2.5508 Y2.4249 Z-0.6916
N17400 X2.5482 Y2.4277 Z-0.6917
N17405 X2.5432 Y2.4329 Z-0.692
N17410 X2.5403 Y2.4359 Z-0.6921
N17415 X2.5353 Y2.4409 Z-0.6924
N17420 X2.5323 Y2.4438 Z-0.6925
N17425 X2.5271 Y2.4489 Z-0.6928
N17430 X2.5243 Y2.4514 Z-0.6929
N17435 X2.5185 Y2.4568 Z-0.6932
N17440 X2.5163 Y2.4589 Z-0.6933
N17445 X2.5096 Y2.4648 Z-0.6936
N17450 X2.5084 Y2.4659 Z-0.6937
N17455 X2.5004 Y2.4728 Z-0.694
N17460 X2.4924 Y2.4795 Z-0.6944
N17465 X2.4909 Y2.4808 Z-0.6945
N17470 X2.4844 Y2.4859 Z-0.6947
N17475 X2.4809 Y2.4887 Z-0.6949
N17480 X2.4765 Y2.4921 Z-0.6951
N17485 X2.4704 Y2.4967 Z-0.6954
N17490 X2.4685 Y2.4982
N17495 X2.4605 Y2.5039 Z-0.6958
N17500 X2.4595 Y2.5047
N17505 X2.4526 Y2.5096 Z-0.6961
N17510 X2.4481 Y2.5127 Z-0.6963
N17515 X2.4446 Y2.515 Z-0.6965
N17520 X2.4366 Y2.5203 Z-0.6968
N17525 X2.436 Y2.5206
N17530 X2.4286 Y2.5254 Z-0.6971
N17535 X2.4207 Y2.5303 Z-0.6975
N17540 X2.4127 Y2.535 Z-0.6978
N17545 X2.41 Y2.5366 Z-0.6979
N17550 X2.4047 Y2.5397 Z-0.6981
N17555 X2.3967 Y2.5441 Z-0.6984
N17560 X2.3959 Y2.5446 Z-0.6985
N17565 X2.3888 Y2.5484 Z-0.6987
N17570 X2.3808 Y2.5525 Z-0.6991
N17575 X2.3728 Y2.5565 Z-0.6994
N17580 X2.3648 Y2.5604 Z-0.6997
N17585 X2.3646 Y2.5605
N17590 X2.3569 Y2.5641 Z-0.7
N17595 X2.3489 Y2.5677 Z-0.7003
N17600 X2.3409 Y2.5711 Z-0.7006
N17605 X2.3329 Y2.5744 Z-0.7009
N17610 X2.325 Y2.5776 Z-0.7012
N17615 X2.317 Y2.5807 Z-0.7015
N17620 X2.309 Y2.5836 Z-0.7018
N17625 X2.3068 Y2.5844 Z-0.7019
N17630 X2.3011 Y2.5864 Z-0.7021
N17635 X2.2931 Y2.5891 Z-0.7024
N17640 X2.2851 Y2.5917 Z-0.7027
N17645 X2.2828 Y2.5924 Z-0.7028
N17650 X2.2771 Y2.5941 Z-0.703
N17655 X2.2692 Y2.5965 Z-0.7033
N17660 X2.2612 Y2.5987 Z-0.7035
N17665 X2.2532 Y2.6008 Z-0.7038
N17670 X2.2452 Y2.6028 Z-0.7041
N17675 X2.2373 Y2.6047 Z-0.7044
N17680 X2.2293 Y2.6064 Z-0.7047
N17685 X2.2213 Y2.6081 Z-0.705
N17690 X2.2203 Y2.6083
N17695 X2.2133 Y2.6097 Z-0.7053
N17700 X2.2054 Y2.6111 Z-0.7055
N17705 X2.1974 Y2.6124 Z-0.7058
N17710 X2.1894 Y2.6137 Z-0.7061
N17715 X2.1814 Y2.6148 Z-0.7064
N17720 X2.1735 Y2.6159 Z-0.7067
N17725 X2.1694 Y2.6163 Z-0.7068
N17730 X2.1655 Y2.6168 Z-0.7069
N17735 X2.1575 Y2.6176 Z-0.7072
N17740 X2.1496 Y2.6183 Z-0.7075
N17745 X2.1416 Y2.6189 Z-0.7078
N17750 X2.1336 Y2.6194 Z-0.7081
N17755 X2.1256 Y2.6198 Z-0.7083
N17760 X2.1177 Y2.6201 Z-0.7086
N17765 X2.1097 Y2.6203 Z-0.7089
N17770 X2.1017 Y2.6204 Z-0.7092
N17775 X2.0937 Z-0.7095
N17780 X1.7956 Z-0.7199
N17785 Y2.6205
N17790 X1.7955 Y2.6209
N17795 X1.7954 Y2.6214
N17800 X1.7952 Y2.6223
N17805 X1.7951 Y2.6233 Z-0.72
N17810 X1.795 Y2.6238
N17815 X1.7949 Y2.6242
N17820 X1.795 Y2.6238
N17825 X1.7951 Y2.6233
N17830 X1.7952 Y2.6223
N17835 X1.7954 Y2.6214
N17840 X1.7955 Y2.6209
N17845 X1.7956 Y2.6205
N17850 Y2.6204
N17855 X2.0937
N17860 X2.1017
N17865 X2.1097 Y2.6203
N17870 X2.1177 Y2.6201
N17875 X2.1256 Y2.6198
N17880 X2.1336 Y2.6194
N17885 X2.1416 Y2.6189
N17890 X2.1496 Y2.6183
N17895 X2.1575 Y2.6176
N17900 X2.1655 Y2.6168
N17905 X2.1694 Y2.6163
N17910 X2.1735 Y2.6159
N17915 X2.1814 Y2.6148
N17920 X2.1894 Y2.6137
N17925 X2.1974 Y2.6124
N17930 X2.2054 Y2.6111
N17935 X2.2133 Y2.6097
N17940 X2.2203 Y2.6083
N17945 X2.2213 Y2.6081
N17950 X2.2293 Y2.6064
N17955 X2.2373 Y2.6047
N17960 X2.2452 Y2.6028
N17965 X2.2532 Y2.6008
N17970 X2.2612 Y2.5987
N17975 X2.2692 Y2.5965
N17980 X2.2771 Y2.5941
N17985 X2.2828 Y2.5924
N17990 X2.2851 Y2.5917
N17995 X2.2931 Y2.5891
N18000 X2.3011 Y2.5864
N18005 X2.3068 Y2.5844
N18010 X2.309 Y2.5836
N18015 X2.317 Y2.5807
N18020 X2.325 Y2.5776
N18025 X2.3329 Y2.5744
N18030 X2.3409 Y2.5711
N18035 X2.3489 Y2.5677
N18040 X2.3569 Y2.5641
N18045 X2.3646 Y2.5605
N18050 X2.3648 Y2.5604
N18055 X2.3728 Y2.5565
N18060 X2.3808 Y2.5525
N18065 X2.3888 Y2.5484
N18070 X2.3959 Y2.5446
N18075 X2.3967 Y2.5441
N18080 X2.4047 Y2.5397
N18085 X2.41 Y2.5366
N18090 X2.4127 Y2.535
N18095 X2.4207 Y2.5303
N18100 X2.4286 Y2.5254
N18105 X2.436 Y2.5206
N18110 X2.4366 Y2.5203
N18115 X2.4446 Y2.515
N18120 X2.4481 Y2.5127
N18125 X2.4526 Y2.5096
N18130 X2.4595 Y2.5047
N18135 X2.4605 Y2.5039
N18140 X2.4685 Y2.4982
N18145 X2.4704 Y2.4967
N18150 X2.4765 Y2.4921
N18155 X2.4809 Y2.4887
N18160 X2.4844 Y2.4859
N18165 X2.4909 Y2.4808
N18170 X2.4924 Y2.4795
N18175 X2.5004 Y2.4728
N18180 X2.5084 Y2.4659
N18185 X2.5096 Y2.4648
N18190 X2.5163 Y2.4589
N18195 X2.5185 Y2.4568
N18200 X2.5243 Y2.4514
N18205 X2.5271 Y2.4489
N18210 X2.5323 Y2.4438
N18215 X2.5353 Y2.4409
N18220 X2.5403 Y2.4359
N18225 X2.5432 Y2.4329
N18230 X2.5482 Y2.4277
N18235 X2.5508 Y2.4249
N18240 X2.5562 Y2.4191
N18245 X2.5582 Y2.417
N18250 X2.5642 Y2.4103
N18255 X2.5653 Y2.409
N18260 X2.5722 Y2.4011
N18265 X2.5789 Y2.3931
N18270 X2.5801 Y2.3915
N18275 X2.5853 Y2.3851
N18280 X2.5881 Y2.3815
N18285 X2.5915 Y2.3771
N18290 X2.5961 Y2.3711
N18295 X2.5975 Y2.3691
N18300 X2.6033 Y2.3612
N18305 X2.6041 Y2.3601
N18310 X2.6089 Y2.3532
N18315 X2.612 Y2.3487
N18320 X2.6144 Y2.3452
N18325 X2.6196 Y2.3372
N18330 X2.62 Y2.3367
N18335 X2.6247 Y2.3293
N18340 X2.6297 Y2.3213
N18345 X2.6344 Y2.3133
N18350 X2.6359 Y2.3107
N18355 X2.639 Y2.3053
N18360 X2.6434 Y2.2974
N18365 X2.6439 Y2.2965
N18370 X2.6477 Y2.2894
N18375 X2.6519 Y2.2814
N18380 X2.6559 Y2.2734
N18385 X2.6598 Y2.2655
N18390 X2.6599 Y2.2652
N18395 X2.6634 Y2.2575
N18400 X2.667 Y2.2495
N18405 X2.6705 Y2.2416
N18410 X2.6738 Y2.2336
N18415 X2.677 Y2.2256
N18420 X2.68 Y2.2176
N18425 X2.683 Y2.2097
N18430 X2.6838 Y2.2074
N18435 X2.6858 Y2.2017
N18440 X2.6885 Y2.1937
N18445 X2.691 Y2.1857
N18450 X2.6918 Y2.1834
N18455 X2.6935 Y2.1778
N18460 X2.6958 Y2.1698
N18465 X2.6981 Y2.1618
N18470 X2.7002 Y2.1538
N18475 X2.7022 Y2.1459
N18480 X2.7041 Y2.1379
N18485 X2.7058 Y2.1299
N18490 X2.7075 Y2.1219
N18495 X2.7077 Y2.1209
N18500 X2.709 Y2.114
N18505 X2.7105 Y2.106
N18510 X2.7118 Y2.098
N18515 X2.7131 Y2.0901
N18520 X2.7142 Y2.0821
N18525 X2.7152 Y2.0741
N18530 X2.7157 Y2.0701
N18535 X2.7161 Y2.0661
N18540 X2.717 Y2.0582
N18545 X2.7176 Y2.0502
N18550 X2.7183 Y2.0422
N18555 X2.7188 Y2.0342
N18560 X2.7192 Y2.0263
N18565 X2.7195 Y2.0183
N18570 X2.7197 Y2.0103
N18575 Y2.0023
N18580 X2.7198 Y1.9944
