%
(1003)
(Bottom of workpiece)
(T4 D=0.25 CR=0 - ZMIN=0.39 - flat end mill)
N10 G90
N15 G28 G91 Z0
N20 G90

(2D Contour2)
N25 M9
N30 T4 M6
N35 S1000 M3
N40 M9
N45 G0 X0.4 Y-1.525
N50 Z1.35
N55 Z0.95
N60 G1 Z0.9144 F40
N65 Z0.65
N70 X0.4003 Z0.6461
N75 X0.4012 Z0.6423
N80 X0.4027 Z0.6387
N85 X0.4048 Z0.6353
N90 X0.4073 Z0.6323
N95 X0.4103 Z0.6298
N100 X0.4137 Z0.6277
N105 X0.4173 Z0.6262
N110 X0.4211 Z0.6253
N115 X0.425 Z0.625
N120 X0.45
N125 G3 X0.475 Y-1.5 J0.025
N130 G1 Y-1.001
N135 G2 X0.4751 Y-0.9966 I0.125
N140 G1 X0.4763 Y-0.9611
N145 G2 X0.477 Y-0.9522 I0.1249 J-0.0044
N150 G1 X0.4807 Y-0.9169
N155 G2 X0.482 Y-0.9082 I0.1243 J-0.0133
N160 G1 X0.4882 Y-0.8733
N165 G2 X0.4901 Y-0.8647 I0.123 J-0.022
N170 G1 X0.4988 Y-0.8303
N175 G2 X0.5012 Y-0.8221 I0.1212 J-0.0307
N180 G1 X0.5114 Y-0.7908
N185 G2 X0.5143 Y-0.783 I0.1188 J-0.0389
N190 G1 X0.5266 Y-0.7524
N195 G2 X0.5299 Y-0.7449 I0.116 J-0.0467
N200 G1 X0.5442 Y-0.7152
N205 G2 X0.548 Y-0.7079 I0.1126 J-0.0542
N210 G1 X0.5642 Y-0.6792
N215 G2 X0.5683 Y-0.6725 I0.1088 J-0.0615
N220 G1 X0.5848 Y-0.6472
N225 G2 X0.5891 Y-0.641 I0.1047 J-0.0682
N230 G1 X0.607 Y-0.6168
N235 G2 X0.6117 Y-0.6108 I0.1004 J-0.0744
N240 G1 X0.6311 Y-0.5877
N245 G2 X0.6361 Y-0.582 I0.0958 J-0.0803
N250 G1 X0.657 Y-0.5601
N255 G2 X0.6623 Y-0.5548 I0.0907 J-0.086
N260 G1 X0.6841 Y-0.5344
N265 G2 X0.6897 Y-0.5295 I0.0854 J-0.0913
N270 G1 X0.7126 Y-0.5105
N275 G2 X0.7184 Y-0.5059 I0.0798 J-0.0962
N280 G1 X0.7424 Y-0.4883
N285 G2 X0.7485 Y-0.4841 I0.074 J-0.1008
N290 G1 X0.7735 Y-0.4679
N295 G2 X0.7801 Y-0.4639 I0.0679 J-0.105
N300 G1 X0.8081 Y-0.4482
N305 G2 X0.8151 Y-0.4445 I0.0612 J-0.109
N310 G1 X0.8441 Y-0.4306
N315 G2 X0.8514 Y-0.4274 I0.0541 J-0.1127
N320 G1 X0.8812 Y-0.4153
N325 G2 X0.8888 Y-0.4126 I0.0468 J-0.1159
N330 G1 X0.9193 Y-0.4025
N335 G2 X0.9274 Y-0.4001 I0.0393 J-0.1187
N340 G1 X0.9622 Y-0.3911
N345 G2 X0.971 Y-0.3892 I0.0311 J-0.1211
N350 G1 X1.0064 Y-0.3828
N355 G2 X1.0153 Y-0.3815 I0.0223 J-0.123
N360 G1 X1.051 Y-0.3776
N365 G2 X1.06 Y-0.377 I0.0134 J-0.1243
N370 G1 X1.0959 Y-0.3757
N375 G2 X1.1004 Y-0.3756 I0.0045 J-0.1249
N380 G1 X2.0984
N385 G2 X2.1028 Y-0.3757 J-0.125
N390 G1 X2.1383 Y-0.377
N395 G2 X2.1472 Y-0.3776 I-0.0044 J-0.1249
N400 G1 X2.1824 Y-0.3814
N405 G2 X2.1912 Y-0.3826 I-0.0133 J-0.1243
N410 G1 X2.2261 Y-0.3889
N415 G2 X2.2347 Y-0.3907 I-0.022 J-0.123
N420 G1 X2.2691 Y-0.3994
N425 G2 X2.2773 Y-0.4018 I-0.0307 J-0.1212
N430 G1 X2.3086 Y-0.4121
N435 G2 X2.3163 Y-0.4149 I-0.0389 J-0.1188
N440 G1 X2.347 Y-0.4272
N445 G2 X2.3545 Y-0.4306 I-0.0466 J-0.116
N450 G1 X2.3842 Y-0.4448
N455 G2 X2.3915 Y-0.4487 I-0.0542 J-0.1126
N460 G1 X2.4202 Y-0.4648
N465 G2 X2.4269 Y-0.4689 I-0.0615 J-0.1088
N470 G1 X2.4522 Y-0.4854
N475 G2 X2.4584 Y-0.4897 I-0.0682 J-0.1047
N480 G1 X2.4826 Y-0.5077
N485 G2 X2.4885 Y-0.5123 I-0.0744 J-0.1004
N490 G1 X2.5117 Y-0.5318
N495 G2 X2.5173 Y-0.5368 I-0.0803 J-0.0958
N500 G1 X2.5393 Y-0.5576
N505 G2 X2.5446 Y-0.5629 I-0.086 J-0.0907
N510 G1 X2.565 Y-0.5847
N515 G2 X2.5699 Y-0.5903 I-0.0913 J-0.0854
N520 G1 X2.5889 Y-0.6132
N525 G2 X2.5935 Y-0.6191 I-0.0962 J-0.0798
N530 G1 X2.6111 Y-0.643
N535 G2 X2.6153 Y-0.6492 I-0.1008 J-0.074
N540 G1 X2.6315 Y-0.6741
N545 G2 X2.6354 Y-0.6807 I-0.105 J-0.0679
N550 G1 X2.6511 Y-0.7087
N555 G2 X2.6549 Y-0.7158 I-0.109 J-0.0612
N560 G1 X2.6688 Y-0.7447
N565 G2 X2.672 Y-0.752 I-0.1127 J-0.0541
N570 G1 X2.684 Y-0.7819
N575 G2 X2.6868 Y-0.7894 I-0.1159 J-0.0468
N580 G1 X2.6969 Y-0.8199
N585 G2 X2.6993 Y-0.8281 I-0.1187 J-0.0393
N590 G1 X2.7082 Y-0.8629
N595 G2 X2.7101 Y-0.8716 I-0.1211 J-0.0311
N600 G1 X2.7166 Y-0.907
N605 G2 X2.7179 Y-0.9159 I-0.123 J-0.0223
N610 G1 X2.7217 Y-0.9516
N615 G2 X2.7224 Y-0.9606 I-0.1243 J-0.0134
N620 G1 X2.7237 Y-0.9965
N625 G2 Y-1.001 I-0.1249 J-0.0045
N630 G1 Y-1.999
N635 G2 Y-2.0034 I-0.125
N640 G1 X2.7224 Y-2.0389
N645 G2 X2.7218 Y-2.0478 I-0.1249 J0.0044
N650 G1 X2.718 Y-2.0831
N655 G2 X2.7167 Y-2.0918 I-0.1243 J0.0133
N660 G1 X2.7105 Y-2.1267
N665 G2 X2.7086 Y-2.1353 I-0.123 J0.022
N670 G1 X2.6999 Y-2.1697
N675 G2 X2.6975 Y-2.1779 I-0.1212 J0.0307
N680 G1 X2.6873 Y-2.2092
N685 G2 X2.6845 Y-2.217 I-0.1188 J0.0389
N690 G1 X2.6721 Y-2.2476
N695 G2 X2.6688 Y-2.2551 I-0.116 J0.0466
N700 G1 X2.6545 Y-2.2849
N705 G2 X2.6507 Y-2.2921 I-0.1126 J0.0542
N710 G1 X2.6345 Y-2.3208
N715 G2 X2.6304 Y-2.3275 I-0.1088 J0.0615
N720 G1 X2.614 Y-2.3528
N725 G2 X2.6097 Y-2.359 I-0.1047 J0.0682
N730 G1 X2.5917 Y-2.3833
N735 G2 X2.587 Y-2.3892 I-0.1004 J0.0744
N740 G1 X2.5676 Y-2.4123
N745 G2 X2.5626 Y-2.418 I-0.0958 J0.0803
N750 G1 X2.5418 Y-2.4399
N755 G2 X2.5364 Y-2.4452 I-0.0907 J0.086
N760 G1 X2.5147 Y-2.4656
N765 G2 X2.5091 Y-2.4705 I-0.0854 J0.0913
N770 G1 X2.4862 Y-2.4896
N775 G2 X2.4803 Y-2.4941 I-0.0798 J0.0962
N780 G1 X2.4563 Y-2.5117
N785 G2 X2.4502 Y-2.5159 I-0.074 J0.1008
N790 G1 X2.4252 Y-2.5321
N795 G2 X2.4186 Y-2.5361 I-0.0679 J0.105
N800 G1 X2.3907 Y-2.5518
N805 G2 X2.3836 Y-2.5555 I-0.0612 J0.109
N810 G1 X2.3547 Y-2.5694
N815 G2 X2.3473 Y-2.5726 I-0.0541 J0.1127
N820 G1 X2.3175 Y-2.5847
N825 G2 X2.31 Y-2.5874 I-0.0468 J0.1159
N830 G1 X2.2795 Y-2.5975
N835 G2 X2.2713 Y-2.5999 I-0.0393 J0.1187
N840 G1 X2.2365 Y-2.6089
N845 G2 X2.2277 Y-2.6108 I-0.0311 J0.1211
N850 G1 X2.1924 Y-2.6172
N855 G2 X2.1835 Y-2.6185 I-0.0223 J0.123
N860 G1 X2.1477 Y-2.6224
N865 G2 X2.1388 Y-2.623 I-0.0134 J0.1243
N870 G1 X2.1029 Y-2.6243
N875 G2 X2.0984 Y-2.6244 I-0.0045 J0.1249
N880 G1 X1.1004
N885 G2 X1.0959 Y-2.6243 J0.125
N890 G1 X1.0604 Y-2.623
N895 G2 X1.0516 Y-2.6224 I0.0044 J0.1249
N900 G1 X1.0163 Y-2.6186
N905 G2 X1.0075 Y-2.6174 I0.0133 J0.1243
N910 G1 X0.9727 Y-2.6111
N915 G2 X0.964 Y-2.6093 I0.022 J0.123
N920 G1 X0.9297 Y-2.6006
N925 G2 X0.9215 Y-2.5982 I0.0307 J0.1212
N930 G1 X0.8902 Y-2.5879
N935 G2 X0.8824 Y-2.5851 I0.0389 J0.1188
N940 G1 X0.8518 Y-2.5728
N945 G2 X0.8442 Y-2.5694 I0.0466 J0.116
N950 G1 X0.8145 Y-2.5552
N955 G2 X0.8072 Y-2.5513 I0.0542 J0.1126
N960 G1 X0.7786 Y-2.5352
N965 G2 X0.7718 Y-2.5311 I0.0615 J0.1088
N970 G1 X0.7466 Y-2.5146
N975 G2 X0.7404 Y-2.5103 I0.0682 J0.1047
N980 G1 X0.7161 Y-2.4923
N985 G2 X0.7102 Y-2.4877 I0.0744 J0.1004
N990 G1 X0.6871 Y-2.4683
N995 G2 X0.6814 Y-2.4632 I0.0803 J0.0958
N1000 G1 X0.6594 Y-2.4424
N1005 G2 X0.6541 Y-2.4371 I0.086 J0.0907
N1010 G1 X0.6338 Y-2.4153
N1015 G2 X0.6288 Y-2.4097 I0.0913 J0.0854
N1020 G1 X0.6098 Y-2.3868
N1025 G2 X0.6052 Y-2.3809 I0.0962 J0.0798
N1030 G1 X0.5876 Y-2.357
N1035 G2 X0.5834 Y-2.3508 I0.1008 J0.074
N1040 G1 X0.5673 Y-2.3259
N1045 G2 X0.5633 Y-2.3193 I0.105 J0.0679
N1050 G1 X0.5476 Y-2.2913
N1055 G2 X0.5439 Y-2.2842 I0.109 J0.0612
N1060 G1 X0.53 Y-2.2553
N1065 G2 X0.5267 Y-2.2479 I0.1127 J0.0541
N1070 G1 X0.5147 Y-2.2181
N1075 G2 X0.5119 Y-2.2106 I0.1159 J0.0468
N1080 G1 X0.5018 Y-2.1801
N1085 G2 X0.4995 Y-2.1719 I0.1187 J0.0393
N1090 G1 X0.4905 Y-2.1371
N1095 G2 X0.4886 Y-2.1283 I0.1211 J0.0311
N1100 G1 X0.4822 Y-2.093
N1105 G2 X0.4809 Y-2.0841 I0.123 J0.0223
N1110 G1 X0.477 Y-2.0484
N1115 G2 X0.4764 Y-2.0394 I0.1243 J0.0135
N1120 G1 X0.4751 Y-2.0035
N1125 G2 X0.475 Y-1.999 I0.1249 J0.0045
N1130 G1 Y-1.5
N1135 G3 X0.45 Y-1.475 I-0.025
N1140 G1 X0.425
N1145 X0.4211 Z0.6253
N1150 X0.4173 Z0.6262
N1155 X0.4137 Z0.6277
N1160 X0.4103 Z0.6298
N1165 X0.4073 Z0.6323
N1170 X0.4048 Z0.6353
N1175 X0.4027 Z0.6387
N1180 X0.4012 Z0.6423
N1185 X0.4003 Z0.6461
N1190 X0.4 Z0.65
N1195 Y-1.525
N1200 Z0.525
N1205 X0.4002 Z0.5216
N1210 X0.4009 Z0.5182
N1215 X0.4021 Z0.515
N1220 X0.425
N1225 X0.45
N1230 G3 X0.475 Y-1.5 J0.025
N1235 G1 Y-1.375
N1240 Y-1.36 Z0.5
N1245 Y-1.001
N1250 G2 X0.4751 Y-0.9966 I0.125
N1255 G1 X0.4763 Y-0.9611
N1260 G2 X0.477 Y-0.9522 I0.1249 J-0.0044
N1265 G1 X0.4807 Y-0.9169
N1270 G2 X0.482 Y-0.9082 I0.1243 J-0.0133
N1275 G1 X0.4882 Y-0.8733
N1280 G2 X0.4901 Y-0.8647 I0.123 J-0.022
N1285 G1 X0.4988 Y-0.8303
N1290 G2 X0.5012 Y-0.8221 I0.1212 J-0.0307
N1295 G1 X0.5114 Y-0.7908
N1300 G2 X0.5143 Y-0.783 I0.1188 J-0.0389
N1305 G1 X0.5266 Y-0.7524
N1310 G2 X0.5299 Y-0.7449 I0.116 J-0.0467
N1315 G1 X0.5442 Y-0.7152
N1320 G2 X0.548 Y-0.7079 I0.1126 J-0.0542
N1325 G1 X0.5642 Y-0.6792
N1330 G2 X0.5683 Y-0.6725 I0.1088 J-0.0615
N1335 G1 X0.5848 Y-0.6472
N1340 G2 X0.5891 Y-0.641 I0.1047 J-0.0682
N1345 G1 X0.607 Y-0.6168
N1350 G2 X0.6117 Y-0.6108 I0.1004 J-0.0744
N1355 G1 X0.6311 Y-0.5877
N1360 G2 X0.6361 Y-0.582 I0.0958 J-0.0803
N1365 G1 X0.657 Y-0.5601
N1370 G2 X0.6623 Y-0.5548 I0.0907 J-0.086
N1375 G1 X0.6841 Y-0.5344
N1380 G2 X0.6897 Y-0.5295 I0.0854 J-0.0913
N1385 G1 X0.7126 Y-0.5105
N1390 G2 X0.7184 Y-0.5059 I0.0798 J-0.0962
N1395 G1 X0.7424 Y-0.4883
N1400 G2 X0.7485 Y-0.4841 I0.074 J-0.1008
N1405 G1 X0.7735 Y-0.4679
N1410 G2 X0.7801 Y-0.4639 I0.0679 J-0.105
N1415 G1 X0.8081 Y-0.4482
N1420 G2 X0.8151 Y-0.4445 I0.0612 J-0.109
N1425 G1 X0.8441 Y-0.4306
N1430 G2 X0.8514 Y-0.4274 I0.0541 J-0.1127
N1435 G1 X0.8812 Y-0.4153
N1440 G2 X0.8888 Y-0.4126 I0.0468 J-0.1159
N1445 G1 X0.9193 Y-0.4025
N1450 G2 X0.9274 Y-0.4001 I0.0393 J-0.1187
N1455 G1 X0.9622 Y-0.3911
N1460 G2 X0.971 Y-0.3892 I0.0311 J-0.1211
N1465 G1 X1.0064 Y-0.3828
N1470 G2 X1.0153 Y-0.3815 I0.0223 J-0.123
N1475 G1 X1.051 Y-0.3776
N1480 G2 X1.06 Y-0.377 I0.0134 J-0.1243
N1485 G1 X1.0959 Y-0.3757
N1490 G2 X1.1004 Y-0.3756 I0.0045 J-0.1249
N1495 G1 X1.4594
N1500 X1.4744 Z0.515
N1505 X1.7244
N1510 X1.7394 Z0.5
N1515 X2.0984
N1520 G2 X2.1028 Y-0.3757 J-0.125
N1525 G1 X2.1383 Y-0.377
N1530 G2 X2.1472 Y-0.3776 I-0.0044 J-0.1249
N1535 G1 X2.1824 Y-0.3814
N1540 G2 X2.1912 Y-0.3826 I-0.0133 J-0.1243
N1545 G1 X2.2261 Y-0.3889
N1550 G2 X2.2347 Y-0.3907 I-0.022 J-0.123
N1555 G1 X2.2691 Y-0.3994
N1560 G2 X2.2773 Y-0.4018 I-0.0307 J-0.1212
N1565 G1 X2.3086 Y-0.4121
N1570 G2 X2.3163 Y-0.4149 I-0.0389 J-0.1188
N1575 G1 X2.347 Y-0.4272
N1580 G2 X2.3545 Y-0.4306 I-0.0466 J-0.116
N1585 G1 X2.3842 Y-0.4448
N1590 G2 X2.3915 Y-0.4487 I-0.0542 J-0.1126
N1595 G1 X2.4202 Y-0.4648
N1600 G2 X2.4269 Y-0.4689 I-0.0615 J-0.1088
N1605 G1 X2.4522 Y-0.4854
N1610 G2 X2.4584 Y-0.4897 I-0.0682 J-0.1047
N1615 G1 X2.4826 Y-0.5077
N1620 G2 X2.4885 Y-0.5123 I-0.0744 J-0.1004
N1625 G1 X2.5117 Y-0.5318
N1630 G2 X2.5173 Y-0.5368 I-0.0803 J-0.0958
N1635 G1 X2.5393 Y-0.5576
N1640 G2 X2.5446 Y-0.5629 I-0.086 J-0.0907
N1645 G1 X2.565 Y-0.5847
N1650 G2 X2.5699 Y-0.5903 I-0.0913 J-0.0854
N1655 G1 X2.5889 Y-0.6132
N1660 G2 X2.5935 Y-0.6191 I-0.0962 J-0.0798
N1665 G1 X2.6111 Y-0.643
N1670 G2 X2.6153 Y-0.6492 I-0.1008 J-0.074
N1675 G1 X2.6315 Y-0.6741
N1680 G2 X2.6354 Y-0.6807 I-0.105 J-0.0679
N1685 G1 X2.6511 Y-0.7087
N1690 G2 X2.6549 Y-0.7158 I-0.109 J-0.0612
N1695 G1 X2.6688 Y-0.7447
N1700 G2 X2.672 Y-0.752 I-0.1127 J-0.0541
N1705 G1 X2.684 Y-0.7819
N1710 G2 X2.6868 Y-0.7894 I-0.1159 J-0.0468
N1715 G1 X2.6969 Y-0.8199
N1720 G2 X2.6993 Y-0.8281 I-0.1187 J-0.0393
N1725 G1 X2.7082 Y-0.8629
N1730 G2 X2.7101 Y-0.8716 I-0.1211 J-0.0311
N1735 G1 X2.7166 Y-0.907
N1740 G2 X2.7179 Y-0.9159 I-0.123 J-0.0223
N1745 G1 X2.7217 Y-0.9516
N1750 G2 X2.7224 Y-0.9606 I-0.1243 J-0.0134
N1755 G1 X2.7237 Y-0.9965
N1760 G2 Y-1.001 I-0.1249 J-0.0045
N1765 G1 Y-1.36
N1770 Y-1.375 Z0.515
N1775 Y-1.625
N1780 Y-1.64 Z0.5
N1785 Y-1.999
N1790 G2 Y-2.0034 I-0.125
N1795 G1 X2.7224 Y-2.0389
N1800 G2 X2.7218 Y-2.0478 I-0.1249 J0.0044
N1805 G1 X2.718 Y-2.0831
N1810 G2 X2.7167 Y-2.0918 I-0.1243 J0.0133
N1815 G1 X2.7105 Y-2.1267
N1820 G2 X2.7086 Y-2.1353 I-0.123 J0.022
N1825 G1 X2.6999 Y-2.1697
N1830 G2 X2.6975 Y-2.1779 I-0.1212 J0.0307
N1835 G1 X2.6873 Y-2.2092
N1840 G2 X2.6845 Y-2.217 I-0.1188 J0.0389
N1845 G1 X2.6721 Y-2.2476
N1850 G2 X2.6688 Y-2.2551 I-0.116 J0.0466
N1855 G1 X2.6545 Y-2.2849
N1860 G2 X2.6507 Y-2.2921 I-0.1126 J0.0542
N1865 G1 X2.6345 Y-2.3208
N1870 G2 X2.6304 Y-2.3275 I-0.1088 J0.0615
N1875 G1 X2.614 Y-2.3528
N1880 G2 X2.6097 Y-2.359 I-0.1047 J0.0682
N1885 G1 X2.5917 Y-2.3833
N1890 G2 X2.587 Y-2.3892 I-0.1004 J0.0744
N1895 G1 X2.5676 Y-2.4123
N1900 G2 X2.5626 Y-2.418 I-0.0958 J0.0803
N1905 G1 X2.5418 Y-2.4399
N1910 G2 X2.5364 Y-2.4452 I-0.0907 J0.086
N1915 G1 X2.5147 Y-2.4656
N1920 G2 X2.5091 Y-2.4705 I-0.0854 J0.0913
N1925 G1 X2.4862 Y-2.4896
N1930 G2 X2.4803 Y-2.4941 I-0.0798 J0.0962
N1935 G1 X2.4563 Y-2.5117
N1940 G2 X2.4502 Y-2.5159 I-0.074 J0.1008
N1945 G1 X2.4252 Y-2.5321
N1950 G2 X2.4186 Y-2.5361 I-0.0679 J0.105
N1955 G1 X2.3907 Y-2.5518
N1960 G2 X2.3836 Y-2.5555 I-0.0612 J0.109
N1965 G1 X2.3547 Y-2.5694
N1970 G2 X2.3473 Y-2.5726 I-0.0541 J0.1127
N1975 G1 X2.3175 Y-2.5847
N1980 G2 X2.31 Y-2.5874 I-0.0468 J0.1159
N1985 G1 X2.2795 Y-2.5975
N1990 G2 X2.2713 Y-2.5999 I-0.0393 J0.1187
N1995 G1 X2.2365 Y-2.6089
N2000 G2 X2.2277 Y-2.6108 I-0.0311 J0.1211
N2005 G1 X2.1924 Y-2.6172
N2010 G2 X2.1835 Y-2.6185 I-0.0223 J0.123
N2015 G1 X2.1477 Y-2.6224
N2020 G2 X2.1388 Y-2.623 I-0.0134 J0.1243
N2025 G1 X2.1029 Y-2.6243
N2030 G2 X2.0984 Y-2.6244 I-0.0045 J0.1249
N2035 G1 X1.7394
N2040 X1.7244 Z0.515
N2045 X1.4744
N2050 X1.4594 Z0.5
N2055 X1.1004
N2060 G2 X1.0959 Y-2.6243 J0.125
N2065 G1 X1.0604 Y-2.623
N2070 G2 X1.0516 Y-2.6224 I0.0044 J0.1249
N2075 G1 X1.0163 Y-2.6186
N2080 G2 X1.0075 Y-2.6174 I0.0133 J0.1243
N2085 G1 X0.9727 Y-2.6111
N2090 G2 X0.964 Y-2.6093 I0.022 J0.123
N2095 G1 X0.9297 Y-2.6006
N2100 G2 X0.9215 Y-2.5982 I0.0307 J0.1212
N2105 G1 X0.8902 Y-2.5879
N2110 G2 X0.8824 Y-2.5851 I0.0389 J0.1188
N2115 G1 X0.8518 Y-2.5728
N2120 G2 X0.8442 Y-2.5694 I0.0466 J0.116
N2125 G1 X0.8145 Y-2.5552
N2130 G2 X0.8072 Y-2.5513 I0.0542 J0.1126
N2135 G1 X0.7786 Y-2.5352
N2140 G2 X0.7718 Y-2.5311 I0.0615 J0.1088
N2145 G1 X0.7466 Y-2.5146
N2150 G2 X0.7404 Y-2.5103 I0.0682 J0.1047
N2155 G1 X0.7161 Y-2.4923
N2160 G2 X0.7102 Y-2.4877 I0.0744 J0.1004
N2165 G1 X0.6871 Y-2.4683
N2170 G2 X0.6814 Y-2.4632 I0.0803 J0.0958
N2175 G1 X0.6594 Y-2.4424
N2180 G2 X0.6541 Y-2.4371 I0.086 J0.0907
N2185 G1 X0.6338 Y-2.4153
N2190 G2 X0.6288 Y-2.4097 I0.0913 J0.0854
N2195 G1 X0.6098 Y-2.3868
N2200 G2 X0.6052 Y-2.3809 I0.0962 J0.0798
N2205 G1 X0.5876 Y-2.357
N2210 G2 X0.5834 Y-2.3508 I0.1008 J0.074
N2215 G1 X0.5673 Y-2.3259
N2220 G2 X0.5633 Y-2.3193 I0.105 J0.0679
N2225 G1 X0.5476 Y-2.2913
N2230 G2 X0.5439 Y-2.2842 I0.109 J0.0612
N2235 G1 X0.53 Y-2.2553
N2240 G2 X0.5267 Y-2.2479 I0.1127 J0.0541
N2245 G1 X0.5147 Y-2.2181
N2250 G2 X0.5119 Y-2.2106 I0.1159 J0.0468
N2255 G1 X0.5018 Y-2.1801
N2260 G2 X0.4995 Y-2.1719 I0.1187 J0.0393
N2265 G1 X0.4905 Y-2.1371
N2270 G2 X0.4886 Y-2.1283 I0.1211 J0.0311
N2275 G1 X0.4822 Y-2.093
N2280 G2 X0.4809 Y-2.0841 I0.123 J0.0223
N2285 G1 X0.477 Y-2.0484
N2290 G2 X0.4764 Y-2.0394 I0.1243 J0.0135
N2295 G1 X0.4751 Y-2.0035
N2300 G2 X0.475 Y-1.999 I0.1249 J0.0045
N2305 G1 Y-1.64
N2310 Y-1.625 Z0.515
N2315 Y-1.5
N2320 G3 X0.45 Y-1.475 I-0.025
N2325 G1 X0.425
N2330 X0.4021
N2335 X0.4009 Z0.5182
N2340 X0.4002 Z0.5216
N2345 X0.4 Z0.525
N2350 Y-1.525
N2355 Z0.515
N2360 X0.425
N2365 X0.45
N2370 G3 X0.475 Y-1.5 J0.025
N2375 G1 Y-1.375
N2380 Y-1.25 Z0.39
N2385 Y-1.001
N2390 G2 X0.4751 Y-0.9966 I0.125
N2395 G1 X0.4763 Y-0.9611
N2400 G2 X0.477 Y-0.9522 I0.1249 J-0.0044
N2405 G1 X0.4807 Y-0.9169
N2410 G2 X0.482 Y-0.9082 I0.1243 J-0.0133
N2415 G1 X0.4882 Y-0.8733
N2420 G2 X0.4901 Y-0.8647 I0.123 J-0.022
N2425 G1 X0.4988 Y-0.8303
N2430 G2 X0.5012 Y-0.8221 I0.1212 J-0.0307
N2435 G1 X0.5114 Y-0.7908
N2440 G2 X0.5143 Y-0.783 I0.1188 J-0.0389
N2445 G1 X0.5266 Y-0.7524
N2450 G2 X0.5299 Y-0.7449 I0.116 J-0.0467
N2455 G1 X0.5442 Y-0.7152
N2460 G2 X0.548 Y-0.7079 I0.1126 J-0.0542
N2465 G1 X0.5642 Y-0.6792
N2470 G2 X0.5683 Y-0.6725 I0.1088 J-0.0615
N2475 G1 X0.5848 Y-0.6472
N2480 G2 X0.5891 Y-0.641 I0.1047 J-0.0682
N2485 G1 X0.607 Y-0.6168
N2490 G2 X0.6117 Y-0.6108 I0.1004 J-0.0744
N2495 G1 X0.6311 Y-0.5877
N2500 G2 X0.6361 Y-0.582 I0.0958 J-0.0803
N2505 G1 X0.657 Y-0.5601
N2510 G2 X0.6623 Y-0.5548 I0.0907 J-0.086
N2515 G1 X0.6841 Y-0.5344
N2520 G2 X0.6897 Y-0.5295 I0.0854 J-0.0913
N2525 G1 X0.7126 Y-0.5105
N2530 G2 X0.7184 Y-0.5059 I0.0798 J-0.0962
N2535 G1 X0.7424 Y-0.4883
N2540 G2 X0.7485 Y-0.4841 I0.074 J-0.1008
N2545 G1 X0.7735 Y-0.4679
N2550 G2 X0.7801 Y-0.4639 I0.0679 J-0.105
N2555 G1 X0.8081 Y-0.4482
N2560 G2 X0.8151 Y-0.4445 I0.0612 J-0.109
N2565 G1 X0.8441 Y-0.4306
N2570 G2 X0.8514 Y-0.4274 I0.0541 J-0.1127
N2575 G1 X0.8812 Y-0.4153
N2580 G2 X0.8888 Y-0.4126 I0.0468 J-0.1159
N2585 G1 X0.9193 Y-0.4025
N2590 G2 X0.9274 Y-0.4001 I0.0393 J-0.1187
N2595 G1 X0.9622 Y-0.3911
N2600 G2 X0.971 Y-0.3892 I0.0311 J-0.1211
N2605 G1 X1.0064 Y-0.3828
N2610 G2 X1.0153 Y-0.3815 I0.0223 J-0.123
N2615 G1 X1.051 Y-0.3776
N2620 G2 X1.06 Y-0.377 I0.0134 J-0.1243
N2625 G1 X1.0959 Y-0.3757
N2630 G2 X1.1004 Y-0.3756 I0.0045 J-0.1249
N2635 G1 X1.3494
N2640 X1.4744 Z0.515
N2645 X1.7244
N2650 X1.8494 Z0.39
N2655 X2.0984
N2660 G2 X2.1028 Y-0.3757 J-0.125
N2665 G1 X2.1383 Y-0.377
N2670 G2 X2.1472 Y-0.3776 I-0.0044 J-0.1249
N2675 G1 X2.1824 Y-0.3814
N2680 G2 X2.1912 Y-0.3826 I-0.0133 J-0.1243
N2685 G1 X2.2261 Y-0.3889
N2690 G2 X2.2347 Y-0.3907 I-0.022 J-0.123
N2695 G1 X2.2691 Y-0.3994
N2700 G2 X2.2773 Y-0.4018 I-0.0307 J-0.1212
N2705 G1 X2.3086 Y-0.4121
N2710 G2 X2.3163 Y-0.4149 I-0.0389 J-0.1188
N2715 G1 X2.347 Y-0.4272
N2720 G2 X2.3545 Y-0.4306 I-0.0466 J-0.116
N2725 G1 X2.3842 Y-0.4448
N2730 G2 X2.3915 Y-0.4487 I-0.0542 J-0.1126
N2735 G1 X2.4202 Y-0.4648
N2740 G2 X2.4269 Y-0.4689 I-0.0615 J-0.1088
N2745 G1 X2.4522 Y-0.4854
N2750 G2 X2.4584 Y-0.4897 I-0.0682 J-0.1047
N2755 G1 X2.4826 Y-0.5077
N2760 G2 X2.4885 Y-0.5123 I-0.0744 J-0.1004
N2765 G1 X2.5117 Y-0.5318
N2770 G2 X2.5173 Y-0.5368 I-0.0803 J-0.0958
N2775 G1 X2.5393 Y-0.5576
N2780 G2 X2.5446 Y-0.5629 I-0.086 J-0.0907
N2785 G1 X2.565 Y-0.5847
N2790 G2 X2.5699 Y-0.5903 I-0.0913 J-0.0854
N2795 G1 X2.5889 Y-0.6132
N2800 G2 X2.5935 Y-0.6191 I-0.0962 J-0.0798
N2805 G1 X2.6111 Y-0.643
N2810 G2 X2.6153 Y-0.6492 I-0.1008 J-0.074
N2815 G1 X2.6315 Y-0.6741
N2820 G2 X2.6354 Y-0.6807 I-0.105 J-0.0679
N2825 G1 X2.6511 Y-0.7087
N2830 G2 X2.6549 Y-0.7158 I-0.109 J-0.0612
N2835 G1 X2.6688 Y-0.7447
N2840 G2 X2.672 Y-0.752 I-0.1127 J-0.0541
N2845 G1 X2.684 Y-0.7819
N2850 G2 X2.6868 Y-0.7894 I-0.1159 J-0.0468
N2855 G1 X2.6969 Y-0.8199
N2860 G2 X2.6993 Y-0.8281 I-0.1187 J-0.0393
N2865 G1 X2.7082 Y-0.8629
N2870 G2 X2.7101 Y-0.8716 I-0.1211 J-0.0311
N2875 G1 X2.7166 Y-0.907
N2880 G2 X2.7179 Y-0.9159 I-0.123 J-0.0223
N2885 G1 X2.7217 Y-0.9516
N2890 G2 X2.7224 Y-0.9606 I-0.1243 J-0.0134
N2895 G1 X2.7237 Y-0.9965
N2900 G2 Y-1.001 I-0.1249 J-0.0045
N2905 G1 Y-1.25
N2910 Y-1.375 Z0.515
N2915 Y-1.625
N2920 Y-1.75 Z0.39
N2925 Y-1.999
N2930 G2 Y-2.0034 I-0.125
N2935 G1 X2.7224 Y-2.0389
N2940 G2 X2.7218 Y-2.0478 I-0.1249 J0.0044
N2945 G1 X2.718 Y-2.0831
N2950 G2 X2.7167 Y-2.0918 I-0.1243 J0.0133
N2955 G1 X2.7105 Y-2.1267
N2960 G2 X2.7086 Y-2.1353 I-0.123 J0.022
N2965 G1 X2.6999 Y-2.1697
N2970 G2 X2.6975 Y-2.1779 I-0.1212 J0.0307
N2975 G1 X2.6873 Y-2.2092
N2980 G2 X2.6845 Y-2.217 I-0.1188 J0.0389
N2985 G1 X2.6721 Y-2.2476
N2990 G2 X2.6688 Y-2.2551 I-0.116 J0.0466
N2995 G1 X2.6545 Y-2.2849
N3000 G2 X2.6507 Y-2.2921 I-0.1126 J0.0542
N3005 G1 X2.6345 Y-2.3208
N3010 G2 X2.6304 Y-2.3275 I-0.1088 J0.0615
N3015 G1 X2.614 Y-2.3528
N3020 G2 X2.6097 Y-2.359 I-0.1047 J0.0682
N3025 G1 X2.5917 Y-2.3833
N3030 G2 X2.587 Y-2.3892 I-0.1004 J0.0744
N3035 G1 X2.5676 Y-2.4123
N3040 G2 X2.5626 Y-2.418 I-0.0958 J0.0803
N3045 G1 X2.5418 Y-2.4399
N3050 G2 X2.5364 Y-2.4452 I-0.0907 J0.086
N3055 G1 X2.5147 Y-2.4656
N3060 G2 X2.5091 Y-2.4705 I-0.0854 J0.0913
N3065 G1 X2.4862 Y-2.4896
N3070 G2 X2.4803 Y-2.4941 I-0.0798 J0.0962
N3075 G1 X2.4563 Y-2.5117
N3080 G2 X2.4502 Y-2.5159 I-0.074 J0.1008
N3085 G1 X2.4252 Y-2.5321
N3090 G2 X2.4186 Y-2.5361 I-0.0679 J0.105
N3095 G1 X2.3907 Y-2.5518
N3100 G2 X2.3836 Y-2.5555 I-0.0612 J0.109
N3105 G1 X2.3547 Y-2.5694
N3110 G2 X2.3473 Y-2.5726 I-0.0541 J0.1127
N3115 G1 X2.3175 Y-2.5847
N3120 G2 X2.31 Y-2.5874 I-0.0468 J0.1159
N3125 G1 X2.2795 Y-2.5975
N3130 G2 X2.2713 Y-2.5999 I-0.0393 J0.1187
N3135 G1 X2.2365 Y-2.6089
N3140 G2 X2.2277 Y-2.6108 I-0.0311 J0.1211
N3145 G1 X2.1924 Y-2.6172
N3150 G2 X2.1835 Y-2.6185 I-0.0223 J0.123
N3155 G1 X2.1477 Y-2.6224
N3160 G2 X2.1388 Y-2.623 I-0.0134 J0.1243
N3165 G1 X2.1029 Y-2.6243
N3170 G2 X2.0984 Y-2.6244 I-0.0045 J0.1249
N3175 G1 X1.8494
N3180 X1.7244 Z0.515
N3185 X1.4744
N3190 X1.3494 Z0.39
N3195 X1.1004
N3200 G2 X1.0959 Y-2.6243 J0.125
N3205 G1 X1.0604 Y-2.623
N3210 G2 X1.0516 Y-2.6224 I0.0044 J0.1249
N3215 G1 X1.0163 Y-2.6186
N3220 G2 X1.0075 Y-2.6174 I0.0133 J0.1243
N3225 G1 X0.9727 Y-2.6111
N3230 G2 X0.964 Y-2.6093 I0.022 J0.123
N3235 G1 X0.9297 Y-2.6006
N3240 G2 X0.9215 Y-2.5982 I0.0307 J0.1212
N3245 G1 X0.8902 Y-2.5879
N3250 G2 X0.8824 Y-2.5851 I0.0389 J0.1188
N3255 G1 X0.8518 Y-2.5728
N3260 G2 X0.8442 Y-2.5694 I0.0466 J0.116
N3265 G1 X0.8145 Y-2.5552
N3270 G2 X0.8072 Y-2.5513 I0.0542 J0.1126
N3275 G1 X0.7786 Y-2.5352
N3280 G2 X0.7718 Y-2.5311 I0.0615 J0.1088
N3285 G1 X0.7466 Y-2.5146
N3290 G2 X0.7404 Y-2.5103 I0.0682 J0.1047
N3295 G1 X0.7161 Y-2.4923
N3300 G2 X0.7102 Y-2.4877 I0.0744 J0.1004
N3305 G1 X0.6871 Y-2.4683
N3310 G2 X0.6814 Y-2.4632 I0.0803 J0.0958
N3315 G1 X0.6594 Y-2.4424
N3320 G2 X0.6541 Y-2.4371 I0.086 J0.0907
N3325 G1 X0.6338 Y-2.4153
N3330 G2 X0.6288 Y-2.4097 I0.0913 J0.0854
N3335 G1 X0.6098 Y-2.3868
N3340 G2 X0.6052 Y-2.3809 I0.0962 J0.0798
N3345 G1 X0.5876 Y-2.357
N3350 G2 X0.5834 Y-2.3508 I0.1008 J0.074
N3355 G1 X0.5673 Y-2.3259
N3360 G2 X0.5633 Y-2.3193 I0.105 J0.0679
N3365 G1 X0.5476 Y-2.2913
N3370 G2 X0.5439 Y-2.2842 I0.109 J0.0612
N3375 G1 X0.53 Y-2.2553
N3380 G2 X0.5267 Y-2.2479 I0.1127 J0.0541
N3385 G1 X0.5147 Y-2.2181
N3390 G2 X0.5119 Y-2.2106 I0.1159 J0.0468
N3395 G1 X0.5018 Y-2.1801
N3400 G2 X0.4995 Y-2.1719 I0.1187 J0.0393
N3405 G1 X0.4905 Y-2.1371
N3410 G2 X0.4886 Y-2.1283 I0.1211 J0.0311
N3415 G1 X0.4822 Y-2.093
N3420 G2 X0.4809 Y-2.0841 I0.123 J0.0223
N3425 G1 X0.477 Y-2.0484
N3430 G2 X0.4764 Y-2.0394 I0.1243 J0.0135
N3435 G1 X0.4751 Y-2.0035
N3440 G2 X0.475 Y-1.999 I0.1249 J0.0045
N3445 G1 Y-1.75
N3450 Y-1.625 Z0.515
N3455 Y-1.5
N3460 G3 X0.45 Y-1.475 I-0.025
N3465 G1 X0.4
N3470 G0 Z1.35

(Contour2)
N3475 M9
N3480 X0.5696 Y-2.0589
N3485 Z1.35
N3490 Z0.825
N3495 G3 X0.5879 Y-1.8221 Z0.812 I0.0092 J0.1184 F40
N3500 X0.5696 Y-2.0589 Z0.7989 I-0.0092 J-0.1184
N3505 X0.5879 Y-1.8221 Z0.7859 I0.0092 J0.1184
N3510 X0.5696 Y-2.0589 Z0.7729 I-0.0092 J-0.1184
N3515 X0.5879 Y-1.8221 Z0.7599 I0.0092 J0.1184
N3520 X0.5696 Y-2.0589 Z0.7468 I-0.0092 J-0.1184
N3525 X0.5879 Y-1.8221 Z0.7338 I0.0092 J0.1184
N3530 X0.46 Y-1.9425 Z0.7269 I-0.0092 J-0.1184
N3535 X0.5918 Y-2.0585 Z0.72 I0.1187 J0.002
N3540 G1 X0.7223 Y-2.0441
N3545 X0.7221 Y-2.0422
N3550 X0.7212 Y-2.0342
N3555 X0.7206 Y-2.0263
N3560 X0.7201 Y-2.0183
N3565 X0.7198 Y-2.0103
N3570 X0.7197 Y-2.0023
N3575 Y-1.9944
N3580 X0.7196 Y-1.5399
N3585 Y-1.5319
N3590 Y-1.5
N3595 Y-1.4681
N3600 Y-1.4601
N3605 X0.7197 Y-1.0056
N3610 Y-0.9977
N3615 X0.7198 Y-0.9897
N3620 X0.7201 Y-0.9817
N3625 X0.7206 Y-0.9737
N3630 X0.7212 Y-0.9658
N3635 X0.7221 Y-0.9578
N3640 X0.7223 Y-0.9559
N3645 X0.7231 Y-0.9498
N3650 X0.7242 Y-0.9418
N3655 X0.7256 Y-0.9339
N3660 X0.7271 Y-0.9259
N3665 X0.7288 Y-0.9179
N3670 X0.7302 Y-0.9116
N3675 X0.7306 Y-0.9099
N3680 X0.7327 Y-0.902
N3685 X0.7349 Y-0.894
N3690 X0.7374 Y-0.886
N3695 X0.7382 Y-0.8834
N3700 X0.74 Y-0.8781
N3705 X0.7428 Y-0.8701
N3710 X0.7458 Y-0.8621
N3715 X0.7462 Y-0.8612
N3720 X0.749 Y-0.8541
N3725 X0.7525 Y-0.8462
N3730 X0.7542 Y-0.8425
N3735 X0.7561 Y-0.8382
N3740 X0.76 Y-0.8302
N3745 X0.7621 Y-0.8261
N3750 X0.7641 Y-0.8222
N3755 X0.7685 Y-0.8143
N3760 X0.7701 Y-0.8115
N3765 X0.7731 Y-0.8063
N3770 X0.778 Y-0.7983
N3775 X0.7781 Y-0.7982
N3780 X0.7832 Y-0.7903
N3785 X0.7861 Y-0.7861
N3790 X0.7886 Y-0.7824
N3795 X0.794 Y-0.7748
N3800 X0.7943 Y-0.7744
N3805 X0.8004 Y-0.7664
N3810 X0.802 Y-0.7644
N3815 X0.8068 Y-0.7584
N3820 X0.81 Y-0.7547
N3825 X0.8136 Y-0.7505
N3830 X0.8179 Y-0.7456
N3835 X0.8208 Y-0.7425
N3840 X0.8259 Y-0.737
N3845 X0.8284 Y-0.7345
N3850 X0.8339 Y-0.729
N3855 X0.8364 Y-0.7266
N3860 X0.8419 Y-0.7214
N3865 X0.845 Y-0.7186
N3870 X0.8498 Y-0.7142
N3875 X0.8541 Y-0.7106
N3880 X0.8578 Y-0.7075
N3885 X0.8638 Y-0.7026
N3890 X0.8658 Y-0.701
N3895 X0.8738 Y-0.695
N3900 X0.8742 Y-0.6947
N3905 X0.8817 Y-0.6892
N3910 X0.8854 Y-0.6867
N3915 X0.8897 Y-0.6838
N3920 X0.8976 Y-0.6787
N3925 X0.8977 Y-0.6786
N3930 X0.9057 Y-0.6738
N3935 X0.9108 Y-0.6707
N3940 X0.9136 Y-0.6691
N3945 X0.9216 Y-0.6648
N3950 X0.9255 Y-0.6628
N3955 X0.9296 Y-0.6607
N3960 X0.9376 Y-0.6568
N3965 X0.9419 Y-0.6548
N3970 X0.9455 Y-0.6531
N3975 X0.9535 Y-0.6497
N3980 X0.9606 Y-0.6468
N3985 X0.9615 Y-0.6465
N3990 X0.9694 Y-0.6434
N3995 X0.9774 Y-0.6406
N4000 X0.9827 Y-0.6388
N4005 X0.9854 Y-0.638
N4010 X0.9934 Y-0.6356
N4015 X1.0013 Y-0.6333
N4020 X1.0093 Y-0.6313
N4025 X1.011 Y-0.6309
N4030 X1.0173 Y-0.6294
N4035 X1.0253 Y-0.6277
N4040 X1.0332 Y-0.6262
N4045 X1.0412 Y-0.6249
N4050 X1.0492 Y-0.6237
N4055 X1.0553 Y-0.6229
N4060 X1.0572 Y-0.6227
N4065 X1.0651 Y-0.6219
N4070 X1.0731 Y-0.6212
N4075 X1.0811 Y-0.6207
N4080 X1.0891 Y-0.6204
N4085 X1.097 Y-0.6203
N4090 X1.105 Y-0.6204
N4095 X1.5595 Y-0.6202
N4100 X1.5675
N4105 X1.5994
N4110 X1.6313
N4115 X1.6392
N4120 X2.0937 Y-0.6204
N4125 X2.1017 Y-0.6203
N4130 X2.1097 Y-0.6204
N4135 X2.1177 Y-0.6207
N4140 X2.1256 Y-0.6212
N4145 X2.1336 Y-0.6219
N4150 X2.1416 Y-0.6227
N4155 X2.1434 Y-0.6229
N4160 X2.1496 Y-0.6237
N4165 X2.1575 Y-0.6249
N4170 X2.1655 Y-0.6262
N4175 X2.1735 Y-0.6277
N4180 X2.1814 Y-0.6294
N4185 X2.1878 Y-0.6309
N4190 X2.1894 Y-0.6313
N4195 X2.1974 Y-0.6333
N4200 X2.2054 Y-0.6356
N4205 X2.2133 Y-0.638
N4210 X2.216 Y-0.6388
N4215 X2.2213 Y-0.6406
N4220 X2.2293 Y-0.6434
N4225 X2.2373 Y-0.6465
N4230 X2.2382 Y-0.6468
N4235 X2.2452 Y-0.6497
N4240 X2.2532 Y-0.6531
N4245 X2.2569 Y-0.6548
N4250 X2.2612 Y-0.6568
N4255 X2.2692 Y-0.6607
N4260 X2.2732 Y-0.6628
N4265 X2.2771 Y-0.6648
N4270 X2.2851 Y-0.6691
N4275 X2.2879 Y-0.6707
N4280 X2.2931 Y-0.6738
N4285 X2.3011 Y-0.6786
N4290 X2.3012 Y-0.6787
N4295 X2.309 Y-0.6838
N4300 X2.3133 Y-0.6867
N4305 X2.317 Y-0.6892
N4310 X2.3245 Y-0.6947
N4315 X2.325 Y-0.695
N4320 X2.3329 Y-0.701
N4325 X2.3349 Y-0.7026
N4330 X2.3409 Y-0.7075
N4335 X2.3447 Y-0.7106
N4340 X2.3489 Y-0.7142
N4345 X2.3538 Y-0.7186
N4350 X2.3569 Y-0.7214
N4355 X2.3623 Y-0.7266
N4360 X2.3648 Y-0.729
N4365 X2.3704 Y-0.7345
N4370 X2.3728 Y-0.737
N4375 X2.3779 Y-0.7425
N4380 X2.3808 Y-0.7456
N4385 X2.3851 Y-0.7505
N4390 X2.3888 Y-0.7547
N4395 X2.3919 Y-0.7584
N4400 X2.3967 Y-0.7644
N4405 X2.3983 Y-0.7664
N4410 X2.4044 Y-0.7744
N4415 X2.4047 Y-0.7748
N4420 X2.4101 Y-0.7824
N4425 X2.4127 Y-0.7861
N4430 X2.4156 Y-0.7903
N4435 X2.4207 Y-0.7982
N4440 Y-0.7983
N4445 X2.4256 Y-0.8063
N4450 X2.4286 Y-0.8115
N4455 X2.4302 Y-0.8143
N4460 X2.4346 Y-0.8222
N4465 X2.4366 Y-0.8261
N4470 X2.4387 Y-0.8302
N4475 X2.4426 Y-0.8382
N4480 X2.4446 Y-0.8425
N4485 X2.4463 Y-0.8462
N4490 X2.4497 Y-0.8541
N4495 X2.4526 Y-0.8612
N4500 X2.4529 Y-0.8621
N4505 X2.4559 Y-0.8701
N4510 X2.4587 Y-0.8781
N4515 X2.4605 Y-0.8834
N4520 X2.4614 Y-0.886
N4525 X2.4638 Y-0.894
N4530 X2.466 Y-0.902
N4535 X2.4681 Y-0.9099
N4540 X2.4685 Y-0.9116
N4545 X2.47 Y-0.9179
N4550 X2.4717 Y-0.9259
N4555 X2.4732 Y-0.9339
N4560 X2.4745 Y-0.9418
N4565 X2.4757 Y-0.9498
N4570 X2.4765 Y-0.9559
N4575 X2.4767 Y-0.9578
N4580 X2.4775 Y-0.9658
N4585 X2.4782 Y-0.9737
N4590 X2.4787 Y-0.9817
N4595 X2.479 Y-0.9897
N4600 X2.4791 Y-0.9977
N4605 X2.479 Y-1.0056
N4610 X2.4792 Y-1.4601
N4615 Y-1.4681
N4620 Y-1.5
N4625 Y-1.5319
N4630 Y-1.5399
N4635 X2.479 Y-1.9944
N4640 X2.4791 Y-2.0023
N4645 X2.479 Y-2.0103
N4650 X2.4787 Y-2.0183
N4655 X2.4782 Y-2.0263
N4660 X2.4775 Y-2.0342
N4665 X2.4767 Y-2.0422
N4670 X2.4765 Y-2.0441
N4675 X2.4757 Y-2.0502
N4680 X2.4745 Y-2.0582
N4685 X2.4732 Y-2.0661
N4690 X2.4717 Y-2.0741
N4695 X2.47 Y-2.0821
N4700 X2.4685 Y-2.0884
N4705 X2.4681 Y-2.0901
N4710 X2.466 Y-2.098
N4715 X2.4638 Y-2.106
N4720 X2.4614 Y-2.114
N4725 X2.4605 Y-2.1166
N4730 X2.4587 Y-2.1219
N4735 X2.4559 Y-2.1299
N4740 X2.4529 Y-2.1379
N4745 X2.4526 Y-2.1388
N4750 X2.4497 Y-2.1459
N4755 X2.4463 Y-2.1538
N4760 X2.4446 Y-2.1575
N4765 X2.4426 Y-2.1618
N4770 X2.4387 Y-2.1698
N4775 X2.4366 Y-2.1739
N4780 X2.4346 Y-2.1778
N4785 X2.4302 Y-2.1857
N4790 X2.4286 Y-2.1885
N4795 X2.4256 Y-2.1937
N4800 X2.4207 Y-2.2017
N4805 Y-2.2018
N4810 X2.4156 Y-2.2097
N4815 X2.4127 Y-2.2139
N4820 X2.4101 Y-2.2176
N4825 X2.4047 Y-2.2252
N4830 X2.4044 Y-2.2256
N4835 X2.3983 Y-2.2336
N4840 X2.3967 Y-2.2356
N4845 X2.3919 Y-2.2416
N4850 X2.3888 Y-2.2453
N4855 X2.3851 Y-2.2495
N4860 X2.3808 Y-2.2544
N4865 X2.3779 Y-2.2575
N4870 X2.3728 Y-2.263
N4875 X2.3704 Y-2.2655
N4880 X2.3648 Y-2.271
N4885 X2.3623 Y-2.2734
N4890 X2.3569 Y-2.2786
N4895 X2.3538 Y-2.2814
N4900 X2.3489 Y-2.2858
N4905 X2.3447 Y-2.2894
N4910 X2.3409 Y-2.2925
N4915 X2.3349 Y-2.2974
N4920 X2.3329 Y-2.299
N4925 X2.325 Y-2.305
N4930 X2.3245 Y-2.3053
N4935 X2.317 Y-2.3108
N4940 X2.3133 Y-2.3133
N4945 X2.309 Y-2.3162
N4950 X2.3012 Y-2.3213
N4955 X2.3011 Y-2.3214
N4960 X2.2931 Y-2.3262
N4965 X2.2879 Y-2.3293
N4970 X2.2851 Y-2.3309
N4975 X2.2771 Y-2.3352
N4980 X2.2732 Y-2.3372
N4985 X2.2692 Y-2.3393
N4990 X2.2612 Y-2.3432
N4995 X2.2569 Y-2.3452
N5000 X2.2532 Y-2.3469
N5005 X2.2452 Y-2.3503
N5010 X2.2382 Y-2.3532
N5015 X2.2373 Y-2.3535
N5020 X2.2293 Y-2.3566
N5025 X2.2213 Y-2.3594
N5030 X2.216 Y-2.3612
N5035 X2.2133 Y-2.362
N5040 X2.2054 Y-2.3644
N5045 X2.1974 Y-2.3667
N5050 X2.1894 Y-2.3687
N5055 X2.1878 Y-2.3691
N5060 X2.1814 Y-2.3706
N5065 X2.1735 Y-2.3723
N5070 X2.1655 Y-2.3738
N5075 X2.1575 Y-2.3751
N5080 X2.1496 Y-2.3763
N5085 X2.1434 Y-2.3771
N5090 X2.1416 Y-2.3773
N5095 X2.1336 Y-2.3781
N5100 X2.1256 Y-2.3788
N5105 X2.1177 Y-2.3793
N5110 X2.1097 Y-2.3796
N5115 X2.1017 Y-2.3797
N5120 X2.0937 Y-2.3796
N5125 X1.6392 Y-2.3798
N5130 X1.6313
N5135 X1.5994
N5140 X1.5675
N5145 X1.5595
N5150 X1.105 Y-2.3796
N5155 X1.097 Y-2.3797
N5160 X1.0891 Y-2.3796
N5165 X1.0811 Y-2.3793
N5170 X1.0731 Y-2.3788
N5175 X1.0651 Y-2.3781
N5180 X1.0572 Y-2.3773
N5185 X1.0553 Y-2.3771
N5190 X1.0492 Y-2.3763
N5195 X1.0412 Y-2.3751
N5200 X1.0332 Y-2.3738
N5205 X1.0253 Y-2.3723
N5210 X1.0173 Y-2.3706
N5215 X1.011 Y-2.3691
N5220 X1.0093 Y-2.3687
N5225 X1.0013 Y-2.3667
N5230 X0.9934 Y-2.3644
N5235 X0.9854 Y-2.362
N5240 X0.9827 Y-2.3612
N5245 X0.9774 Y-2.3594
N5250 X0.9694 Y-2.3566
N5255 X0.9615 Y-2.3535
N5260 X0.9606 Y-2.3532
N5265 X0.9535 Y-2.3503
N5270 X0.9455 Y-2.3469
N5275 X0.9419 Y-2.3452
N5280 X0.9376 Y-2.3432
N5285 X0.9296 Y-2.3393
N5290 X0.9255 Y-2.3372
N5295 X0.9216 Y-2.3352
N5300 X0.9136 Y-2.3309
N5305 X0.9108 Y-2.3293
N5310 X0.9057 Y-2.3262
N5315 X0.8977 Y-2.3214
N5320 X0.8976 Y-2.3213
N5325 X0.8897 Y-2.3162
N5330 X0.8854 Y-2.3133
N5335 X0.8817 Y-2.3108
N5340 X0.8742 Y-2.3053
N5345 X0.8738 Y-2.305
N5350 X0.8658 Y-2.299
N5355 X0.8638 Y-2.2974
N5360 X0.8578 Y-2.2925
N5365 X0.8541 Y-2.2894
N5370 X0.8498 Y-2.2858
N5375 X0.845 Y-2.2814
N5380 X0.8419 Y-2.2786
N5385 X0.8364 Y-2.2734
N5390 X0.8339 Y-2.271
N5395 X0.8284 Y-2.2655
N5400 X0.8259 Y-2.263
N5405 X0.8208 Y-2.2575
N5410 X0.8179 Y-2.2544
N5415 X0.8136 Y-2.2495
N5420 X0.81 Y-2.2453
N5425 X0.8068 Y-2.2416
N5430 X0.802 Y-2.2356
N5435 X0.8004 Y-2.2336
N5440 X0.7943 Y-2.2256
N5445 X0.794 Y-2.2252
N5450 X0.7886 Y-2.2176
N5455 X0.7861 Y-2.2139
N5460 X0.7832 Y-2.2097
N5465 X0.7781 Y-2.2018
N5470 X0.778 Y-2.2017
N5475 X0.7731 Y-2.1937
N5480 X0.7701 Y-2.1885
N5485 X0.7685 Y-2.1857
N5490 X0.7641 Y-2.1778
N5495 X0.7621 Y-2.1739
N5500 X0.76 Y-2.1698
N5505 X0.7561 Y-2.1618
N5510 X0.7542 Y-2.1575
N5515 X0.7525 Y-2.1538
N5520 X0.749 Y-2.1459
N5525 X0.7462 Y-2.1388
N5530 X0.7458 Y-2.1379
N5535 X0.7428 Y-2.1299
N5540 X0.74 Y-2.1219
N5545 X0.7382 Y-2.1166
N5550 X0.7374 Y-2.114
N5555 X0.7349 Y-2.106
N5560 X0.7327 Y-2.098
N5565 X0.7306 Y-2.0901
N5570 X0.7302 Y-2.0884
N5575 X0.7288 Y-2.0821
N5580 X0.7271 Y-2.0741
N5585 X0.7256 Y-2.0661
N5590 X0.7242 Y-2.0582
N5595 X0.7231 Y-2.0502
N5600 X0.7223 Y-2.0441
N5605 X0.5173 Y-2.0694
N5610 G3 X0.5192 Y-1.9396 Z0.7129 I0.0009 J0.0649
N5615 X0.5173 Y-2.0694 Z0.7058 I-0.0009 J-0.0649
N5620 X0.5192 Y-1.9396 Z0.6986 I0.0009 J0.0649
N5625 X0.5173 Y-2.0694 Z0.6915 I-0.0009 J-0.0649
N5630 X0.5192 Y-1.9396 Z0.6844 I0.0009 J0.0649
N5635 X0.5173 Y-2.0694 Z0.6773 I-0.0009 J-0.0649
N5640 X0.5192 Y-1.9396 Z0.6702 I0.0009 J0.0649
N5645 X0.5173 Y-2.0694 Z0.663 I-0.0009 J-0.0649
N5650 X0.5192 Y-1.9396 Z0.6559 I0.0009 J0.0649
N5655 X0.5173 Y-2.0694 Z0.6488 I-0.0009 J-0.0649
N5660 X0.5192 Y-1.9396 Z0.6417 I0.0009 J0.0649
N5665 X0.5173 Y-2.0694 Z0.6346 I-0.0009 J-0.0649
N5670 X0.5192 Y-1.9396 Z0.6274 I0.0009 J0.0649
N5675 X0.4534 Y-2.0082 Z0.6237 I-0.0009 J-0.0649
N5680 X0.5264 Y-2.0689 Z0.62 I0.0648 J0.0036
N5685 G1 X0.5979 Y-2.0598
N5690 X0.5977 Y-2.0582
N5695 X0.5968 Y-2.0502
N5700 X0.5961 Y-2.0422
N5705 X0.5955 Y-2.0342
N5710 X0.595 Y-2.0263
N5715 X0.5947 Y-2.0199
N5720 X0.5946 Y-2.0183
N5725 X0.5944 Y-2.0103
N5730 X0.5943 Y-2.0023
N5735 Y-1.9944
N5740 X0.5942 Y-1.6356
N5745 Y-1.6276
N5750 Y-1.5
N5755 Y-1.3724
N5760 Y-1.3644
N5765 X0.5943 Y-1.0056
N5770 Y-0.9977
N5775 X0.5944 Y-0.9897
N5780 X0.5946 Y-0.9817
N5785 X0.5947 Y-0.9801
N5790 X0.595 Y-0.9737
N5795 X0.5955 Y-0.9658
N5800 X0.5961 Y-0.9578
N5805 X0.5968 Y-0.9498
N5810 X0.5977 Y-0.9418
N5815 X0.5987 Y-0.9339
N5820 X0.5998 Y-0.9259
N5825 X0.6011 Y-0.9179
N5830 X0.6025 Y-0.9099
N5835 X0.6027 Y-0.9092
N5840 X0.604 Y-0.902
N5845 X0.6057 Y-0.894
N5850 X0.6075 Y-0.886
N5855 X0.6094 Y-0.8781
N5860 X0.6106 Y-0.8733
N5865 X0.6115 Y-0.8701
N5870 X0.6137 Y-0.8621
N5875 X0.616 Y-0.8541
N5880 X0.6185 Y-0.8462
N5885 X0.6186 Y-0.8459
N5890 X0.6212 Y-0.8382
N5895 X0.6239 Y-0.8302
N5900 X0.6266 Y-0.823
N5905 X0.6269 Y-0.8222
N5910 X0.63 Y-0.8143
N5915 X0.6332 Y-0.8063
N5920 X0.6346 Y-0.8031
N5925 X0.6366 Y-0.7983
N5930 X0.6402 Y-0.7903
N5935 X0.6425 Y-0.7852
N5940 X0.6439 Y-0.7824
N5945 X0.6478 Y-0.7744
N5950 X0.6505 Y-0.7691
N5955 X0.6519 Y-0.7664
N5960 X0.6562 Y-0.7584
N5965 X0.6585 Y-0.7542
N5970 X0.6606 Y-0.7505
N5975 X0.6652 Y-0.7425
N5980 X0.6664 Y-0.7404
N5985 X0.6701 Y-0.7345
N5990 X0.6744 Y-0.7276
N5995 X0.6751 Y-0.7266
N6000 X0.6804 Y-0.7186
N6005 X0.6858 Y-0.7106
N6010 X0.6904 Y-0.7043
N6015 X0.6916 Y-0.7026
N6020 X0.6975 Y-0.6947
N6025 X0.6983 Y-0.6936
N6030 X0.7037 Y-0.6867
N6035 X0.7063 Y-0.6834
N6040 X0.7101 Y-0.6787
N6045 X0.7143 Y-0.6737
N6050 X0.7168 Y-0.6707
N6055 X0.7223 Y-0.6646
N6060 X0.7239 Y-0.6628
N6065 X0.7302 Y-0.6558
N6070 X0.7312 Y-0.6548
N6075 X0.7382 Y-0.6475
N6080 X0.7388 Y-0.6468
N6085 X0.7462 Y-0.6395
N6090 X0.7468 Y-0.6388
N6095 X0.7542 Y-0.6318
N6100 X0.7552 Y-0.6309
N6105 X0.7621 Y-0.6245
N6110 X0.7639 Y-0.6229
N6115 X0.7701 Y-0.6175
N6120 X0.7731 Y-0.6149
N6125 X0.7781 Y-0.6107
N6130 X0.7828 Y-0.6069
N6135 X0.7861 Y-0.6043
N6140 X0.7929 Y-0.599
N6145 X0.794 Y-0.5981
N6150 X0.802 Y-0.5922
N6155 X0.8036 Y-0.591
N6160 X0.81 Y-0.5865
N6165 X0.8179 Y-0.581
N6170 X0.8259 Y-0.5758
N6175 X0.827 Y-0.5751
N6180 X0.8339 Y-0.5707
N6185 X0.8398 Y-0.5671
N6190 X0.8419 Y-0.5659
N6195 X0.8498 Y-0.5612
N6200 X0.8536 Y-0.5591
N6205 X0.8578 Y-0.5568
N6210 X0.8658 Y-0.5525
N6215 X0.8685 Y-0.5511
N6220 X0.8738 Y-0.5484
N6225 X0.8817 Y-0.5445
N6230 X0.8846 Y-0.5432
N6235 X0.8897 Y-0.5408
N6240 X0.8977 Y-0.5372
N6245 X0.9025 Y-0.5352
N6250 X0.9057 Y-0.5338
N6255 X0.9136 Y-0.5306
N6260 X0.9216 Y-0.5275
N6265 X0.9224 Y-0.5272
N6270 X0.9296 Y-0.5245
N6275 X0.9376 Y-0.5218
N6280 X0.9453 Y-0.5192
N6285 X0.9455
N6290 X0.9535 Y-0.5166
N6295 X0.9615 Y-0.5143
N6300 X0.9694 Y-0.5121
N6305 X0.9727 Y-0.5113
N6310 X0.9774 Y-0.51
N6315 X0.9854 Y-0.5081
N6320 X0.9934 Y-0.5063
N6325 X1.0013 Y-0.5046
N6330 X1.0085 Y-0.5033
N6335 X1.0093 Y-0.5031
N6340 X1.0173 Y-0.5017
N6345 X1.0253 Y-0.5005
N6350 X1.0332 Y-0.4994
N6355 X1.0412 Y-0.4983
N6360 X1.0492 Y-0.4975
N6365 X1.0572 Y-0.4967
N6370 X1.0651 Y-0.4961
N6375 X1.0731 Y-0.4956
N6380 X1.0795 Y-0.4953
N6385 X1.0811
N6390 X1.0891 Y-0.495
N6395 X1.097 Y-0.4949
N6400 X1.105
N6405 X1.4638
N6410 X1.4718
N6415 X1.5994
N6420 X1.7269
N6425 X1.7349
N6430 X2.0937
N6435 X2.1017
N6440 X2.1097 Y-0.495
N6445 X2.1177 Y-0.4953
N6450 X2.1193
N6455 X2.1256 Y-0.4956
N6460 X2.1336 Y-0.4961
N6465 X2.1416 Y-0.4967
N6470 X2.1496 Y-0.4975
N6475 X2.1575 Y-0.4983
N6480 X2.1655 Y-0.4994
N6485 X2.1735 Y-0.5005
N6490 X2.1814 Y-0.5017
N6495 X2.1894 Y-0.5031
N6500 X2.1902 Y-0.5033
N6505 X2.1974 Y-0.5046
N6510 X2.2054 Y-0.5063
N6515 X2.2133 Y-0.5081
N6520 X2.2213 Y-0.51
N6525 X2.2261 Y-0.5113
N6530 X2.2293 Y-0.5121
N6535 X2.2373 Y-0.5143
N6540 X2.2452 Y-0.5166
N6545 X2.2532 Y-0.5192
N6550 X2.2535
N6555 X2.2612 Y-0.5218
N6560 X2.2692 Y-0.5245
N6565 X2.2763 Y-0.5272
N6570 X2.2771 Y-0.5275
N6575 X2.2851 Y-0.5306
N6580 X2.2931 Y-0.5338
N6585 X2.2963 Y-0.5352
N6590 X2.3011 Y-0.5372
N6595 X2.309 Y-0.5408
N6600 X2.3141 Y-0.5432
N6605 X2.317 Y-0.5445
N6610 X2.325 Y-0.5484
N6615 X2.3302 Y-0.5511
N6620 X2.3329 Y-0.5525
N6625 X2.3409 Y-0.5568
N6630 X2.3451 Y-0.5591
N6635 X2.3489 Y-0.5612
N6640 X2.3569 Y-0.5659
N6645 X2.3589 Y-0.5671
N6650 X2.3648 Y-0.5707
N6655 X2.3717 Y-0.5751
N6660 X2.3728 Y-0.5758
N6665 X2.3808 Y-0.581
N6670 X2.3888 Y-0.5865
N6675 X2.3951 Y-0.591
N6680 X2.3967 Y-0.5922
N6685 X2.4047 Y-0.5981
N6690 X2.4058 Y-0.599
N6695 X2.4127 Y-0.6043
N6700 X2.416 Y-0.6069
N6705 X2.4207 Y-0.6107
N6710 X2.4256 Y-0.6149
N6715 X2.4286 Y-0.6175
N6720 X2.4348 Y-0.6229
N6725 X2.4366 Y-0.6245
N6730 X2.4436 Y-0.6309
N6735 X2.4446 Y-0.6318
N6740 X2.4519 Y-0.6388
N6745 X2.4526 Y-0.6395
N6750 X2.4599 Y-0.6468
N6755 X2.4605 Y-0.6475
N6760 X2.4675 Y-0.6548
N6765 X2.4685 Y-0.6558
N6770 X2.4749 Y-0.6628
N6775 X2.4765 Y-0.6646
N6780 X2.4819 Y-0.6707
N6785 X2.4844 Y-0.6737
N6790 X2.4886 Y-0.6787
N6795 X2.4924 Y-0.6834
N6800 X2.4951 Y-0.6867
N6805 X2.5004 Y-0.6935
N6810 X2.5012 Y-0.6947
N6815 X2.5072 Y-0.7026
N6820 X2.5084 Y-0.7043
N6825 X2.5129 Y-0.7106
N6830 X2.5184 Y-0.7186
N6835 X2.5236 Y-0.7266
N6840 X2.5243 Y-0.7276
N6845 X2.5286 Y-0.7345
N6850 X2.5323 Y-0.7404
N6855 X2.5335 Y-0.7425
N6860 X2.5382 Y-0.7505
N6865 X2.5403 Y-0.7542
N6870 X2.5426 Y-0.7584
N6875 X2.5468 Y-0.7664
N6880 X2.5482 Y-0.7691
N6885 X2.5509 Y-0.7744
N6890 X2.5548 Y-0.7824
N6895 X2.5562 Y-0.7852
N6900 X2.5586 Y-0.7903
N6905 X2.5621 Y-0.7983
N6910 X2.5642 Y-0.8031
N6915 X2.5656 Y-0.8063
N6920 X2.5688 Y-0.8143
N6925 X2.5719 Y-0.8222
N6930 X2.5722 Y-0.823
N6935 X2.5748 Y-0.8302
N6940 X2.5776 Y-0.8382
N6945 X2.5801 Y-0.8459
N6950 X2.5802 Y-0.8462
N6955 X2.5827 Y-0.8541
N6960 X2.5851 Y-0.8621
N6965 X2.5873 Y-0.8701
N6970 X2.5881 Y-0.8733
N6975 X2.5893 Y-0.8781
N6980 X2.5912 Y-0.886
N6985 X2.593 Y-0.894
N6990 X2.5947 Y-0.902
N6995 X2.5961 Y-0.9092
N7000 X2.5962 Y-0.9099
N7005 X2.5976 Y-0.9179
N7010 X2.5989 Y-0.9259
N7015 X2.6 Y-0.9339
N7020 X2.601 Y-0.9418
N7025 X2.6019 Y-0.9498
N7030 X2.6026 Y-0.9578
N7035 X2.6033 Y-0.9658
N7040 X2.6038 Y-0.9737
N7045 X2.6041 Y-0.9801
N7050 Y-0.9817
N7055 X2.6044 Y-0.9897
N7060 X2.6045 Y-0.9977
N7065 Y-1.0056
N7070 Y-1.3644
N7075 Y-1.3724
N7080 Y-1.5
N7085 Y-1.6276
N7090 Y-1.6356
N7095 Y-1.9944
N7100 Y-2.0023
N7105 X2.6044 Y-2.0103
N7110 X2.6041 Y-2.0183
N7115 Y-2.0199
N7120 X2.6038 Y-2.0263
N7125 X2.6033 Y-2.0342
N7130 X2.6026 Y-2.0422
N7135 X2.6019 Y-2.0502
N7140 X2.601 Y-2.0582
N7145 X2.6 Y-2.0661
N7150 X2.5989 Y-2.0741
N7155 X2.5976 Y-2.0821
N7160 X2.5962 Y-2.0901
N7165 X2.5961 Y-2.0908
N7170 X2.5947 Y-2.098
N7175 X2.593 Y-2.106
N7180 X2.5912 Y-2.114
N7185 X2.5893 Y-2.1219
N7190 X2.5881 Y-2.1267
N7195 X2.5873 Y-2.1299
N7200 X2.5851 Y-2.1379
N7205 X2.5827 Y-2.1459
N7210 X2.5802 Y-2.1538
N7215 X2.5801 Y-2.1541
N7220 X2.5776 Y-2.1618
N7225 X2.5748 Y-2.1698
N7230 X2.5722 Y-2.177
N7235 X2.5719 Y-2.1778
N7240 X2.5688 Y-2.1857
N7245 X2.5656 Y-2.1937
N7250 X2.5642 Y-2.1969
N7255 X2.5621 Y-2.2017
N7260 X2.5586 Y-2.2097
N7265 X2.5562 Y-2.2148
N7270 X2.5548 Y-2.2176
N7275 X2.5509 Y-2.2256
N7280 X2.5482 Y-2.2309
N7285 X2.5468 Y-2.2336
N7290 X2.5426 Y-2.2416
N7295 X2.5403 Y-2.2458
N7300 X2.5381 Y-2.2495
N7305 X2.5335 Y-2.2575
N7310 X2.5323 Y-2.2596
N7315 X2.5286 Y-2.2655
N7320 X2.5243 Y-2.2724
N7325 X2.5236 Y-2.2734
N7330 X2.5184 Y-2.2814
N7335 X2.5129 Y-2.2894
N7340 X2.5084 Y-2.2957
N7345 X2.5072 Y-2.2974
N7350 X2.5012 Y-2.3053
N7355 X2.5004 Y-2.3065
N7360 X2.4951 Y-2.3133
N7365 X2.4924 Y-2.3166
N7370 X2.4886 Y-2.3213
N7375 X2.4844 Y-2.3263
N7380 X2.4819 Y-2.3293
N7385 X2.4765 Y-2.3354
N7390 X2.4749 Y-2.3372
N7395 X2.4685 Y-2.3442
N7400 X2.4675 Y-2.3452
N7405 X2.4605 Y-2.3525
N7410 X2.4599 Y-2.3532
N7415 X2.4526 Y-2.3605
N7420 X2.4519 Y-2.3612
N7425 X2.4446 Y-2.3682
N7430 X2.4436 Y-2.3691
N7435 X2.4366 Y-2.3755
N7440 X2.4348 Y-2.3771
N7445 X2.4286 Y-2.3825
N7450 X2.4256 Y-2.3851
N7455 X2.4207 Y-2.3893
N7460 X2.416 Y-2.3931
N7465 X2.4127 Y-2.3957
N7470 X2.4058 Y-2.401
N7475 X2.4047 Y-2.4019
N7480 X2.3967 Y-2.4078
N7485 X2.3951 Y-2.409
N7490 X2.3888 Y-2.4135
N7495 X2.3808 Y-2.419
N7500 X2.3728 Y-2.4242
N7505 X2.3717 Y-2.4249
N7510 X2.3648 Y-2.4293
N7515 X2.3589 Y-2.4329
N7520 X2.3569 Y-2.4341
N7525 X2.3489 Y-2.4388
N7530 X2.3451 Y-2.4409
N7535 X2.3409 Y-2.4432
N7540 X2.3329 Y-2.4475
N7545 X2.3302 Y-2.4489
N7550 X2.325 Y-2.4516
N7555 X2.317 Y-2.4555
N7560 X2.3141 Y-2.4568
N7565 X2.309 Y-2.4592
N7570 X2.3011 Y-2.4628
N7575 X2.2963 Y-2.4648
N7580 X2.2931 Y-2.4662
N7585 X2.2851 Y-2.4694
N7590 X2.2771 Y-2.4725
N7595 X2.2763 Y-2.4728
N7600 X2.2692 Y-2.4755
N7605 X2.2612 Y-2.4782
N7610 X2.2535 Y-2.4808
N7615 X2.2532
N7620 X2.2452 Y-2.4834
N7625 X2.2373 Y-2.4857
N7630 X2.2293 Y-2.4879
N7635 X2.2261 Y-2.4887
N7640 X2.2213 Y-2.49
N7645 X2.2133 Y-2.4919
N7650 X2.2054 Y-2.4937
N7655 X2.1974 Y-2.4954
N7660 X2.1902 Y-2.4967
N7665 X2.1894 Y-2.4969
N7670 X2.1814 Y-2.4983
N7675 X2.1735 Y-2.4995
N7680 X2.1655 Y-2.5006
N7685 X2.1575 Y-2.5017
N7690 X2.1496 Y-2.5025
N7695 X2.1416 Y-2.5033
N7700 X2.1336 Y-2.5039
N7705 X2.1256 Y-2.5044
N7710 X2.1193 Y-2.5047
N7715 X2.1177
N7720 X2.1097 Y-2.505
N7725 X2.1017 Y-2.5051
N7730 X2.0937
N7735 X1.7349
N7740 X1.7269
N7745 X1.5994
N7750 X1.4718
N7755 X1.4638
N7760 X1.105
N7765 X1.097
N7770 X1.0891 Y-2.505
N7775 X1.0811 Y-2.5047
N7780 X1.0795
N7785 X1.0731 Y-2.5044
N7790 X1.0651 Y-2.5039
N7795 X1.0572 Y-2.5033
N7800 X1.0492 Y-2.5025
N7805 X1.0412 Y-2.5017
N7810 X1.0332 Y-2.5006
N7815 X1.0253 Y-2.4995
N7820 X1.0173 Y-2.4983
N7825 X1.0093 Y-2.4969
N7830 X1.0085 Y-2.4967
N7835 X1.0013 Y-2.4954
N7840 X0.9934 Y-2.4937
N7845 X0.9854 Y-2.4919
N7850 X0.9774 Y-2.49
N7855 X0.9727 Y-2.4887
N7860 X0.9694 Y-2.4879
N7865 X0.9615 Y-2.4857
N7870 X0.9535 Y-2.4834
N7875 X0.9455 Y-2.4808
N7880 X0.9453
N7885 X0.9376 Y-2.4782
N7890 X0.9296 Y-2.4755
N7895 X0.9224 Y-2.4728
N7900 X0.9216 Y-2.4725
N7905 X0.9136 Y-2.4694
N7910 X0.9057 Y-2.4662
N7915 X0.9025 Y-2.4648
N7920 X0.8977 Y-2.4628
N7925 X0.8897 Y-2.4592
N7930 X0.8846 Y-2.4568
N7935 X0.8817 Y-2.4555
N7940 X0.8738 Y-2.4516
N7945 X0.8685 Y-2.4489
N7950 X0.8658 Y-2.4475
N7955 X0.8578 Y-2.4432
N7960 X0.8536 Y-2.4409
N7965 X0.8498 Y-2.4388
N7970 X0.8419 Y-2.4341
N7975 X0.8398 Y-2.4329
N7980 X0.8339 Y-2.4293
N7985 X0.827 Y-2.4249
N7990 X0.8259 Y-2.4242
N7995 X0.8179 Y-2.419
N8000 X0.81 Y-2.4135
N8005 X0.8036 Y-2.409
N8010 X0.802 Y-2.4078
N8015 X0.794 Y-2.4019
N8020 X0.7929 Y-2.401
N8025 X0.7861 Y-2.3957
N8030 X0.7828 Y-2.3931
N8035 X0.7781 Y-2.3893
N8040 X0.7731 Y-2.3851
N8045 X0.7701 Y-2.3825
N8050 X0.7639 Y-2.3771
N8055 X0.7621 Y-2.3755
N8060 X0.7552 Y-2.3691
N8065 X0.7542 Y-2.3682
N8070 X0.7468 Y-2.3612
N8075 X0.7462 Y-2.3605
N8080 X0.7388 Y-2.3532
N8085 X0.7382 Y-2.3525
N8090 X0.7312 Y-2.3452
N8095 X0.7302 Y-2.3442
N8100 X0.7239 Y-2.3372
N8105 X0.7223 Y-2.3354
N8110 X0.7168 Y-2.3293
N8115 X0.7143 Y-2.3263
N8120 X0.7101 Y-2.3213
N8125 X0.7063 Y-2.3166
N8130 X0.7037 Y-2.3133
N8135 X0.6983 Y-2.3064
N8140 X0.6975 Y-2.3053
N8145 X0.6916 Y-2.2974
N8150 X0.6904 Y-2.2957
N8155 X0.6858 Y-2.2894
N8160 X0.6804 Y-2.2814
N8165 X0.6751 Y-2.2734
N8170 X0.6744 Y-2.2724
N8175 X0.6701 Y-2.2655
N8180 X0.6664 Y-2.2596
N8185 X0.6652 Y-2.2575
N8190 X0.6606 Y-2.2495
N8195 X0.6585 Y-2.2458
N8200 X0.6562 Y-2.2416
N8205 X0.6519 Y-2.2336
N8210 X0.6505 Y-2.2309
N8215 X0.6478 Y-2.2256
N8220 X0.6439 Y-2.2176
N8225 X0.6425 Y-2.2148
N8230 X0.6402 Y-2.2097
N8235 X0.6366 Y-2.2017
N8240 X0.6346 Y-2.1969
N8245 X0.6332 Y-2.1937
N8250 X0.63 Y-2.1857
N8255 X0.6269 Y-2.1778
N8260 X0.6266 Y-2.177
N8265 X0.6239 Y-2.1698
N8270 X0.6212 Y-2.1618
N8275 X0.6186 Y-2.1541
N8280 X0.6185 Y-2.1538
N8285 X0.616 Y-2.1459
N8290 X0.6137 Y-2.1379
N8295 X0.6115 Y-2.1299
N8300 X0.6106 Y-2.1267
N8305 X0.6094 Y-2.1219
N8310 X0.6075 Y-2.114
N8315 X0.6057 Y-2.106
N8320 X0.604 Y-2.098
N8325 X0.6027 Y-2.0908
N8330 X0.6025 Y-2.0901
N8335 X0.6011 Y-2.0821
N8340 X0.5998 Y-2.0741
N8345 X0.5987 Y-2.0661
N8350 X0.5979 Y-2.0598
N8355 G0 Z0.8063
N8360 X0.7283 Y-2.2009 Z0.8804
N8365 X0.8849 Y-2.3703 Z0.8515
N8370 X0.992 Y-2.4862 Z0.8275
N8375 X1.0784 Y-2.5796 Z0.7429
N8380 G1 Z0.625 F40
N8385 X1.0731 Y-2.5794 Z0.6248
N8390 X1.0651 Y-2.5789 Z0.6245
N8395 X1.0572 Y-2.5784 Z0.6243
N8400 X1.0492 Y-2.5778 Z0.624
N8405 X1.0412 Y-2.577 Z0.6237
N8410 X1.0332 Y-2.5761 Z0.6234
N8415 X1.0253 Y-2.5751 Z0.6231
N8420 X1.0173 Y-2.5741 Z0.6229
N8425 X1.0093 Y-2.5728 Z0.6226
N8430 X1.0013 Y-2.5715 Z0.6223
N8435 X0.9934 Y-2.5701 Z0.622
N8440 X0.9854 Y-2.5685 Z0.6217
N8445 X0.9774 Y-2.5669 Z0.6214
N8450 X0.9694 Y-2.5651 Z0.6212
N8455 X0.9615 Y-2.5632 Z0.6209
N8460 X0.9535 Y-2.5611 Z0.6206
N8465 X0.9511 Y-2.5605 Z0.6205
N8470 X0.9455 Y-2.559 Z0.6203
N8475 X0.9376 Y-2.5567 Z0.62
N8480 X0.9296 Y-2.5544 Z0.6197
N8485 X0.9216 Y-2.5518 Z0.6194
N8490 X0.9136 Y-2.5492 Z0.6191
N8495 X0.9057 Y-2.5464 Z0.6188
N8500 X0.9005 Y-2.5446 Z0.6186
N8505 X0.8977 Y-2.5435 Z0.6185
N8510 X0.8897 Y-2.5405 Z0.6182
N8515 X0.8799 Y-2.5366 Z0.6179
N8520 X0.8738 Y-2.534 Z0.6176
N8525 X0.8658 Y-2.5306 Z0.6173
N8530 X0.8614 Y-2.5286 Z0.6172
N8535 X0.8578 Y-2.527 Z0.617
N8540 X0.8498 Y-2.5232 Z0.6167
N8545 X0.8419 Y-2.5194 Z0.6164
N8550 X0.8339 Y-2.5153 Z0.6161
N8555 X0.8288 Y-2.5127 Z0.6159
N8560 X0.8259 Y-2.5111 Z0.6158
N8565 X0.8179 Y-2.5068 Z0.6155
N8570 X0.8142 Y-2.5047 Z0.6153
N8575 X0.81 Y-2.5022 Z0.6151
N8580 X0.802 Y-2.4976 Z0.6148
N8585 X0.8005 Y-2.4967
N8590 X0.794 Y-2.4927 Z0.6145
N8595 X0.7877 Y-2.4887 Z0.6142
N8600 X0.7861 Y-2.4877
N8605 X0.7781 Y-2.4825 Z0.6138
N8610 X0.7756 Y-2.4808 Z0.6137
N8615 X0.7701 Y-2.477 Z0.6135
N8620 X0.764 Y-2.4728 Z0.6132
N8625 X0.7621 Y-2.4714
N8630 X0.7542 Y-2.4656 Z0.6128
N8635 X0.7531 Y-2.4648
N8640 X0.7462 Y-2.4596 Z0.6125
N8645 X0.7426 Y-2.4568 Z0.6123
N8650 X0.7382 Y-2.4533 Z0.6121
N8655 X0.7326 Y-2.4489 Z0.6119
N8660 X0.7302 Y-2.4469 Z0.6118
N8665 X0.7223 Y-2.4402 Z0.6114
N8670 X0.7143 Y-2.4332 Z0.611
N8675 X0.714 Y-2.4329
N8680 X0.7063 Y-2.426 Z0.6106
N8685 X0.7052 Y-2.4249
N8690 X0.6983 Y-2.4185 Z0.6103
N8695 X0.6904 Y-2.4107 Z0.6099
N8700 X0.6887 Y-2.409 Z0.6098
N8705 X0.6809 Y-2.401 Z0.6094
N8710 X0.6744 Y-2.3942 Z0.6091
N8715 X0.6734 Y-2.3931 Z0.609
N8720 X0.6664 Y-2.3854 Z0.6087
N8725 X0.6662 Y-2.3851 Z0.6086
N8730 X0.6592 Y-2.3771 Z0.6083
N8735 X0.6525 Y-2.3691 Z0.6079
N8740 X0.6505 Y-2.3667 Z0.6078
N8745 X0.646 Y-2.3612 Z0.6076
N8750 X0.6425 Y-2.3568 Z0.6074
N8755 X0.6398 Y-2.3532 Z0.6072
N8760 X0.6346 Y-2.3463 Z0.6069
N8765 X0.6337 Y-2.3452 Z0.6068
N8770 X0.6279 Y-2.3372 Z0.6065
N8775 X0.6266 Y-2.3353 Z0.6064
N8780 X0.6223 Y-2.3293 Z0.6062
N8785 X0.6186 Y-2.3238 Z0.6059
N8790 X0.6169 Y-2.3213 Z0.6058
N8795 X0.6117 Y-2.3133 Z0.6055
N8800 X0.6106 Y-2.3117 Z0.6054
N8805 X0.6067 Y-2.3053 Z0.6052
N8810 X0.6027 Y-2.2988 Z0.6049
N8815 X0.6018 Y-2.2974 Z0.6048
N8820 X0.5971 Y-2.2894 Z0.6045
N8825 X0.5947 Y-2.2852 Z0.6043
N8830 X0.5926 Y-2.2814 Z0.6042
N8835 X0.5882 Y-2.2734 Z0.6039
N8840 X0.5867 Y-2.2706 Z0.6038
N8845 X0.5841 Y-2.2655 Z0.6036
N8850 X0.58 Y-2.2575 Z0.6033
N8855 X0.5761 Y-2.2495 Z0.6029
N8860 X0.5724 Y-2.2416 Z0.6026
N8865 X0.5708 Y-2.238 Z0.6025
N8870 X0.5688 Y-2.2336 Z0.6023
N8875 X0.5654 Y-2.2256 Z0.602
N8880 X0.5628 Y-2.2195 Z0.6018
N8885 X0.5589 Y-2.2097 Z0.6014
N8890 X0.5559 Y-2.2017 Z0.6011
N8895 X0.5548 Y-2.1989 Z0.601
N8900 X0.5529 Y-2.1937 Z0.6008
N8905 X0.5502 Y-2.1857 Z0.6005
N8910 X0.5475 Y-2.1778 Z0.6002
N8915 X0.545 Y-2.1698 Z0.6
N8920 X0.5426 Y-2.1618 Z0.5997
N8925 X0.5403 Y-2.1538 Z0.5994
N8930 X0.5389 Y-2.1483 Z0.5992
N8935 X0.5382 Y-2.1459 Z0.5991
N8940 X0.5362 Y-2.1379 Z0.5988
N8945 X0.5343 Y-2.1299 Z0.5985
N8950 X0.5325 Y-2.1219 Z0.5982
N8955 X0.5308 Y-2.114 Z0.5979
N8960 X0.5293 Y-2.106 Z0.5977
N8965 X0.5278 Y-2.098 Z0.5974
N8970 X0.5265 Y-2.0901 Z0.5971
N8975 X0.5253 Y-2.0821 Z0.5968
N8980 X0.5242 Y-2.0741 Z0.5965
N8985 X0.5232 Y-2.0661 Z0.5962
N8990 X0.5224 Y-2.0582 Z0.596
N8995 X0.5216 Y-2.0502 Z0.5957
N9000 X0.5209 Y-2.0422 Z0.5954
N9005 X0.5204 Y-2.0342 Z0.5951
N9010 X0.52 Y-2.0263 Z0.5948
N9015 X0.5197 Y-2.0183 Z0.5946
N9020 X0.5194 Y-2.0103 Z0.5943
N9025 X0.5193 Y-2.0023 Z0.594
N9030 Y-1.9944 Z0.5937
N9035 Y-1.7552 Z0.5854
N9040 Y-1.6422 Z0.5814
N9045 X0.5192 Y-1.6421
N9050 X0.507 Z0.581
N9055 X0.499 Z0.5807
N9060 X0.491 Y-1.6418 Z0.5804
N9065 X0.4831 Y-1.6409 Z0.5802
N9070 X0.4791 Y-1.6403 Z0.58
N9075 X0.4771 Y-1.64
N9080 X0.4761 Y-1.6398 Z0.5799
N9085 X0.4756 Y-1.6397
N9090 X0.4752 Y-1.6396
N9095 X0.4756 Y-1.6397
N9100 X0.4761 Y-1.6398
N9105 X0.4771 Y-1.64 Z0.5798
N9110 X0.4791 Y-1.6403 Z0.5797
N9115 X0.4831 Y-1.6409 Z0.5796
N9120 X0.491 Y-1.6418 Z0.5793
N9125 X0.499 Y-1.6421 Z0.5791
N9130 X0.507 Z0.5788
N9135 X0.5192 Z0.5783
N9140 X0.5193 Y-1.6422
N9145 Y-1.7552 Z0.5744
N9150 Y-1.9944 Z0.566
N9155 Y-2.0023 Z0.5658
N9160 X0.5194 Y-2.0103 Z0.5655
N9165 X0.5197 Y-2.0183 Z0.5652
N9170 X0.52 Y-2.0263 Z0.5649
N9175 X0.5204 Y-2.0342 Z0.5646
N9180 X0.5209 Y-2.0422 Z0.5644
N9185 X0.5216 Y-2.0502 Z0.5641
N9190 X0.5224 Y-2.0582 Z0.5638
N9195 X0.5232 Y-2.0661 Z0.5635
N9200 X0.5242 Y-2.0741 Z0.5632
N9205 X0.5253 Y-2.0821 Z0.563
N9210 X0.5265 Y-2.0901 Z0.5627
N9215 X0.5278 Y-2.098 Z0.5624
N9220 X0.5293 Y-2.106 Z0.5621
N9225 X0.5308 Y-2.114 Z0.5618
N9230 X0.5325 Y-2.1219 Z0.5616
N9235 X0.5343 Y-2.1299 Z0.5613
N9240 X0.5362 Y-2.1379 Z0.561
N9245 X0.5382 Y-2.1459 Z0.5607
N9250 X0.5389 Y-2.1483 Z0.5606
N9255 X0.5403 Y-2.1538 Z0.5604
N9260 X0.5426 Y-2.1618 Z0.5601
N9265 X0.545 Y-2.1698 Z0.5598
N9270 X0.5475 Y-2.1778 Z0.5595
N9275 X0.5502 Y-2.1857 Z0.5592
N9280 X0.5529 Y-2.1937 Z0.5589
N9285 X0.5548 Y-2.1989 Z0.5588
N9290 X0.5559 Y-2.2017 Z0.5586
N9295 X0.5589 Y-2.2097 Z0.5584
N9300 X0.5628 Y-2.2195 Z0.558
N9305 X0.5654 Y-2.2256 Z0.5578
N9310 X0.5688 Y-2.2336 Z0.5574
N9315 X0.5708 Y-2.238 Z0.5573
N9320 X0.5724 Y-2.2416 Z0.5571
N9325 X0.5761 Y-2.2495 Z0.5568
N9330 X0.58 Y-2.2575 Z0.5565
N9335 X0.5841 Y-2.2655 Z0.5562
N9340 X0.5867 Y-2.2706 Z0.556
N9345 X0.5882 Y-2.2734 Z0.5559
N9350 X0.5926 Y-2.2814 Z0.5556
N9355 X0.5947 Y-2.2852 Z0.5554
N9360 X0.5971 Y-2.2894 Z0.5553
N9365 X0.6018 Y-2.2974 Z0.5549
N9370 X0.6027 Y-2.2988
N9375 X0.6067 Y-2.3053 Z0.5546
N9380 X0.6106 Y-2.3117 Z0.5544
N9385 X0.6117 Y-2.3133 Z0.5543
N9390 X0.6169 Y-2.3213 Z0.554
N9395 X0.6186 Y-2.3238 Z0.5538
N9400 X0.6223 Y-2.3293 Z0.5536
N9405 X0.6266 Y-2.3353 Z0.5534
N9410 X0.6279 Y-2.3372 Z0.5533
N9415 X0.6337 Y-2.3452 Z0.5529
N9420 X0.6346 Y-2.3463
N9425 X0.6398 Y-2.3532 Z0.5526
N9430 X0.6425 Y-2.3568 Z0.5524
N9435 X0.646 Y-2.3612 Z0.5522
N9440 X0.6505 Y-2.3667 Z0.552
N9445 X0.6525 Y-2.3691 Z0.5519
N9450 X0.6592 Y-2.3771 Z0.5515
N9455 X0.6662 Y-2.3851 Z0.5511
N9460 X0.6664 Y-2.3854
N9465 X0.6734 Y-2.3931 Z0.5508
N9470 X0.6744 Y-2.3942 Z0.5507
N9475 X0.6809 Y-2.401 Z0.5504
N9480 X0.6887 Y-2.409 Z0.55
N9485 X0.6904 Y-2.4107 Z0.5499
N9490 X0.6983 Y-2.4185 Z0.5495
N9495 X0.7052 Y-2.4249 Z0.5492
N9500 X0.7063 Y-2.426 Z0.5491
N9505 X0.714 Y-2.4329 Z0.5488
N9510 X0.7143 Y-2.4332
N9515 X0.7223 Y-2.4402 Z0.5484
N9520 X0.7302 Y-2.4469 Z0.548
N9525 X0.7326 Y-2.4489 Z0.5479
N9530 X0.7382 Y-2.4533 Z0.5477
N9535 X0.7426 Y-2.4568 Z0.5475
N9540 X0.7462 Y-2.4596 Z0.5473
N9545 X0.7531 Y-2.4648 Z0.547
N9550 X0.7542 Y-2.4656
N9555 X0.7621 Y-2.4714 Z0.5466
N9560 X0.764 Y-2.4728 Z0.5465
N9565 X0.7701 Y-2.477 Z0.5463
N9570 X0.7756 Y-2.4808 Z0.546
N9575 X0.7781 Y-2.4825 Z0.5459
N9580 X0.7861 Y-2.4877 Z0.5456
N9585 X0.7877 Y-2.4887 Z0.5455
N9590 X0.794 Y-2.4927 Z0.5453
N9595 X0.8005 Y-2.4967 Z0.545
N9600 X0.802 Y-2.4976
N9605 X0.81 Y-2.5022 Z0.5446
N9610 X0.8142 Y-2.5047 Z0.5445
N9615 X0.8179 Y-2.5068 Z0.5443
N9620 X0.8259 Y-2.5111 Z0.544
N9625 X0.8288 Y-2.5127 Z0.5439
N9630 X0.8339 Y-2.5153 Z0.5437
N9635 X0.8419 Y-2.5194 Z0.5434
N9640 X0.8498 Y-2.5232 Z0.5431
N9645 X0.8578 Y-2.527 Z0.5427
N9650 X0.8614 Y-2.5286 Z0.5426
N9655 X0.8658 Y-2.5306 Z0.5424
N9660 X0.8738 Y-2.534 Z0.5421
N9665 X0.8799 Y-2.5366 Z0.5419
N9670 X0.8897 Y-2.5405 Z0.5415
N9675 X0.8977 Y-2.5435 Z0.5412
N9680 X0.9005 Y-2.5446 Z0.5411
N9685 X0.9057 Y-2.5464 Z0.5409
N9690 X0.9136 Y-2.5492 Z0.5406
N9695 X0.9216 Y-2.5518 Z0.5404
N9700 X0.9296 Y-2.5544 Z0.5401
N9705 X0.9376 Y-2.5567 Z0.5398
N9710 X0.9455 Y-2.559 Z0.5395
N9715 X0.9511 Y-2.5605 Z0.5393
N9720 X0.9535 Y-2.5611 Z0.5392
N9725 X0.9615 Y-2.5632 Z0.5389
N9730 X0.9694 Y-2.5651 Z0.5386
N9735 X0.9774 Y-2.5669 Z0.5383
N9740 X0.9854 Y-2.5685 Z0.5381
N9745 X0.9934 Y-2.5701 Z0.5378
N9750 X1.0013 Y-2.5715 Z0.5375
N9755 X1.0093 Y-2.5728 Z0.5372
N9760 X1.0173 Y-2.5741 Z0.5369
N9765 X1.0253 Y-2.5751 Z0.5366
N9770 X1.0332 Y-2.5761 Z0.5364
N9775 X1.0412 Y-2.577 Z0.5361
N9780 X1.0492 Y-2.5778 Z0.5358
N9785 X1.0572 Y-2.5784 Z0.5355
N9790 X1.0651 Y-2.5789 Z0.5352
N9795 X1.0731 Y-2.5794 Z0.535
N9800 X1.0811 Y-2.5797 Z0.5347
N9805 X1.0891 Y-2.5799 Z0.5344
N9810 X1.097 Y-2.5801 Z0.5341
N9815 X1.105 Z0.5338
N9820 X1.3442 Z0.5255
N9825 X1.4572 Z0.5215
N9830 X1.4573
N9835 Y-2.5924 Z0.5211
N9840 Y-2.6004 Z0.5208
N9845 X1.4576 Y-2.6083 Z0.5206
N9850 X1.4584 Y-2.6163 Z0.5203
N9855 X1.459 Y-2.6203 Z0.5201
N9860 X1.4594 Y-2.6223
N9865 X1.4596 Y-2.6233 Z0.52
N9870 X1.4597 Y-2.6238
N9875 X1.4598 Y-2.6242
N9880 X1.4597 Y-2.6238
N9885 X1.4596 Y-2.6233
N9890 X1.4594 Y-2.6223
N9895 X1.459 Y-2.6203
N9900 X1.4584 Y-2.6163
N9905 X1.4576 Y-2.6083
N9910 X1.4573 Y-2.6004
N9915 Y-2.5924
N9920 Y-2.5801
N9925 X1.4572
N9930 X1.3442
N9935 X1.105
N9940 X1.097
N9945 X1.0891 Y-2.5799
N9950 X1.0811 Y-2.5797
N9955 X1.0731 Y-2.5794
N9960 X1.0651 Y-2.5789
N9965 X1.0572 Y-2.5784
N9970 X1.0492 Y-2.5778
N9975 X1.0412 Y-2.577
N9980 X1.0332 Y-2.5761
N9985 X1.0253 Y-2.5751
N9990 X1.0173 Y-2.5741
N9995 X1.0093 Y-2.5728
N10000 X1.0013 Y-2.5715
N10005 X0.9934 Y-2.5701
N10010 X0.9854 Y-2.5685
N10015 X0.9774 Y-2.5669
N10020 X0.9694 Y-2.5651
N10025 X0.9615 Y-2.5632
N10030 X0.9535 Y-2.5611
N10035 X0.9511 Y-2.5605
N10040 X0.9455 Y-2.559
N10045 X0.9376 Y-2.5567
N10050 X0.9296 Y-2.5544
N10055 X0.9216 Y-2.5518
N10060 X0.9136 Y-2.5492
N10065 X0.9057 Y-2.5464
N10070 X0.9005 Y-2.5446
N10075 X0.8977 Y-2.5435
N10080 X0.8897 Y-2.5405
N10085 X0.8799 Y-2.5366
N10090 X0.8738 Y-2.534
N10095 X0.8658 Y-2.5306
N10100 X0.8614 Y-2.5286
N10105 X0.8578 Y-2.527
N10110 X0.8498 Y-2.5232
N10115 X0.8419 Y-2.5194
N10120 X0.8339 Y-2.5153
N10125 X0.8288 Y-2.5127
N10130 X0.8259 Y-2.5111
N10135 X0.8179 Y-2.5068
N10140 X0.8142 Y-2.5047
N10145 X0.81 Y-2.5022
N10150 X0.802 Y-2.4976
N10155 X0.8005 Y-2.4967
N10160 X0.794 Y-2.4927
N10165 X0.7877 Y-2.4887
N10170 X0.7861 Y-2.4877
N10175 X0.7781 Y-2.4825
N10180 X0.7756 Y-2.4808
N10185 X0.7701 Y-2.477
N10190 X0.764 Y-2.4728
N10195 X0.7621 Y-2.4714
N10200 X0.7542 Y-2.4656
N10205 X0.7531 Y-2.4648
N10210 X0.7462 Y-2.4596
N10215 X0.7426 Y-2.4568
N10220 X0.7382 Y-2.4533
N10225 X0.7326 Y-2.4489
N10230 X0.7302 Y-2.4469
N10235 X0.7223 Y-2.4402
N10240 X0.7143 Y-2.4332
N10245 X0.714 Y-2.4329
N10250 X0.7063 Y-2.426
N10255 X0.7052 Y-2.4249
N10260 X0.6983 Y-2.4185
N10265 X0.6904 Y-2.4107
N10270 X0.6887 Y-2.409
N10275 X0.6809 Y-2.401
N10280 X0.6744 Y-2.3942
N10285 X0.6734 Y-2.3931
N10290 X0.6664 Y-2.3854
N10295 X0.6662 Y-2.3851
N10300 X0.6592 Y-2.3771
N10305 X0.6525 Y-2.3691
N10310 X0.6505 Y-2.3667
N10315 X0.646 Y-2.3612
N10320 X0.6425 Y-2.3568
N10325 X0.6398 Y-2.3532
N10330 X0.6346 Y-2.3463
N10335 X0.6337 Y-2.3452
N10340 X0.6279 Y-2.3372
N10345 X0.6266 Y-2.3353
N10350 X0.6223 Y-2.3293
N10355 X0.6186 Y-2.3238
N10360 X0.6169 Y-2.3213
N10365 X0.6117 Y-2.3133
N10370 X0.6106 Y-2.3117
N10375 X0.6067 Y-2.3053
N10380 X0.6027 Y-2.2988
N10385 X0.6018 Y-2.2974
N10390 X0.5971 Y-2.2894
N10395 X0.5947 Y-2.2852
N10400 X0.5926 Y-2.2814
N10405 X0.5882 Y-2.2734
N10410 X0.5867 Y-2.2706
N10415 X0.5841 Y-2.2655
N10420 X0.58 Y-2.2575
N10425 X0.5761 Y-2.2495
N10430 X0.5724 Y-2.2416
N10435 X0.5708 Y-2.238
N10440 X0.5688 Y-2.2336
N10445 X0.5654 Y-2.2256
N10450 X0.5628 Y-2.2195
N10455 X0.5589 Y-2.2097
N10460 X0.5559 Y-2.2017
N10465 X0.5548 Y-2.1989
N10470 X0.5529 Y-2.1937
N10475 X0.5502 Y-2.1857
N10480 X0.5475 Y-2.1778
N10485 X0.545 Y-2.1698
N10490 X0.5426 Y-2.1618
N10495 X0.5403 Y-2.1538
N10500 X0.5389 Y-2.1483
N10505 X0.5382 Y-2.1459
N10510 X0.5362 Y-2.1379
N10515 X0.5343 Y-2.1299
N10520 X0.5325 Y-2.1219
N10525 X0.5308 Y-2.114
N10530 X0.5293 Y-2.106
N10535 X0.5278 Y-2.098
N10540 X0.5265 Y-2.0901
N10545 X0.5253 Y-2.0821
N10550 X0.5242 Y-2.0741
N10555 X0.5232 Y-2.0661
N10560 X0.5224 Y-2.0582
N10565 X0.5216 Y-2.0502
N10570 X0.5209 Y-2.0422
N10575 X0.5204 Y-2.0342
N10580 X0.52 Y-2.0263
N10585 X0.5197 Y-2.0183
N10590 X0.5194 Y-2.0103
N10595 X0.5193 Y-2.0023
N10600 Y-1.9944
N10605 Y-1.7552
N10610 Y-1.6422
N10615 X0.5192 Y-1.6421
N10620 X0.507
N10625 X0.499
N10630 X0.491 Y-1.6418
N10635 X0.4831 Y-1.6409
N10640 X0.4791 Y-1.6403
N10645 X0.4771 Y-1.64
N10650 X0.4761 Y-1.6398
N10655 X0.4756 Y-1.6397
N10660 X0.4752 Y-1.6396
N10665 G0 Z0.7429
N10670 X0.5198 Y-0.979
N10675 G1 Z0.625 F40
N10680 X0.52 Y-0.9737 Z0.6248
N10685 X0.5204 Y-0.9658 Z0.6245
N10690 X0.5209 Y-0.9578 Z0.6243
N10695 X0.5216 Y-0.9498 Z0.624
N10700 X0.5224 Y-0.9418 Z0.6237
N10705 X0.5232 Y-0.9339 Z0.6234
N10710 X0.5242 Y-0.9259 Z0.6231
N10715 X0.5253 Y-0.9179 Z0.6229
N10720 X0.5265 Y-0.9099 Z0.6226
N10725 X0.5278 Y-0.902 Z0.6223
N10730 X0.5293 Y-0.894 Z0.622
N10735 X0.5308 Y-0.886 Z0.6217
N10740 X0.5325 Y-0.8781 Z0.6214
N10745 X0.5343 Y-0.8701 Z0.6212
N10750 X0.5362 Y-0.8621 Z0.6209
N10755 X0.5382 Y-0.8541 Z0.6206
N10760 X0.5389 Y-0.8517 Z0.6205
N10765 X0.5403 Y-0.8462 Z0.6203
N10770 X0.5426 Y-0.8382 Z0.62
N10775 X0.545 Y-0.8302 Z0.6197
N10780 X0.5475 Y-0.8222 Z0.6194
N10785 X0.5502 Y-0.8143 Z0.6191
N10790 X0.5529 Y-0.8063 Z0.6188
N10795 X0.5548 Y-0.8011 Z0.6186
N10800 X0.5559 Y-0.7983 Z0.6185
N10805 X0.5589 Y-0.7903 Z0.6182
N10810 X0.5628 Y-0.7805 Z0.6179
N10815 X0.5654 Y-0.7744 Z0.6176
N10820 X0.5688 Y-0.7664 Z0.6173
N10825 X0.5708 Y-0.762 Z0.6172
N10830 X0.5724 Y-0.7584 Z0.617
N10835 X0.5761 Y-0.7505 Z0.6167
N10840 X0.58 Y-0.7425 Z0.6164
N10845 X0.5841 Y-0.7345 Z0.6161
N10850 X0.5867 Y-0.7294 Z0.6159
N10855 X0.5882 Y-0.7266 Z0.6158
N10860 X0.5926 Y-0.7186 Z0.6155
N10865 X0.5947 Y-0.7148 Z0.6153
N10870 X0.5971 Y-0.7106 Z0.6151
N10875 X0.6018 Y-0.7026 Z0.6148
N10880 X0.6027 Y-0.7012
N10885 X0.6067 Y-0.6947 Z0.6145
N10890 X0.6106 Y-0.6883 Z0.6142
N10895 X0.6117 Y-0.6867
N10900 X0.6169 Y-0.6787 Z0.6138
N10905 X0.6186 Y-0.6762 Z0.6137
N10910 X0.6223 Y-0.6707 Z0.6135
N10915 X0.6266 Y-0.6647 Z0.6132
N10920 X0.6279 Y-0.6628
N10925 X0.6337 Y-0.6548 Z0.6128
N10930 X0.6346 Y-0.6537
N10935 X0.6398 Y-0.6468 Z0.6125
N10940 X0.6425 Y-0.6432 Z0.6123
N10945 X0.646 Y-0.6388 Z0.6121
N10950 X0.6505 Y-0.6333 Z0.6119
N10955 X0.6525 Y-0.6309 Z0.6118
N10960 X0.6592 Y-0.6229 Z0.6114
N10965 X0.6662 Y-0.6149 Z0.611
N10970 X0.6664 Y-0.6146
N10975 X0.6734 Y-0.6069 Z0.6106
N10980 X0.6744 Y-0.6058
N10985 X0.6809 Y-0.599 Z0.6103
N10990 X0.6887 Y-0.591 Z0.6099
N10995 X0.6904 Y-0.5893 Z0.6098
N11000 X0.6983 Y-0.5815 Z0.6094
N11005 X0.7052 Y-0.5751 Z0.6091
N11010 X0.7063 Y-0.574 Z0.609
N11015 X0.714 Y-0.5671 Z0.6087
N11020 X0.7143 Y-0.5668 Z0.6086
N11025 X0.7223 Y-0.5598 Z0.6083
N11030 X0.7302 Y-0.5531 Z0.6079
N11035 X0.7326 Y-0.5511 Z0.6078
N11040 X0.7382 Y-0.5467 Z0.6076
N11045 X0.7426 Y-0.5432 Z0.6074
N11050 X0.7462 Y-0.5404 Z0.6072
N11055 X0.7531 Y-0.5352 Z0.6069
N11060 X0.7542 Y-0.5344 Z0.6068
N11065 X0.7621 Y-0.5286 Z0.6065
N11070 X0.764 Y-0.5272 Z0.6064
N11075 X0.7701 Y-0.523 Z0.6062
N11080 X0.7756 Y-0.5192 Z0.6059
N11085 X0.7781 Y-0.5175 Z0.6058
N11090 X0.7861 Y-0.5123 Z0.6055
N11095 X0.7877 Y-0.5113 Z0.6054
N11100 X0.794 Y-0.5073 Z0.6052
N11105 X0.8005 Y-0.5033 Z0.6049
N11110 X0.802 Y-0.5024 Z0.6048
N11115 X0.81 Y-0.4978 Z0.6045
N11120 X0.8142 Y-0.4953 Z0.6043
N11125 X0.8179 Y-0.4932 Z0.6042
N11130 X0.8259 Y-0.4889 Z0.6039
N11135 X0.8288 Y-0.4873 Z0.6038
N11140 X0.8339 Y-0.4847 Z0.6036
N11145 X0.8419 Y-0.4806 Z0.6033
N11150 X0.8498 Y-0.4768 Z0.6029
N11155 X0.8578 Y-0.473 Z0.6026
N11160 X0.8614 Y-0.4714 Z0.6025
N11165 X0.8658 Y-0.4694 Z0.6023
N11170 X0.8738 Y-0.466 Z0.602
N11175 X0.8799 Y-0.4634 Z0.6018
N11180 X0.8897 Y-0.4595 Z0.6014
N11185 X0.8977 Y-0.4565 Z0.6011
N11190 X0.9005 Y-0.4554 Z0.601
N11195 X0.9057 Y-0.4536 Z0.6008
N11200 X0.9136 Y-0.4508 Z0.6005
N11205 X0.9216 Y-0.4482 Z0.6002
N11210 X0.9296 Y-0.4456 Z0.6
N11215 X0.9376 Y-0.4433 Z0.5997
N11220 X0.9455 Y-0.441 Z0.5994
N11225 X0.9511 Y-0.4395 Z0.5992
N11230 X0.9535 Y-0.4389 Z0.5991
N11235 X0.9615 Y-0.4368 Z0.5988
N11240 X0.9694 Y-0.4349 Z0.5985
N11245 X0.9774 Y-0.4331 Z0.5982
N11250 X0.9854 Y-0.4315 Z0.5979
N11255 X0.9934 Y-0.4299 Z0.5977
N11260 X1.0013 Y-0.4285 Z0.5974
N11265 X1.0093 Y-0.4272 Z0.5971
N11270 X1.0173 Y-0.4259 Z0.5968
N11275 X1.0253 Y-0.4249 Z0.5965
N11280 X1.0332 Y-0.4239 Z0.5962
N11285 X1.0412 Y-0.423 Z0.596
N11290 X1.0492 Y-0.4222 Z0.5957
N11295 X1.0572 Y-0.4216 Z0.5954
N11300 X1.0651 Y-0.4211 Z0.5951
N11305 X1.0731 Y-0.4206 Z0.5948
N11310 X1.0811 Y-0.4203 Z0.5946
N11315 X1.0891 Y-0.4201 Z0.5943
N11320 X1.097 Y-0.4199 Z0.594
N11325 X1.105 Z0.5937
N11330 X1.3442 Z0.5854
N11335 X1.4572 Z0.5814
N11340 X1.4573
N11345 Y-0.4076 Z0.581
N11350 Y-0.3996 Z0.5807
N11355 X1.4576 Y-0.3917 Z0.5804
N11360 X1.4584 Y-0.3837 Z0.5802
N11365 X1.459 Y-0.3797 Z0.58
N11370 X1.4594 Y-0.3777
N11375 X1.4596 Y-0.3767 Z0.5799
N11380 X1.4597 Y-0.3762
N11385 X1.4598 Y-0.3758
N11390 X1.4597 Y-0.3762
N11395 X1.4596 Y-0.3767
N11400 X1.4594 Y-0.3777 Z0.5798
N11405 X1.459 Y-0.3797 Z0.5797
N11410 X1.4584 Y-0.3837 Z0.5796
N11415 X1.4576 Y-0.3917 Z0.5793
N11420 X1.4573 Y-0.3996 Z0.5791
N11425 Y-0.4076 Z0.5788
N11430 Y-0.4199 Z0.5783
N11435 X1.4572
N11440 X1.3442 Z0.5744
N11445 X1.105 Z0.566
N11450 X1.097 Z0.5658
N11455 X1.0891 Y-0.4201 Z0.5655
N11460 X1.0811 Y-0.4203 Z0.5652
N11465 X1.0731 Y-0.4206 Z0.5649
N11470 X1.0651 Y-0.4211 Z0.5646
N11475 X1.0572 Y-0.4216 Z0.5644
N11480 X1.0492 Y-0.4222 Z0.5641
N11485 X1.0412 Y-0.423 Z0.5638
N11490 X1.0332 Y-0.4239 Z0.5635
N11495 X1.0253 Y-0.4249 Z0.5632
N11500 X1.0173 Y-0.4259 Z0.563
N11505 X1.0093 Y-0.4272 Z0.5627
N11510 X1.0013 Y-0.4285 Z0.5624
N11515 X0.9934 Y-0.4299 Z0.5621
N11520 X0.9854 Y-0.4315 Z0.5618
N11525 X0.9774 Y-0.4331 Z0.5616
N11530 X0.9694 Y-0.4349 Z0.5613
N11535 X0.9615 Y-0.4368 Z0.561
N11540 X0.9535 Y-0.4389 Z0.5607
N11545 X0.9511 Y-0.4395 Z0.5606
N11550 X0.9455 Y-0.441 Z0.5604
N11555 X0.9376 Y-0.4433 Z0.5601
N11560 X0.9296 Y-0.4456 Z0.5598
N11565 X0.9216 Y-0.4482 Z0.5595
N11570 X0.9136 Y-0.4508 Z0.5592
N11575 X0.9057 Y-0.4536 Z0.5589
N11580 X0.9005 Y-0.4554 Z0.5588
N11585 X0.8977 Y-0.4565 Z0.5586
N11590 X0.8897 Y-0.4595 Z0.5584
N11595 X0.8799 Y-0.4634 Z0.558
N11600 X0.8738 Y-0.466 Z0.5578
N11605 X0.8658 Y-0.4694 Z0.5574
N11610 X0.8614 Y-0.4714 Z0.5573
N11615 X0.8578 Y-0.473 Z0.5571
N11620 X0.8498 Y-0.4768 Z0.5568
N11625 X0.8419 Y-0.4806 Z0.5565
N11630 X0.8339 Y-0.4847 Z0.5562
N11635 X0.8288 Y-0.4873 Z0.556
N11640 X0.8259 Y-0.4889 Z0.5559
N11645 X0.8179 Y-0.4932 Z0.5556
N11650 X0.8142 Y-0.4953 Z0.5554
N11655 X0.81 Y-0.4978 Z0.5553
N11660 X0.802 Y-0.5024 Z0.5549
N11665 X0.8005 Y-0.5033
N11670 X0.794 Y-0.5073 Z0.5546
N11675 X0.7877 Y-0.5113 Z0.5544
N11680 X0.7861 Y-0.5123 Z0.5543
N11685 X0.7781 Y-0.5175 Z0.554
N11690 X0.7756 Y-0.5192 Z0.5538
N11695 X0.7701 Y-0.523 Z0.5536
N11700 X0.764 Y-0.5272 Z0.5534
N11705 X0.7621 Y-0.5286 Z0.5533
N11710 X0.7542 Y-0.5344 Z0.5529
N11715 X0.7531 Y-0.5352
N11720 X0.7462 Y-0.5404 Z0.5526
N11725 X0.7426 Y-0.5432 Z0.5524
N11730 X0.7382 Y-0.5467 Z0.5522
N11735 X0.7326 Y-0.5511 Z0.552
N11740 X0.7302 Y-0.5531 Z0.5519
N11745 X0.7223 Y-0.5598 Z0.5515
N11750 X0.7143 Y-0.5668 Z0.5511
N11755 X0.714 Y-0.5671
N11760 X0.7063 Y-0.574 Z0.5508
N11765 X0.7052 Y-0.5751 Z0.5507
N11770 X0.6983 Y-0.5815 Z0.5504
N11775 X0.6904 Y-0.5893 Z0.55
N11780 X0.6887 Y-0.591 Z0.5499
N11785 X0.6809 Y-0.599 Z0.5495
N11790 X0.6744 Y-0.6058 Z0.5492
N11795 X0.6734 Y-0.6069 Z0.5491
N11800 X0.6664 Y-0.6146 Z0.5488
N11805 X0.6662 Y-0.6149
N11810 X0.6592 Y-0.6229 Z0.5484
N11815 X0.6525 Y-0.6309 Z0.548
N11820 X0.6505 Y-0.6333 Z0.5479
N11825 X0.646 Y-0.6388 Z0.5477
N11830 X0.6425 Y-0.6432 Z0.5475
N11835 X0.6398 Y-0.6468 Z0.5473
N11840 X0.6346 Y-0.6537 Z0.547
N11845 X0.6337 Y-0.6548
N11850 X0.6279 Y-0.6628 Z0.5466
N11855 X0.6266 Y-0.6647 Z0.5465
N11860 X0.6223 Y-0.6707 Z0.5463
N11865 X0.6186 Y-0.6762 Z0.546
N11870 X0.6169 Y-0.6787 Z0.5459
N11875 X0.6117 Y-0.6867 Z0.5456
N11880 X0.6106 Y-0.6883 Z0.5455
N11885 X0.6067 Y-0.6947 Z0.5453
N11890 X0.6027 Y-0.7012 Z0.545
N11895 X0.6018 Y-0.7026
N11900 X0.5971 Y-0.7106 Z0.5446
N11905 X0.5947 Y-0.7148 Z0.5445
N11910 X0.5926 Y-0.7186 Z0.5443
N11915 X0.5882 Y-0.7266 Z0.544
N11920 X0.5867 Y-0.7294 Z0.5439
N11925 X0.5841 Y-0.7345 Z0.5437
N11930 X0.58 Y-0.7425 Z0.5434
N11935 X0.5761 Y-0.7505 Z0.5431
N11940 X0.5724 Y-0.7584 Z0.5427
N11945 X0.5708 Y-0.762 Z0.5426
N11950 X0.5688 Y-0.7664 Z0.5424
N11955 X0.5654 Y-0.7744 Z0.5421
N11960 X0.5628 Y-0.7805 Z0.5419
N11965 X0.5589 Y-0.7903 Z0.5415
N11970 X0.5559 Y-0.7983 Z0.5412
N11975 X0.5548 Y-0.8011 Z0.5411
N11980 X0.5529 Y-0.8063 Z0.5409
N11985 X0.5502 Y-0.8143 Z0.5406
N11990 X0.5475 Y-0.8222 Z0.5404
N11995 X0.545 Y-0.8302 Z0.5401
N12000 X0.5426 Y-0.8382 Z0.5398
N12005 X0.5403 Y-0.8462 Z0.5395
N12010 X0.5389 Y-0.8517 Z0.5393
N12015 X0.5382 Y-0.8541 Z0.5392
N12020 X0.5362 Y-0.8621 Z0.5389
N12025 X0.5343 Y-0.8701 Z0.5386
N12030 X0.5325 Y-0.8781 Z0.5383
N12035 X0.5308 Y-0.886 Z0.5381
N12040 X0.5293 Y-0.894 Z0.5378
N12045 X0.5278 Y-0.902 Z0.5375
N12050 X0.5265 Y-0.9099 Z0.5372
N12055 X0.5253 Y-0.9179 Z0.5369
N12060 X0.5242 Y-0.9259 Z0.5366
N12065 X0.5232 Y-0.9339 Z0.5364
N12070 X0.5224 Y-0.9418 Z0.5361
N12075 X0.5216 Y-0.9498 Z0.5358
N12080 X0.5209 Y-0.9578 Z0.5355
N12085 X0.5204 Y-0.9658 Z0.5352
N12090 X0.52 Y-0.9737 Z0.535
N12095 X0.5197 Y-0.9817 Z0.5347
N12100 X0.5194 Y-0.9897 Z0.5344
N12105 X0.5193 Y-0.9977 Z0.5341
N12110 Y-1.0056 Z0.5338
N12115 Y-1.2448 Z0.5255
N12120 Y-1.3578 Z0.5215
N12125 X0.5192 Y-1.3579
N12130 X0.507 Z0.5211
N12135 X0.499 Z0.5208
N12140 X0.491 Y-1.3582 Z0.5206
N12145 X0.4831 Y-1.3591 Z0.5203
N12150 X0.4791 Y-1.3597 Z0.5201
N12155 X0.4771 Y-1.36
N12160 X0.4761 Y-1.3602 Z0.52
N12165 X0.4756 Y-1.3603
N12170 X0.4752 Y-1.3604
N12175 X0.4756 Y-1.3603
N12180 X0.4761 Y-1.3602
N12185 X0.4771 Y-1.36
N12190 X0.4791 Y-1.3597
N12195 X0.4831 Y-1.3591
N12200 X0.491 Y-1.3582
N12205 X0.499 Y-1.3579
N12210 X0.507
N12215 X0.5192
N12220 X0.5193 Y-1.3578
N12225 Y-1.2448
N12230 Y-1.0056
N12235 Y-0.9977
N12240 X0.5194 Y-0.9897
N12245 X0.5197 Y-0.9817
N12250 X0.52 Y-0.9737
N12255 X0.5204 Y-0.9658
N12260 X0.5209 Y-0.9578
N12265 X0.5216 Y-0.9498
N12270 X0.5224 Y-0.9418
N12275 X0.5232 Y-0.9339
N12280 X0.5242 Y-0.9259
N12285 X0.5253 Y-0.9179
N12290 X0.5265 Y-0.9099
N12295 X0.5278 Y-0.902
N12300 X0.5293 Y-0.894
N12305 X0.5308 Y-0.886
N12310 X0.5325 Y-0.8781
N12315 X0.5343 Y-0.8701
N12320 X0.5362 Y-0.8621
N12325 X0.5382 Y-0.8541
N12330 X0.5389 Y-0.8517
N12335 X0.5403 Y-0.8462
N12340 X0.5426 Y-0.8382
N12345 X0.545 Y-0.8302
N12350 X0.5475 Y-0.8222
N12355 X0.5502 Y-0.8143
N12360 X0.5529 Y-0.8063
N12365 X0.5548 Y-0.8011
N12370 X0.5559 Y-0.7983
N12375 X0.5589 Y-0.7903
N12380 X0.5628 Y-0.7805
N12385 X0.5654 Y-0.7744
N12390 X0.5688 Y-0.7664
N12395 X0.5708 Y-0.762
N12400 X0.5724 Y-0.7584
N12405 X0.5761 Y-0.7505
N12410 X0.58 Y-0.7425
N12415 X0.5841 Y-0.7345
N12420 X0.5867 Y-0.7294
N12425 X0.5882 Y-0.7266
N12430 X0.5926 Y-0.7186
N12435 X0.5947 Y-0.7148
N12440 X0.5971 Y-0.7106
N12445 X0.6018 Y-0.7026
N12450 X0.6027 Y-0.7012
N12455 X0.6067 Y-0.6947
N12460 X0.6106 Y-0.6883
N12465 X0.6117 Y-0.6867
N12470 X0.6169 Y-0.6787
N12475 X0.6186 Y-0.6762
N12480 X0.6223 Y-0.6707
N12485 X0.6266 Y-0.6647
N12490 X0.6279 Y-0.6628
N12495 X0.6337 Y-0.6548
N12500 X0.6346 Y-0.6537
N12505 X0.6398 Y-0.6468
N12510 X0.6425 Y-0.6432
N12515 X0.646 Y-0.6388
N12520 X0.6505 Y-0.6333
N12525 X0.6525 Y-0.6309
N12530 X0.6592 Y-0.6229
N12535 X0.6662 Y-0.6149
N12540 X0.6664 Y-0.6146
N12545 X0.6734 Y-0.6069
N12550 X0.6744 Y-0.6058
N12555 X0.6809 Y-0.599
N12560 X0.6887 Y-0.591
N12565 X0.6904 Y-0.5893
N12570 X0.6983 Y-0.5815
N12575 X0.7052 Y-0.5751
N12580 X0.7063 Y-0.574
N12585 X0.714 Y-0.5671
N12590 X0.7143 Y-0.5668
N12595 X0.7223 Y-0.5598
N12600 X0.7302 Y-0.5531
N12605 X0.7326 Y-0.5511
N12610 X0.7382 Y-0.5467
N12615 X0.7426 Y-0.5432
N12620 X0.7462 Y-0.5404
N12625 X0.7531 Y-0.5352
N12630 X0.7542 Y-0.5344
N12635 X0.7621 Y-0.5286
N12640 X0.764 Y-0.5272
N12645 X0.7701 Y-0.523
N12650 X0.7756 Y-0.5192
N12655 X0.7781 Y-0.5175
N12660 X0.7861 Y-0.5123
N12665 X0.7877 Y-0.5113
N12670 X0.794 Y-0.5073
N12675 X0.8005 Y-0.5033
N12680 X0.802 Y-0.5024
N12685 X0.81 Y-0.4978
N12690 X0.8142 Y-0.4953
N12695 X0.8179 Y-0.4932
N12700 X0.8259 Y-0.4889
N12705 X0.8288 Y-0.4873
N12710 X0.8339 Y-0.4847
N12715 X0.8419 Y-0.4806
N12720 X0.8498 Y-0.4768
N12725 X0.8578 Y-0.473
N12730 X0.8614 Y-0.4714
N12735 X0.8658 Y-0.4694
N12740 X0.8738 Y-0.466
N12745 X0.8799 Y-0.4634
N12750 X0.8897 Y-0.4595
N12755 X0.8977 Y-0.4565
N12760 X0.9005 Y-0.4554
N12765 X0.9057 Y-0.4536
N12770 X0.9136 Y-0.4508
N12775 X0.9216 Y-0.4482
N12780 X0.9296 Y-0.4456
N12785 X0.9376 Y-0.4433
N12790 X0.9455 Y-0.441
N12795 X0.9511 Y-0.4395
N12800 X0.9535 Y-0.4389
N12805 X0.9615 Y-0.4368
N12810 X0.9694 Y-0.4349
N12815 X0.9774 Y-0.4331
N12820 X0.9854 Y-0.4315
N12825 X0.9934 Y-0.4299
N12830 X1.0013 Y-0.4285
N12835 X1.0093 Y-0.4272
N12840 X1.0173 Y-0.4259
N12845 X1.0253 Y-0.4249
N12850 X1.0332 Y-0.4239
N12855 X1.0412 Y-0.423
N12860 X1.0492 Y-0.4222
N12865 X1.0572 Y-0.4216
N12870 X1.0651 Y-0.4211
N12875 X1.0731 Y-0.4206
N12880 X1.0811 Y-0.4203
N12885 X1.0891 Y-0.4201
N12890 X1.097 Y-0.4199
N12895 X1.105
N12900 X1.3442
N12905 X1.4572
N12910 X1.4573
N12915 Y-0.4076
N12920 Y-0.3996
N12925 X1.4576 Y-0.3917
N12930 X1.4584 Y-0.3837
N12935 X1.459 Y-0.3797
N12940 X1.4594 Y-0.3777
N12945 X1.4596 Y-0.3767
N12950 X1.4597 Y-0.3762
N12955 X1.4598 Y-0.3758
N12960 G0 Z0.7429
N12965 X2.1204 Y-0.4204
N12970 G1 Z0.625 F40
N12975 X2.1256 Y-0.4206 Z0.6248
N12980 X2.1336 Y-0.4211 Z0.6245
N12985 X2.1416 Y-0.4216 Z0.6243
N12990 X2.1496 Y-0.4222 Z0.624
N12995 X2.1575 Y-0.423 Z0.6237
N13000 X2.1655 Y-0.4239 Z0.6234
N13005 X2.1735 Y-0.4249 Z0.6231
N13010 X2.1814 Y-0.4259 Z0.6229
N13015 X2.1894 Y-0.4272 Z0.6226
N13020 X2.1974 Y-0.4285 Z0.6223
N13025 X2.2054 Y-0.4299 Z0.622
N13030 X2.2133 Y-0.4315 Z0.6217
N13035 X2.2213 Y-0.4331 Z0.6214
N13040 X2.2293 Y-0.4349 Z0.6212
N13045 X2.2373 Y-0.4368 Z0.6209
N13050 X2.2452 Y-0.4389 Z0.6206
N13055 X2.2477 Y-0.4395 Z0.6205
N13060 X2.2532 Y-0.441 Z0.6203
N13065 X2.2612 Y-0.4433 Z0.62
N13070 X2.2692 Y-0.4456 Z0.6197
N13075 X2.2771 Y-0.4482 Z0.6194
N13080 X2.2851 Y-0.4508 Z0.6191
N13085 X2.2931 Y-0.4536 Z0.6188
N13090 X2.2983 Y-0.4554 Z0.6186
N13095 X2.3011 Y-0.4565 Z0.6185
N13100 X2.309 Y-0.4595 Z0.6182
N13105 X2.3188 Y-0.4634 Z0.6179
N13110 X2.325 Y-0.466 Z0.6176
N13115 X2.3329 Y-0.4694 Z0.6173
N13120 X2.3373 Y-0.4714 Z0.6172
N13125 X2.3409 Y-0.473 Z0.617
N13130 X2.3489 Y-0.4768 Z0.6167
N13135 X2.3569 Y-0.4806 Z0.6164
N13140 X2.3648 Y-0.4847 Z0.6161
N13145 X2.3699 Y-0.4873 Z0.6159
N13150 X2.3728 Y-0.4889 Z0.6158
N13155 X2.3808 Y-0.4932 Z0.6155
N13160 X2.3845 Y-0.4953 Z0.6153
N13165 X2.3888 Y-0.4978 Z0.6151
N13170 X2.3967 Y-0.5024 Z0.6148
N13175 X2.3982 Y-0.5033
N13180 X2.4047 Y-0.5073 Z0.6145
N13185 X2.411 Y-0.5113 Z0.6142
N13190 X2.4127 Y-0.5123
N13195 X2.4207 Y-0.5175 Z0.6138
N13200 X2.4232 Y-0.5192 Z0.6137
N13205 X2.4286 Y-0.523 Z0.6135
N13210 X2.4347 Y-0.5272 Z0.6132
N13215 X2.4366 Y-0.5286
N13220 X2.4446 Y-0.5344 Z0.6128
N13225 X2.4457 Y-0.5352
N13230 X2.4526 Y-0.5404 Z0.6125
N13235 X2.4561 Y-0.5432 Z0.6123
N13240 X2.4605 Y-0.5467 Z0.6121
N13245 X2.4661 Y-0.5511 Z0.6119
N13250 X2.4685 Y-0.5531 Z0.6118
N13255 X2.4765 Y-0.5598 Z0.6114
N13260 X2.4844 Y-0.5668 Z0.611
N13265 X2.4848 Y-0.5671
N13270 X2.4924 Y-0.574 Z0.6106
N13275 X2.4935 Y-0.5751
N13280 X2.5004 Y-0.5815 Z0.6103
N13285 X2.5084 Y-0.5893 Z0.6099
N13290 X2.5101 Y-0.591 Z0.6098
N13295 X2.5179 Y-0.599 Z0.6094
N13300 X2.5243 Y-0.6058 Z0.6091
N13305 X2.5253 Y-0.6069 Z0.609
N13310 X2.5323 Y-0.6146 Z0.6087
N13315 X2.5326 Y-0.6149 Z0.6086
N13320 X2.5395 Y-0.6229 Z0.6083
N13325 X2.5463 Y-0.6309 Z0.6079
N13330 X2.5482 Y-0.6333 Z0.6078
N13335 X2.5527 Y-0.6388 Z0.6076
N13340 X2.5562 Y-0.6432 Z0.6074
N13345 X2.559 Y-0.6468 Z0.6072
N13350 X2.5642 Y-0.6537 Z0.6069
N13355 X2.565 Y-0.6548 Z0.6068
N13360 X2.5708 Y-0.6628 Z0.6065
N13365 X2.5722 Y-0.6647 Z0.6064
N13370 X2.5764 Y-0.6707 Z0.6062
N13375 X2.5801 Y-0.6762 Z0.6059
N13380 X2.5818 Y-0.6787 Z0.6058
N13385 X2.587 Y-0.6867 Z0.6055
N13390 X2.5881 Y-0.6883 Z0.6054
N13395 X2.5921 Y-0.6947 Z0.6052
N13400 X2.5961 Y-0.7012 Z0.6049
N13405 X2.597 Y-0.7026 Z0.6048
N13410 X2.6016 Y-0.7106 Z0.6045
N13415 X2.6041 Y-0.7148 Z0.6043
N13420 X2.6061 Y-0.7186 Z0.6042
N13425 X2.6105 Y-0.7266 Z0.6039
N13430 X2.612 Y-0.7294 Z0.6038
N13435 X2.6147 Y-0.7345 Z0.6036
N13440 X2.6187 Y-0.7425 Z0.6033
N13445 X2.6226 Y-0.7505 Z0.6029
N13450 X2.6263 Y-0.7584 Z0.6026
N13455 X2.628 Y-0.762 Z0.6025
N13460 X2.63 Y-0.7664 Z0.6023
N13465 X2.6334 Y-0.7744 Z0.602
N13470 X2.6359 Y-0.7805 Z0.6018
N13475 X2.6399 Y-0.7903 Z0.6014
N13480 X2.6429 Y-0.7983 Z0.6011
N13485 X2.6439 Y-0.8011 Z0.601
N13490 X2.6458 Y-0.8063 Z0.6008
N13495 X2.6486 Y-0.8143 Z0.6005
N13500 X2.6512 Y-0.8222 Z0.6002
N13505 X2.6537 Y-0.8302 Z0.6
N13510 X2.6561 Y-0.8382 Z0.5997
N13515 X2.6584 Y-0.8462 Z0.5994
N13520 X2.6599 Y-0.8517 Z0.5992
N13525 X2.6605 Y-0.8541 Z0.5991
N13530 X2.6626 Y-0.8621 Z0.5988
N13535 X2.6644 Y-0.8701 Z0.5985
N13540 X2.6662 Y-0.8781 Z0.5982
N13545 X2.6679 Y-0.886 Z0.5979
N13550 X2.6694 Y-0.894 Z0.5977
N13555 X2.6709 Y-0.902 Z0.5974
N13560 X2.6722 Y-0.9099 Z0.5971
N13565 X2.6734 Y-0.9179 Z0.5968
N13570 X2.6745 Y-0.9259 Z0.5965
N13575 X2.6755 Y-0.9339 Z0.5962
N13580 X2.6764 Y-0.9418 Z0.596
N13585 X2.6771 Y-0.9498 Z0.5957
N13590 X2.6778 Y-0.9578 Z0.5954
N13595 X2.6783 Y-0.9658 Z0.5951
N13600 X2.6788 Y-0.9737 Z0.5948
N13605 X2.6791 Y-0.9817 Z0.5946
N13610 X2.6793 Y-0.9897 Z0.5943
N13615 X2.6794 Y-0.9977 Z0.594
N13620 Y-1.0056 Z0.5937
N13625 X2.6795 Y-1.2448 Z0.5854
N13630 X2.6794 Y-1.3578 Z0.5814
N13635 X2.6795 Y-1.3579
N13640 X2.6918 Z0.581
N13645 X2.6997 Z0.5807
N13650 X2.7077 Y-1.3582 Z0.5804
N13655 X2.7157 Y-1.3591 Z0.5802
N13660 X2.7197 Y-1.3597 Z0.58
N13665 X2.7216 Y-1.36
N13670 X2.7226 Y-1.3602 Z0.5799
N13675 X2.7231 Y-1.3603
N13680 X2.7236 Y-1.3604
N13685 X2.7231 Y-1.3603
N13690 X2.7226 Y-1.3602
N13695 X2.7216 Y-1.36 Z0.5798
N13700 X2.7197 Y-1.3597 Z0.5797
N13705 X2.7157 Y-1.3591 Z0.5796
N13710 X2.7077 Y-1.3582 Z0.5793
N13715 X2.6997 Y-1.3579 Z0.5791
N13720 X2.6918 Z0.5788
N13725 X2.6795 Z0.5783
N13730 X2.6794 Y-1.3578
N13735 X2.6795 Y-1.2448 Z0.5744
N13740 X2.6794 Y-1.0056 Z0.566
N13745 Y-0.9977 Z0.5658
N13750 X2.6793 Y-0.9897 Z0.5655
N13755 X2.6791 Y-0.9817 Z0.5652
N13760 X2.6788 Y-0.9737 Z0.5649
N13765 X2.6783 Y-0.9658 Z0.5646
N13770 X2.6778 Y-0.9578 Z0.5644
N13775 X2.6771 Y-0.9498 Z0.5641
N13780 X2.6764 Y-0.9418 Z0.5638
N13785 X2.6755 Y-0.9339 Z0.5635
N13790 X2.6745 Y-0.9259 Z0.5632
N13795 X2.6734 Y-0.9179 Z0.563
N13800 X2.6722 Y-0.9099 Z0.5627
N13805 X2.6709 Y-0.902 Z0.5624
N13810 X2.6694 Y-0.894 Z0.5621
N13815 X2.6679 Y-0.886 Z0.5618
N13820 X2.6662 Y-0.8781 Z0.5616
N13825 X2.6644 Y-0.8701 Z0.5613
N13830 X2.6626 Y-0.8621 Z0.561
N13835 X2.6605 Y-0.8541 Z0.5607
N13840 X2.6599 Y-0.8517 Z0.5606
N13845 X2.6584 Y-0.8462 Z0.5604
N13850 X2.6561 Y-0.8382 Z0.5601
N13855 X2.6537 Y-0.8302 Z0.5598
N13860 X2.6512 Y-0.8222 Z0.5595
N13865 X2.6486 Y-0.8143 Z0.5592
N13870 X2.6458 Y-0.8063 Z0.5589
N13875 X2.6439 Y-0.8011 Z0.5588
N13880 X2.6429 Y-0.7983 Z0.5586
N13885 X2.6399 Y-0.7903 Z0.5584
N13890 X2.6359 Y-0.7805 Z0.558
N13895 X2.6334 Y-0.7744 Z0.5578
N13900 X2.63 Y-0.7664 Z0.5574
N13905 X2.628 Y-0.762 Z0.5573
N13910 X2.6263 Y-0.7584 Z0.5571
N13915 X2.6226 Y-0.7505 Z0.5568
N13920 X2.6187 Y-0.7425 Z0.5565
N13925 X2.6147 Y-0.7345 Z0.5562
N13930 X2.612 Y-0.7294 Z0.556
N13935 X2.6105 Y-0.7266 Z0.5559
N13940 X2.6061 Y-0.7186 Z0.5556
N13945 X2.6041 Y-0.7148 Z0.5554
N13950 X2.6016 Y-0.7106 Z0.5553
N13955 X2.597 Y-0.7026 Z0.5549
N13960 X2.5961 Y-0.7012
N13965 X2.5921 Y-0.6947 Z0.5546
N13970 X2.5881 Y-0.6883 Z0.5544
N13975 X2.587 Y-0.6867 Z0.5543
N13980 X2.5818 Y-0.6787 Z0.554
N13985 X2.5801 Y-0.6762 Z0.5538
N13990 X2.5764 Y-0.6707 Z0.5536
N13995 X2.5722 Y-0.6647 Z0.5534
N14000 X2.5708 Y-0.6628 Z0.5533
N14005 X2.565 Y-0.6548 Z0.5529
N14010 X2.5642 Y-0.6537
N14015 X2.559 Y-0.6468 Z0.5526
N14020 X2.5562 Y-0.6432 Z0.5524
N14025 X2.5527 Y-0.6388 Z0.5522
N14030 X2.5482 Y-0.6333 Z0.552
N14035 X2.5463 Y-0.6309 Z0.5519
N14040 X2.5395 Y-0.6229 Z0.5515
N14045 X2.5326 Y-0.6149 Z0.5511
N14050 X2.5323 Y-0.6146
N14055 X2.5253 Y-0.6069 Z0.5508
N14060 X2.5243 Y-0.6058 Z0.5507
N14065 X2.5179 Y-0.599 Z0.5504
N14070 X2.5101 Y-0.591 Z0.55
N14075 X2.5084 Y-0.5893 Z0.5499
N14080 X2.5004 Y-0.5815 Z0.5495
N14085 X2.4935 Y-0.5751 Z0.5492
N14090 X2.4924 Y-0.574 Z0.5491
N14095 X2.4848 Y-0.5671 Z0.5488
N14100 X2.4844 Y-0.5668
N14105 X2.4765 Y-0.5598 Z0.5484
N14110 X2.4685 Y-0.5531 Z0.548
N14115 X2.4661 Y-0.5511 Z0.5479
N14120 X2.4605 Y-0.5467 Z0.5477
N14125 X2.4561 Y-0.5432 Z0.5475
N14130 X2.4526 Y-0.5404 Z0.5473
N14135 X2.4457 Y-0.5352 Z0.547
N14140 X2.4446 Y-0.5344
N14145 X2.4366 Y-0.5286 Z0.5466
N14150 X2.4347 Y-0.5272 Z0.5465
N14155 X2.4286 Y-0.523 Z0.5463
N14160 X2.4232 Y-0.5192 Z0.546
N14165 X2.4207 Y-0.5175 Z0.5459
N14170 X2.4127 Y-0.5123 Z0.5456
N14175 X2.411 Y-0.5113 Z0.5455
N14180 X2.4047 Y-0.5073 Z0.5453
N14185 X2.3982 Y-0.5033 Z0.545
N14190 X2.3967 Y-0.5024
N14195 X2.3888 Y-0.4978 Z0.5446
N14200 X2.3845 Y-0.4953 Z0.5445
N14205 X2.3808 Y-0.4932 Z0.5443
N14210 X2.3728 Y-0.4889 Z0.544
N14215 X2.3699 Y-0.4873 Z0.5439
N14220 X2.3648 Y-0.4847 Z0.5437
N14225 X2.3569 Y-0.4806 Z0.5434
N14230 X2.3489 Y-0.4768 Z0.5431
N14235 X2.3409 Y-0.473 Z0.5427
N14240 X2.3373 Y-0.4714 Z0.5426
N14245 X2.3329 Y-0.4694 Z0.5424
N14250 X2.325 Y-0.466 Z0.5421
N14255 X2.3188 Y-0.4634 Z0.5419
N14260 X2.309 Y-0.4595 Z0.5415
N14265 X2.3011 Y-0.4565 Z0.5412
N14270 X2.2983 Y-0.4554 Z0.5411
N14275 X2.2931 Y-0.4536 Z0.5409
N14280 X2.2851 Y-0.4508 Z0.5406
N14285 X2.2771 Y-0.4482 Z0.5404
N14290 X2.2692 Y-0.4456 Z0.5401
N14295 X2.2612 Y-0.4433 Z0.5398
N14300 X2.2532 Y-0.441 Z0.5395
N14305 X2.2477 Y-0.4395 Z0.5393
N14310 X2.2452 Y-0.4389 Z0.5392
N14315 X2.2373 Y-0.4368 Z0.5389
N14320 X2.2293 Y-0.4349 Z0.5386
N14325 X2.2213 Y-0.4331 Z0.5383
N14330 X2.2133 Y-0.4315 Z0.5381
N14335 X2.2054 Y-0.4299 Z0.5378
N14340 X2.1974 Y-0.4285 Z0.5375
N14345 X2.1894 Y-0.4272 Z0.5372
N14350 X2.1814 Y-0.4259 Z0.5369
N14355 X2.1735 Y-0.4249 Z0.5366
N14360 X2.1655 Y-0.4239 Z0.5364
N14365 X2.1575 Y-0.423 Z0.5361
N14370 X2.1496 Y-0.4222 Z0.5358
N14375 X2.1416 Y-0.4216 Z0.5355
N14380 X2.1336 Y-0.4211 Z0.5352
N14385 X2.1256 Y-0.4206 Z0.535
N14390 X2.1177 Y-0.4203 Z0.5347
N14395 X2.1097 Y-0.4201 Z0.5344
N14400 X2.1017 Y-0.4199 Z0.5341
N14405 X2.0937 Z0.5338
N14410 X1.8545 Z0.5255
N14415 X1.7416 Z0.5215
N14420 X1.7415
N14425 Y-0.4076 Z0.5211
N14430 Y-0.3996 Z0.5208
N14435 X1.7411 Y-0.3917 Z0.5206
N14440 X1.7403 Y-0.3837 Z0.5203
N14445 X1.7397 Y-0.3797 Z0.5201
N14450 X1.7393 Y-0.3777
N14455 X1.7392 Y-0.3767 Z0.52
N14460 X1.7391 Y-0.3762
N14465 X1.739 Y-0.3758
N14470 X1.7391 Y-0.3762
N14475 X1.7392 Y-0.3767
N14480 X1.7393 Y-0.3777
N14485 X1.7397 Y-0.3797
N14490 X1.7403 Y-0.3837
N14495 X1.7411 Y-0.3917
N14500 X1.7415 Y-0.3996
N14505 Y-0.4076
N14510 Y-0.4199
N14515 X1.7416
N14520 X1.8545
N14525 X2.0937
N14530 X2.1017
N14535 X2.1097 Y-0.4201
N14540 X2.1177 Y-0.4203
N14545 X2.1256 Y-0.4206
N14550 X2.1336 Y-0.4211
N14555 X2.1416 Y-0.4216
N14560 X2.1496 Y-0.4222
N14565 X2.1575 Y-0.423
N14570 X2.1655 Y-0.4239
N14575 X2.1735 Y-0.4249
N14580 X2.1814 Y-0.4259
N14585 X2.1894 Y-0.4272
N14590 X2.1974 Y-0.4285
N14595 X2.2054 Y-0.4299
N14600 X2.2133 Y-0.4315
N14605 X2.2213 Y-0.4331
N14610 X2.2293 Y-0.4349
N14615 X2.2373 Y-0.4368
N14620 X2.2452 Y-0.4389
N14625 X2.2477 Y-0.4395
N14630 X2.2532 Y-0.441
N14635 X2.2612 Y-0.4433
N14640 X2.2692 Y-0.4456
N14645 X2.2771 Y-0.4482
N14650 X2.2851 Y-0.4508
N14655 X2.2931 Y-0.4536
N14660 X2.2983 Y-0.4554
N14665 X2.3011 Y-0.4565
N14670 X2.309 Y-0.4595
N14675 X2.3188 Y-0.4634
N14680 X2.325 Y-0.466
N14685 X2.3329 Y-0.4694
N14690 X2.3373 Y-0.4714
N14695 X2.3409 Y-0.473
N14700 X2.3489 Y-0.4768
N14705 X2.3569 Y-0.4806
N14710 X2.3648 Y-0.4847
N14715 X2.3699 Y-0.4873
N14720 X2.3728 Y-0.4889
N14725 X2.3808 Y-0.4932
N14730 X2.3845 Y-0.4953
N14735 X2.3888 Y-0.4978
N14740 X2.3967 Y-0.5024
N14745 X2.3982 Y-0.5033
N14750 X2.4047 Y-0.5073
N14755 X2.411 Y-0.5113
N14760 X2.4127 Y-0.5123
N14765 X2.4207 Y-0.5175
N14770 X2.4232 Y-0.5192
N14775 X2.4286 Y-0.523
N14780 X2.4347 Y-0.5272
N14785 X2.4366 Y-0.5286
N14790 X2.4446 Y-0.5344
N14795 X2.4457 Y-0.5352
N14800 X2.4526 Y-0.5404
N14805 X2.4561 Y-0.5432
N14810 X2.4605 Y-0.5467
N14815 X2.4661 Y-0.5511
N14820 X2.4685 Y-0.5531
N14825 X2.4765 Y-0.5598
N14830 X2.4844 Y-0.5668
N14835 X2.4848 Y-0.5671
N14840 X2.4924 Y-0.574
N14845 X2.4935 Y-0.5751
N14850 X2.5004 Y-0.5815
N14855 X2.5084 Y-0.5893
N14860 X2.5101 Y-0.591
N14865 X2.5179 Y-0.599
N14870 X2.5243 Y-0.6058
N14875 X2.5253 Y-0.6069
N14880 X2.5323 Y-0.6146
N14885 X2.5326 Y-0.6149
N14890 X2.5395 Y-0.6229
N14895 X2.5463 Y-0.6309
N14900 X2.5482 Y-0.6333
N14905 X2.5527 Y-0.6388
N14910 X2.5562 Y-0.6432
N14915 X2.559 Y-0.6468
N14920 X2.5642 Y-0.6537
N14925 X2.565 Y-0.6548
N14930 X2.5708 Y-0.6628
N14935 X2.5722 Y-0.6647
N14940 X2.5764 Y-0.6707
N14945 X2.5801 Y-0.6762
N14950 X2.5818 Y-0.6787
N14955 X2.587 Y-0.6867
N14960 X2.5881 Y-0.6883
N14965 X2.5921 Y-0.6947
N14970 X2.5961 Y-0.7012
N14975 X2.597 Y-0.7026
N14980 X2.6016 Y-0.7106
N14985 X2.6041 Y-0.7148
N14990 X2.6061 Y-0.7186
N14995 X2.6105 Y-0.7266
N15000 X2.612 Y-0.7294
N15005 X2.6147 Y-0.7345
N15010 X2.6187 Y-0.7425
N15015 X2.6226 Y-0.7505
N15020 X2.6263 Y-0.7584
N15025 X2.628 Y-0.762
N15030 X2.63 Y-0.7664
N15035 X2.6334 Y-0.7744
N15040 X2.6359 Y-0.7805
N15045 X2.6399 Y-0.7903
N15050 X2.6429 Y-0.7983
N15055 X2.6439 Y-0.8011
N15060 X2.6458 Y-0.8063
N15065 X2.6486 Y-0.8143
N15070 X2.6512 Y-0.8222
N15075 X2.6537 Y-0.8302
N15080 X2.6561 Y-0.8382
N15085 X2.6584 Y-0.8462
N15090 X2.6599 Y-0.8517
N15095 X2.6605 Y-0.8541
N15100 X2.6626 Y-0.8621
N15105 X2.6644 Y-0.8701
N15110 X2.6662 Y-0.8781
N15115 X2.6679 Y-0.886
N15120 X2.6694 Y-0.894
N15125 X2.6709 Y-0.902
N15130 X2.6722 Y-0.9099
N15135 X2.6734 Y-0.9179
N15140 X2.6745 Y-0.9259
N15145 X2.6755 Y-0.9339
N15150 X2.6764 Y-0.9418
N15155 X2.6771 Y-0.9498
N15160 X2.6778 Y-0.9578
N15165 X2.6783 Y-0.9658
N15170 X2.6788 Y-0.9737
N15175 X2.6791 Y-0.9817
N15180 X2.6793 Y-0.9897
N15185 X2.6794 Y-0.9977
N15190 Y-1.0056
N15195 X2.6795 Y-1.2448
N15200 X2.6794 Y-1.3578
N15205 X2.6795 Y-1.3579
N15210 X2.6918
N15215 X2.6997
N15220 X2.7077 Y-1.3582
N15225 X2.7157 Y-1.3591
N15230 X2.7197 Y-1.3597
N15235 X2.7216 Y-1.36
N15240 X2.7226 Y-1.3602
N15245 X2.7231 Y-1.3603
N15250 X2.7236 Y-1.3604
N15255 G0 Z0.7429
N15260 X2.679 Y-2.021
N15265 G1 Z0.625 F40
N15270 X2.6788 Y-2.0263 Z0.6248
N15275 X2.6783 Y-2.0342 Z0.6245
N15280 X2.6778 Y-2.0422 Z0.6243
N15285 X2.6771 Y-2.0502 Z0.624
N15290 X2.6764 Y-2.0582 Z0.6237
N15295 X2.6755 Y-2.0661 Z0.6234
N15300 X2.6745 Y-2.0741 Z0.6231
N15305 X2.6734 Y-2.0821 Z0.6229
N15310 X2.6722 Y-2.0901 Z0.6226
N15315 X2.6709 Y-2.098 Z0.6223
N15320 X2.6694 Y-2.106 Z0.622
N15325 X2.6679 Y-2.114 Z0.6217
N15330 X2.6662 Y-2.1219 Z0.6214
N15335 X2.6644 Y-2.1299 Z0.6212
N15340 X2.6626 Y-2.1379 Z0.6209
N15345 X2.6605 Y-2.1459 Z0.6206
N15350 X2.6599 Y-2.1483 Z0.6205
N15355 X2.6584 Y-2.1538 Z0.6203
N15360 X2.6561 Y-2.1618 Z0.62
N15365 X2.6537 Y-2.1698 Z0.6197
N15370 X2.6512 Y-2.1778 Z0.6194
N15375 X2.6486 Y-2.1857 Z0.6191
N15380 X2.6458 Y-2.1937 Z0.6188
N15385 X2.6439 Y-2.1989 Z0.6186
N15390 X2.6429 Y-2.2017 Z0.6185
N15395 X2.6399 Y-2.2097 Z0.6182
N15400 X2.6359 Y-2.2195 Z0.6179
N15405 X2.6334 Y-2.2256 Z0.6176
N15410 X2.63 Y-2.2336 Z0.6173
N15415 X2.628 Y-2.238 Z0.6172
N15420 X2.6263 Y-2.2416 Z0.617
N15425 X2.6226 Y-2.2495 Z0.6167
N15430 X2.6187 Y-2.2575 Z0.6164
N15435 X2.6147 Y-2.2655 Z0.6161
N15440 X2.612 Y-2.2706 Z0.6159
N15445 X2.6105 Y-2.2734 Z0.6158
N15450 X2.6061 Y-2.2814 Z0.6155
N15455 X2.6041 Y-2.2852 Z0.6153
N15460 X2.6016 Y-2.2894 Z0.6151
N15465 X2.597 Y-2.2974 Z0.6148
N15470 X2.5961 Y-2.2988
N15475 X2.5921 Y-2.3053 Z0.6145
N15480 X2.5881 Y-2.3117 Z0.6142
N15485 X2.587 Y-2.3133
N15490 X2.5818 Y-2.3213 Z0.6138
N15495 X2.5801 Y-2.3238 Z0.6137
N15500 X2.5764 Y-2.3293 Z0.6135
N15505 X2.5722 Y-2.3353 Z0.6132
N15510 X2.5708 Y-2.3372
N15515 X2.565 Y-2.3452 Z0.6128
N15520 X2.5642 Y-2.3463
N15525 X2.559 Y-2.3532 Z0.6125
N15530 X2.5562 Y-2.3568 Z0.6123
N15535 X2.5527 Y-2.3612 Z0.6121
N15540 X2.5482 Y-2.3667 Z0.6119
N15545 X2.5463 Y-2.3691 Z0.6118
N15550 X2.5395 Y-2.3771 Z0.6114
N15555 X2.5326 Y-2.3851 Z0.611
N15560 X2.5323 Y-2.3854
N15565 X2.5253 Y-2.3931 Z0.6106
N15570 X2.5243 Y-2.3942
N15575 X2.5179 Y-2.401 Z0.6103
N15580 X2.5101 Y-2.409 Z0.6099
N15585 X2.5084 Y-2.4107 Z0.6098
N15590 X2.5004 Y-2.4185 Z0.6094
N15595 X2.4935 Y-2.4249 Z0.6091
N15600 X2.4924 Y-2.426 Z0.609
N15605 X2.4848 Y-2.4329 Z0.6087
N15610 X2.4844 Y-2.4332 Z0.6086
N15615 X2.4765 Y-2.4402 Z0.6083
N15620 X2.4685 Y-2.4469 Z0.6079
N15625 X2.4661 Y-2.4489 Z0.6078
N15630 X2.4605 Y-2.4533 Z0.6076
N15635 X2.4561 Y-2.4568 Z0.6074
N15640 X2.4526 Y-2.4596 Z0.6072
N15645 X2.4457 Y-2.4648 Z0.6069
N15650 X2.4446 Y-2.4656 Z0.6068
N15655 X2.4366 Y-2.4714 Z0.6065
N15660 X2.4347 Y-2.4728 Z0.6064
N15665 X2.4286 Y-2.477 Z0.6062
N15670 X2.4232 Y-2.4808 Z0.6059
N15675 X2.4207 Y-2.4825 Z0.6058
N15680 X2.4127 Y-2.4877 Z0.6055
N15685 X2.411 Y-2.4887 Z0.6054
N15690 X2.4047 Y-2.4927 Z0.6052
N15695 X2.3982 Y-2.4967 Z0.6049
N15700 X2.3967 Y-2.4976 Z0.6048
N15705 X2.3888 Y-2.5022 Z0.6045
N15710 X2.3845 Y-2.5047 Z0.6043
N15715 X2.3808 Y-2.5068 Z0.6042
N15720 X2.3728 Y-2.5111 Z0.6039
N15725 X2.3699 Y-2.5127 Z0.6038
N15730 X2.3648 Y-2.5153 Z0.6036
N15735 X2.3569 Y-2.5194 Z0.6033
N15740 X2.3489 Y-2.5232 Z0.6029
N15745 X2.3409 Y-2.527 Z0.6026
N15750 X2.3373 Y-2.5286 Z0.6025
N15755 X2.3329 Y-2.5306 Z0.6023
N15760 X2.325 Y-2.534 Z0.602
N15765 X2.3188 Y-2.5366 Z0.6018
N15770 X2.309 Y-2.5405 Z0.6014
N15775 X2.3011 Y-2.5435 Z0.6011
N15780 X2.2983 Y-2.5446 Z0.601
N15785 X2.2931 Y-2.5464 Z0.6008
N15790 X2.2851 Y-2.5492 Z0.6005
N15795 X2.2771 Y-2.5518 Z0.6002
N15800 X2.2692 Y-2.5544 Z0.6
N15805 X2.2612 Y-2.5567 Z0.5997
N15810 X2.2532 Y-2.559 Z0.5994
N15815 X2.2477 Y-2.5605 Z0.5992
N15820 X2.2452 Y-2.5611 Z0.5991
N15825 X2.2373 Y-2.5632 Z0.5988
N15830 X2.2293 Y-2.5651 Z0.5985
N15835 X2.2213 Y-2.5669 Z0.5982
N15840 X2.2133 Y-2.5685 Z0.5979
N15845 X2.2054 Y-2.5701 Z0.5977
N15850 X2.1974 Y-2.5715 Z0.5974
N15855 X2.1894 Y-2.5728 Z0.5971
N15860 X2.1814 Y-2.5741 Z0.5968
N15865 X2.1735 Y-2.5751 Z0.5965
N15870 X2.1655 Y-2.5761 Z0.5962
N15875 X2.1575 Y-2.577 Z0.596
N15880 X2.1496 Y-2.5778 Z0.5957
N15885 X2.1416 Y-2.5784 Z0.5954
N15890 X2.1336 Y-2.5789 Z0.5951
N15895 X2.1256 Y-2.5794 Z0.5948
N15900 X2.1177 Y-2.5797 Z0.5946
N15905 X2.1097 Y-2.5799 Z0.5943
N15910 X2.1017 Y-2.5801 Z0.594
N15915 X2.0937 Z0.5937
N15920 X1.8545 Z0.5854
N15925 X1.7416 Z0.5814
N15930 X1.7415
N15935 Y-2.5924 Z0.581
N15940 Y-2.6004 Z0.5807
N15945 X1.7411 Y-2.6083 Z0.5804
N15950 X1.7403 Y-2.6163 Z0.5802
N15955 X1.7397 Y-2.6203 Z0.58
N15960 X1.7393 Y-2.6223
N15965 X1.7392 Y-2.6233 Z0.5799
N15970 X1.7391 Y-2.6238
N15975 X1.739 Y-2.6242
N15980 X1.7391 Y-2.6238
N15985 X1.7392 Y-2.6233
N15990 X1.7393 Y-2.6223 Z0.5798
N15995 X1.7397 Y-2.6203 Z0.5797
N16000 X1.7403 Y-2.6163 Z0.5796
N16005 X1.7411 Y-2.6083 Z0.5793
N16010 X1.7415 Y-2.6004 Z0.5791
N16015 Y-2.5924 Z0.5788
N16020 Y-2.5801 Z0.5783
N16025 X1.7416
N16030 X1.8545 Z0.5744
N16035 X2.0937 Z0.566
N16040 X2.1017 Z0.5658
N16045 X2.1097 Y-2.5799 Z0.5655
N16050 X2.1177 Y-2.5797 Z0.5652
N16055 X2.1256 Y-2.5794 Z0.5649
N16060 X2.1336 Y-2.5789 Z0.5646
N16065 X2.1416 Y-2.5784 Z0.5644
N16070 X2.1496 Y-2.5778 Z0.5641
N16075 X2.1575 Y-2.577 Z0.5638
N16080 X2.1655 Y-2.5761 Z0.5635
N16085 X2.1735 Y-2.5751 Z0.5632
N16090 X2.1814 Y-2.5741 Z0.563
N16095 X2.1894 Y-2.5728 Z0.5627
N16100 X2.1974 Y-2.5715 Z0.5624
N16105 X2.2054 Y-2.5701 Z0.5621
N16110 X2.2133 Y-2.5685 Z0.5618
N16115 X2.2213 Y-2.5669 Z0.5616
N16120 X2.2293 Y-2.5651 Z0.5613
N16125 X2.2373 Y-2.5632 Z0.561
N16130 X2.2452 Y-2.5611 Z0.5607
N16135 X2.2477 Y-2.5605 Z0.5606
N16140 X2.2532 Y-2.559 Z0.5604
N16145 X2.2612 Y-2.5567 Z0.5601
N16150 X2.2692 Y-2.5544 Z0.5598
N16155 X2.2771 Y-2.5518 Z0.5595
N16160 X2.2851 Y-2.5492 Z0.5592
N16165 X2.2931 Y-2.5464 Z0.5589
N16170 X2.2983 Y-2.5446 Z0.5588
N16175 X2.3011 Y-2.5435 Z0.5586
N16180 X2.309 Y-2.5405 Z0.5584
N16185 X2.3188 Y-2.5366 Z0.558
N16190 X2.325 Y-2.534 Z0.5578
N16195 X2.3329 Y-2.5306 Z0.5574
N16200 X2.3373 Y-2.5286 Z0.5573
N16205 X2.3409 Y-2.527 Z0.5571
N16210 X2.3489 Y-2.5232 Z0.5568
N16215 X2.3569 Y-2.5194 Z0.5565
N16220 X2.3648 Y-2.5153 Z0.5562
N16225 X2.3699 Y-2.5127 Z0.556
N16230 X2.3728 Y-2.5111 Z0.5559
N16235 X2.3808 Y-2.5068 Z0.5556
N16240 X2.3845 Y-2.5047 Z0.5554
N16245 X2.3888 Y-2.5022 Z0.5553
N16250 X2.3967 Y-2.4976 Z0.5549
N16255 X2.3982 Y-2.4967
N16260 X2.4047 Y-2.4927 Z0.5546
N16265 X2.411 Y-2.4887 Z0.5544
N16270 X2.4127 Y-2.4877 Z0.5543
N16275 X2.4207 Y-2.4825 Z0.554
N16280 X2.4232 Y-2.4808 Z0.5538
N16285 X2.4286 Y-2.477 Z0.5536
N16290 X2.4347 Y-2.4728 Z0.5534
N16295 X2.4366 Y-2.4714 Z0.5533
N16300 X2.4446 Y-2.4656 Z0.5529
N16305 X2.4457 Y-2.4648
N16310 X2.4526 Y-2.4596 Z0.5526
N16315 X2.4561 Y-2.4568 Z0.5524
N16320 X2.4605 Y-2.4533 Z0.5522
N16325 X2.4661 Y-2.4489 Z0.552
N16330 X2.4685 Y-2.4469 Z0.5519
N16335 X2.4765 Y-2.4402 Z0.5515
N16340 X2.4844 Y-2.4332 Z0.5511
N16345 X2.4848 Y-2.4329
N16350 X2.4924 Y-2.426 Z0.5508
N16355 X2.4935 Y-2.4249 Z0.5507
N16360 X2.5004 Y-2.4185 Z0.5504
N16365 X2.5084 Y-2.4107 Z0.55
N16370 X2.5101 Y-2.409 Z0.5499
N16375 X2.5179 Y-2.401 Z0.5495
N16380 X2.5243 Y-2.3942 Z0.5492
N16385 X2.5253 Y-2.3931 Z0.5491
N16390 X2.5323 Y-2.3854 Z0.5488
N16395 X2.5326 Y-2.3851
N16400 X2.5395 Y-2.3771 Z0.5484
N16405 X2.5463 Y-2.3691 Z0.548
N16410 X2.5482 Y-2.3667 Z0.5479
N16415 X2.5527 Y-2.3612 Z0.5477
N16420 X2.5562 Y-2.3568 Z0.5475
N16425 X2.559 Y-2.3532 Z0.5473
N16430 X2.5642 Y-2.3463 Z0.547
N16435 X2.565 Y-2.3452
N16440 X2.5708 Y-2.3372 Z0.5466
N16445 X2.5722 Y-2.3353 Z0.5465
N16450 X2.5764 Y-2.3293 Z0.5463
N16455 X2.5801 Y-2.3238 Z0.546
N16460 X2.5818 Y-2.3213 Z0.5459
N16465 X2.587 Y-2.3133 Z0.5456
N16470 X2.5881 Y-2.3117 Z0.5455
N16475 X2.5921 Y-2.3053 Z0.5453
N16480 X2.5961 Y-2.2988 Z0.545
N16485 X2.597 Y-2.2974
N16490 X2.6016 Y-2.2894 Z0.5446
N16495 X2.6041 Y-2.2852 Z0.5445
N16500 X2.6061 Y-2.2814 Z0.5443
N16505 X2.6105 Y-2.2734 Z0.544
N16510 X2.612 Y-2.2706 Z0.5439
N16515 X2.6147 Y-2.2655 Z0.5437
N16520 X2.6187 Y-2.2575 Z0.5434
N16525 X2.6226 Y-2.2495 Z0.5431
N16530 X2.6263 Y-2.2416 Z0.5427
N16535 X2.628 Y-2.238 Z0.5426
N16540 X2.63 Y-2.2336 Z0.5424
N16545 X2.6334 Y-2.2256 Z0.5421
N16550 X2.6359 Y-2.2195 Z0.5419
N16555 X2.6399 Y-2.2097 Z0.5415
N16560 X2.6429 Y-2.2017 Z0.5412
N16565 X2.6439 Y-2.1989 Z0.5411
N16570 X2.6458 Y-2.1937 Z0.5409
N16575 X2.6486 Y-2.1857 Z0.5406
N16580 X2.6512 Y-2.1778 Z0.5404
N16585 X2.6537 Y-2.1698 Z0.5401
N16590 X2.6561 Y-2.1618 Z0.5398
N16595 X2.6584 Y-2.1538 Z0.5395
N16600 X2.6599 Y-2.1483 Z0.5393
N16605 X2.6605 Y-2.1459 Z0.5392
N16610 X2.6626 Y-2.1379 Z0.5389
N16615 X2.6644 Y-2.1299 Z0.5386
N16620 X2.6662 Y-2.1219 Z0.5383
N16625 X2.6679 Y-2.114 Z0.5381
N16630 X2.6694 Y-2.106 Z0.5378
N16635 X2.6709 Y-2.098 Z0.5375
N16640 X2.6722 Y-2.0901 Z0.5372
N16645 X2.6734 Y-2.0821 Z0.5369
N16650 X2.6745 Y-2.0741 Z0.5366
N16655 X2.6755 Y-2.0661 Z0.5364
N16660 X2.6764 Y-2.0582 Z0.5361
N16665 X2.6771 Y-2.0502 Z0.5358
N16670 X2.6778 Y-2.0422 Z0.5355
N16675 X2.6783 Y-2.0342 Z0.5352
N16680 X2.6788 Y-2.0263 Z0.535
N16685 X2.6791 Y-2.0183 Z0.5347
N16690 X2.6793 Y-2.0103 Z0.5344
N16695 X2.6794 Y-2.0023 Z0.5341
N16700 Y-1.9944 Z0.5338
N16705 X2.6795 Y-1.7552 Z0.5255
N16710 X2.6794 Y-1.6422 Z0.5215
N16715 X2.6795 Y-1.6421
N16720 X2.6918 Z0.5211
N16725 X2.6997 Z0.5208
N16730 X2.7077 Y-1.6418 Z0.5206
N16735 X2.7157 Y-1.6409 Z0.5203
N16740 X2.7197 Y-1.6403 Z0.5201
N16745 X2.7216 Y-1.64
N16750 X2.7226 Y-1.6398 Z0.52
N16755 X2.7231 Y-1.6397
N16760 X2.7236 Y-1.6396
N16765 X2.7231 Y-1.6397
N16770 X2.7226 Y-1.6398
N16775 X2.7216 Y-1.64
N16780 X2.7197 Y-1.6403
N16785 X2.7157 Y-1.6409
N16790 X2.7077 Y-1.6418
N16795 X2.6997 Y-1.6421
N16800 X2.6918
N16805 X2.6795
N16810 X2.6794 Y-1.6422
N16815 X2.6795 Y-1.7552
N16820 X2.6794 Y-1.9944
N16825 Y-2.0023
N16830 X2.6793 Y-2.0103
N16835 X2.6791 Y-2.0183
N16840 X2.6788 Y-2.0263
N16845 X2.6783 Y-2.0342
N16850 X2.6778 Y-2.0422
N16855 X2.6771 Y-2.0502
N16860 X2.6764 Y-2.0582
N16865 X2.6755 Y-2.0661
N16870 X2.6745 Y-2.0741
N16875 X2.6734 Y-2.0821
N16880 X2.6722 Y-2.0901
N16885 X2.6709 Y-2.098
N16890 X2.6694 Y-2.106
N16895 X2.6679 Y-2.114
N16900 X2.6662 Y-2.1219
N16905 X2.6644 Y-2.1299
N16910 X2.6626 Y-2.1379
N16915 X2.6605 Y-2.1459
N16920 X2.6599 Y-2.1483
N16925 X2.6584 Y-2.1538
N16930 X2.6561 Y-2.1618
N16935 X2.6537 Y-2.1698
N16940 X2.6512 Y-2.1778
N16945 X2.6486 Y-2.1857
N16950 X2.6458 Y-2.1937
N16955 X2.6439 Y-2.1989
N16960 X2.6429 Y-2.2017
N16965 X2.6399 Y-2.2097
N16970 X2.6359 Y-2.2195
N16975 X2.6334 Y-2.2256
N16980 X2.63 Y-2.2336
N16985 X2.628 Y-2.238
N16990 X2.6263 Y-2.2416
N16995 X2.6226 Y-2.2495
N17000 X2.6187 Y-2.2575
N17005 X2.6147 Y-2.2655
N17010 X2.612 Y-2.2706
N17015 X2.6105 Y-2.2734
N17020 X2.6061 Y-2.2814
N17025 X2.6041 Y-2.2852
N17030 X2.6016 Y-2.2894
N17035 X2.597 Y-2.2974
N17040 X2.5961 Y-2.2988
N17045 X2.5921 Y-2.3053
N17050 X2.5881 Y-2.3117
N17055 X2.587 Y-2.3133
N17060 X2.5818 Y-2.3213
N17065 X2.5801 Y-2.3238
N17070 X2.5764 Y-2.3293
N17075 X2.5722 Y-2.3353
N17080 X2.5708 Y-2.3372
N17085 X2.565 Y-2.3452
N17090 X2.5642 Y-2.3463
N17095 X2.559 Y-2.3532
N17100 X2.5562 Y-2.3568
N17105 X2.5527 Y-2.3612
N17110 X2.5482 Y-2.3667
N17115 X2.5463 Y-2.3691
N17120 X2.5395 Y-2.3771
N17125 X2.5326 Y-2.3851
N17130 X2.5323 Y-2.3854
N17135 X2.5253 Y-2.3931
N17140 X2.5243 Y-2.3942
N17145 X2.5179 Y-2.401
N17150 X2.5101 Y-2.409
N17155 X2.5084 Y-2.4107
N17160 X2.5004 Y-2.4185
N17165 X2.4935 Y-2.4249
N17170 X2.4924 Y-2.426
N17175 X2.4848 Y-2.4329
N17180 X2.4844 Y-2.4332
N17185 X2.4765 Y-2.4402
N17190 X2.4685 Y-2.4469
N17195 X2.4661 Y-2.4489
N17200 X2.4605 Y-2.4533
N17205 X2.4561 Y-2.4568
N17210 X2.4526 Y-2.4596
N17215 X2.4457 Y-2.4648
N17220 X2.4446 Y-2.4656
N17225 X2.4366 Y-2.4714
N17230 X2.4347 Y-2.4728
N17235 X2.4286 Y-2.477
N17240 X2.4232 Y-2.4808
N17245 X2.4207 Y-2.4825
N17250 X2.4127 Y-2.4877
N17255 X2.411 Y-2.4887
N17260 X2.4047 Y-2.4927
N17265 X2.3982 Y-2.4967
N17270 X2.3967 Y-2.4976
N17275 X2.3888 Y-2.5022
N17280 X2.3845 Y-2.5047
N17285 X2.3808 Y-2.5068
N17290 X2.3728 Y-2.5111
N17295 X2.3699 Y-2.5127
N17300 X2.3648 Y-2.5153
N17305 X2.3569 Y-2.5194
N17310 X2.3489 Y-2.5232
N17315 X2.3409 Y-2.527
N17320 X2.3373 Y-2.5286
N17325 X2.3329 Y-2.5306
N17330 X2.325 Y-2.534
N17335 X2.3188 Y-2.5366
N17340 X2.309 Y-2.5405
N17345 X2.3011 Y-2.5435
N17350 X2.2983 Y-2.5446
N17355 X2.2931 Y-2.5464
N17360 X2.2851 Y-2.5492
N17365 X2.2771 Y-2.5518
N17370 X2.2692 Y-2.5544
N17375 X2.2612 Y-2.5567
N17380 X2.2532 Y-2.559
N17385 X2.2477 Y-2.5605
N17390 X2.2452 Y-2.5611
N17395 X2.2373 Y-2.5632
N17400 X2.2293 Y-2.5651
N17405 X2.2213 Y-2.5669
N17410 X2.2133 Y-2.5685
N17415 X2.2054 Y-2.5701
N17420 X2.1974 Y-2.5715
N17425 X2.1894 Y-2.5728
N17430 X2.1814 Y-2.5741
N17435 X2.1735 Y-2.5751
N17440 X2.1655 Y-2.5761
N17445 X2.1575 Y-2.577
N17450 X2.1496 Y-2.5778
N17455 X2.1416 Y-2.5784
N17460 X2.1336 Y-2.5789
N17465 X2.1256 Y-2.5794
N17470 X2.1177 Y-2.5797
N17475 X2.1097 Y-2.5799
N17480 X2.1017 Y-2.5801
N17485 X2.0937
N17490 X1.8545
N17495 X1.7416
N17500 X1.7415
N17505 Y-2.5924
N17510 Y-2.6004
N17515 X1.7411 Y-2.6083
N17520 X1.7403 Y-2.6163
N17525 X1.7397 Y-2.6203
N17530 X1.7393 Y-2.6223
N17535 X1.7392 Y-2.6233
N17540 X1.7391 Y-2.6238
N17545 X1.739 Y-2.6242
N17550 G0 Z0.7002
N17555 X1.3164 Y-2.6204
N17560 G1 Z0.525 F40
N17565 X1.105 Z0.5176
N17570 X1.097 Z0.5173
N17575 X1.0891 Y-2.6203 Z0.5171
N17580 X1.0811 Y-2.6201 Z0.5168
N17585 X1.0731 Y-2.6198 Z0.5165
N17590 X1.0651 Y-2.6194 Z0.5162
N17595 X1.0572 Y-2.6189 Z0.5159
N17600 X1.0492 Y-2.6183 Z0.5157
N17605 X1.0412 Y-2.6176 Z0.5154
N17610 X1.0332 Y-2.6168 Z0.5151
N17615 X1.0293 Y-2.6163 Z0.515
N17620 X1.0253 Y-2.6159 Z0.5148
N17625 X1.0173 Y-2.6148 Z0.5145
N17630 X1.0093 Y-2.6137 Z0.5143
N17635 X1.0013 Y-2.6124 Z0.514
N17640 X0.9934 Y-2.6111 Z0.5137
N17645 X0.9854 Y-2.6097 Z0.5134
N17650 X0.9784 Y-2.6083 Z0.5132
N17655 X0.9774 Y-2.6081 Z0.5131
N17660 X0.9694 Y-2.6064 Z0.5128
N17665 X0.9615 Y-2.6047 Z0.5126
N17670 X0.9535 Y-2.6028 Z0.5123
N17675 X0.9455 Y-2.6008 Z0.512
N17680 X0.9376 Y-2.5987 Z0.5117
N17685 X0.9296 Y-2.5965 Z0.5114
N17690 X0.9216 Y-2.5942 Z0.5111
N17695 X0.9159 Y-2.5924 Z0.5109
N17700 X0.9136 Y-2.5917 Z0.5108
N17705 X0.9057 Y-2.5891 Z0.5105
N17710 X0.8977 Y-2.5864 Z0.5102
N17715 X0.8919 Y-2.5844 Z0.51
