%
(1003)
(Bottom of workpiece)
(T2 D=0.0312 CR=0.0156 - ZMIN=-0.36 - ball end mill)
(T4 D=0.25 CR=0 - ZMIN=-0.36 - flat end mill)
(T5 D=0.0156 CR=0 - ZMIN=-0.03 - flat end mill)
N10 G90
N15 G28 G91 Z0
N20 G90

(2D Contour2)
N25 M9
N30 T4 M6
N35 T2
N40 S1000 M3
N45 M9
N50 G0 X0.4 Y1.475
N55 Z0.6
N60 Z0.2
N65 G1 Z0.0394 F40
N70 Z-0.2975
N75 X0.425
N80 X0.45
N85 G3 X0.475 Y1.5 J0.025
N90 G1 Y1.625
N95 Y1.75 Z-0.36
N100 Y1.999
N105 G2 X0.4751 Y2.0034 I0.125
N110 G1 X0.4763 Y2.0389
N115 G2 X0.477 Y2.0478 I0.1249 J-0.0044
N120 G1 X0.4807 Y2.0831
N125 G2 X0.482 Y2.0918 I0.1243 J-0.0133
N130 G1 X0.4882 Y2.1267
N135 G2 X0.4901 Y2.1353 I0.123 J-0.022
N140 G1 X0.4988 Y2.1697
N145 G2 X0.5012 Y2.1779 I0.1212 J-0.0307
N150 G1 X0.5114 Y2.2092
N155 G2 X0.5143 Y2.217 I0.1188 J-0.0389
N160 G1 X0.5266 Y2.2476
N165 G2 X0.5299 Y2.2551 I0.116 J-0.0467
N170 G1 X0.5442 Y2.2848
N175 G2 X0.548 Y2.2921 I0.1126 J-0.0542
N180 G1 X0.5642 Y2.3208
N185 G2 X0.5683 Y2.3275 I0.1088 J-0.0615
N190 G1 X0.5848 Y2.3528
N195 G2 X0.5891 Y2.359 I0.1047 J-0.0682
N200 G1 X0.607 Y2.3832
N205 G2 X0.6117 Y2.3892 I0.1004 J-0.0744
N210 G1 X0.6311 Y2.4123
N215 G2 X0.6361 Y2.418 I0.0958 J-0.0803
N220 G1 X0.657 Y2.4399
N225 G2 X0.6623 Y2.4452 I0.0907 J-0.086
N230 G1 X0.6841 Y2.4656
N235 G2 X0.6897 Y2.4705 I0.0854 J-0.0913
N240 G1 X0.7126 Y2.4895
N245 G2 X0.7184 Y2.4941 I0.0798 J-0.0962
N250 G1 X0.7424 Y2.5117
N255 G2 X0.7485 Y2.5159 I0.074 J-0.1008
N260 G1 X0.7735 Y2.5321
N265 G2 X0.7801 Y2.5361 I0.0679 J-0.105
N270 G1 X0.8081 Y2.5518
N275 G2 X0.8151 Y2.5555 I0.0612 J-0.109
N280 G1 X0.8441 Y2.5694
N285 G2 X0.8514 Y2.5726 I0.0541 J-0.1127
N290 G1 X0.8812 Y2.5847
N295 G2 X0.8888 Y2.5874 I0.0468 J-0.1159
N300 G1 X0.9193 Y2.5975
N305 G2 X0.9274 Y2.5999 I0.0393 J-0.1187
N310 G1 X0.9622 Y2.6089
N315 G2 X0.971 Y2.6108 I0.0311 J-0.1211
N320 G1 X1.0064 Y2.6172
N325 G2 X1.0153 Y2.6185 I0.0223 J-0.123
N330 G1 X1.051 Y2.6224
N335 G2 X1.06 Y2.623 I0.0134 J-0.1243
N340 G1 X1.0959 Y2.6243
N345 G2 X1.1004 Y2.6244 I0.0045 J-0.1249
N350 G1 X1.3494
N355 X1.4744 Z-0.2975
N360 X1.7244
N365 X1.8494 Z-0.36
N370 X2.0984
N375 G2 X2.1028 Y2.6243 J-0.125
N380 G1 X2.1383 Y2.623
N385 G2 X2.1472 Y2.6224 I-0.0044 J-0.1249
N390 G1 X2.1824 Y2.6186
N395 G2 X2.1912 Y2.6174 I-0.0133 J-0.1243
N400 G1 X2.2261 Y2.6111
N405 G2 X2.2347 Y2.6093 I-0.022 J-0.123
N410 G1 X2.2691 Y2.6006
N415 G2 X2.2773 Y2.5982 I-0.0307 J-0.1212
N420 G1 X2.3086 Y2.5879
N425 G2 X2.3163 Y2.5851 I-0.0389 J-0.1188
N430 G1 X2.347 Y2.5728
N435 G2 X2.3545 Y2.5694 I-0.0466 J-0.116
N440 G1 X2.3842 Y2.5552
N445 G2 X2.3915 Y2.5513 I-0.0542 J-0.1126
N450 G1 X2.4202 Y2.5352
N455 G2 X2.4269 Y2.5311 I-0.0615 J-0.1088
N460 G1 X2.4522 Y2.5146
N465 G2 X2.4584 Y2.5103 I-0.0682 J-0.1047
N470 G1 X2.4826 Y2.4923
N475 G2 X2.4885 Y2.4877 I-0.0744 J-0.1004
N480 G1 X2.5117 Y2.4682
N485 G2 X2.5173 Y2.4632 I-0.0803 J-0.0958
N490 G1 X2.5393 Y2.4424
N495 G2 X2.5446 Y2.4371 I-0.086 J-0.0907
N500 G1 X2.565 Y2.4153
N505 G2 X2.5699 Y2.4097 I-0.0913 J-0.0854
N510 G1 X2.5889 Y2.3868
N515 G2 X2.5935 Y2.3809 I-0.0962 J-0.0798
N520 G1 X2.6111 Y2.357
N525 G2 X2.6153 Y2.3508 I-0.1008 J-0.074
N530 G1 X2.6315 Y2.3259
N535 G2 X2.6354 Y2.3193 I-0.105 J-0.0679
N540 G1 X2.6511 Y2.2913
N545 G2 X2.6549 Y2.2842 I-0.109 J-0.0612
N550 G1 X2.6688 Y2.2553
N555 G2 X2.672 Y2.248 I-0.1127 J-0.0541
N560 G1 X2.684 Y2.2181
N565 G2 X2.6868 Y2.2106 I-0.1159 J-0.0468
N570 G1 X2.6969 Y2.1801
N575 G2 X2.6993 Y2.1719 I-0.1187 J-0.0393
N580 G1 X2.7082 Y2.1371
N585 G2 X2.7101 Y2.1284 I-0.1211 J-0.0311
N590 G1 X2.7166 Y2.093
N595 G2 X2.7179 Y2.0841 I-0.123 J-0.0223
N600 G1 X2.7217 Y2.0484
N605 G2 X2.7224 Y2.0394 I-0.1243 J-0.0134
N610 G1 X2.7237 Y2.0035
N615 G2 Y1.999 I-0.1249 J-0.0045
N620 G1 Y1.75
N625 Y1.625 Z-0.2975
N630 Y1.375
N635 Y1.25 Z-0.36
N640 Y1.001
N645 G2 Y0.9966 I-0.125
N650 G1 X2.7224 Y0.9611
N655 G2 X2.7218 Y0.9522 I-0.1249 J0.0044
N660 G1 X2.718 Y0.9169
N665 G2 X2.7167 Y0.9082 I-0.1243 J0.0133
N670 G1 X2.7105 Y0.8733
N675 G2 X2.7086 Y0.8647 I-0.123 J0.022
N680 G1 X2.6999 Y0.8303
N685 G2 X2.6975 Y0.8221 I-0.1212 J0.0307
N690 G1 X2.6873 Y0.7908
N695 G2 X2.6845 Y0.783 I-0.1188 J0.0389
N700 G1 X2.6721 Y0.7524
N705 G2 X2.6688 Y0.7449 I-0.116 J0.0466
N710 G1 X2.6545 Y0.7151
N715 G2 X2.6507 Y0.7079 I-0.1126 J0.0542
N720 G1 X2.6345 Y0.6792
N725 G2 X2.6304 Y0.6725 I-0.1088 J0.0615
N730 G1 X2.614 Y0.6472
N735 G2 X2.6097 Y0.641 I-0.1047 J0.0682
N740 G1 X2.5917 Y0.6167
N745 G2 X2.587 Y0.6108 I-0.1004 J0.0744
N750 G1 X2.5676 Y0.5877
N755 G2 X2.5626 Y0.582 I-0.0958 J0.0803
N760 G1 X2.5418 Y0.5601
N765 G2 X2.5364 Y0.5548 I-0.0907 J0.086
N770 G1 X2.5147 Y0.5344
N775 G2 X2.5091 Y0.5295 I-0.0854 J0.0913
N780 G1 X2.4862 Y0.5104
N785 G2 X2.4803 Y0.5059 I-0.0798 J0.0962
N790 G1 X2.4563 Y0.4883
N795 G2 X2.4502 Y0.4841 I-0.074 J0.1008
N800 G1 X2.4252 Y0.4679
N805 G2 X2.4186 Y0.4639 I-0.0679 J0.105
N810 G1 X2.3907 Y0.4482
N815 G2 X2.3836 Y0.4445 I-0.0612 J0.109
N820 G1 X2.3547 Y0.4306
N825 G2 X2.3473 Y0.4274 I-0.0541 J0.1127
N830 G1 X2.3175 Y0.4153
N835 G2 X2.31 Y0.4126 I-0.0468 J0.1159
N840 G1 X2.2795 Y0.4025
N845 G2 X2.2713 Y0.4001 I-0.0393 J0.1187
N850 G1 X2.2365 Y0.3911
N855 G2 X2.2277 Y0.3892 I-0.0311 J0.1211
N860 G1 X2.1924 Y0.3828
N865 G2 X2.1835 Y0.3815 I-0.0223 J0.123
N870 G1 X2.1477 Y0.3776
N875 G2 X2.1388 Y0.377 I-0.0134 J0.1243
N880 G1 X2.1029 Y0.3757
N885 G2 X2.0984 Y0.3756 I-0.0045 J0.1249
N890 G1 X1.8494
N895 X1.7244 Z-0.2975
N900 X1.4744
N905 X1.3494 Z-0.36
N910 X1.1004
N915 G2 X1.0959 Y0.3757 J0.125
N920 G1 X1.0604 Y0.377
N925 G2 X1.0516 Y0.3776 I0.0044 J0.1249
N930 G1 X1.0163 Y0.3814
N935 G2 X1.0075 Y0.3826 I0.0133 J0.1243
N940 G1 X0.9727 Y0.3889
N945 G2 X0.964 Y0.3907 I0.022 J0.123
N950 G1 X0.9297 Y0.3994
N955 G2 X0.9215 Y0.4018 I0.0307 J0.1212
N960 G1 X0.8902 Y0.4121
N965 G2 X0.8824 Y0.4149 I0.0389 J0.1188
N970 G1 X0.8518 Y0.4272
N975 G2 X0.8442 Y0.4306 I0.0466 J0.116
N980 G1 X0.8145 Y0.4448
N985 G2 X0.8072 Y0.4487 I0.0542 J0.1126
N990 G1 X0.7786 Y0.4648
N995 G2 X0.7718 Y0.4689 I0.0615 J0.1088
N1000 G1 X0.7466 Y0.4854
N1005 G2 X0.7404 Y0.4897 I0.0682 J0.1047
N1010 G1 X0.7161 Y0.5077
N1015 G2 X0.7102 Y0.5123 I0.0744 J0.1004
N1020 G1 X0.6871 Y0.5317
N1025 G2 X0.6814 Y0.5368 I0.0803 J0.0958
N1030 G1 X0.6594 Y0.5576
N1035 G2 X0.6541 Y0.5629 I0.086 J0.0907
N1040 G1 X0.6338 Y0.5847
N1045 G2 X0.6288 Y0.5903 I0.0913 J0.0854
N1050 G1 X0.6098 Y0.6132
N1055 G2 X0.6052 Y0.6191 I0.0962 J0.0798
N1060 G1 X0.5876 Y0.643
N1065 G2 X0.5834 Y0.6492 I0.1008 J0.074
N1070 G1 X0.5673 Y0.6741
N1075 G2 X0.5633 Y0.6807 I0.105 J0.0679
N1080 G1 X0.5476 Y0.7087
N1085 G2 X0.5439 Y0.7158 I0.109 J0.0612
N1090 G1 X0.53 Y0.7447
N1095 G2 X0.5267 Y0.7521 I0.1127 J0.0541
N1100 G1 X0.5147 Y0.7819
N1105 G2 X0.5119 Y0.7894 I0.1159 J0.0468
N1110 G1 X0.5018 Y0.8199
N1115 G2 X0.4995 Y0.8281 I0.1187 J0.0393
N1120 G1 X0.4905 Y0.8629
N1125 G2 X0.4886 Y0.8717 I0.1211 J0.0311
N1130 G1 X0.4822 Y0.907
N1135 G2 X0.4809 Y0.9159 I0.123 J0.0223
N1140 G1 X0.477 Y0.9516
N1145 G2 X0.4764 Y0.9606 I0.1243 J0.0135
N1150 G1 X0.4751 Y0.9965
N1155 G2 X0.475 Y1.001 I0.1249 J0.0045
N1160 G1 Y1.25
N1165 Y1.375 Z-0.2975
N1170 Y1.5
N1175 G3 X0.45 Y1.525 I-0.025
N1180 G1 X0.4
N1185 G0 Z0.6

(Contour2)
N1190 M9
N1195 X0.5696 Y0.9411
N1200 Z0.6
N1205 Z0.075
N1210 G3 X0.5879 Y1.1779 Z0.062 I0.0092 J0.1184 F40
N1215 X0.5696 Y0.9411 Z0.0489 I-0.0092 J-0.1184
N1220 X0.5879 Y1.1779 Z0.0359 I0.0092 J0.1184
N1225 X0.5696 Y0.9411 Z0.0229 I-0.0092 J-0.1184
N1230 X0.5879 Y1.1779 Z0.0099 I0.0092 J0.1184
N1235 X0.5696 Y0.9411 Z-0.0032 I-0.0092 J-0.1184
N1240 X0.5879 Y1.1779 Z-0.0162 I0.0092 J0.1184
N1245 X0.46 Y1.0575 Z-0.0231 I-0.0092 J-0.1184
N1250 X0.5918 Y0.9415 Z-0.03 I0.1187 J0.002
N1255 G1 X0.7223 Y0.9559
N1260 X0.7221 Y0.9578
N1265 X0.7212 Y0.9658
N1270 X0.7206 Y0.9737
N1275 X0.7201 Y0.9817
N1280 X0.7198 Y0.9897
N1285 X0.7197 Y0.9977
N1290 Y1.0056
N1295 X0.7196 Y1.4601
N1300 Y1.4681
N1305 Y1.5
N1310 Y1.5319
N1315 Y1.5399
N1320 X0.7197 Y1.9944
N1325 Y2.0023
N1330 X0.7198 Y2.0103
N1335 X0.7201 Y2.0183
N1340 X0.7206 Y2.0263
N1345 X0.7212 Y2.0342
N1350 X0.7221 Y2.0422
N1355 X0.7223 Y2.0441
N1360 X0.7231 Y2.0502
N1365 X0.7242 Y2.0582
N1370 X0.7256 Y2.0661
N1375 X0.7271 Y2.0741
N1380 X0.7288 Y2.0821
N1385 X0.7302 Y2.0884
N1390 X0.7306 Y2.0901
N1395 X0.7327 Y2.098
N1400 X0.7349 Y2.106
N1405 X0.7374 Y2.114
N1410 X0.7382 Y2.1166
N1415 X0.74 Y2.1219
N1420 X0.7428 Y2.1299
N1425 X0.7458 Y2.1379
N1430 X0.7462 Y2.1388
N1435 X0.749 Y2.1459
N1440 X0.7525 Y2.1538
N1445 X0.7542 Y2.1575
N1450 X0.7561 Y2.1618
N1455 X0.76 Y2.1698
N1460 X0.7621 Y2.1739
N1465 X0.7641 Y2.1778
N1470 X0.7685 Y2.1857
N1475 X0.7701 Y2.1885
N1480 X0.7731 Y2.1937
N1485 X0.778 Y2.2017
N1490 X0.7781 Y2.2018
N1495 X0.7832 Y2.2097
N1500 X0.7861 Y2.2139
N1505 X0.7886 Y2.2176
N1510 X0.794 Y2.2252
N1515 X0.7943 Y2.2256
N1520 X0.8004 Y2.2336
N1525 X0.802 Y2.2356
N1530 X0.8068 Y2.2416
N1535 X0.81 Y2.2453
N1540 X0.8136 Y2.2495
N1545 X0.8179 Y2.2544
N1550 X0.8208 Y2.2575
N1555 X0.8259 Y2.263
N1560 X0.8284 Y2.2655
N1565 X0.8339 Y2.271
N1570 X0.8364 Y2.2734
N1575 X0.8419 Y2.2786
N1580 X0.845 Y2.2814
N1585 X0.8498 Y2.2858
N1590 X0.8541 Y2.2894
N1595 X0.8578 Y2.2925
N1600 X0.8638 Y2.2974
N1605 X0.8658 Y2.299
N1610 X0.8738 Y2.305
N1615 X0.8742 Y2.3053
N1620 X0.8817 Y2.3108
N1625 X0.8854 Y2.3133
N1630 X0.8897 Y2.3162
N1635 X0.8976 Y2.3213
N1640 X0.8977 Y2.3214
N1645 X0.9057 Y2.3262
N1650 X0.9108 Y2.3293
N1655 X0.9136 Y2.3309
N1660 X0.9216 Y2.3352
N1665 X0.9255 Y2.3372
N1670 X0.9296 Y2.3393
N1675 X0.9376 Y2.3432
N1680 X0.9419 Y2.3452
N1685 X0.9455 Y2.3469
N1690 X0.9535 Y2.3503
N1695 X0.9606 Y2.3532
N1700 X0.9615 Y2.3535
N1705 X0.9694 Y2.3566
N1710 X0.9774 Y2.3594
N1715 X0.9827 Y2.3612
N1720 X0.9854 Y2.362
N1725 X0.9934 Y2.3644
N1730 X1.0013 Y2.3667
N1735 X1.0093 Y2.3687
N1740 X1.011 Y2.3691
N1745 X1.0173 Y2.3706
N1750 X1.0253 Y2.3723
N1755 X1.0332 Y2.3738
N1760 X1.0412 Y2.3751
N1765 X1.0492 Y2.3763
N1770 X1.0553 Y2.3771
N1775 X1.0572 Y2.3773
N1780 X1.0651 Y2.3781
N1785 X1.0731 Y2.3788
N1790 X1.0811 Y2.3793
N1795 X1.0891 Y2.3796
N1800 X1.097 Y2.3797
N1805 X1.105 Y2.3796
N1810 X1.5595 Y2.3798
N1815 X1.5675
N1820 X1.5994
N1825 X1.6313
N1830 X1.6392
N1835 X2.0937 Y2.3796
N1840 X2.1017 Y2.3797
N1845 X2.1097 Y2.3796
N1850 X2.1177 Y2.3793
N1855 X2.1256 Y2.3788
N1860 X2.1336 Y2.3781
N1865 X2.1416 Y2.3773
N1870 X2.1434 Y2.3771
N1875 X2.1496 Y2.3763
N1880 X2.1575 Y2.3751
N1885 X2.1655 Y2.3738
N1890 X2.1735 Y2.3723
N1895 X2.1814 Y2.3706
N1900 X2.1878 Y2.3691
N1905 X2.1894 Y2.3687
N1910 X2.1974 Y2.3667
N1915 X2.2054 Y2.3644
N1920 X2.2133 Y2.362
N1925 X2.216 Y2.3612
N1930 X2.2213 Y2.3594
N1935 X2.2293 Y2.3566
N1940 X2.2373 Y2.3535
N1945 X2.2382 Y2.3532
N1950 X2.2452 Y2.3503
N1955 X2.2532 Y2.3469
N1960 X2.2569 Y2.3452
N1965 X2.2612 Y2.3432
N1970 X2.2692 Y2.3393
N1975 X2.2732 Y2.3372
N1980 X2.2771 Y2.3352
N1985 X2.2851 Y2.3309
N1990 X2.2879 Y2.3293
N1995 X2.2931 Y2.3262
N2000 X2.3011 Y2.3214
N2005 X2.3012 Y2.3213
N2010 X2.309 Y2.3162
N2015 X2.3133 Y2.3133
N2020 X2.317 Y2.3108
N2025 X2.3245 Y2.3053
N2030 X2.325 Y2.305
N2035 X2.3329 Y2.299
N2040 X2.3349 Y2.2974
N2045 X2.3409 Y2.2925
N2050 X2.3447 Y2.2894
N2055 X2.3489 Y2.2858
N2060 X2.3538 Y2.2814
N2065 X2.3569 Y2.2786
N2070 X2.3623 Y2.2734
N2075 X2.3648 Y2.271
N2080 X2.3704 Y2.2655
N2085 X2.3728 Y2.263
N2090 X2.3779 Y2.2575
N2095 X2.3808 Y2.2544
N2100 X2.3851 Y2.2495
N2105 X2.3888 Y2.2453
N2110 X2.3919 Y2.2416
N2115 X2.3967 Y2.2356
N2120 X2.3983 Y2.2336
N2125 X2.4044 Y2.2256
N2130 X2.4047 Y2.2252
N2135 X2.4101 Y2.2176
N2140 X2.4127 Y2.2139
N2145 X2.4156 Y2.2097
N2150 X2.4207 Y2.2018
N2155 Y2.2017
N2160 X2.4256 Y2.1937
N2165 X2.4286 Y2.1885
N2170 X2.4302 Y2.1857
N2175 X2.4346 Y2.1778
N2180 X2.4366 Y2.1739
N2185 X2.4387 Y2.1698
N2190 X2.4426 Y2.1618
N2195 X2.4446 Y2.1575
N2200 X2.4463 Y2.1538
N2205 X2.4497 Y2.1459
N2210 X2.4526 Y2.1388
N2215 X2.4529 Y2.1379
N2220 X2.4559 Y2.1299
N2225 X2.4587 Y2.1219
N2230 X2.4605 Y2.1166
N2235 X2.4614 Y2.114
N2240 X2.4638 Y2.106
N2245 X2.466 Y2.098
N2250 X2.4681 Y2.0901
N2255 X2.4685 Y2.0884
N2260 X2.47 Y2.0821
N2265 X2.4717 Y2.0741
N2270 X2.4732 Y2.0661
N2275 X2.4745 Y2.0582
N2280 X2.4757 Y2.0502
N2285 X2.4765 Y2.0441
N2290 X2.4767 Y2.0422
N2295 X2.4775 Y2.0342
N2300 X2.4782 Y2.0263
N2305 X2.4787 Y2.0183
N2310 X2.479 Y2.0103
N2315 X2.4791 Y2.0023
N2320 X2.479 Y1.9944
N2325 X2.4792 Y1.5399
N2330 Y1.5319
N2335 Y1.5
N2340 Y1.4681
N2345 Y1.4601
N2350 X2.479 Y1.0056
N2355 X2.4791 Y0.9977
N2360 X2.479 Y0.9897
N2365 X2.4787 Y0.9817
N2370 X2.4782 Y0.9737
N2375 X2.4775 Y0.9658
N2380 X2.4767 Y0.9578
N2385 X2.4765 Y0.9559
N2390 X2.4757 Y0.9498
N2395 X2.4745 Y0.9418
N2400 X2.4732 Y0.9339
N2405 X2.4717 Y0.9259
N2410 X2.47 Y0.9179
N2415 X2.4685 Y0.9116
N2420 X2.4681 Y0.9099
N2425 X2.466 Y0.902
N2430 X2.4638 Y0.894
N2435 X2.4614 Y0.886
N2440 X2.4605 Y0.8834
N2445 X2.4587 Y0.8781
N2450 X2.4559 Y0.8701
N2455 X2.4529 Y0.8621
N2460 X2.4526 Y0.8612
N2465 X2.4497 Y0.8541
N2470 X2.4463 Y0.8462
N2475 X2.4446 Y0.8425
N2480 X2.4426 Y0.8382
N2485 X2.4387 Y0.8302
N2490 X2.4366 Y0.8261
N2495 X2.4346 Y0.8222
N2500 X2.4302 Y0.8143
N2505 X2.4286 Y0.8115
N2510 X2.4256 Y0.8063
N2515 X2.4207 Y0.7983
N2520 Y0.7982
N2525 X2.4156 Y0.7903
N2530 X2.4127 Y0.7861
N2535 X2.4101 Y0.7824
N2540 X2.4047 Y0.7748
N2545 X2.4044 Y0.7744
N2550 X2.3983 Y0.7664
N2555 X2.3967 Y0.7644
N2560 X2.3919 Y0.7584
N2565 X2.3888 Y0.7547
N2570 X2.3851 Y0.7505
N2575 X2.3808 Y0.7456
N2580 X2.3779 Y0.7425
N2585 X2.3728 Y0.737
N2590 X2.3704 Y0.7345
N2595 X2.3648 Y0.729
N2600 X2.3623 Y0.7266
N2605 X2.3569 Y0.7214
N2610 X2.3538 Y0.7186
N2615 X2.3489 Y0.7142
N2620 X2.3447 Y0.7106
N2625 X2.3409 Y0.7075
N2630 X2.3349 Y0.7026
N2635 X2.3329 Y0.701
N2640 X2.325 Y0.695
N2645 X2.3245 Y0.6947
N2650 X2.317 Y0.6892
N2655 X2.3133 Y0.6867
N2660 X2.309 Y0.6838
N2665 X2.3012 Y0.6787
N2670 X2.3011 Y0.6786
N2675 X2.2931 Y0.6738
N2680 X2.2879 Y0.6707
N2685 X2.2851 Y0.6691
N2690 X2.2771 Y0.6648
N2695 X2.2732 Y0.6628
N2700 X2.2692 Y0.6607
N2705 X2.2612 Y0.6568
N2710 X2.2569 Y0.6548
N2715 X2.2532 Y0.6531
N2720 X2.2452 Y0.6497
N2725 X2.2382 Y0.6468
N2730 X2.2373 Y0.6465
N2735 X2.2293 Y0.6434
N2740 X2.2213 Y0.6406
N2745 X2.216 Y0.6388
N2750 X2.2133 Y0.638
N2755 X2.2054 Y0.6356
N2760 X2.1974 Y0.6333
N2765 X2.1894 Y0.6313
N2770 X2.1878 Y0.6309
N2775 X2.1814 Y0.6294
N2780 X2.1735 Y0.6277
N2785 X2.1655 Y0.6262
N2790 X2.1575 Y0.6249
N2795 X2.1496 Y0.6237
N2800 X2.1434 Y0.6229
N2805 X2.1416 Y0.6227
N2810 X2.1336 Y0.6219
N2815 X2.1256 Y0.6212
N2820 X2.1177 Y0.6207
N2825 X2.1097 Y0.6204
N2830 X2.1017 Y0.6203
N2835 X2.0937 Y0.6204
N2840 X1.6392 Y0.6202
N2845 X1.6313
N2850 X1.5994
N2855 X1.5675
N2860 X1.5595
N2865 X1.105 Y0.6204
N2870 X1.097 Y0.6203
N2875 X1.0891 Y0.6204
N2880 X1.0811 Y0.6207
N2885 X1.0731 Y0.6212
N2890 X1.0651 Y0.6219
N2895 X1.0572 Y0.6227
N2900 X1.0553 Y0.6229
N2905 X1.0492 Y0.6237
N2910 X1.0412 Y0.6249
N2915 X1.0332 Y0.6262
N2920 X1.0253 Y0.6277
N2925 X1.0173 Y0.6294
N2930 X1.011 Y0.6309
N2935 X1.0093 Y0.6313
N2940 X1.0013 Y0.6333
N2945 X0.9934 Y0.6356
N2950 X0.9854 Y0.638
N2955 X0.9827 Y0.6388
N2960 X0.9774 Y0.6406
N2965 X0.9694 Y0.6434
N2970 X0.9615 Y0.6465
N2975 X0.9606 Y0.6468
N2980 X0.9535 Y0.6497
N2985 X0.9455 Y0.6531
N2990 X0.9419 Y0.6548
N2995 X0.9376 Y0.6568
N3000 X0.9296 Y0.6607
N3005 X0.9255 Y0.6628
N3010 X0.9216 Y0.6648
N3015 X0.9136 Y0.6691
N3020 X0.9108 Y0.6707
N3025 X0.9057 Y0.6738
N3030 X0.8977 Y0.6786
N3035 X0.8976 Y0.6787
N3040 X0.8897 Y0.6838
N3045 X0.8854 Y0.6867
N3050 X0.8817 Y0.6892
N3055 X0.8742 Y0.6947
N3060 X0.8738 Y0.695
N3065 X0.8658 Y0.701
N3070 X0.8638 Y0.7026
N3075 X0.8578 Y0.7075
N3080 X0.8541 Y0.7106
N3085 X0.8498 Y0.7142
N3090 X0.845 Y0.7186
N3095 X0.8419 Y0.7214
N3100 X0.8364 Y0.7266
N3105 X0.8339 Y0.729
N3110 X0.8284 Y0.7345
N3115 X0.8259 Y0.737
N3120 X0.8208 Y0.7425
N3125 X0.8179 Y0.7456
N3130 X0.8136 Y0.7505
N3135 X0.81 Y0.7547
N3140 X0.8068 Y0.7584
N3145 X0.802 Y0.7644
N3150 X0.8004 Y0.7664
N3155 X0.7943 Y0.7744
N3160 X0.794 Y0.7748
N3165 X0.7886 Y0.7824
N3170 X0.7861 Y0.7861
N3175 X0.7832 Y0.7903
N3180 X0.7781 Y0.7982
N3185 X0.778 Y0.7983
N3190 X0.7731 Y0.8063
N3195 X0.7701 Y0.8115
N3200 X0.7685 Y0.8143
N3205 X0.7641 Y0.8222
N3210 X0.7621 Y0.8261
N3215 X0.76 Y0.8302
N3220 X0.7561 Y0.8382
N3225 X0.7542 Y0.8425
N3230 X0.7525 Y0.8462
N3235 X0.749 Y0.8541
N3240 X0.7462 Y0.8612
N3245 X0.7458 Y0.8621
N3250 X0.7428 Y0.8701
N3255 X0.74 Y0.8781
N3260 X0.7382 Y0.8834
N3265 X0.7374 Y0.886
N3270 X0.7349 Y0.894
N3275 X0.7327 Y0.902
N3280 X0.7306 Y0.9099
N3285 X0.7302 Y0.9116
N3290 X0.7288 Y0.9179
N3295 X0.7271 Y0.9259
N3300 X0.7256 Y0.9339
N3305 X0.7242 Y0.9418
N3310 X0.7231 Y0.9498
N3315 X0.7223 Y0.9559
N3320 X0.5173 Y0.9306
N3325 G3 X0.5192 Y1.0604 Z-0.0371 I0.0009 J0.0649
N3330 X0.5173 Y0.9306 Z-0.0442 I-0.0009 J-0.0649
N3335 X0.5192 Y1.0604 Z-0.0514 I0.0009 J0.0649
N3340 X0.5173 Y0.9306 Z-0.0585 I-0.0009 J-0.0649
N3345 X0.5192 Y1.0604 Z-0.0656 I0.0009 J0.0649
N3350 X0.5173 Y0.9306 Z-0.0727 I-0.0009 J-0.0649
N3355 X0.5192 Y1.0604 Z-0.0798 I0.0009 J0.0649
N3360 X0.5173 Y0.9306 Z-0.087 I-0.0009 J-0.0649
N3365 X0.5192 Y1.0604 Z-0.0941 I0.0009 J0.0649
N3370 X0.5173 Y0.9306 Z-0.1012 I-0.0009 J-0.0649
N3375 X0.5192 Y1.0604 Z-0.1083 I0.0009 J0.0649
N3380 X0.5173 Y0.9306 Z-0.1154 I-0.0009 J-0.0649
N3385 X0.5192 Y1.0604 Z-0.1226 I0.0009 J0.0649
N3390 X0.4534 Y0.9918 Z-0.1263 I-0.0009 J-0.0649
N3395 X0.5264 Y0.9311 Z-0.13 I0.0648 J0.0036
N3400 G1 X0.5979 Y0.9402
N3405 X0.5977 Y0.9418
N3410 X0.5968 Y0.9498
N3415 X0.5961 Y0.9578
N3420 X0.5955 Y0.9658
N3425 X0.595 Y0.9737
N3430 X0.5947 Y0.9801
N3435 X0.5946 Y0.9817
N3440 X0.5944 Y0.9897
N3445 X0.5943 Y0.9977
N3450 Y1.0056
N3455 X0.5942 Y1.3644
N3460 Y1.3724
N3465 Y1.5
N3470 Y1.6276
N3475 Y1.6356
N3480 X0.5943 Y1.9944
N3485 Y2.0023
N3490 X0.5944 Y2.0103
N3495 X0.5946 Y2.0183
N3500 X0.5947 Y2.0199
N3505 X0.595 Y2.0263
N3510 X0.5955 Y2.0342
N3515 X0.5961 Y2.0422
N3520 X0.5968 Y2.0502
N3525 X0.5977 Y2.0582
N3530 X0.5987 Y2.0661
N3535 X0.5998 Y2.0741
N3540 X0.6011 Y2.0821
N3545 X0.6025 Y2.0901
N3550 X0.6027 Y2.0908
N3555 X0.604 Y2.098
N3560 X0.6057 Y2.106
N3565 X0.6075 Y2.114
N3570 X0.6094 Y2.1219
N3575 X0.6106 Y2.1267
N3580 X0.6115 Y2.1299
N3585 X0.6137 Y2.1379
N3590 X0.616 Y2.1459
N3595 X0.6185 Y2.1538
N3600 X0.6186 Y2.1541
N3605 X0.6212 Y2.1618
N3610 X0.6239 Y2.1698
N3615 X0.6266 Y2.177
N3620 X0.6269 Y2.1778
N3625 X0.63 Y2.1857
N3630 X0.6332 Y2.1937
N3635 X0.6346 Y2.1969
N3640 X0.6366 Y2.2017
N3645 X0.6402 Y2.2097
N3650 X0.6425 Y2.2148
N3655 X0.6439 Y2.2176
N3660 X0.6478 Y2.2256
N3665 X0.6505 Y2.2309
N3670 X0.6519 Y2.2336
N3675 X0.6562 Y2.2416
N3680 X0.6585 Y2.2458
N3685 X0.6606 Y2.2495
N3690 X0.6652 Y2.2575
N3695 X0.6664 Y2.2596
N3700 X0.6701 Y2.2655
N3705 X0.6744 Y2.2724
N3710 X0.6751 Y2.2734
N3715 X0.6804 Y2.2814
N3720 X0.6858 Y2.2894
N3725 X0.6904 Y2.2957
N3730 X0.6916 Y2.2974
N3735 X0.6975 Y2.3053
N3740 X0.6983 Y2.3064
N3745 X0.7037 Y2.3133
N3750 X0.7063 Y2.3166
N3755 X0.7101 Y2.3213
N3760 X0.7143 Y2.3263
N3765 X0.7168 Y2.3293
N3770 X0.7223 Y2.3354
N3775 X0.7239 Y2.3372
N3780 X0.7302 Y2.3442
N3785 X0.7312 Y2.3452
N3790 X0.7382 Y2.3525
N3795 X0.7388 Y2.3532
N3800 X0.7462 Y2.3605
N3805 X0.7468 Y2.3612
N3810 X0.7542 Y2.3682
N3815 X0.7552 Y2.3691
N3820 X0.7621 Y2.3755
N3825 X0.7639 Y2.3771
N3830 X0.7701 Y2.3825
N3835 X0.7731 Y2.3851
N3840 X0.7781 Y2.3893
N3845 X0.7828 Y2.3931
N3850 X0.7861 Y2.3957
N3855 X0.7929 Y2.401
N3860 X0.794 Y2.4019
N3865 X0.802 Y2.4078
N3870 X0.8036 Y2.409
N3875 X0.81 Y2.4135
N3880 X0.8179 Y2.419
N3885 X0.8259 Y2.4242
N3890 X0.827 Y2.4249
N3895 X0.8339 Y2.4293
N3900 X0.8398 Y2.4329
N3905 X0.8419 Y2.4341
N3910 X0.8498 Y2.4388
N3915 X0.8536 Y2.4409
N3920 X0.8578 Y2.4432
N3925 X0.8658 Y2.4475
N3930 X0.8685 Y2.4489
N3935 X0.8738 Y2.4516
N3940 X0.8817 Y2.4555
N3945 X0.8846 Y2.4568
N3950 X0.8897 Y2.4592
N3955 X0.8977 Y2.4628
N3960 X0.9025 Y2.4648
N3965 X0.9057 Y2.4662
N3970 X0.9136 Y2.4694
N3975 X0.9216 Y2.4725
N3980 X0.9224 Y2.4728
N3985 X0.9296 Y2.4755
N3990 X0.9376 Y2.4782
N3995 X0.9453 Y2.4808
N4000 X0.9455
N4005 X0.9535 Y2.4834
N4010 X0.9615 Y2.4857
N4015 X0.9694 Y2.4879
N4020 X0.9727 Y2.4887
N4025 X0.9774 Y2.49
N4030 X0.9854 Y2.4919
N4035 X0.9934 Y2.4937
N4040 X1.0013 Y2.4954
N4045 X1.0085 Y2.4967
N4050 X1.0093 Y2.4969
N4055 X1.0173 Y2.4983
N4060 X1.0253 Y2.4995
N4065 X1.0332 Y2.5006
N4070 X1.0412 Y2.5017
N4075 X1.0492 Y2.5025
N4080 X1.0572 Y2.5033
N4085 X1.0651 Y2.5039
N4090 X1.0731 Y2.5044
N4095 X1.0795 Y2.5047
N4100 X1.0811
N4105 X1.0891 Y2.505
N4110 X1.097 Y2.5051
N4115 X1.105
N4120 X1.4638
N4125 X1.4718
N4130 X1.5994
N4135 X1.7269
N4140 X1.7349
N4145 X2.0937
N4150 X2.1017
N4155 X2.1097 Y2.505
N4160 X2.1177 Y2.5047
N4165 X2.1193
N4170 X2.1256 Y2.5044
N4175 X2.1336 Y2.5039
N4180 X2.1416 Y2.5033
N4185 X2.1496 Y2.5025
N4190 X2.1575 Y2.5017
N4195 X2.1655 Y2.5006
N4200 X2.1735 Y2.4995
N4205 X2.1814 Y2.4983
N4210 X2.1894 Y2.4969
N4215 X2.1902 Y2.4967
N4220 X2.1974 Y2.4954
N4225 X2.2054 Y2.4937
N4230 X2.2133 Y2.4919
N4235 X2.2213 Y2.49
N4240 X2.2261 Y2.4887
N4245 X2.2293 Y2.4879
N4250 X2.2373 Y2.4857
N4255 X2.2452 Y2.4834
N4260 X2.2532 Y2.4808
N4265 X2.2535
N4270 X2.2612 Y2.4782
N4275 X2.2692 Y2.4755
N4280 X2.2763 Y2.4728
N4285 X2.2771 Y2.4725
N4290 X2.2851 Y2.4694
N4295 X2.2931 Y2.4662
N4300 X2.2963 Y2.4648
N4305 X2.3011 Y2.4628
N4310 X2.309 Y2.4592
N4315 X2.3141 Y2.4568
N4320 X2.317 Y2.4555
N4325 X2.325 Y2.4516
N4330 X2.3302 Y2.4489
N4335 X2.3329 Y2.4475
N4340 X2.3409 Y2.4432
N4345 X2.3451 Y2.4409
N4350 X2.3489 Y2.4388
N4355 X2.3569 Y2.4341
N4360 X2.3589 Y2.4329
N4365 X2.3648 Y2.4293
N4370 X2.3717 Y2.4249
N4375 X2.3728 Y2.4242
N4380 X2.3808 Y2.419
N4385 X2.3888 Y2.4135
N4390 X2.3951 Y2.409
N4395 X2.3967 Y2.4078
N4400 X2.4047 Y2.4019
N4405 X2.4058 Y2.401
N4410 X2.4127 Y2.3957
N4415 X2.416 Y2.3931
N4420 X2.4207 Y2.3893
N4425 X2.4256 Y2.3851
N4430 X2.4286 Y2.3825
N4435 X2.4348 Y2.3771
N4440 X2.4366 Y2.3755
N4445 X2.4436 Y2.3691
N4450 X2.4446 Y2.3682
N4455 X2.4519 Y2.3612
N4460 X2.4526 Y2.3605
N4465 X2.4599 Y2.3532
N4470 X2.4605 Y2.3525
N4475 X2.4675 Y2.3452
N4480 X2.4685 Y2.3442
N4485 X2.4749 Y2.3372
N4490 X2.4765 Y2.3354
N4495 X2.4819 Y2.3293
N4500 X2.4844 Y2.3263
N4505 X2.4886 Y2.3213
N4510 X2.4924 Y2.3166
N4515 X2.4951 Y2.3133
N4520 X2.5004 Y2.3065
N4525 X2.5012 Y2.3053
N4530 X2.5072 Y2.2974
N4535 X2.5084 Y2.2957
N4540 X2.5129 Y2.2894
N4545 X2.5184 Y2.2814
N4550 X2.5236 Y2.2734
N4555 X2.5243 Y2.2724
N4560 X2.5286 Y2.2655
N4565 X2.5323 Y2.2596
N4570 X2.5335 Y2.2575
N4575 X2.5382 Y2.2495
N4580 X2.5403 Y2.2458
N4585 X2.5426 Y2.2416
N4590 X2.5468 Y2.2336
N4595 X2.5482 Y2.2309
N4600 X2.5509 Y2.2256
N4605 X2.5548 Y2.2176
N4610 X2.5562 Y2.2148
N4615 X2.5586 Y2.2097
N4620 X2.5621 Y2.2017
N4625 X2.5642 Y2.1969
N4630 X2.5656 Y2.1937
N4635 X2.5688 Y2.1857
N4640 X2.5719 Y2.1778
N4645 X2.5722 Y2.177
N4650 X2.5748 Y2.1698
N4655 X2.5776 Y2.1618
N4660 X2.5801 Y2.1541
N4665 X2.5802 Y2.1538
N4670 X2.5827 Y2.1459
N4675 X2.5851 Y2.1379
N4680 X2.5873 Y2.1299
N4685 X2.5881 Y2.1267
N4690 X2.5893 Y2.1219
N4695 X2.5912 Y2.114
N4700 X2.593 Y2.106
N4705 X2.5947 Y2.098
N4710 X2.5961 Y2.0908
N4715 X2.5962 Y2.0901
N4720 X2.5976 Y2.0821
N4725 X2.5989 Y2.0741
N4730 X2.6 Y2.0661
N4735 X2.601 Y2.0582
N4740 X2.6019 Y2.0502
N4745 X2.6026 Y2.0422
N4750 X2.6033 Y2.0342
N4755 X2.6038 Y2.0263
N4760 X2.6041 Y2.0199
N4765 Y2.0183
N4770 X2.6044 Y2.0103
N4775 X2.6045 Y2.0023
N4780 Y1.9944
N4785 Y1.6356
N4790 Y1.6276
N4795 Y1.5
N4800 Y1.3724
N4805 Y1.3644
N4810 Y1.0056
N4815 Y0.9977
N4820 X2.6044 Y0.9897
N4825 X2.6041 Y0.9817
N4830 Y0.9801
N4835 X2.6038 Y0.9737
N4840 X2.6033 Y0.9658
N4845 X2.6026 Y0.9578
N4850 X2.6019 Y0.9498
N4855 X2.601 Y0.9418
N4860 X2.6 Y0.9339
N4865 X2.5989 Y0.9259
N4870 X2.5976 Y0.9179
N4875 X2.5962 Y0.9099
N4880 X2.5961 Y0.9092
N4885 X2.5947 Y0.902
N4890 X2.593 Y0.894
N4895 X2.5912 Y0.886
N4900 X2.5893 Y0.8781
N4905 X2.5881 Y0.8733
N4910 X2.5873 Y0.8701
N4915 X2.5851 Y0.8621
N4920 X2.5827 Y0.8541
N4925 X2.5802 Y0.8462
N4930 X2.5801 Y0.8459
N4935 X2.5776 Y0.8382
N4940 X2.5748 Y0.8302
N4945 X2.5722 Y0.823
N4950 X2.5719 Y0.8222
N4955 X2.5688 Y0.8143
N4960 X2.5656 Y0.8063
N4965 X2.5642 Y0.8031
N4970 X2.5621 Y0.7983
N4975 X2.5586 Y0.7903
N4980 X2.5562 Y0.7852
N4985 X2.5548 Y0.7824
N4990 X2.5509 Y0.7744
N4995 X2.5482 Y0.7691
N5000 X2.5468 Y0.7664
N5005 X2.5426 Y0.7584
N5010 X2.5403 Y0.7542
N5015 X2.5381 Y0.7505
N5020 X2.5335 Y0.7425
N5025 X2.5323 Y0.7404
N5030 X2.5286 Y0.7345
N5035 X2.5243 Y0.7276
N5040 X2.5236 Y0.7266
N5045 X2.5184 Y0.7186
N5050 X2.5129 Y0.7106
N5055 X2.5084 Y0.7043
N5060 X2.5072 Y0.7026
N5065 X2.5012 Y0.6947
N5070 X2.5004 Y0.6935
N5075 X2.4951 Y0.6867
N5080 X2.4924 Y0.6834
N5085 X2.4886 Y0.6787
N5090 X2.4844 Y0.6737
N5095 X2.4819 Y0.6707
N5100 X2.4765 Y0.6646
N5105 X2.4749 Y0.6628
N5110 X2.4685 Y0.6558
N5115 X2.4675 Y0.6548
N5120 X2.4605 Y0.6475
N5125 X2.4599 Y0.6468
N5130 X2.4526 Y0.6395
N5135 X2.4519 Y0.6388
N5140 X2.4446 Y0.6318
N5145 X2.4436 Y0.6309
N5150 X2.4366 Y0.6245
N5155 X2.4348 Y0.6229
N5160 X2.4286 Y0.6175
N5165 X2.4256 Y0.6149
N5170 X2.4207 Y0.6107
N5175 X2.416 Y0.6069
N5180 X2.4127 Y0.6043
N5185 X2.4058 Y0.599
N5190 X2.4047 Y0.5981
N5195 X2.3967 Y0.5922
N5200 X2.3951 Y0.591
N5205 X2.3888 Y0.5865
N5210 X2.3808 Y0.581
N5215 X2.3728 Y0.5758
N5220 X2.3717 Y0.5751
N5225 X2.3648 Y0.5707
N5230 X2.3589 Y0.5671
N5235 X2.3569 Y0.5659
N5240 X2.3489 Y0.5612
N5245 X2.3451 Y0.5591
N5250 X2.3409 Y0.5568
N5255 X2.3329 Y0.5525
N5260 X2.3302 Y0.5511
N5265 X2.325 Y0.5484
N5270 X2.317 Y0.5445
N5275 X2.3141 Y0.5432
N5280 X2.309 Y0.5408
N5285 X2.3011 Y0.5372
N5290 X2.2963 Y0.5352
N5295 X2.2931 Y0.5338
N5300 X2.2851 Y0.5306
N5305 X2.2771 Y0.5275
N5310 X2.2763 Y0.5272
N5315 X2.2692 Y0.5245
N5320 X2.2612 Y0.5218
N5325 X2.2535 Y0.5192
N5330 X2.2532
N5335 X2.2452 Y0.5166
N5340 X2.2373 Y0.5143
N5345 X2.2293 Y0.5121
N5350 X2.2261 Y0.5113
N5355 X2.2213 Y0.51
N5360 X2.2133 Y0.5081
N5365 X2.2054 Y0.5063
N5370 X2.1974 Y0.5046
N5375 X2.1902 Y0.5033
N5380 X2.1894 Y0.5031
N5385 X2.1814 Y0.5017
N5390 X2.1735 Y0.5005
N5395 X2.1655 Y0.4994
N5400 X2.1575 Y0.4983
N5405 X2.1496 Y0.4975
N5410 X2.1416 Y0.4967
N5415 X2.1336 Y0.4961
N5420 X2.1256 Y0.4956
N5425 X2.1193 Y0.4953
N5430 X2.1177
N5435 X2.1097 Y0.495
N5440 X2.1017 Y0.4949
N5445 X2.0937
N5450 X1.7349
N5455 X1.7269
N5460 X1.5994
N5465 X1.4718
N5470 X1.4638
N5475 X1.105
N5480 X1.097
N5485 X1.0891 Y0.495
N5490 X1.0811 Y0.4953
N5495 X1.0795
N5500 X1.0731 Y0.4956
N5505 X1.0651 Y0.4961
N5510 X1.0572 Y0.4967
N5515 X1.0492 Y0.4975
N5520 X1.0412 Y0.4983
N5525 X1.0332 Y0.4994
N5530 X1.0253 Y0.5005
N5535 X1.0173 Y0.5017
N5540 X1.0093 Y0.5031
N5545 X1.0085 Y0.5033
N5550 X1.0013 Y0.5046
N5555 X0.9934 Y0.5063
N5560 X0.9854 Y0.5081
N5565 X0.9774 Y0.51
N5570 X0.9727 Y0.5113
N5575 X0.9694 Y0.5121
N5580 X0.9615 Y0.5143
N5585 X0.9535 Y0.5166
N5590 X0.9455 Y0.5192
N5595 X0.9453
N5600 X0.9376 Y0.5218
N5605 X0.9296 Y0.5245
N5610 X0.9224 Y0.5272
N5615 X0.9216 Y0.5275
N5620 X0.9136 Y0.5306
N5625 X0.9057 Y0.5338
N5630 X0.9025 Y0.5352
N5635 X0.8977 Y0.5372
N5640 X0.8897 Y0.5408
N5645 X0.8846 Y0.5432
N5650 X0.8817 Y0.5445
N5655 X0.8738 Y0.5484
N5660 X0.8685 Y0.5511
N5665 X0.8658 Y0.5525
N5670 X0.8578 Y0.5568
N5675 X0.8536 Y0.5591
N5680 X0.8498 Y0.5612
N5685 X0.8419 Y0.5659
N5690 X0.8398 Y0.5671
N5695 X0.8339 Y0.5707
N5700 X0.827 Y0.5751
N5705 X0.8259 Y0.5758
N5710 X0.8179 Y0.581
N5715 X0.81 Y0.5865
N5720 X0.8036 Y0.591
N5725 X0.802 Y0.5922
N5730 X0.794 Y0.5981
N5735 X0.7929 Y0.599
N5740 X0.7861 Y0.6043
N5745 X0.7828 Y0.6069
N5750 X0.7781 Y0.6107
N5755 X0.7731 Y0.6149
N5760 X0.7701 Y0.6175
N5765 X0.7639 Y0.6229
N5770 X0.7621 Y0.6245
N5775 X0.7552 Y0.6309
N5780 X0.7542 Y0.6318
N5785 X0.7468 Y0.6388
N5790 X0.7462 Y0.6395
N5795 X0.7388 Y0.6468
N5800 X0.7382 Y0.6475
N5805 X0.7312 Y0.6548
N5810 X0.7302 Y0.6558
N5815 X0.7239 Y0.6628
N5820 X0.7223 Y0.6646
N5825 X0.7168 Y0.6707
N5830 X0.7143 Y0.6737
N5835 X0.7101 Y0.6787
N5840 X0.7063 Y0.6834
N5845 X0.7037 Y0.6867
N5850 X0.6983 Y0.6936
N5855 X0.6975 Y0.6947
N5860 X0.6916 Y0.7026
N5865 X0.6904 Y0.7043
N5870 X0.6858 Y0.7106
N5875 X0.6804 Y0.7186
N5880 X0.6751 Y0.7266
N5885 X0.6744 Y0.7276
N5890 X0.6701 Y0.7345
N5895 X0.6664 Y0.7404
N5900 X0.6652 Y0.7425
N5905 X0.6606 Y0.7505
N5910 X0.6585 Y0.7542
N5915 X0.6562 Y0.7584
N5920 X0.6519 Y0.7664
N5925 X0.6505 Y0.7691
N5930 X0.6478 Y0.7744
N5935 X0.6439 Y0.7824
N5940 X0.6425 Y0.7852
N5945 X0.6402 Y0.7903
N5950 X0.6366 Y0.7983
N5955 X0.6346 Y0.8031
N5960 X0.6332 Y0.8063
N5965 X0.63 Y0.8143
N5970 X0.6269 Y0.8222
N5975 X0.6266 Y0.823
N5980 X0.6239 Y0.8302
N5985 X0.6212 Y0.8382
N5990 X0.6186 Y0.8459
N5995 X0.6185 Y0.8462
N6000 X0.616 Y0.8541
N6005 X0.6137 Y0.8621
N6010 X0.6115 Y0.8701
N6015 X0.6106 Y0.8733
N6020 X0.6094 Y0.8781
N6025 X0.6075 Y0.886
N6030 X0.6057 Y0.894
N6035 X0.604 Y0.902
N6040 X0.6027 Y0.9092
N6045 X0.6025 Y0.9099
N6050 X0.6011 Y0.9179
N6055 X0.5998 Y0.9259
N6060 X0.5987 Y0.9339
N6065 X0.5979 Y0.9402
N6070 X0.4031 Y0.9367
N6075 G3 X0.4854 Y1.0346 Z-0.137 I0.0411 J0.049
N6080 X0.4031 Y0.9367 Z-0.144 I-0.0411 J-0.049
N6085 X0.4854 Y1.0346 Z-0.151 I0.0411 J0.049
N6090 X0.4031 Y0.9367 Z-0.158 I-0.0411 J-0.049
N6095 X0.4854 Y1.0346 Z-0.1651 I0.0411 J0.049
N6100 X0.4031 Y0.9367 Z-0.1721 I-0.0411 J-0.049
N6105 X0.4854 Y1.0346 Z-0.1791 I0.0411 J0.049
N6110 X0.4031 Y0.9367 Z-0.1861 I-0.0411 J-0.049
N6115 X0.4854 Y1.0346 Z-0.1931 I0.0411 J0.049
N6120 X0.4031 Y0.9367 Z-0.2001 I-0.0411 J-0.049
N6125 X0.4854 Y1.0346 Z-0.2071 I0.0411 J0.049
N6130 X0.4031 Y0.9367 Z-0.2141 I-0.0411 J-0.049
N6135 X0.4854 Y1.0346 Z-0.2212 I0.0411 J0.049
N6140 X0.4031 Y0.9367 Z-0.2282 I-0.0411 J-0.049
N6145 X0.4521 Y0.9222 Z-0.23 I0.0411 J0.049
N6150 G1 X0.5236 Y0.931
N6155 X0.5232 Y0.9339
N6160 X0.5229 Y0.9367
N6165 X0.5224 Y0.9418
N6170 X0.5216 Y0.9498
N6175 X0.5209 Y0.9578
N6180 X0.5204 Y0.9658
N6185 X0.52 Y0.9737
N6190 X0.5197 Y0.9817
N6195 X0.5194 Y0.9897
N6200 X0.5193 Y0.9977
N6205 Y1.0056
N6210 Y1.2448
N6215 Y1.5
N6220 Y1.7552
N6225 Y1.9944
N6230 Y2.0023
N6235 X0.5194 Y2.0103
N6240 X0.5197 Y2.0183
N6245 X0.52 Y2.0263
N6250 X0.5204 Y2.0342
N6255 X0.5209 Y2.0422
N6260 X0.5216 Y2.0502
N6265 X0.5224 Y2.0582
N6270 X0.5232 Y2.0661
N6275 X0.5242 Y2.0741
N6280 X0.5253 Y2.0821
N6285 X0.5265 Y2.0901
N6290 X0.5278 Y2.098
N6295 X0.5293 Y2.106
N6300 X0.5308 Y2.114
N6305 X0.5325 Y2.1219
N6310 X0.5343 Y2.1299
N6315 X0.5362 Y2.1379
N6320 X0.5382 Y2.1459
N6325 X0.5389 Y2.1483
N6330 X0.5403 Y2.1538
N6335 X0.5426 Y2.1618
N6340 X0.545 Y2.1698
N6345 X0.5475 Y2.1778
N6350 X0.5502 Y2.1857
N6355 X0.5529 Y2.1937
N6360 X0.5548 Y2.1989
N6365 X0.5559 Y2.2017
N6370 X0.5589 Y2.2097
N6375 X0.5628 Y2.2195
N6380 X0.5654 Y2.2256
N6385 X0.5688 Y2.2336
N6390 X0.5708 Y2.238
N6395 X0.5724 Y2.2416
N6400 X0.5761 Y2.2495
N6405 X0.58 Y2.2575
N6410 X0.5841 Y2.2655
N6415 X0.5867 Y2.2706
N6420 X0.5882 Y2.2734
N6425 X0.5926 Y2.2814
N6430 X0.5947 Y2.2852
N6435 X0.5971 Y2.2894
N6440 X0.6018 Y2.2974
N6445 X0.6027 Y2.2988
N6450 X0.6067 Y2.3053
N6455 X0.6106 Y2.3117
N6460 X0.6117 Y2.3133
N6465 X0.6169 Y2.3213
N6470 X0.6186 Y2.3238
N6475 X0.6223 Y2.3293
N6480 X0.6266 Y2.3353
N6485 X0.6279 Y2.3372
N6490 X0.6337 Y2.3452
N6495 X0.6346 Y2.3463
N6500 X0.6398 Y2.3532
N6505 X0.6425 Y2.3568
N6510 X0.646 Y2.3612
N6515 X0.6505 Y2.3667
N6520 X0.6525 Y2.3691
N6525 X0.6592 Y2.3771
N6530 X0.6662 Y2.3851
N6535 X0.6664 Y2.3854
N6540 X0.6734 Y2.3931
N6545 X0.6744 Y2.3942
N6550 X0.6809 Y2.401
N6555 X0.6887 Y2.409
N6560 X0.6904 Y2.4107
N6565 X0.6983 Y2.4185
N6570 X0.7052 Y2.4249
N6575 X0.7063 Y2.426
N6580 X0.714 Y2.4329
N6585 X0.7143 Y2.4332
N6590 X0.7223 Y2.4402
N6595 X0.7302 Y2.4469
N6600 X0.7326 Y2.4489
N6605 X0.7382 Y2.4533
N6610 X0.7426 Y2.4568
N6615 X0.7462 Y2.4596
N6620 X0.7531 Y2.4648
N6625 X0.7542 Y2.4656
N6630 X0.7621 Y2.4714
N6635 X0.764 Y2.4728
N6640 X0.7701 Y2.477
N6645 X0.7756 Y2.4808
N6650 X0.7781 Y2.4825
N6655 X0.7861 Y2.4877
N6660 X0.7877 Y2.4887
N6665 X0.794 Y2.4927
N6670 X0.8005 Y2.4967
N6675 X0.802 Y2.4976
N6680 X0.81 Y2.5022
N6685 X0.8142 Y2.5047
N6690 X0.8179 Y2.5068
N6695 X0.8259 Y2.5111
N6700 X0.8288 Y2.5127
N6705 X0.8339 Y2.5153
N6710 X0.8419 Y2.5194
N6715 X0.8498 Y2.5232
N6720 X0.8578 Y2.527
N6725 X0.8614 Y2.5286
N6730 X0.8658 Y2.5306
N6735 X0.8738 Y2.534
N6740 X0.8799 Y2.5366
N6745 X0.8897 Y2.5405
N6750 X0.8977 Y2.5435
N6755 X0.9005 Y2.5446
N6760 X0.9057 Y2.5464
N6765 X0.9136 Y2.5492
N6770 X0.9216 Y2.5518
N6775 X0.9296 Y2.5544
N6780 X0.9376 Y2.5567
N6785 X0.9455 Y2.559
N6790 X0.9511 Y2.5605
N6795 X0.9535 Y2.5611
N6800 X0.9615 Y2.5632
N6805 X0.9694 Y2.5651
N6810 X0.9774 Y2.5669
N6815 X0.9854 Y2.5685
N6820 X0.9934 Y2.5701
N6825 X1.0013 Y2.5715
N6830 X1.0093 Y2.5728
N6835 X1.0173 Y2.5741
N6840 X1.0253 Y2.5751
N6845 X1.0332 Y2.5761
N6850 X1.0412 Y2.577
N6855 X1.0492 Y2.5778
N6860 X1.0572 Y2.5784
N6865 X1.0651 Y2.5789
N6870 X1.0731 Y2.5794
N6875 X1.0811 Y2.5797
N6880 X1.0891 Y2.5799
N6885 X1.097 Y2.5801
N6890 X1.105
N6895 X1.3442
N6900 X1.5994 Y2.58
N6905 X1.8545 Y2.5801
N6910 X2.0937
N6915 X2.1017
N6920 X2.1097 Y2.5799
N6925 X2.1177 Y2.5797
N6930 X2.1256 Y2.5794
N6935 X2.1336 Y2.5789
N6940 X2.1416 Y2.5784
N6945 X2.1496 Y2.5778
N6950 X2.1575 Y2.577
N6955 X2.1655 Y2.5761
N6960 X2.1735 Y2.5751
N6965 X2.1814 Y2.5741
N6970 X2.1894 Y2.5728
N6975 X2.1974 Y2.5715
N6980 X2.2054 Y2.5701
N6985 X2.2133 Y2.5685
N6990 X2.2213 Y2.5669
N6995 X2.2293 Y2.5651
N7000 X2.2373 Y2.5632
N7005 X2.2452 Y2.5611
N7010 X2.2477 Y2.5605
N7015 X2.2532 Y2.559
N7020 X2.2612 Y2.5567
N7025 X2.2692 Y2.5544
N7030 X2.2771 Y2.5518
N7035 X2.2851 Y2.5492
N7040 X2.2931 Y2.5464
N7045 X2.2983 Y2.5446
N7050 X2.3011 Y2.5435
N7055 X2.309 Y2.5405
N7060 X2.3188 Y2.5366
N7065 X2.325 Y2.534
N7070 X2.3329 Y2.5306
N7075 X2.3373 Y2.5286
N7080 X2.3409 Y2.527
N7085 X2.3489 Y2.5232
N7090 X2.3569 Y2.5194
N7095 X2.3648 Y2.5153
N7100 X2.3699 Y2.5127
N7105 X2.3728 Y2.5111
N7110 X2.3808 Y2.5068
N7115 X2.3845 Y2.5047
N7120 X2.3888 Y2.5022
N7125 X2.3967 Y2.4976
N7130 X2.3982 Y2.4967
N7135 X2.4047 Y2.4927
N7140 X2.411 Y2.4887
N7145 X2.4127 Y2.4877
N7150 X2.4207 Y2.4825
N7155 X2.4232 Y2.4808
N7160 X2.4286 Y2.477
N7165 X2.4347 Y2.4728
N7170 X2.4366 Y2.4714
N7175 X2.4446 Y2.4656
N7180 X2.4457 Y2.4648
N7185 X2.4526 Y2.4596
N7190 X2.4561 Y2.4568
N7195 X2.4605 Y2.4533
N7200 X2.4661 Y2.4489
N7205 X2.4685 Y2.4469
N7210 X2.4765 Y2.4402
N7215 X2.4844 Y2.4332
N7220 X2.4848 Y2.4329
N7225 X2.4924 Y2.426
N7230 X2.4935 Y2.4249
N7235 X2.5004 Y2.4185
N7240 X2.5084 Y2.4107
N7245 X2.5101 Y2.409
N7250 X2.5179 Y2.401
N7255 X2.5243 Y2.3942
N7260 X2.5253 Y2.3931
N7265 X2.5323 Y2.3854
N7270 X2.5326 Y2.3851
N7275 X2.5395 Y2.3771
N7280 X2.5463 Y2.3691
N7285 X2.5482 Y2.3667
N7290 X2.5527 Y2.3612
N7295 X2.5562 Y2.3568
N7300 X2.559 Y2.3532
N7305 X2.5642 Y2.3463
N7310 X2.565 Y2.3452
N7315 X2.5708 Y2.3372
N7320 X2.5722 Y2.3353
N7325 X2.5764 Y2.3293
N7330 X2.5801 Y2.3238
N7335 X2.5818 Y2.3213
N7340 X2.587 Y2.3133
N7345 X2.5881 Y2.3117
N7350 X2.5921 Y2.3053
N7355 X2.5961 Y2.2988
N7360 X2.597 Y2.2974
N7365 X2.6016 Y2.2894
N7370 X2.6041 Y2.2852
N7375 X2.6061 Y2.2814
N7380 X2.6105 Y2.2734
N7385 X2.612 Y2.2706
N7390 X2.6147 Y2.2655
N7395 X2.6187 Y2.2575
N7400 X2.6226 Y2.2495
N7405 X2.6263 Y2.2416
N7410 X2.628 Y2.238
N7415 X2.63 Y2.2336
N7420 X2.6334 Y2.2256
N7425 X2.6359 Y2.2195
N7430 X2.6399 Y2.2097
N7435 X2.6429 Y2.2017
N7440 X2.6439 Y2.1989
N7445 X2.6458 Y2.1937
N7450 X2.6486 Y2.1857
N7455 X2.6512 Y2.1778
N7460 X2.6537 Y2.1698
N7465 X2.6561 Y2.1618
N7470 X2.6584 Y2.1538
N7475 X2.6599 Y2.1483
N7480 X2.6605 Y2.1459
N7485 X2.6626 Y2.1379
N7490 X2.6644 Y2.1299
N7495 X2.6662 Y2.1219
N7500 X2.6679 Y2.114
N7505 X2.6694 Y2.106
N7510 X2.6709 Y2.098
N7515 X2.6722 Y2.0901
N7520 X2.6734 Y2.0821
N7525 X2.6745 Y2.0741
N7530 X2.6755 Y2.0661
N7535 X2.6764 Y2.0582
N7540 X2.6771 Y2.0502
N7545 X2.6778 Y2.0422
N7550 X2.6783 Y2.0342
N7555 X2.6788 Y2.0263
N7560 X2.6791 Y2.0183
N7565 X2.6793 Y2.0103
N7570 X2.6794 Y2.0023
N7575 Y1.9944
N7580 X2.6795 Y1.7552
N7585 X2.6794 Y1.5
N7590 X2.6795 Y1.2448
N7595 X2.6794 Y1.0056
N7600 Y0.9977
N7605 X2.6793 Y0.9897
N7610 X2.6791 Y0.9817
N7615 X2.6788 Y0.9737
N7620 X2.6783 Y0.9658
N7625 X2.6778 Y0.9578
N7630 X2.6771 Y0.9498
N7635 X2.6764 Y0.9418
N7640 X2.6755 Y0.9339
N7645 X2.6745 Y0.9259
N7650 X2.6734 Y0.9179
N7655 X2.6722 Y0.9099
N7660 X2.6709 Y0.902
N7665 X2.6694 Y0.894
N7670 X2.6679 Y0.886
N7675 X2.6662 Y0.8781
N7680 X2.6644 Y0.8701
N7685 X2.6626 Y0.8621
N7690 X2.6605 Y0.8541
N7695 X2.6599 Y0.8517
N7700 X2.6584 Y0.8462
N7705 X2.6561 Y0.8382
N7710 X2.6537 Y0.8302
N7715 X2.6512 Y0.8222
N7720 X2.6486 Y0.8143
N7725 X2.6458 Y0.8063
N7730 X2.6439 Y0.8011
N7735 X2.6429 Y0.7983
N7740 X2.6399 Y0.7903
N7745 X2.6359 Y0.7805
N7750 X2.6334 Y0.7744
N7755 X2.63 Y0.7664
N7760 X2.628 Y0.762
N7765 X2.6263 Y0.7584
N7770 X2.6226 Y0.7505
N7775 X2.6187 Y0.7425
N7780 X2.6147 Y0.7345
N7785 X2.612 Y0.7294
N7790 X2.6105 Y0.7266
N7795 X2.6061 Y0.7186
N7800 X2.6041 Y0.7148
N7805 X2.6016 Y0.7106
N7810 X2.597 Y0.7026
N7815 X2.5961 Y0.7012
N7820 X2.5921 Y0.6947
N7825 X2.5881 Y0.6883
N7830 X2.587 Y0.6867
N7835 X2.5818 Y0.6787
N7840 X2.5801 Y0.6762
N7845 X2.5764 Y0.6707
N7850 X2.5722 Y0.6647
N7855 X2.5708 Y0.6628
N7860 X2.565 Y0.6548
N7865 X2.5642 Y0.6537
N7870 X2.559 Y0.6468
N7875 X2.5562 Y0.6432
N7880 X2.5527 Y0.6388
N7885 X2.5482 Y0.6333
N7890 X2.5463 Y0.6309
N7895 X2.5395 Y0.6229
N7900 X2.5326 Y0.6149
N7905 X2.5323 Y0.6146
N7910 X2.5253 Y0.6069
N7915 X2.5243 Y0.6058
N7920 X2.5179 Y0.599
N7925 X2.5101 Y0.591
N7930 X2.5084 Y0.5893
N7935 X2.5004 Y0.5815
N7940 X2.4935 Y0.5751
N7945 X2.4924 Y0.574
N7950 X2.4848 Y0.5671
N7955 X2.4844 Y0.5668
N7960 X2.4765 Y0.5598
N7965 X2.4685 Y0.5531
N7970 X2.4661 Y0.5511
N7975 X2.4605 Y0.5467
N7980 X2.4561 Y0.5432
N7985 X2.4526 Y0.5404
N7990 X2.4457 Y0.5352
N7995 X2.4446 Y0.5344
N8000 X2.4366 Y0.5286
N8005 X2.4347 Y0.5272
N8010 X2.4286 Y0.523
N8015 X2.4232 Y0.5192
N8020 X2.4207 Y0.5175
N8025 X2.4127 Y0.5123
N8030 X2.411 Y0.5113
N8035 X2.4047 Y0.5073
N8040 X2.3982 Y0.5033
N8045 X2.3967 Y0.5024
N8050 X2.3888 Y0.4978
N8055 X2.3845 Y0.4953
N8060 X2.3808 Y0.4932
N8065 X2.3728 Y0.4889
N8070 X2.3699 Y0.4873
N8075 X2.3648 Y0.4847
N8080 X2.3569 Y0.4806
N8085 X2.3489 Y0.4768
N8090 X2.3409 Y0.473
N8095 X2.3373 Y0.4714
N8100 X2.3329 Y0.4694
N8105 X2.325 Y0.466
N8110 X2.3188 Y0.4634
N8115 X2.309 Y0.4595
N8120 X2.3011 Y0.4565
N8125 X2.2983 Y0.4554
N8130 X2.2931 Y0.4536
N8135 X2.2851 Y0.4508
N8140 X2.2771 Y0.4482
N8145 X2.2692 Y0.4456
N8150 X2.2612 Y0.4433
N8155 X2.2532 Y0.441
N8160 X2.2477 Y0.4395
N8165 X2.2452 Y0.4389
N8170 X2.2373 Y0.4368
N8175 X2.2293 Y0.4349
N8180 X2.2213 Y0.4331
N8185 X2.2133 Y0.4315
N8190 X2.2054 Y0.4299
N8195 X2.1974 Y0.4285
N8200 X2.1894 Y0.4272
N8205 X2.1814 Y0.4259
N8210 X2.1735 Y0.4249
N8215 X2.1655 Y0.4239
N8220 X2.1575 Y0.423
N8225 X2.1496 Y0.4222
N8230 X2.1416 Y0.4216
N8235 X2.1336 Y0.4211
N8240 X2.1256 Y0.4206
N8245 X2.1177 Y0.4203
N8250 X2.1097 Y0.4201
N8255 X2.1017 Y0.4199
N8260 X2.0937
N8265 X1.8545
N8270 X1.5994 Y0.42
N8275 X1.3442 Y0.4199
N8280 X1.105
N8285 X1.097
N8290 X1.0891 Y0.4201
N8295 X1.0811 Y0.4203
N8300 X1.0731 Y0.4206
N8305 X1.0651 Y0.4211
N8310 X1.0572 Y0.4216
N8315 X1.0492 Y0.4222
N8320 X1.0412 Y0.423
N8325 X1.0332 Y0.4239
N8330 X1.0253 Y0.4249
N8335 X1.0173 Y0.4259
N8340 X1.0093 Y0.4272
N8345 X1.0013 Y0.4285
N8350 X0.9934 Y0.4299
N8355 X0.9854 Y0.4315
N8360 X0.9774 Y0.4331
N8365 X0.9694 Y0.4349
N8370 X0.9615 Y0.4368
N8375 X0.9535 Y0.4389
N8380 X0.9511 Y0.4395
N8385 X0.9455 Y0.441
N8390 X0.9376 Y0.4433
N8395 X0.9296 Y0.4456
N8400 X0.9216 Y0.4482
N8405 X0.9136 Y0.4508
N8410 X0.9057 Y0.4536
N8415 X0.9005 Y0.4554
N8420 X0.8977 Y0.4565
N8425 X0.8897 Y0.4595
N8430 X0.8799 Y0.4634
N8435 X0.8738 Y0.466
N8440 X0.8658 Y0.4694
N8445 X0.8614 Y0.4714
N8450 X0.8578 Y0.473
N8455 X0.8498 Y0.4768
N8460 X0.8419 Y0.4806
N8465 X0.8339 Y0.4847
N8470 X0.8288 Y0.4873
N8475 X0.8259 Y0.4889
N8480 X0.8179 Y0.4932
N8485 X0.8142 Y0.4953
N8490 X0.81 Y0.4978
N8495 X0.802 Y0.5024
N8500 X0.8005 Y0.5033
N8505 X0.794 Y0.5073
N8510 X0.7877 Y0.5113
N8515 X0.7861 Y0.5123
N8520 X0.7781 Y0.5175
N8525 X0.7756 Y0.5192
N8530 X0.7701 Y0.523
N8535 X0.764 Y0.5272
N8540 X0.7621 Y0.5286
N8545 X0.7542 Y0.5344
N8550 X0.7531 Y0.5352
N8555 X0.7462 Y0.5404
N8560 X0.7426 Y0.5432
N8565 X0.7382 Y0.5467
N8570 X0.7326 Y0.5511
N8575 X0.7302 Y0.5531
N8580 X0.7223 Y0.5598
N8585 X0.7143 Y0.5668
N8590 X0.714 Y0.5671
N8595 X0.7063 Y0.574
N8600 X0.7052 Y0.5751
N8605 X0.6983 Y0.5815
N8610 X0.6904 Y0.5893
N8615 X0.6887 Y0.591
N8620 X0.6809 Y0.599
N8625 X0.6744 Y0.6058
N8630 X0.6734 Y0.6069
N8635 X0.6664 Y0.6146
N8640 X0.6662 Y0.6149
N8645 X0.6592 Y0.6229
N8650 X0.6525 Y0.6309
N8655 X0.6505 Y0.6333
N8660 X0.646 Y0.6388
N8665 X0.6425 Y0.6432
N8670 X0.6398 Y0.6468
N8675 X0.6346 Y0.6537
N8680 X0.6337 Y0.6548
N8685 X0.6279 Y0.6628
N8690 X0.6266 Y0.6647
N8695 X0.6223 Y0.6707
N8700 X0.6186 Y0.6762
N8705 X0.6169 Y0.6787
N8710 X0.6117 Y0.6867
N8715 X0.6106 Y0.6883
N8720 X0.6067 Y0.6947
N8725 X0.6027 Y0.7012
N8730 X0.6018 Y0.7026
N8735 X0.5971 Y0.7106
N8740 X0.5947 Y0.7148
N8745 X0.5926 Y0.7186
N8750 X0.5882 Y0.7266
N8755 X0.5867 Y0.7294
N8760 X0.5841 Y0.7345
N8765 X0.58 Y0.7425
N8770 X0.5761 Y0.7505
N8775 X0.5724 Y0.7584
N8780 X0.5708 Y0.762
N8785 X0.5688 Y0.7664
N8790 X0.5654 Y0.7744
N8795 X0.5628 Y0.7805
N8800 X0.5589 Y0.7903
N8805 X0.5559 Y0.7983
N8810 X0.5548 Y0.8011
N8815 X0.5529 Y0.8063
N8820 X0.5502 Y0.8143
N8825 X0.5475 Y0.8222
N8830 X0.545 Y0.8302
N8835 X0.5426 Y0.8382
N8840 X0.5403 Y0.8462
N8845 X0.5389 Y0.8517
N8850 X0.5382 Y0.8541
N8855 X0.5362 Y0.8621
N8860 X0.5343 Y0.8701
N8865 X0.5325 Y0.8781
N8870 X0.5308 Y0.886
N8875 X0.5293 Y0.894
N8880 X0.5278 Y0.902
N8885 X0.5265 Y0.9099
N8890 X0.5253 Y0.9179
N8895 X0.5242 Y0.9259
N8900 X0.5236 Y0.931
N8905 G0 Z-0.0071
N8910 X0.66 Y0.8253 Z0.1058
N8915 X0.8613 Y0.6693 Z0.1109
N8920 X1.0467 Y0.5256 Z0.0994
N8925 X1.2352 Y0.3796 Z-0.0498
N8930 G1 Z-0.225 F40
N8935 X1.105 Z-0.2295
N8940 X1.097 Z-0.2298
N8945 X1.0891 Y0.3797 Z-0.2301
N8950 X1.0811 Y0.3799 Z-0.2304
N8955 X1.0731 Y0.3802 Z-0.2307
N8960 X1.0651 Y0.3806 Z-0.2309
N8965 X1.0572 Y0.3811 Z-0.2312
N8970 X1.0492 Y0.3817 Z-0.2315
N8975 X1.0412 Y0.3824 Z-0.2318
N8980 X1.0332 Y0.3832 Z-0.2321
N8985 X1.0293 Y0.3837 Z-0.2322
N8990 X1.0253 Y0.3841 Z-0.2323
N8995 X1.0173 Y0.3852 Z-0.2326
N9000 X1.0093 Y0.3863 Z-0.2329
N9005 X1.0013 Y0.3876 Z-0.2332
N9010 X0.9934 Y0.3889 Z-0.2335
N9015 X0.9854 Y0.3903 Z-0.2337
N9020 X0.9784 Y0.3917 Z-0.234
N9025 X0.9774 Y0.3919
N9030 X0.9694 Y0.3936 Z-0.2343
N9035 X0.9615 Y0.3953 Z-0.2346
N9040 X0.9535 Y0.3972 Z-0.2349
N9045 X0.9455 Y0.3992 Z-0.2352
N9050 X0.9376 Y0.4013 Z-0.2355
N9055 X0.9296 Y0.4035 Z-0.2358
N9060 X0.9216 Y0.4059 Z-0.236
N9065 X0.9159 Y0.4076 Z-0.2362
N9070 X0.9136 Y0.4083 Z-0.2363
N9075 X0.9057 Y0.4109 Z-0.2366
N9080 X0.8977 Y0.4136 Z-0.2369
N9085 X0.8919 Y0.4156 Z-0.2371
N9090 X0.8897 Y0.4164 Z-0.2372
N9095 X0.8817 Y0.4193 Z-0.2375
N9100 X0.8738 Y0.4224 Z-0.2378
N9105 X0.8658 Y0.4256 Z-0.2381
N9110 X0.8578 Y0.4289 Z-0.2384
N9115 X0.8498 Y0.4323 Z-0.2387
N9120 X0.8419 Y0.4359 Z-0.239
N9125 X0.8341 Y0.4395 Z-0.2393
N9130 X0.8339 Y0.4396
N9135 X0.8259 Y0.4435 Z-0.2396
N9140 X0.818 Y0.4475 Z-0.2399
N9145 X0.81 Y0.4516 Z-0.2403
N9150 X0.8029 Y0.4554 Z-0.2405
N9155 X0.802 Y0.4559 Z-0.2406
N9160 X0.794 Y0.4603 Z-0.2409
N9165 X0.7887 Y0.4634 Z-0.2411
N9170 X0.7861 Y0.465 Z-0.2412
N9175 X0.7781 Y0.4697 Z-0.2415
N9180 X0.7701 Y0.4746 Z-0.2419
N9185 X0.7627 Y0.4794 Z-0.2422
N9190 X0.7621 Y0.4797
N9195 X0.7542 Y0.485 Z-0.2425
N9200 X0.7507 Y0.4873 Z-0.2427
N9205 X0.7462 Y0.4904 Z-0.2429
N9210 X0.7392 Y0.4953 Z-0.2432
N9215 X0.7382 Y0.4961
N9220 X0.7302 Y0.5018 Z-0.2436
N9225 X0.7283 Y0.5033
N9230 X0.7223 Y0.5079 Z-0.2439
N9235 X0.7178 Y0.5113 Z-0.2441
N9240 X0.7143 Y0.5141 Z-0.2443
N9245 X0.7079 Y0.5192 Z-0.2445
N9250 X0.7063 Y0.5205 Z-0.2446
N9255 X0.6983 Y0.5272 Z-0.245
N9260 X0.6904 Y0.5341 Z-0.2453
N9265 X0.6891 Y0.5352 Z-0.2454
N9270 X0.6824 Y0.5411 Z-0.2457
N9275 X0.6802 Y0.5432 Z-0.2458
N9280 X0.6744 Y0.5486 Z-0.2461
N9285 X0.6717 Y0.5511 Z-0.2462
N9290 X0.6664 Y0.5562 Z-0.2465
N9295 X0.6635 Y0.5591 Z-0.2466
N9300 X0.6585 Y0.5641 Z-0.2469
N9305 X0.6556 Y0.5671 Z-0.247
N9310 X0.6505 Y0.5723 Z-0.2473
N9315 X0.6479 Y0.5751 Z-0.2474
N9320 X0.6425 Y0.5809 Z-0.2477
N9325 X0.6405 Y0.583 Z-0.2478
N9330 X0.6346 Y0.5897 Z-0.2481
N9335 X0.6334 Y0.591 Z-0.2482
N9340 X0.6266 Y0.5989 Z-0.2485
N9345 X0.6199 Y0.6069 Z-0.2489
N9350 X0.6186 Y0.6085 Z-0.249
N9355 X0.6135 Y0.6149 Z-0.2492
N9360 X0.6106 Y0.6185 Z-0.2494
N9365 X0.6073 Y0.6229 Z-0.2496
N9370 X0.6027 Y0.6289 Z-0.2499
N9375 X0.6012 Y0.6309
N9380 X0.5954 Y0.6388 Z-0.2503
N9385 X0.5947 Y0.6399
N9390 X0.5898 Y0.6468 Z-0.2506
N9395 X0.5867 Y0.6513 Z-0.2508
N9400 X0.5843 Y0.6548 Z-0.251
N9405 X0.5791 Y0.6628 Z-0.2513
N9410 X0.5787 Y0.6633
N9415 X0.574 Y0.6707 Z-0.2516
N9420 X0.5691 Y0.6787 Z-0.252
N9425 X0.5643 Y0.6867 Z-0.2523
N9430 X0.5628 Y0.6893 Z-0.2524
N9435 X0.5597 Y0.6947 Z-0.2526
N9440 X0.5553 Y0.7026 Z-0.2529
N9445 X0.5548 Y0.7035 Z-0.253
N9450 X0.551 Y0.7106 Z-0.2532
N9455 X0.5468 Y0.7186 Z-0.2536
N9460 X0.5429 Y0.7266 Z-0.2539
N9465 X0.539 Y0.7345 Z-0.2542
N9470 X0.5389 Y0.7348
N9475 X0.5353 Y0.7425 Z-0.2545
N9480 X0.5317 Y0.7505 Z-0.2548
N9485 X0.5283 Y0.7584 Z-0.2551
N9490 X0.5249 Y0.7664 Z-0.2554
N9495 X0.5218 Y0.7744 Z-0.2557
N9500 X0.5187 Y0.7824 Z-0.256
N9505 X0.5157 Y0.7903 Z-0.2563
N9510 X0.5149 Y0.7926 Z-0.2564
N9515 X0.513 Y0.7983 Z-0.2566
N9520 X0.5102 Y0.8063 Z-0.2569
N9525 X0.5077 Y0.8143 Z-0.2572
N9530 X0.507 Y0.8166 Z-0.2573
N9535 X0.5052 Y0.8222 Z-0.2575
N9540 X0.5029 Y0.8302 Z-0.2578
N9545 X0.5007 Y0.8382 Z-0.258
N9550 X0.4986 Y0.8462 Z-0.2583
N9555 X0.4966 Y0.8541 Z-0.2586
N9560 X0.4947 Y0.8621 Z-0.2589
N9565 X0.4929 Y0.8701 Z-0.2592
N9570 X0.4912 Y0.8781 Z-0.2595
N9575 X0.491 Y0.8791
N9580 X0.4897 Y0.886 Z-0.2598
N9585 X0.4882 Y0.894 Z-0.26
N9590 X0.4869 Y0.902 Z-0.2603
N9595 X0.4856 Y0.9099 Z-0.2606
N9600 X0.4846 Y0.9179 Z-0.2609
N9605 X0.4835 Y0.9259 Z-0.2612
N9610 X0.4831 Y0.9299 Z-0.2613
N9615 X0.4826 Y0.9339 Z-0.2614
N9620 X0.4818 Y0.9418 Z-0.2617
N9625 X0.4811 Y0.9498 Z-0.262
N9630 X0.4805 Y0.9578 Z-0.2623
N9635 X0.48 Y0.9658 Z-0.2626
N9640 X0.4796 Y0.9737 Z-0.2628
N9645 X0.4793 Y0.9817 Z-0.2631
N9650 X0.4791 Y0.9897 Z-0.2634
N9655 X0.479 Y0.9977 Z-0.2637
N9660 Y1.0056 Z-0.264
N9665 X0.4789 Y1.3037 Z-0.2744
N9670 Y1.3038
N9675 X0.4785 Y1.3039
N9680 X0.478
N9685 X0.477 Y1.3041
N9690 X0.4761 Y1.3043 Z-0.2745
N9695 X0.4756 Y1.3044
N9700 X0.4752 Y1.3045
N9705 X0.4756 Y1.3044
N9710 X0.4761 Y1.3043
N9715 X0.477 Y1.3041 Z-0.2746
N9720 X0.478 Y1.3039
N9725 X0.4785
N9730 X0.4789 Y1.3038
N9735 Y1.3037
N9740 X0.479 Y1.0056 Z-0.285
N9745 Y0.9977 Z-0.2853
N9750 X0.4791 Y0.9897 Z-0.2856
N9755 X0.4793 Y0.9817 Z-0.2859
N9760 X0.4796 Y0.9737 Z-0.2862
N9765 X0.48 Y0.9658 Z-0.2864
N9770 X0.4805 Y0.9578 Z-0.2867
N9775 X0.4811 Y0.9498 Z-0.287
N9780 X0.4818 Y0.9418 Z-0.2873
N9785 X0.4826 Y0.9339 Z-0.2876
N9790 X0.4831 Y0.9299 Z-0.2877
N9795 X0.4835 Y0.9259 Z-0.2878
N9800 X0.4846 Y0.9179 Z-0.2881
N9805 X0.4856 Y0.9099 Z-0.2884
N9810 X0.4869 Y0.902 Z-0.2887
N9815 X0.4882 Y0.894 Z-0.289
N9820 X0.4897 Y0.886 Z-0.2892
N9825 X0.491 Y0.8791 Z-0.2895
N9830 X0.4912 Y0.8781
N9835 X0.4929 Y0.8701 Z-0.2898
N9840 X0.4947 Y0.8621 Z-0.2901
N9845 X0.4966 Y0.8541 Z-0.2904
N9850 X0.4986 Y0.8462 Z-0.2907
N9855 X0.5007 Y0.8382 Z-0.291
N9860 X0.5029 Y0.8302 Z-0.2912
N9865 X0.5052 Y0.8222 Z-0.2915
N9870 X0.507 Y0.8166 Z-0.2917
N9875 X0.5077 Y0.8143 Z-0.2918
N9880 X0.5102 Y0.8063 Z-0.2921
N9885 X0.513 Y0.7983 Z-0.2924
N9890 X0.5149 Y0.7926 Z-0.2926
N9895 X0.5157 Y0.7903 Z-0.2927
N9900 X0.5187 Y0.7824 Z-0.293
N9905 X0.5218 Y0.7744 Z-0.2933
N9910 X0.5249 Y0.7664 Z-0.2936
N9915 X0.5283 Y0.7584 Z-0.2939
N9920 X0.5317 Y0.7505 Z-0.2942
N9925 X0.5353 Y0.7425 Z-0.2945
N9930 X0.5389 Y0.7348 Z-0.2948
N9935 X0.539 Y0.7345
N9940 X0.5429 Y0.7266 Z-0.2951
N9945 X0.5468 Y0.7186 Z-0.2954
N9950 X0.551 Y0.7106 Z-0.2958
N9955 X0.5548 Y0.7035 Z-0.296
N9960 X0.5553 Y0.7026 Z-0.2961
N9965 X0.5597 Y0.6947 Z-0.2964
N9970 X0.5628 Y0.6893 Z-0.2966
N9975 X0.5643 Y0.6867 Z-0.2967
N9980 X0.5691 Y0.6787 Z-0.297
N9985 X0.574 Y0.6707 Z-0.2974
N9990 X0.5787 Y0.6633 Z-0.2977
N9995 X0.5791 Y0.6628
N10000 X0.5843 Y0.6548 Z-0.298
N10005 X0.5867 Y0.6513 Z-0.2982
N10010 X0.5898 Y0.6468 Z-0.2984
N10015 X0.5947 Y0.6399 Z-0.2987
N10020 X0.5954 Y0.6388
N10025 X0.6012 Y0.6309 Z-0.2991
N10030 X0.6027 Y0.6289
N10035 X0.6073 Y0.6229 Z-0.2994
N10040 X0.6106 Y0.6185 Z-0.2996
N10045 X0.6135 Y0.6149 Z-0.2998
N10050 X0.6186 Y0.6085 Z-0.3
N10055 X0.6199 Y0.6069 Z-0.3001
N10060 X0.6266 Y0.5989 Z-0.3005
N10065 X0.6334 Y0.591 Z-0.3008
N10070 X0.6346 Y0.5897 Z-0.3009
N10075 X0.6405 Y0.583 Z-0.3012
N10080 X0.6425 Y0.5809 Z-0.3013
N10085 X0.6479 Y0.5751 Z-0.3016
N10090 X0.6505 Y0.5723 Z-0.3017
N10095 X0.6556 Y0.5671 Z-0.302
N10100 X0.6585 Y0.5641 Z-0.3021
N10105 X0.6635 Y0.5591 Z-0.3024
N10110 X0.6664 Y0.5562 Z-0.3025
N10115 X0.6717 Y0.5511 Z-0.3028
N10120 X0.6744 Y0.5486 Z-0.3029
N10125 X0.6802 Y0.5432 Z-0.3032
N10130 X0.6824 Y0.5411 Z-0.3033
N10135 X0.6891 Y0.5352 Z-0.3036
N10140 X0.6904 Y0.5341 Z-0.3037
N10145 X0.6983 Y0.5272 Z-0.304
N10150 X0.7063 Y0.5205 Z-0.3044
N10155 X0.7079 Y0.5192 Z-0.3045
N10160 X0.7143 Y0.5141 Z-0.3047
N10165 X0.7178 Y0.5113 Z-0.3049
N10170 X0.7223 Y0.5079 Z-0.3051
N10175 X0.7283 Y0.5033 Z-0.3054
N10180 X0.7302 Y0.5018
N10185 X0.7382 Y0.4961 Z-0.3058
N10190 X0.7392 Y0.4953
N10195 X0.7462 Y0.4904 Z-0.3061
N10200 X0.7507 Y0.4873 Z-0.3063
N10205 X0.7542 Y0.485 Z-0.3065
N10210 X0.7621 Y0.4797 Z-0.3068
N10215 X0.7627 Y0.4794
N10220 X0.7701 Y0.4746 Z-0.3071
N10225 X0.7781 Y0.4697 Z-0.3075
N10230 X0.7861 Y0.465 Z-0.3078
N10235 X0.7887 Y0.4634 Z-0.3079
N10240 X0.794 Y0.4603 Z-0.3081
N10245 X0.802 Y0.4559 Z-0.3084
N10250 X0.8029 Y0.4554 Z-0.3085
N10255 X0.81 Y0.4516 Z-0.3087
N10260 X0.818 Y0.4475 Z-0.3091
N10265 X0.8259 Y0.4435 Z-0.3094
N10270 X0.8339 Y0.4396 Z-0.3097
N10275 X0.8341 Y0.4395
N10280 X0.8419 Y0.4359 Z-0.31
N10285 X0.8498 Y0.4323 Z-0.3103
N10290 X0.8578 Y0.4289 Z-0.3106
N10295 X0.8658 Y0.4256 Z-0.3109
N10300 X0.8738 Y0.4224 Z-0.3112
N10305 X0.8817 Y0.4193 Z-0.3115
N10310 X0.8897 Y0.4164 Z-0.3118
N10315 X0.8919 Y0.4156 Z-0.3119
N10320 X0.8977 Y0.4136 Z-0.3121
N10325 X0.9057 Y0.4109 Z-0.3124
N10330 X0.9136 Y0.4083 Z-0.3127
N10335 X0.9159 Y0.4076 Z-0.3128
N10340 X0.9216 Y0.4059 Z-0.313
N10345 X0.9296 Y0.4035 Z-0.3133
N10350 X0.9376 Y0.4013 Z-0.3135
N10355 X0.9455 Y0.3992 Z-0.3138
N10360 X0.9535 Y0.3972 Z-0.3141
N10365 X0.9615 Y0.3953 Z-0.3144
N10370 X0.9694 Y0.3936 Z-0.3147
N10375 X0.9774 Y0.3919 Z-0.315
N10380 X0.9784 Y0.3917
N10385 X0.9854 Y0.3903 Z-0.3153
N10390 X0.9934 Y0.3889 Z-0.3155
N10395 X1.0013 Y0.3876 Z-0.3158
N10400 X1.0093 Y0.3863 Z-0.3161
N10405 X1.0173 Y0.3852 Z-0.3164
N10410 X1.0253 Y0.3841 Z-0.3167
N10415 X1.0293 Y0.3837 Z-0.3168
N10420 X1.0332 Y0.3832 Z-0.3169
N10425 X1.0412 Y0.3824 Z-0.3172
N10430 X1.0492 Y0.3817 Z-0.3175
N10435 X1.0572 Y0.3811 Z-0.3178
N10440 X1.0651 Y0.3806 Z-0.3181
N10445 X1.0731 Y0.3802 Z-0.3183
N10450 X1.0811 Y0.3799 Z-0.3186
N10455 X1.0891 Y0.3797 Z-0.3189
N10460 X1.097 Y0.3796 Z-0.3192
N10465 X1.105 Z-0.3195
N10470 X1.4031 Z-0.3299
N10475 X1.4032 Y0.3795
N10480 Y0.3791
N10485 X1.4033 Y0.3786
N10490 X1.4035 Y0.3777
N10495 X1.4037 Y0.3767 Z-0.33
N10500 X1.4038 Y0.3762
N10505 X1.4039 Y0.3758
N10510 X1.4038 Y0.3762
N10515 X1.4037 Y0.3767
N10520 X1.4035 Y0.3777
N10525 X1.4033 Y0.3786
N10530 X1.4032 Y0.3791
N10535 Y0.3795
N10540 X1.4031 Y0.3796
N10545 X1.105
N10550 X1.097
N10555 X1.0891 Y0.3797
N10560 X1.0811 Y0.3799
N10565 X1.0731 Y0.3802
N10570 X1.0651 Y0.3806
N10575 X1.0572 Y0.3811
N10580 X1.0492 Y0.3817
N10585 X1.0412 Y0.3824
N10590 X1.0332 Y0.3832
N10595 X1.0293 Y0.3837
N10600 X1.0253 Y0.3841
N10605 X1.0173 Y0.3852
N10610 X1.0093 Y0.3863
N10615 X1.0013 Y0.3876
N10620 X0.9934 Y0.3889
N10625 X0.9854 Y0.3903
N10630 X0.9784 Y0.3917
N10635 X0.9774 Y0.3919
N10640 X0.9694 Y0.3936
N10645 X0.9615 Y0.3953
N10650 X0.9535 Y0.3972
N10655 X0.9455 Y0.3992
N10660 X0.9376 Y0.4013
N10665 X0.9296 Y0.4035
N10670 X0.9216 Y0.4059
N10675 X0.9159 Y0.4076
N10680 X0.9136 Y0.4083
N10685 X0.9057 Y0.4109
N10690 X0.8977 Y0.4136
N10695 X0.8919 Y0.4156
N10700 X0.8897 Y0.4164
N10705 X0.8817 Y0.4193
N10710 X0.8738 Y0.4224
N10715 X0.8658 Y0.4256
N10720 X0.8578 Y0.4289
N10725 X0.8498 Y0.4323
N10730 X0.8419 Y0.4359
N10735 X0.8341 Y0.4395
N10740 X0.8339 Y0.4396
N10745 X0.8259 Y0.4435
N10750 X0.818 Y0.4475
N10755 X0.81 Y0.4516
N10760 X0.8029 Y0.4554
N10765 X0.802 Y0.4559
N10770 X0.794 Y0.4603
N10775 X0.7887 Y0.4634
N10780 X0.7861 Y0.465
N10785 X0.7781 Y0.4697
N10790 X0.7701 Y0.4746
N10795 X0.7627 Y0.4794
N10800 X0.7621 Y0.4797
N10805 X0.7542 Y0.485
N10810 X0.7507 Y0.4873
N10815 X0.7462 Y0.4904
N10820 X0.7392 Y0.4953
N10825 X0.7382 Y0.4961
N10830 X0.7302 Y0.5018
N10835 X0.7283 Y0.5033
N10840 X0.7223 Y0.5079
N10845 X0.7178 Y0.5113
N10850 X0.7143 Y0.5141
N10855 X0.7079 Y0.5192
N10860 X0.7063 Y0.5205
N10865 X0.6983 Y0.5272
N10870 X0.6904 Y0.5341
N10875 X0.6891 Y0.5352
N10880 X0.6824 Y0.5411
N10885 X0.6802 Y0.5432
N10890 X0.6744 Y0.5486
N10895 X0.6717 Y0.5511
N10900 X0.6664 Y0.5562
N10905 X0.6635 Y0.5591
N10910 X0.6585 Y0.5641
N10915 X0.6556 Y0.5671
N10920 X0.6505 Y0.5723
N10925 X0.6479 Y0.5751
N10930 X0.6425 Y0.5809
N10935 X0.6405 Y0.583
N10940 X0.6346 Y0.5897
N10945 X0.6334 Y0.591
N10950 X0.6266 Y0.5989
N10955 X0.6199 Y0.6069
N10960 X0.6186 Y0.6085
N10965 X0.6135 Y0.6149
N10970 X0.6106 Y0.6185
N10975 X0.6073 Y0.6229
N10980 X0.6027 Y0.6289
N10985 X0.6012 Y0.6309
N10990 X0.5954 Y0.6388
N10995 X0.5947 Y0.6399
N11000 X0.5898 Y0.6468
N11005 X0.5867 Y0.6513
N11010 X0.5843 Y0.6548
N11015 X0.5791 Y0.6628
N11020 X0.5787 Y0.6633
N11025 X0.574 Y0.6707
N11030 X0.5691 Y0.6787
N11035 X0.5643 Y0.6867
N11040 X0.5628 Y0.6893
N11045 X0.5597 Y0.6947
N11050 X0.5553 Y0.7026
N11055 X0.5548 Y0.7035
N11060 X0.551 Y0.7106
N11065 X0.5468 Y0.7186
N11070 X0.5429 Y0.7266
N11075 X0.539 Y0.7345
N11080 X0.5389 Y0.7348
N11085 X0.5353 Y0.7425
N11090 X0.5317 Y0.7505
N11095 X0.5283 Y0.7584
N11100 X0.5249 Y0.7664
N11105 X0.5218 Y0.7744
N11110 X0.5187 Y0.7824
N11115 X0.5157 Y0.7903
N11120 X0.5149 Y0.7926
N11125 X0.513 Y0.7983
N11130 X0.5102 Y0.8063
N11135 X0.5077 Y0.8143
N11140 X0.507 Y0.8166
N11145 X0.5052 Y0.8222
N11150 X0.5029 Y0.8302
N11155 X0.5007 Y0.8382
N11160 X0.4986 Y0.8462
N11165 X0.4966 Y0.8541
N11170 X0.4947 Y0.8621
N11175 X0.4929 Y0.8701
N11180 X0.4912 Y0.8781
N11185 X0.491 Y0.8791
N11190 X0.4897 Y0.886
N11195 X0.4882 Y0.894
N11200 X0.4869 Y0.902
N11205 X0.4856 Y0.9099
N11210 X0.4846 Y0.9179
N11215 X0.4835 Y0.9259
N11220 X0.4831 Y0.9299
N11225 X0.4826 Y0.9339
N11230 X0.4818 Y0.9418
N11235 X0.4811 Y0.9498
N11240 X0.4805 Y0.9578
N11245 X0.48 Y0.9658
N11250 X0.4796 Y0.9737
N11255 X0.4793 Y0.9817
N11260 X0.4791 Y0.9897
N11265 X0.479 Y0.9977
N11270 Y1.0056
N11275 X0.4789 Y1.3037
N11280 Y1.3038
N11285 X0.4785 Y1.3039
N11290 X0.478
N11295 X0.477 Y1.3041
N11300 X0.4761 Y1.3043
N11305 X0.4756 Y1.3044
N11310 X0.4752 Y1.3045
N11315 G0 Z-0.0498
N11320 X0.479 Y1.8642
N11325 G1 Z-0.225 F40
N11330 Y1.9944 Z-0.2295
N11335 Y2.0023 Z-0.2298
N11340 X0.4791 Y2.0103 Z-0.2301
N11345 X0.4793 Y2.0183 Z-0.2304
N11350 X0.4796 Y2.0263 Z-0.2307
N11355 X0.48 Y2.0342 Z-0.2309
N11360 X0.4805 Y2.0422 Z-0.2312
N11365 X0.4811 Y2.0502 Z-0.2315
N11370 X0.4818 Y2.0582 Z-0.2318
N11375 X0.4826 Y2.0661 Z-0.2321
N11380 X0.4831 Y2.0701 Z-0.2322
N11385 X0.4835 Y2.0741 Z-0.2323
N11390 X0.4846 Y2.0821 Z-0.2326
N11395 X0.4856 Y2.0901 Z-0.2329
N11400 X0.4869 Y2.098 Z-0.2332
N11405 X0.4882 Y2.106 Z-0.2335
N11410 X0.4897 Y2.114 Z-0.2337
N11415 X0.491 Y2.1209 Z-0.234
N11420 X0.4912 Y2.1219
N11425 X0.4929 Y2.1299 Z-0.2343
N11430 X0.4947 Y2.1379 Z-0.2346
N11435 X0.4966 Y2.1459 Z-0.2349
N11440 X0.4986 Y2.1538 Z-0.2352
N11445 X0.5007 Y2.1618 Z-0.2355
N11450 X0.5029 Y2.1698 Z-0.2358
N11455 X0.5052 Y2.1778 Z-0.236
N11460 X0.507 Y2.1834 Z-0.2362
N11465 X0.5077 Y2.1857 Z-0.2363
N11470 X0.5102 Y2.1937 Z-0.2366
N11475 X0.513 Y2.2017 Z-0.2369
N11480 X0.5149 Y2.2074 Z-0.2371
N11485 X0.5157 Y2.2097 Z-0.2372
N11490 X0.5187 Y2.2176 Z-0.2375
N11495 X0.5218 Y2.2256 Z-0.2378
N11500 X0.5249 Y2.2336 Z-0.2381
N11505 X0.5283 Y2.2416 Z-0.2384
N11510 X0.5317 Y2.2495 Z-0.2387
N11515 X0.5353 Y2.2575 Z-0.239
N11520 X0.5389 Y2.2652 Z-0.2393
N11525 X0.539 Y2.2655
N11530 X0.5429 Y2.2734 Z-0.2396
N11535 X0.5468 Y2.2814 Z-0.2399
N11540 X0.551 Y2.2894 Z-0.2403
N11545 X0.5548 Y2.2965 Z-0.2405
N11550 X0.5553 Y2.2974 Z-0.2406
N11555 X0.5597 Y2.3053 Z-0.2409
N11560 X0.5628 Y2.3107 Z-0.2411
N11565 X0.5643 Y2.3133 Z-0.2412
N11570 X0.5691 Y2.3213 Z-0.2415
N11575 X0.574 Y2.3293 Z-0.2419
N11580 X0.5787 Y2.3367 Z-0.2422
N11585 X0.5791 Y2.3372
N11590 X0.5843 Y2.3452 Z-0.2425
N11595 X0.5867 Y2.3487 Z-0.2427
N11600 X0.5898 Y2.3532 Z-0.2429
N11605 X0.5947 Y2.3601 Z-0.2432
N11610 X0.5954 Y2.3612
N11615 X0.6012 Y2.3691 Z-0.2436
N11620 X0.6027 Y2.3711
N11625 X0.6073 Y2.3771 Z-0.2439
N11630 X0.6106 Y2.3815 Z-0.2441
N11635 X0.6135 Y2.3851 Z-0.2443
N11640 X0.6186 Y2.3915 Z-0.2445
N11645 X0.6199 Y2.3931 Z-0.2446
N11650 X0.6266 Y2.4011 Z-0.245
N11655 X0.6334 Y2.409 Z-0.2453
N11660 X0.6346 Y2.4103 Z-0.2454
N11665 X0.6405 Y2.417 Z-0.2457
N11670 X0.6425 Y2.4191 Z-0.2458
N11675 X0.6479 Y2.4249 Z-0.2461
N11680 X0.6505 Y2.4277 Z-0.2462
N11685 X0.6556 Y2.4329 Z-0.2465
N11690 X0.6585 Y2.4359 Z-0.2466
N11695 X0.6635 Y2.4409 Z-0.2469
N11700 X0.6664 Y2.4438 Z-0.247
N11705 X0.6717 Y2.4489 Z-0.2473
N11710 X0.6744 Y2.4514 Z-0.2474
N11715 X0.6802 Y2.4568 Z-0.2477
N11720 X0.6824 Y2.4589 Z-0.2478
N11725 X0.6891 Y2.4648 Z-0.2481
N11730 X0.6904 Y2.4659 Z-0.2482
N11735 X0.6983 Y2.4728 Z-0.2485
N11740 X0.7063 Y2.4795 Z-0.2489
N11745 X0.7079 Y2.4808 Z-0.249
N11750 X0.7143 Y2.4859 Z-0.2492
N11755 X0.7178 Y2.4887 Z-0.2494
N11760 X0.7223 Y2.4921 Z-0.2496
N11765 X0.7283 Y2.4967 Z-0.2499
N11770 X0.7302 Y2.4982
N11775 X0.7382 Y2.5039 Z-0.2503
N11780 X0.7392 Y2.5047
N11785 X0.7462 Y2.5096 Z-0.2506
N11790 X0.7507 Y2.5127 Z-0.2508
N11795 X0.7542 Y2.515 Z-0.251
N11800 X0.7621 Y2.5203 Z-0.2513
N11805 X0.7627 Y2.5206
N11810 X0.7701 Y2.5254 Z-0.2516
N11815 X0.7781 Y2.5303 Z-0.252
N11820 X0.7861 Y2.535 Z-0.2523
N11825 X0.7887 Y2.5366 Z-0.2524
N11830 X0.794 Y2.5397 Z-0.2526
N11835 X0.802 Y2.5441 Z-0.2529
N11840 X0.8029 Y2.5446 Z-0.253
N11845 X0.81 Y2.5484 Z-0.2532
N11850 X0.818 Y2.5525 Z-0.2536
N11855 X0.8259 Y2.5565 Z-0.2539
N11860 X0.8339 Y2.5604 Z-0.2542
N11865 X0.8341 Y2.5605
N11870 X0.8419 Y2.5641 Z-0.2545
N11875 X0.8498 Y2.5677 Z-0.2548
N11880 X0.8578 Y2.5711 Z-0.2551
N11885 X0.8658 Y2.5744 Z-0.2554
N11890 X0.8738 Y2.5776 Z-0.2557
N11895 X0.8817 Y2.5807 Z-0.256
N11900 X0.8897 Y2.5836 Z-0.2563
N11905 X0.8919 Y2.5844 Z-0.2564
N11910 X0.8977 Y2.5864 Z-0.2566
N11915 X0.9057 Y2.5891 Z-0.2569
N11920 X0.9136 Y2.5917 Z-0.2572
N11925 X0.9159 Y2.5924 Z-0.2573
N11930 X0.9216 Y2.5941 Z-0.2575
N11935 X0.9296 Y2.5965 Z-0.2578
N11940 X0.9376 Y2.5987 Z-0.258
N11945 X0.9455 Y2.6008 Z-0.2583
N11950 X0.9535 Y2.6028 Z-0.2586
N11955 X0.9615 Y2.6047 Z-0.2589
N11960 X0.9694 Y2.6064 Z-0.2592
N11965 X0.9774 Y2.6081 Z-0.2595
N11970 X0.9784 Y2.6083
N11975 X0.9854 Y2.6097 Z-0.2598
N11980 X0.9934 Y2.6111 Z-0.26
N11985 X1.0013 Y2.6124 Z-0.2603
N11990 X1.0093 Y2.6137 Z-0.2606
N11995 X1.0173 Y2.6148 Z-0.2609
N12000 X1.0253 Y2.6159 Z-0.2612
N12005 X1.0293 Y2.6163 Z-0.2613
N12010 X1.0332 Y2.6168 Z-0.2614
N12015 X1.0412 Y2.6176 Z-0.2617
N12020 X1.0492 Y2.6183 Z-0.262
N12025 X1.0572 Y2.6189 Z-0.2623
N12030 X1.0651 Y2.6194 Z-0.2626
N12035 X1.0731 Y2.6198 Z-0.2628
N12040 X1.0811 Y2.6201 Z-0.2631
N12045 X1.0891 Y2.6203 Z-0.2634
N12050 X1.097 Y2.6204 Z-0.2637
N12055 X1.105 Z-0.264
N12060 X1.4031 Z-0.2744
N12065 X1.4032 Y2.6205
N12070 Y2.6209
N12075 X1.4033 Y2.6214
N12080 X1.4035 Y2.6223
N12085 X1.4037 Y2.6233 Z-0.2745
N12090 X1.4038 Y2.6238
N12095 X1.4039 Y2.6242
N12100 X1.4038 Y2.6238
N12105 X1.4037 Y2.6233
N12110 X1.4035 Y2.6223 Z-0.2746
N12115 X1.4033 Y2.6214
N12120 X1.4032 Y2.6209
N12125 Y2.6205
N12130 X1.4031 Y2.6204
N12135 X1.105 Z-0.285
N12140 X1.097 Z-0.2853
N12145 X1.0891 Y2.6203 Z-0.2856
N12150 X1.0811 Y2.6201 Z-0.2859
N12155 X1.0731 Y2.6198 Z-0.2862
N12160 X1.0651 Y2.6194 Z-0.2864
N12165 X1.0572 Y2.6189 Z-0.2867
N12170 X1.0492 Y2.6183 Z-0.287
N12175 X1.0412 Y2.6176 Z-0.2873
N12180 X1.0332 Y2.6168 Z-0.2876
N12185 X1.0293 Y2.6163 Z-0.2877
N12190 X1.0253 Y2.6159 Z-0.2878
N12195 X1.0173 Y2.6148 Z-0.2881
N12200 X1.0093 Y2.6137 Z-0.2884
N12205 X1.0013 Y2.6124 Z-0.2887
N12210 X0.9934 Y2.6111 Z-0.289
N12215 X0.9854 Y2.6097 Z-0.2892
N12220 X0.9784 Y2.6083 Z-0.2895
N12225 X0.9774 Y2.6081
N12230 X0.9694 Y2.6064 Z-0.2898
N12235 X0.9615 Y2.6047 Z-0.2901
N12240 X0.9535 Y2.6028 Z-0.2904
N12245 X0.9455 Y2.6008 Z-0.2907
N12250 X0.9376 Y2.5987 Z-0.291
N12255 X0.9296 Y2.5965 Z-0.2912
N12260 X0.9216 Y2.5941 Z-0.2915
N12265 X0.9159 Y2.5924 Z-0.2917
N12270 X0.9136 Y2.5917 Z-0.2918
N12275 X0.9057 Y2.5891 Z-0.2921
N12280 X0.8977 Y2.5864 Z-0.2924
N12285 X0.8919 Y2.5844 Z-0.2926
N12290 X0.8897 Y2.5836 Z-0.2927
N12295 X0.8817 Y2.5807 Z-0.293
N12300 X0.8738 Y2.5776 Z-0.2933
N12305 X0.8658 Y2.5744 Z-0.2936
N12310 X0.8578 Y2.5711 Z-0.2939
N12315 X0.8498 Y2.5677 Z-0.2942
N12320 X0.8419 Y2.5641 Z-0.2945
N12325 X0.8341 Y2.5605 Z-0.2948
N12330 X0.8339 Y2.5604
N12335 X0.8259 Y2.5565 Z-0.2951
N12340 X0.818 Y2.5525 Z-0.2954
N12345 X0.81 Y2.5484 Z-0.2958
N12350 X0.8029 Y2.5446 Z-0.296
N12355 X0.802 Y2.5441 Z-0.2961
N12360 X0.794 Y2.5397 Z-0.2964
N12365 X0.7887 Y2.5366 Z-0.2966
N12370 X0.7861 Y2.535 Z-0.2967
N12375 X0.7781 Y2.5303 Z-0.297
N12380 X0.7701 Y2.5254 Z-0.2974
N12385 X0.7627 Y2.5206 Z-0.2977
N12390 X0.7621 Y2.5203
N12395 X0.7542 Y2.515 Z-0.298
N12400 X0.7507 Y2.5127 Z-0.2982
N12405 X0.7462 Y2.5096 Z-0.2984
N12410 X0.7392 Y2.5047 Z-0.2987
N12415 X0.7382 Y2.5039
N12420 X0.7302 Y2.4982 Z-0.2991
N12425 X0.7283 Y2.4967
N12430 X0.7223 Y2.4921 Z-0.2994
N12435 X0.7178 Y2.4887 Z-0.2996
N12440 X0.7143 Y2.4859 Z-0.2998
N12445 X0.7079 Y2.4808 Z-0.3
N12450 X0.7063 Y2.4795 Z-0.3001
N12455 X0.6983 Y2.4728 Z-0.3005
N12460 X0.6904 Y2.4659 Z-0.3008
N12465 X0.6891 Y2.4648 Z-0.3009
N12470 X0.6824 Y2.4589 Z-0.3012
N12475 X0.6802 Y2.4568 Z-0.3013
N12480 X0.6744 Y2.4514 Z-0.3016
N12485 X0.6717 Y2.4489 Z-0.3017
N12490 X0.6664 Y2.4438 Z-0.302
N12495 X0.6635 Y2.4409 Z-0.3021
N12500 X0.6585 Y2.4359 Z-0.3024
N12505 X0.6556 Y2.4329 Z-0.3025
N12510 X0.6505 Y2.4277 Z-0.3028
N12515 X0.6479 Y2.4249 Z-0.3029
N12520 X0.6425 Y2.4191 Z-0.3032
N12525 X0.6405 Y2.417 Z-0.3033
N12530 X0.6346 Y2.4103 Z-0.3036
N12535 X0.6334 Y2.409 Z-0.3037
N12540 X0.6266 Y2.4011 Z-0.304
N12545 X0.6199 Y2.3931 Z-0.3044
N12550 X0.6186 Y2.3915 Z-0.3045
N12555 X0.6135 Y2.3851 Z-0.3047
N12560 X0.6106 Y2.3815 Z-0.3049
N12565 X0.6073 Y2.3771 Z-0.3051
N12570 X0.6027 Y2.3711 Z-0.3054
N12575 X0.6012 Y2.3691
N12580 X0.5954 Y2.3612 Z-0.3058
N12585 X0.5947 Y2.3601
N12590 X0.5898 Y2.3532 Z-0.3061
N12595 X0.5867 Y2.3487 Z-0.3063
N12600 X0.5843 Y2.3452 Z-0.3065
N12605 X0.5791 Y2.3372 Z-0.3068
N12610 X0.5787 Y2.3367
N12615 X0.574 Y2.3293 Z-0.3071
N12620 X0.5691 Y2.3213 Z-0.3075
N12625 X0.5643 Y2.3133 Z-0.3078
N12630 X0.5628 Y2.3107 Z-0.3079
N12635 X0.5597 Y2.3053 Z-0.3081
N12640 X0.5553 Y2.2974 Z-0.3084
N12645 X0.5548 Y2.2965 Z-0.3085
N12650 X0.551 Y2.2894 Z-0.3087
N12655 X0.5468 Y2.2814 Z-0.3091
N12660 X0.5429 Y2.2734 Z-0.3094
N12665 X0.539 Y2.2655 Z-0.3097
N12670 X0.5389 Y2.2652
N12675 X0.5353 Y2.2575 Z-0.31
N12680 X0.5317 Y2.2495 Z-0.3103
N12685 X0.5283 Y2.2416 Z-0.3106
N12690 X0.5249 Y2.2336 Z-0.3109
N12695 X0.5218 Y2.2256 Z-0.3112
N12700 X0.5187 Y2.2176 Z-0.3115
N12705 X0.5157 Y2.2097 Z-0.3118
N12710 X0.5149 Y2.2074 Z-0.3119
N12715 X0.513 Y2.2017 Z-0.3121
N12720 X0.5102 Y2.1937 Z-0.3124
N12725 X0.5077 Y2.1857 Z-0.3127
N12730 X0.507 Y2.1834 Z-0.3128
N12735 X0.5052 Y2.1778 Z-0.313
N12740 X0.5029 Y2.1698 Z-0.3133
N12745 X0.5007 Y2.1618 Z-0.3135
N12750 X0.4986 Y2.1538 Z-0.3138
N12755 X0.4966 Y2.1459 Z-0.3141
N12760 X0.4947 Y2.1379 Z-0.3144
N12765 X0.4929 Y2.1299 Z-0.3147
N12770 X0.4912 Y2.1219 Z-0.315
N12775 X0.491 Y2.1209
N12780 X0.4897 Y2.114 Z-0.3153
N12785 X0.4882 Y2.106 Z-0.3155
N12790 X0.4869 Y2.098 Z-0.3158
N12795 X0.4856 Y2.0901 Z-0.3161
N12800 X0.4846 Y2.0821 Z-0.3164
N12805 X0.4835 Y2.0741 Z-0.3167
N12810 X0.4831 Y2.0701 Z-0.3168
N12815 X0.4826 Y2.0661 Z-0.3169
N12820 X0.4818 Y2.0582 Z-0.3172
N12825 X0.4811 Y2.0502 Z-0.3175
N12830 X0.4805 Y2.0422 Z-0.3178
N12835 X0.48 Y2.0342 Z-0.3181
N12840 X0.4796 Y2.0263 Z-0.3183
N12845 X0.4793 Y2.0183 Z-0.3186
N12850 X0.4791 Y2.0103 Z-0.3189
N12855 X0.479 Y2.0023 Z-0.3192
N12860 Y1.9944 Z-0.3195
N12865 X0.4789 Y1.6963 Z-0.3299
N12870 Y1.6962
N12875 X0.4785 Y1.6961
N12880 X0.478
N12885 X0.477 Y1.6959
N12890 X0.4761 Y1.6957 Z-0.33
N12895 X0.4756 Y1.6956
N12900 X0.4752 Y1.6955
N12905 X0.4756 Y1.6956
N12910 X0.4761 Y1.6957
N12915 X0.477 Y1.6959
N12920 X0.478 Y1.6961
N12925 X0.4785
N12930 X0.4789 Y1.6962
N12935 Y1.6963
N12940 X0.479 Y1.9944
N12945 Y2.0023
N12950 X0.4791 Y2.0103
N12955 X0.4793 Y2.0183
N12960 X0.4796 Y2.0263
N12965 X0.48 Y2.0342
N12970 X0.4805 Y2.0422
N12975 X0.4811 Y2.0502
N12980 X0.4818 Y2.0582
N12985 X0.4826 Y2.0661
N12990 X0.4831 Y2.0701
N12995 X0.4835 Y2.0741
N13000 X0.4846 Y2.0821
N13005 X0.4856 Y2.0901
N13010 X0.4869 Y2.098
N13015 X0.4882 Y2.106
N13020 X0.4897 Y2.114
N13025 X0.491 Y2.1209
N13030 X0.4912 Y2.1219
N13035 X0.4929 Y2.1299
N13040 X0.4947 Y2.1379
N13045 X0.4966 Y2.1459
N13050 X0.4986 Y2.1538
N13055 X0.5007 Y2.1618
N13060 X0.5029 Y2.1698
N13065 X0.5052 Y2.1778
N13070 X0.507 Y2.1834
N13075 X0.5077 Y2.1857
N13080 X0.5102 Y2.1937
N13085 X0.513 Y2.2017
N13090 X0.5149 Y2.2074
N13095 X0.5157 Y2.2097
N13100 X0.5187 Y2.2176
N13105 X0.5218 Y2.2256
N13110 X0.5249 Y2.2336
N13115 X0.5283 Y2.2416
N13120 X0.5317 Y2.2495
N13125 X0.5353 Y2.2575
N13130 X0.5389 Y2.2652
N13135 X0.539 Y2.2655
N13140 X0.5429 Y2.2734
N13145 X0.5468 Y2.2814
N13150 X0.551 Y2.2894
N13155 X0.5548 Y2.2965
N13160 X0.5553 Y2.2974
N13165 X0.5597 Y2.3053
N13170 X0.5628 Y2.3107
N13175 X0.5643 Y2.3133
N13180 X0.5691 Y2.3213
N13185 X0.574 Y2.3293
N13190 X0.5787 Y2.3367
N13195 X0.5791 Y2.3372
N13200 X0.5843 Y2.3452
N13205 X0.5867 Y2.3487
N13210 X0.5898 Y2.3532
N13215 X0.5947 Y2.3601
N13220 X0.5954 Y2.3612
N13225 X0.6012 Y2.3691
N13230 X0.6027 Y2.3711
N13235 X0.6073 Y2.3771
N13240 X0.6106 Y2.3815
N13245 X0.6135 Y2.3851
N13250 X0.6186 Y2.3915
N13255 X0.6199 Y2.3931
N13260 X0.6266 Y2.4011
N13265 X0.6334 Y2.409
N13270 X0.6346 Y2.4103
N13275 X0.6405 Y2.417
N13280 X0.6425 Y2.4191
N13285 X0.6479 Y2.4249
N13290 X0.6505 Y2.4277
N13295 X0.6556 Y2.4329
N13300 X0.6585 Y2.4359
N13305 X0.6635 Y2.4409
N13310 X0.6664 Y2.4438
N13315 X0.6717 Y2.4489
N13320 X0.6744 Y2.4514
N13325 X0.6802 Y2.4568
N13330 X0.6824 Y2.4589
N13335 X0.6891 Y2.4648
N13340 X0.6904 Y2.4659
N13345 X0.6983 Y2.4728
N13350 X0.7063 Y2.4795
N13355 X0.7079 Y2.4808
N13360 X0.7143 Y2.4859
N13365 X0.7178 Y2.4887
N13370 X0.7223 Y2.4921
N13375 X0.7283 Y2.4967
N13380 X0.7302 Y2.4982
N13385 X0.7382 Y2.5039
N13390 X0.7392 Y2.5047
N13395 X0.7462 Y2.5096
N13400 X0.7507 Y2.5127
N13405 X0.7542 Y2.515
N13410 X0.7621 Y2.5203
N13415 X0.7627 Y2.5206
N13420 X0.7701 Y2.5254
N13425 X0.7781 Y2.5303
N13430 X0.7861 Y2.535
N13435 X0.7887 Y2.5366
N13440 X0.794 Y2.5397
N13445 X0.802 Y2.5441
N13450 X0.8029 Y2.5446
N13455 X0.81 Y2.5484
N13460 X0.818 Y2.5525
N13465 X0.8259 Y2.5565
N13470 X0.8339 Y2.5604
N13475 X0.8341 Y2.5605
N13480 X0.8419 Y2.5641
N13485 X0.8498 Y2.5677
N13490 X0.8578 Y2.5711
N13495 X0.8658 Y2.5744
N13500 X0.8738 Y2.5776
N13505 X0.8817 Y2.5807
N13510 X0.8897 Y2.5836
N13515 X0.8919 Y2.5844
N13520 X0.8977 Y2.5864
N13525 X0.9057 Y2.5891
N13530 X0.9136 Y2.5917
N13535 X0.9159 Y2.5924
N13540 X0.9216 Y2.5941
N13545 X0.9296 Y2.5965
N13550 X0.9376 Y2.5987
N13555 X0.9455 Y2.6008
N13560 X0.9535 Y2.6028
N13565 X0.9615 Y2.6047
N13570 X0.9694 Y2.6064
N13575 X0.9774 Y2.6081
N13580 X0.9784 Y2.6083
N13585 X0.9854 Y2.6097
N13590 X0.9934 Y2.6111
N13595 X1.0013 Y2.6124
N13600 X1.0093 Y2.6137
N13605 X1.0173 Y2.6148
N13610 X1.0253 Y2.6159
N13615 X1.0293 Y2.6163
N13620 X1.0332 Y2.6168
N13625 X1.0412 Y2.6176
N13630 X1.0492 Y2.6183
N13635 X1.0572 Y2.6189
N13640 X1.0651 Y2.6194
N13645 X1.0731 Y2.6198
N13650 X1.0811 Y2.6201
N13655 X1.0891 Y2.6203
N13660 X1.097 Y2.6204
N13665 X1.105
N13670 X1.4031
N13675 X1.4032 Y2.6205
N13680 Y2.6209
N13685 X1.4033 Y2.6214
N13690 X1.4035 Y2.6223
N13695 X1.4037 Y2.6233
N13700 X1.4038 Y2.6238
N13705 X1.4039 Y2.6242
N13710 G0 Z-0.0498
N13715 X1.9635 Y2.6204
N13720 G1 Z-0.225 F40
N13725 X2.0937 Z-0.2295
N13730 X2.1017 Z-0.2298
N13735 X2.1097 Y2.6203 Z-0.2301
N13740 X2.1177 Y2.6201 Z-0.2304
N13745 X2.1256 Y2.6198 Z-0.2307
N13750 X2.1336 Y2.6194 Z-0.2309
N13755 X2.1416 Y2.6189 Z-0.2312
N13760 X2.1496 Y2.6183 Z-0.2315
N13765 X2.1575 Y2.6176 Z-0.2318
N13770 X2.1655 Y2.6168 Z-0.2321
N13775 X2.1694 Y2.6163 Z-0.2322
N13780 X2.1735 Y2.6159 Z-0.2323
N13785 X2.1814 Y2.6148 Z-0.2326
N13790 X2.1894 Y2.6137 Z-0.2329
N13795 X2.1974 Y2.6124 Z-0.2332
N13800 X2.2054 Y2.6111 Z-0.2335
N13805 X2.2133 Y2.6097 Z-0.2337
N13810 X2.2203 Y2.6083 Z-0.234
N13815 X2.2213 Y2.6081
N13820 X2.2293 Y2.6064 Z-0.2343
N13825 X2.2373 Y2.6047 Z-0.2346
N13830 X2.2452 Y2.6028 Z-0.2349
N13835 X2.2532 Y2.6008 Z-0.2352
N13840 X2.2612 Y2.5987 Z-0.2355
N13845 X2.2692 Y2.5965 Z-0.2358
N13850 X2.2771 Y2.5941 Z-0.236
N13855 X2.2828 Y2.5924 Z-0.2362
N13860 X2.2851 Y2.5917 Z-0.2363
N13865 X2.2931 Y2.5891 Z-0.2366
N13870 X2.3011 Y2.5864 Z-0.2369
N13875 X2.3068 Y2.5844 Z-0.2371
N13880 X2.309 Y2.5836 Z-0.2372
N13885 X2.317 Y2.5807 Z-0.2375
N13890 X2.325 Y2.5776 Z-0.2378
N13895 X2.3329 Y2.5744 Z-0.2381
N13900 X2.3409 Y2.5711 Z-0.2384
N13905 X2.3489 Y2.5677 Z-0.2387
N13910 X2.3569 Y2.5641 Z-0.239
N13915 X2.3646 Y2.5605 Z-0.2393
N13920 X2.3648 Y2.5604
N13925 X2.3728 Y2.5565 Z-0.2396
N13930 X2.3808 Y2.5525 Z-0.2399
N13935 X2.3888 Y2.5484 Z-0.2403
N13940 X2.3959 Y2.5446 Z-0.2405
N13945 X2.3967 Y2.5441 Z-0.2406
N13950 X2.4047 Y2.5397 Z-0.2409
N13955 X2.41 Y2.5366 Z-0.2411
N13960 X2.4127 Y2.535 Z-0.2412
N13965 X2.4207 Y2.5303 Z-0.2415
N13970 X2.4286 Y2.5254 Z-0.2419
N13975 X2.436 Y2.5206 Z-0.2422
N13980 X2.4366 Y2.5203
N13985 X2.4446 Y2.515 Z-0.2425
N13990 X2.4481 Y2.5127 Z-0.2427
N13995 X2.4526 Y2.5096 Z-0.2429
N14000 X2.4595 Y2.5047 Z-0.2432
N14005 X2.4605 Y2.5039
N14010 X2.4685 Y2.4982 Z-0.2436
N14015 X2.4704 Y2.4967
N14020 X2.4765 Y2.4921 Z-0.2439
N14025 X2.4809 Y2.4887 Z-0.2441
N14030 X2.4844 Y2.4859 Z-0.2443
N14035 X2.4909 Y2.4808 Z-0.2445
N14040 X2.4924 Y2.4795 Z-0.2446
N14045 X2.5004 Y2.4728 Z-0.245
N14050 X2.5084 Y2.4659 Z-0.2453
N14055 X2.5096 Y2.4648 Z-0.2454
N14060 X2.5163 Y2.4589 Z-0.2457
N14065 X2.5185 Y2.4568 Z-0.2458
N14070 X2.5243 Y2.4514 Z-0.2461
N14075 X2.5271 Y2.4489 Z-0.2462
N14080 X2.5323 Y2.4438 Z-0.2465
N14085 X2.5353 Y2.4409 Z-0.2466
N14090 X2.5403 Y2.4359 Z-0.2469
N14095 X2.5432 Y2.4329 Z-0.247
N14100 X2.5482 Y2.4277 Z-0.2473
N14105 X2.5508 Y2.4249 Z-0.2474
N14110 X2.5562 Y2.4191 Z-0.2477
N14115 X2.5582 Y2.417 Z-0.2478
N14120 X2.5642 Y2.4103 Z-0.2481
N14125 X2.5653 Y2.409 Z-0.2482
N14130 X2.5722 Y2.4011 Z-0.2485
N14135 X2.5789 Y2.3931 Z-0.2489
N14140 X2.5801 Y2.3915 Z-0.249
N14145 X2.5853 Y2.3851 Z-0.2492
N14150 X2.5881 Y2.3815 Z-0.2494
N14155 X2.5915 Y2.3771 Z-0.2496
N14160 X2.5961 Y2.3711 Z-0.2499
N14165 X2.5975 Y2.3691
N14170 X2.6033 Y2.3612 Z-0.2503
N14175 X2.6041 Y2.3601
N14180 X2.6089 Y2.3532 Z-0.2506
N14185 X2.612 Y2.3487 Z-0.2508
N14190 X2.6144 Y2.3452 Z-0.251
N14195 X2.6196 Y2.3372 Z-0.2513
N14200 X2.62 Y2.3367
N14205 X2.6247 Y2.3293 Z-0.2516
N14210 X2.6297 Y2.3213 Z-0.252
N14215 X2.6344 Y2.3133 Z-0.2523
N14220 X2.6359 Y2.3107 Z-0.2524
N14225 X2.639 Y2.3053 Z-0.2526
N14230 X2.6434 Y2.2974 Z-0.2529
N14235 X2.6439 Y2.2965 Z-0.253
N14240 X2.6477 Y2.2894 Z-0.2532
N14245 X2.6519 Y2.2814 Z-0.2536
N14250 X2.6559 Y2.2734 Z-0.2539
N14255 X2.6598 Y2.2655 Z-0.2542
N14260 X2.6599 Y2.2652
N14265 X2.6634 Y2.2575 Z-0.2545
N14270 X2.667 Y2.2495 Z-0.2548
N14275 X2.6705 Y2.2416 Z-0.2551
N14280 X2.6738 Y2.2336 Z-0.2554
N14285 X2.677 Y2.2256 Z-0.2557
N14290 X2.68 Y2.2176 Z-0.256
N14295 X2.683 Y2.2097 Z-0.2563
N14300 X2.6838 Y2.2074 Z-0.2564
N14305 X2.6858 Y2.2017 Z-0.2566
N14310 X2.6885 Y2.1937 Z-0.2569
N14315 X2.691 Y2.1857 Z-0.2572
N14320 X2.6918 Y2.1834 Z-0.2573
N14325 X2.6935 Y2.1778 Z-0.2575
N14330 X2.6958 Y2.1698 Z-0.2578
N14335 X2.6981 Y2.1618 Z-0.258
N14340 X2.7002 Y2.1538 Z-0.2583
N14345 X2.7022 Y2.1459 Z-0.2586
N14350 X2.7041 Y2.1379 Z-0.2589
N14355 X2.7058 Y2.1299 Z-0.2592
N14360 X2.7075 Y2.1219 Z-0.2595
N14365 X2.7077 Y2.1209
N14370 X2.709 Y2.114 Z-0.2598
N14375 X2.7105 Y2.106 Z-0.26
N14380 X2.7118 Y2.098 Z-0.2603
N14385 X2.7131 Y2.0901 Z-0.2606
N14390 X2.7142 Y2.0821 Z-0.2609
N14395 X2.7152 Y2.0741 Z-0.2612
N14400 X2.7157 Y2.0701 Z-0.2613
N14405 X2.7161 Y2.0661 Z-0.2614
N14410 X2.717 Y2.0582 Z-0.2617
N14415 X2.7176 Y2.0502 Z-0.262
N14420 X2.7183 Y2.0422 Z-0.2623
N14425 X2.7188 Y2.0342 Z-0.2626
N14430 X2.7192 Y2.0263 Z-0.2628
N14435 X2.7195 Y2.0183 Z-0.2631
N14440 X2.7197 Y2.0103 Z-0.2634
N14445 Y2.0023 Z-0.2637
N14450 X2.7198 Y1.9944 Z-0.264
N14455 Y1.6963 Z-0.2744
N14460 X2.7199 Y1.6962
N14465 X2.7203 Y1.6961
N14470 X2.7208
N14475 X2.7217 Y1.6959
N14480 X2.7227 Y1.6957 Z-0.2745
N14485 X2.7232 Y1.6956
N14490 X2.7236 Y1.6955
N14495 X2.7232 Y1.6956
N14500 X2.7227 Y1.6957
N14505 X2.7217 Y1.6959 Z-0.2746
N14510 X2.7208 Y1.6961
N14515 X2.7203
N14520 X2.7199 Y1.6962
N14525 X2.7198 Y1.6963
N14530 Y1.9944 Z-0.285
N14535 X2.7197 Y2.0023 Z-0.2853
N14540 Y2.0103 Z-0.2856
N14545 X2.7195 Y2.0183 Z-0.2859
N14550 X2.7192 Y2.0263 Z-0.2862
N14555 X2.7188 Y2.0342 Z-0.2864
N14560 X2.7183 Y2.0422 Z-0.2867
N14565 X2.7176 Y2.0502 Z-0.287
N14570 X2.717 Y2.0582 Z-0.2873
N14575 X2.7161 Y2.0661 Z-0.2876
N14580 X2.7157 Y2.0701 Z-0.2877
N14585 X2.7152 Y2.0741 Z-0.2878
N14590 X2.7142 Y2.0821 Z-0.2881
N14595 X2.7131 Y2.0901 Z-0.2884
N14600 X2.7118 Y2.098 Z-0.2887
N14605 X2.7105 Y2.106 Z-0.289
N14610 X2.709 Y2.114 Z-0.2892
N14615 X2.7077 Y2.1209 Z-0.2895
N14620 X2.7075 Y2.1219
N14625 X2.7058 Y2.1299 Z-0.2898
N14630 X2.7041 Y2.1379 Z-0.2901
N14635 X2.7022 Y2.1459 Z-0.2904
N14640 X2.7002 Y2.1538 Z-0.2907
N14645 X2.6981 Y2.1618 Z-0.291
N14650 X2.6958 Y2.1698 Z-0.2912
N14655 X2.6935 Y2.1778 Z-0.2915
N14660 X2.6918 Y2.1834 Z-0.2917
N14665 X2.691 Y2.1857 Z-0.2918
N14670 X2.6885 Y2.1937 Z-0.2921
N14675 X2.6858 Y2.2017 Z-0.2924
N14680 X2.6838 Y2.2074 Z-0.2926
N14685 X2.683 Y2.2097 Z-0.2927
N14690 X2.68 Y2.2176 Z-0.293
N14695 X2.677 Y2.2256 Z-0.2933
N14700 X2.6738 Y2.2336 Z-0.2936
N14705 X2.6705 Y2.2416 Z-0.2939
N14710 X2.667 Y2.2495 Z-0.2942
N14715 X2.6634 Y2.2575 Z-0.2945
N14720 X2.6599 Y2.2652 Z-0.2948
N14725 X2.6598 Y2.2655
N14730 X2.6559 Y2.2734 Z-0.2951
N14735 X2.6519 Y2.2814 Z-0.2954
N14740 X2.6477 Y2.2894 Z-0.2958
N14745 X2.6439 Y2.2965 Z-0.296
N14750 X2.6434 Y2.2974 Z-0.2961
N14755 X2.639 Y2.3053 Z-0.2964
N14760 X2.6359 Y2.3107 Z-0.2966
N14765 X2.6344 Y2.3133 Z-0.2967
N14770 X2.6297 Y2.3213 Z-0.297
N14775 X2.6247 Y2.3293 Z-0.2974
N14780 X2.62 Y2.3367 Z-0.2977
N14785 X2.6196 Y2.3372
N14790 X2.6144 Y2.3452 Z-0.298
N14795 X2.612 Y2.3487 Z-0.2982
N14800 X2.6089 Y2.3532 Z-0.2984
N14805 X2.6041 Y2.3601 Z-0.2987
N14810 X2.6033 Y2.3612
N14815 X2.5975 Y2.3691 Z-0.2991
N14820 X2.5961 Y2.3711
N14825 X2.5915 Y2.3771 Z-0.2994
N14830 X2.5881 Y2.3815 Z-0.2996
N14835 X2.5853 Y2.3851 Z-0.2998
N14840 X2.5801 Y2.3915 Z-0.3
N14845 X2.5789 Y2.3931 Z-0.3001
N14850 X2.5722 Y2.4011 Z-0.3005
N14855 X2.5653 Y2.409 Z-0.3008
N14860 X2.5642 Y2.4103 Z-0.3009
N14865 X2.5582 Y2.417 Z-0.3012
N14870 X2.5562 Y2.4191 Z-0.3013
N14875 X2.5508 Y2.4249 Z-0.3016
N14880 X2.5482 Y2.4277 Z-0.3017
N14885 X2.5432 Y2.4329 Z-0.302
N14890 X2.5403 Y2.4359 Z-0.3021
N14895 X2.5353 Y2.4409 Z-0.3024
N14900 X2.5323 Y2.4438 Z-0.3025
N14905 X2.5271 Y2.4489 Z-0.3028
N14910 X2.5243 Y2.4514 Z-0.3029
N14915 X2.5185 Y2.4568 Z-0.3032
N14920 X2.5163 Y2.4589 Z-0.3033
N14925 X2.5096 Y2.4648 Z-0.3036
N14930 X2.5084 Y2.4659 Z-0.3037
N14935 X2.5004 Y2.4728 Z-0.304
N14940 X2.4924 Y2.4795 Z-0.3044
N14945 X2.4909 Y2.4808 Z-0.3045
N14950 X2.4844 Y2.4859 Z-0.3047
N14955 X2.4809 Y2.4887 Z-0.3049
N14960 X2.4765 Y2.4921 Z-0.3051
N14965 X2.4704 Y2.4967 Z-0.3054
N14970 X2.4685 Y2.4982
N14975 X2.4605 Y2.5039 Z-0.3058
N14980 X2.4595 Y2.5047
N14985 X2.4526 Y2.5096 Z-0.3061
N14990 X2.4481 Y2.5127 Z-0.3063
N14995 X2.4446 Y2.515 Z-0.3065
N15000 X2.4366 Y2.5203 Z-0.3068
N15005 X2.436 Y2.5206
N15010 X2.4286 Y2.5254 Z-0.3071
N15015 X2.4207 Y2.5303 Z-0.3075
N15020 X2.4127 Y2.535 Z-0.3078
N15025 X2.41 Y2.5366 Z-0.3079
N15030 X2.4047 Y2.5397 Z-0.3081
N15035 X2.3967 Y2.5441 Z-0.3084
N15040 X2.3959 Y2.5446 Z-0.3085
N15045 X2.3888 Y2.5484 Z-0.3087
N15050 X2.3808 Y2.5525 Z-0.3091
N15055 X2.3728 Y2.5565 Z-0.3094
N15060 X2.3648 Y2.5604 Z-0.3097
N15065 X2.3646 Y2.5605
N15070 X2.3569 Y2.5641 Z-0.31
N15075 X2.3489 Y2.5677 Z-0.3103
N15080 X2.3409 Y2.5711 Z-0.3106
N15085 X2.3329 Y2.5744 Z-0.3109
N15090 X2.325 Y2.5776 Z-0.3112
N15095 X2.317 Y2.5807 Z-0.3115
N15100 X2.309 Y2.5836 Z-0.3118
N15105 X2.3068 Y2.5844 Z-0.3119
N15110 X2.3011 Y2.5864 Z-0.3121
N15115 X2.2931 Y2.5891 Z-0.3124
N15120 X2.2851 Y2.5917 Z-0.3127
N15125 X2.2828 Y2.5924 Z-0.3128
N15130 X2.2771 Y2.5941 Z-0.313
N15135 X2.2692 Y2.5965 Z-0.3133
N15140 X2.2612 Y2.5987 Z-0.3135
N15145 X2.2532 Y2.6008 Z-0.3138
N15150 X2.2452 Y2.6028 Z-0.3141
N15155 X2.2373 Y2.6047 Z-0.3144
N15160 X2.2293 Y2.6064 Z-0.3147
N15165 X2.2213 Y2.6081 Z-0.315
N15170 X2.2203 Y2.6083
N15175 X2.2133 Y2.6097 Z-0.3153
N15180 X2.2054 Y2.6111 Z-0.3155
N15185 X2.1974 Y2.6124 Z-0.3158
N15190 X2.1894 Y2.6137 Z-0.3161
N15195 X2.1814 Y2.6148 Z-0.3164
N15200 X2.1735 Y2.6159 Z-0.3167
N15205 X2.1694 Y2.6163 Z-0.3168
N15210 X2.1655 Y2.6168 Z-0.3169
N15215 X2.1575 Y2.6176 Z-0.3172
N15220 X2.1496 Y2.6183 Z-0.3175
N15225 X2.1416 Y2.6189 Z-0.3178
N15230 X2.1336 Y2.6194 Z-0.3181
N15235 X2.1256 Y2.6198 Z-0.3183
N15240 X2.1177 Y2.6201 Z-0.3186
N15245 X2.1097 Y2.6203 Z-0.3189
N15250 X2.1017 Y2.6204 Z-0.3192
N15255 X2.0937 Z-0.3195
N15260 X1.7956 Z-0.3299
N15265 Y2.6205
N15270 X1.7955 Y2.6209
N15275 X1.7954 Y2.6214
N15280 X1.7952 Y2.6223
N15285 X1.7951 Y2.6233 Z-0.33
N15290 X1.795 Y2.6238
N15295 X1.7949 Y2.6242
N15300 X1.795 Y2.6238
N15305 X1.7951 Y2.6233
N15310 X1.7952 Y2.6223
N15315 X1.7954 Y2.6214
N15320 X1.7955 Y2.6209
N15325 X1.7956 Y2.6205
N15330 Y2.6204
N15335 X2.0937
N15340 X2.1017
N15345 X2.1097 Y2.6203
N15350 X2.1177 Y2.6201
N15355 X2.1256 Y2.6198
N15360 X2.1336 Y2.6194
N15365 X2.1416 Y2.6189
N15370 X2.1496 Y2.6183
N15375 X2.1575 Y2.6176
N15380 X2.1655 Y2.6168
N15385 X2.1694 Y2.6163
N15390 X2.1735 Y2.6159
N15395 X2.1814 Y2.6148
N15400 X2.1894 Y2.6137
N15405 X2.1974 Y2.6124
N15410 X2.2054 Y2.6111
N15415 X2.2133 Y2.6097
N15420 X2.2203 Y2.6083
N15425 X2.2213 Y2.6081
N15430 X2.2293 Y2.6064
N15435 X2.2373 Y2.6047
N15440 X2.2452 Y2.6028
N15445 X2.2532 Y2.6008
N15450 X2.2612 Y2.5987
N15455 X2.2692 Y2.5965
N15460 X2.2771 Y2.5941
N15465 X2.2828 Y2.5924
N15470 X2.2851 Y2.5917
N15475 X2.2931 Y2.5891
N15480 X2.3011 Y2.5864
N15485 X2.3068 Y2.5844
N15490 X2.309 Y2.5836
N15495 X2.317 Y2.5807
N15500 X2.325 Y2.5776
N15505 X2.3329 Y2.5744
N15510 X2.3409 Y2.5711
N15515 X2.3489 Y2.5677
N15520 X2.3569 Y2.5641
N15525 X2.3646 Y2.5605
N15530 X2.3648 Y2.5604
N15535 X2.3728 Y2.5565
N15540 X2.3808 Y2.5525
N15545 X2.3888 Y2.5484
N15550 X2.3959 Y2.5446
N15555 X2.3967 Y2.5441
N15560 X2.4047 Y2.5397
N15565 X2.41 Y2.5366
N15570 X2.4127 Y2.535
N15575 X2.4207 Y2.5303
N15580 X2.4286 Y2.5254
N15585 X2.436 Y2.5206
N15590 X2.4366 Y2.5203
N15595 X2.4446 Y2.515
N15600 X2.4481 Y2.5127
N15605 X2.4526 Y2.5096
N15610 X2.4595 Y2.5047
N15615 X2.4605 Y2.5039
N15620 X2.4685 Y2.4982
N15625 X2.4704 Y2.4967
N15630 X2.4765 Y2.4921
N15635 X2.4809 Y2.4887
N15640 X2.4844 Y2.4859
N15645 X2.4909 Y2.4808
N15650 X2.4924 Y2.4795
N15655 X2.5004 Y2.4728
N15660 X2.5084 Y2.4659
N15665 X2.5096 Y2.4648
N15670 X2.5163 Y2.4589
N15675 X2.5185 Y2.4568
N15680 X2.5243 Y2.4514
N15685 X2.5271 Y2.4489
N15690 X2.5323 Y2.4438
N15695 X2.5353 Y2.4409
N15700 X2.5403 Y2.4359
N15705 X2.5432 Y2.4329
N15710 X2.5482 Y2.4277
N15715 X2.5508 Y2.4249
N15720 X2.5562 Y2.4191
N15725 X2.5582 Y2.417
N15730 X2.5642 Y2.4103
N15735 X2.5653 Y2.409
N15740 X2.5722 Y2.4011
N15745 X2.5789 Y2.3931
N15750 X2.5801 Y2.3915
N15755 X2.5853 Y2.3851
N15760 X2.5881 Y2.3815
N15765 X2.5915 Y2.3771
N15770 X2.5961 Y2.3711
N15775 X2.5975 Y2.3691
N15780 X2.6033 Y2.3612
N15785 X2.6041 Y2.3601
N15790 X2.6089 Y2.3532
N15795 X2.612 Y2.3487
N15800 X2.6144 Y2.3452
N15805 X2.6196 Y2.3372
N15810 X2.62 Y2.3367
N15815 X2.6247 Y2.3293
N15820 X2.6297 Y2.3213
N15825 X2.6344 Y2.3133
N15830 X2.6359 Y2.3107
N15835 X2.639 Y2.3053
N15840 X2.6434 Y2.2974
N15845 X2.6439 Y2.2965
N15850 X2.6477 Y2.2894
N15855 X2.6519 Y2.2814
N15860 X2.6559 Y2.2734
N15865 X2.6598 Y2.2655
N15870 X2.6599 Y2.2652
N15875 X2.6634 Y2.2575
N15880 X2.667 Y2.2495
N15885 X2.6705 Y2.2416
N15890 X2.6738 Y2.2336
N15895 X2.677 Y2.2256
N15900 X2.68 Y2.2176
N15905 X2.683 Y2.2097
N15910 X2.6838 Y2.2074
N15915 X2.6858 Y2.2017
N15920 X2.6885 Y2.1937
N15925 X2.691 Y2.1857
N15930 X2.6918 Y2.1834
N15935 X2.6935 Y2.1778
N15940 X2.6958 Y2.1698
N15945 X2.6981 Y2.1618
N15950 X2.7002 Y2.1538
N15955 X2.7022 Y2.1459
N15960 X2.7041 Y2.1379
N15965 X2.7058 Y2.1299
N15970 X2.7075 Y2.1219
N15975 X2.7077 Y2.1209
N15980 X2.709 Y2.114
N15985 X2.7105 Y2.106
N15990 X2.7118 Y2.098
N15995 X2.7131 Y2.0901
N16000 X2.7142 Y2.0821
N16005 X2.7152 Y2.0741
N16010 X2.7157 Y2.0701
N16015 X2.7161 Y2.0661
N16020 X2.717 Y2.0582
N16025 X2.7176 Y2.0502
N16030 X2.7183 Y2.0422
N16035 X2.7188 Y2.0342
N16040 X2.7192 Y2.0263
N16045 X2.7195 Y2.0183
N16050 X2.7197 Y2.0103
N16055 Y2.0023
N16060 X2.7198 Y1.9944
N16065 Y1.6963
N16070 X2.7199 Y1.6962
N16075 X2.7203 Y1.6961
N16080 X2.7208
N16085 X2.7217 Y1.6959
N16090 X2.7227 Y1.6957
N16095 X2.7232 Y1.6956
N16100 X2.7236 Y1.6955
N16105 G0 Z-0.0498
N16110 X2.7198 Y1.1358
N16115 G1 Z-0.225 F40
N16120 Y1.0056 Z-0.2295
N16125 X2.7197 Y0.9977 Z-0.2298
N16130 Y0.9897 Z-0.2301
N16135 X2.7195 Y0.9817 Z-0.2304
N16140 X2.7192 Y0.9737 Z-0.2307
N16145 X2.7188 Y0.9658 Z-0.2309
N16150 X2.7183 Y0.9578 Z-0.2312
N16155 X2.7176 Y0.9498 Z-0.2315
N16160 X2.717 Y0.9418 Z-0.2318
N16165 X2.7161 Y0.9339 Z-0.2321
N16170 X2.7157 Y0.9299 Z-0.2322
N16175 X2.7152 Y0.9259 Z-0.2323
N16180 X2.7142 Y0.9179 Z-0.2326
N16185 X2.7131 Y0.9099 Z-0.2329
N16190 X2.7118 Y0.902 Z-0.2332
N16195 X2.7105 Y0.894 Z-0.2335
N16200 X2.709 Y0.886 Z-0.2337
N16205 X2.7077 Y0.8791 Z-0.234
N16210 X2.7075 Y0.8781
N16215 X2.7058 Y0.8701 Z-0.2343
N16220 X2.7041 Y0.8621 Z-0.2346
N16225 X2.7022 Y0.8541 Z-0.2349
N16230 X2.7002 Y0.8462 Z-0.2352
N16235 X2.6981 Y0.8382 Z-0.2355
N16240 X2.6958 Y0.8302 Z-0.2358
N16245 X2.6935 Y0.8222 Z-0.236
N16250 X2.6918 Y0.8166 Z-0.2362
N16255 X2.691 Y0.8143 Z-0.2363
N16260 X2.6885 Y0.8063 Z-0.2366
N16265 X2.6858 Y0.7983 Z-0.2369
N16270 X2.6838 Y0.7926 Z-0.2371
N16275 X2.683 Y0.7903 Z-0.2372
N16280 X2.68 Y0.7824 Z-0.2375
N16285 X2.677 Y0.7744 Z-0.2378
N16290 X2.6738 Y0.7664 Z-0.2381
N16295 X2.6705 Y0.7584 Z-0.2384
N16300 X2.667 Y0.7505 Z-0.2387
N16305 X2.6634 Y0.7425 Z-0.239
N16310 X2.6599 Y0.7348 Z-0.2393
N16315 X2.6598 Y0.7345
N16320 X2.6559 Y0.7266 Z-0.2396
N16325 X2.6519 Y0.7186 Z-0.2399
N16330 X2.6477 Y0.7106 Z-0.2403
N16335 X2.6439 Y0.7035 Z-0.2405
N16340 X2.6434 Y0.7026 Z-0.2406
N16345 X2.639 Y0.6947 Z-0.2409
N16350 X2.6359 Y0.6893 Z-0.2411
N16355 X2.6344 Y0.6867 Z-0.2412
N16360 X2.6297 Y0.6787 Z-0.2415
N16365 X2.6247 Y0.6707 Z-0.2419
N16370 X2.62 Y0.6633 Z-0.2422
N16375 X2.6196 Y0.6628
N16380 X2.6144 Y0.6548 Z-0.2425
N16385 X2.612 Y0.6513 Z-0.2427
N16390 X2.6089 Y0.6468 Z-0.2429
N16395 X2.6041 Y0.6399 Z-0.2432
N16400 X2.6033 Y0.6388
N16405 X2.5975 Y0.6309 Z-0.2436
N16410 X2.5961 Y0.6289
N16415 X2.5915 Y0.6229 Z-0.2439
N16420 X2.5881 Y0.6185 Z-0.2441
N16425 X2.5853 Y0.6149 Z-0.2443
N16430 X2.5801 Y0.6085 Z-0.2445
N16435 X2.5789 Y0.6069 Z-0.2446
N16440 X2.5722 Y0.5989 Z-0.245
N16445 X2.5653 Y0.591 Z-0.2453
N16450 X2.5642 Y0.5897 Z-0.2454
N16455 X2.5582 Y0.583 Z-0.2457
N16460 X2.5562 Y0.5809 Z-0.2458
N16465 X2.5508 Y0.5751 Z-0.2461
N16470 X2.5482 Y0.5723 Z-0.2462
N16475 X2.5432 Y0.5671 Z-0.2465
N16480 X2.5403 Y0.5641 Z-0.2466
N16485 X2.5353 Y0.5591 Z-0.2469
N16490 X2.5323 Y0.5562 Z-0.247
N16495 X2.5271 Y0.5511 Z-0.2473
N16500 X2.5243 Y0.5486 Z-0.2474
N16505 X2.5185 Y0.5432 Z-0.2477
N16510 X2.5163 Y0.5411 Z-0.2478
N16515 X2.5096 Y0.5352 Z-0.2481
N16520 X2.5084 Y0.5341 Z-0.2482
N16525 X2.5004 Y0.5272 Z-0.2485
N16530 X2.4924 Y0.5205 Z-0.2489
N16535 X2.4909 Y0.5192 Z-0.249
N16540 X2.4844 Y0.5141 Z-0.2492
N16545 X2.4809 Y0.5113 Z-0.2494
N16550 X2.4765 Y0.5079 Z-0.2496
N16555 X2.4704 Y0.5033 Z-0.2499
N16560 X2.4685 Y0.5018
N16565 X2.4605 Y0.4961 Z-0.2503
N16570 X2.4595 Y0.4953
N16575 X2.4526 Y0.4904 Z-0.2506
N16580 X2.4481 Y0.4873 Z-0.2508
N16585 X2.4446 Y0.485 Z-0.251
N16590 X2.4366 Y0.4797 Z-0.2513
N16595 X2.436 Y0.4794
N16600 X2.4286 Y0.4746 Z-0.2516
N16605 X2.4207 Y0.4697 Z-0.252
N16610 X2.4127 Y0.465 Z-0.2523
N16615 X2.41 Y0.4634 Z-0.2524
N16620 X2.4047 Y0.4603 Z-0.2526
N16625 X2.3967 Y0.4559 Z-0.2529
N16630 X2.3959 Y0.4554 Z-0.253
N16635 X2.3888 Y0.4516 Z-0.2532
N16640 X2.3808 Y0.4475 Z-0.2536
N16645 X2.3728 Y0.4435 Z-0.2539
N16650 X2.3648 Y0.4396 Z-0.2542
N16655 X2.3646 Y0.4395
N16660 X2.3569 Y0.4359 Z-0.2545
N16665 X2.3489 Y0.4323 Z-0.2548
N16670 X2.3409 Y0.4289 Z-0.2551
N16675 X2.3329 Y0.4256 Z-0.2554
N16680 X2.325 Y0.4224 Z-0.2557
N16685 X2.317 Y0.4193 Z-0.256
N16690 X2.309 Y0.4164 Z-0.2563
N16695 X2.3068 Y0.4156 Z-0.2564
N16700 X2.3011 Y0.4136 Z-0.2566
N16705 X2.2931 Y0.4109 Z-0.2569
N16710 X2.2851 Y0.4083 Z-0.2572
N16715 X2.2828 Y0.4076 Z-0.2573
N16720 X2.2771 Y0.4059 Z-0.2575
N16725 X2.2692 Y0.4035 Z-0.2578
N16730 X2.2612 Y0.4013 Z-0.258
N16735 X2.2532 Y0.3992 Z-0.2583
N16740 X2.2452 Y0.3972 Z-0.2586
N16745 X2.2373 Y0.3953 Z-0.2589
N16750 X2.2293 Y0.3936 Z-0.2592
N16755 X2.2213 Y0.3919 Z-0.2595
N16760 X2.2203 Y0.3917
N16765 X2.2133 Y0.3903 Z-0.2598
N16770 X2.2054 Y0.3889 Z-0.26
N16775 X2.1974 Y0.3876 Z-0.2603
N16780 X2.1894 Y0.3863 Z-0.2606
N16785 X2.1814 Y0.3852 Z-0.2609
N16790 X2.1735 Y0.3841 Z-0.2612
N16795 X2.1694 Y0.3837 Z-0.2613
N16800 X2.1655 Y0.3832 Z-0.2614
N16805 X2.1575 Y0.3824 Z-0.2617
N16810 X2.1496 Y0.3817 Z-0.262
N16815 X2.1416 Y0.3811 Z-0.2623
N16820 X2.1336 Y0.3806 Z-0.2626
N16825 X2.1256 Y0.3802 Z-0.2628
N16830 X2.1177 Y0.3799 Z-0.2631
N16835 X2.1097 Y0.3797 Z-0.2634
N16840 X2.1017 Y0.3796 Z-0.2637
N16845 X2.0937 Z-0.264
N16850 X1.7956 Z-0.2744
N16855 Y0.3795
N16860 X1.7955 Y0.3791
N16865 X1.7954 Y0.3786
N16870 X1.7952 Y0.3777
N16875 X1.7951 Y0.3767 Z-0.2745
N16880 X1.795 Y0.3762
N16885 X1.7949 Y0.3758
N16890 X1.795 Y0.3762
N16895 X1.7951 Y0.3767
N16900 X1.7952 Y0.3777 Z-0.2746
N16905 X1.7954 Y0.3786
N16910 X1.7955 Y0.3791
N16915 X1.7956 Y0.3795
N16920 Y0.3796
N16925 X2.0937 Z-0.285
N16930 X2.1017 Z-0.2853
N16935 X2.1097 Y0.3797 Z-0.2856
N16940 X2.1177 Y0.3799 Z-0.2859
N16945 X2.1256 Y0.3802 Z-0.2862
N16950 X2.1336 Y0.3806 Z-0.2864
N16955 X2.1416 Y0.3811 Z-0.2867
N16960 X2.1496 Y0.3817 Z-0.287
N16965 X2.1575 Y0.3824 Z-0.2873
N16970 X2.1655 Y0.3832 Z-0.2876
N16975 X2.1694 Y0.3837 Z-0.2877
N16980 X2.1735 Y0.3841 Z-0.2878
N16985 X2.1814 Y0.3852 Z-0.2881
N16990 X2.1894 Y0.3863 Z-0.2884
N16995 X2.1974 Y0.3876 Z-0.2887
N17000 X2.2054 Y0.3889 Z-0.289
N17005 X2.2133 Y0.3903 Z-0.2892
N17010 X2.2203 Y0.3917 Z-0.2895
N17015 X2.2213 Y0.3919
N17020 X2.2293 Y0.3936 Z-0.2898
N17025 X2.2373 Y0.3953 Z-0.2901
N17030 X2.2452 Y0.3972 Z-0.2904
N17035 X2.2532 Y0.3992 Z-0.2907
N17040 X2.2612 Y0.4013 Z-0.291
N17045 X2.2692 Y0.4035 Z-0.2912
N17050 X2.2771 Y0.4059 Z-0.2915
N17055 X2.2828 Y0.4076 Z-0.2917
N17060 X2.2851 Y0.4083 Z-0.2918
N17065 X2.2931 Y0.4109 Z-0.2921
N17070 X2.3011 Y0.4136 Z-0.2924
N17075 X2.3068 Y0.4156 Z-0.2926
N17080 X2.309 Y0.4164 Z-0.2927
N17085 X2.317 Y0.4193 Z-0.293
N17090 X2.325 Y0.4224 Z-0.2933
N17095 X2.3329 Y0.4256 Z-0.2936
N17100 X2.3409 Y0.4289 Z-0.2939
N17105 X2.3489 Y0.4323 Z-0.2942
N17110 X2.3569 Y0.4359 Z-0.2945
N17115 X2.3646 Y0.4395 Z-0.2948
N17120 X2.3648 Y0.4396
N17125 X2.3728 Y0.4435 Z-0.2951
N17130 X2.3808 Y0.4475 Z-0.2954
N17135 X2.3888 Y0.4516 Z-0.2958
N17140 X2.3959 Y0.4554 Z-0.296
N17145 X2.3967 Y0.4559 Z-0.2961
N17150 X2.4047 Y0.4603 Z-0.2964
N17155 X2.41 Y0.4634 Z-0.2966
N17160 X2.4127 Y0.465 Z-0.2967
N17165 X2.4207 Y0.4697 Z-0.297
N17170 X2.4286 Y0.4746 Z-0.2974
N17175 X2.436 Y0.4794 Z-0.2977
N17180 X2.4366 Y0.4797
N17185 X2.4446 Y0.485 Z-0.298
N17190 X2.4481 Y0.4873 Z-0.2982
N17195 X2.4526 Y0.4904 Z-0.2984
N17200 X2.4595 Y0.4953 Z-0.2987
N17205 X2.4605 Y0.4961
N17210 X2.4685 Y0.5018 Z-0.2991
N17215 X2.4704 Y0.5033
N17220 X2.4765 Y0.5079 Z-0.2994
N17225 X2.4809 Y0.5113 Z-0.2996
N17230 X2.4844 Y0.5141 Z-0.2998
N17235 X2.4909 Y0.5192 Z-0.3
N17240 X2.4924 Y0.5205 Z-0.3001
N17245 X2.5004 Y0.5272 Z-0.3005
N17250 X2.5084 Y0.5341 Z-0.3008
N17255 X2.5096 Y0.5352 Z-0.3009
N17260 X2.5163 Y0.5411 Z-0.3012
N17265 X2.5185 Y0.5432 Z-0.3013
N17270 X2.5243 Y0.5486 Z-0.3016
N17275 X2.5271 Y0.5511 Z-0.3017
N17280 X2.5323 Y0.5562 Z-0.302
N17285 X2.5353 Y0.5591 Z-0.3021
N17290 X2.5403 Y0.5641 Z-0.3024
N17295 X2.5432 Y0.5671 Z-0.3025
N17300 X2.5482 Y0.5723 Z-0.3028
N17305 X2.5508 Y0.5751 Z-0.3029
N17310 X2.5562 Y0.5809 Z-0.3032
N17315 X2.5582 Y0.583 Z-0.3033
N17320 X2.5642 Y0.5897 Z-0.3036
N17325 X2.5653 Y0.591 Z-0.3037
N17330 X2.5722 Y0.5989 Z-0.304
N17335 X2.5789 Y0.6069 Z-0.3044
N17340 X2.5801 Y0.6085 Z-0.3045
N17345 X2.5853 Y0.6149 Z-0.3047
N17350 X2.5881 Y0.6185 Z-0.3049
N17355 X2.5915 Y0.6229 Z-0.3051
N17360 X2.5961 Y0.6289 Z-0.3054
N17365 X2.5975 Y0.6309
N17370 X2.6033 Y0.6388 Z-0.3058
N17375 X2.6041 Y0.6399
N17380 X2.6089 Y0.6468 Z-0.3061
N17385 X2.612 Y0.6513 Z-0.3063
N17390 X2.6144 Y0.6548 Z-0.3065
N17395 X2.6196 Y0.6628 Z-0.3068
N17400 X2.62 Y0.6633
N17405 X2.6247 Y0.6707 Z-0.3071
N17410 X2.6297 Y0.6787 Z-0.3075
N17415 X2.6344 Y0.6867 Z-0.3078
N17420 X2.6359 Y0.6893 Z-0.3079
N17425 X2.639 Y0.6947 Z-0.3081
N17430 X2.6434 Y0.7026 Z-0.3084
N17435 X2.6439 Y0.7035 Z-0.3085
N17440 X2.6477 Y0.7106 Z-0.3087
N17445 X2.6519 Y0.7186 Z-0.3091
N17450 X2.6559 Y0.7266 Z-0.3094
N17455 X2.6598 Y0.7345 Z-0.3097
N17460 X2.6599 Y0.7348
N17465 X2.6634 Y0.7425 Z-0.31
N17470 X2.667 Y0.7505 Z-0.3103
N17475 X2.6705 Y0.7584 Z-0.3106
N17480 X2.6738 Y0.7664 Z-0.3109
N17485 X2.677 Y0.7744 Z-0.3112
N17490 X2.68 Y0.7824 Z-0.3115
N17495 X2.683 Y0.7903 Z-0.3118
N17500 X2.6838 Y0.7926 Z-0.3119
N17505 X2.6858 Y0.7983 Z-0.3121
N17510 X2.6885 Y0.8063 Z-0.3124
N17515 X2.691 Y0.8143 Z-0.3127
N17520 X2.6918 Y0.8166 Z-0.3128
N17525 X2.6935 Y0.8222 Z-0.313
N17530 X2.6958 Y0.8302 Z-0.3133
N17535 X2.6981 Y0.8382 Z-0.3135
N17540 X2.7002 Y0.8462 Z-0.3138
N17545 X2.7022 Y0.8541 Z-0.3141
N17550 X2.7041 Y0.8621 Z-0.3144
N17555 X2.7058 Y0.8701 Z-0.3147
N17560 X2.7075 Y0.8781 Z-0.315
N17565 X2.7077 Y0.8791
N17570 X2.709 Y0.886 Z-0.3153
N17575 X2.7105 Y0.894 Z-0.3155
N17580 X2.7118 Y0.902 Z-0.3158
N17585 X2.7131 Y0.9099 Z-0.3161
N17590 X2.7142 Y0.9179 Z-0.3164
N17595 X2.7152 Y0.9259 Z-0.3167
N17600 X2.7157 Y0.9299 Z-0.3168
N17605 X2.7161 Y0.9339 Z-0.3169
N17610 X2.717 Y0.9418 Z-0.3172
N17615 X2.7176 Y0.9498 Z-0.3175
N17620 X2.7183 Y0.9578 Z-0.3178
N17625 X2.7188 Y0.9658 Z-0.3181
N17630 X2.7192 Y0.9737 Z-0.3183
N17635 X2.7195 Y0.9817 Z-0.3186
N17640 X2.7197 Y0.9897 Z-0.3189
N17645 Y0.9977 Z-0.3192
N17650 X2.7198 Y1.0056 Z-0.3195
N17655 Y1.3037 Z-0.3299
N17660 X2.7199 Y1.3038
N17665 X2.7203 Y1.3039
N17670 X2.7208
N17675 X2.7217 Y1.3041
N17680 X2.7227 Y1.3043 Z-0.33
N17685 X2.7232 Y1.3044
N17690 X2.7236 Y1.3045
N17695 X2.7232 Y1.3044
N17700 X2.7227 Y1.3043
N17705 X2.7217 Y1.3041
N17710 X2.7208 Y1.3039
N17715 X2.7203
N17720 X2.7199 Y1.3038
N17725 X2.7198 Y1.3037
N17730 Y1.0056
N17735 X2.7197 Y0.9977
N17740 Y0.9897
N17745 X2.7195 Y0.9817
N17750 X2.7192 Y0.9737
N17755 X2.7188 Y0.9658
N17760 X2.7183 Y0.9578
N17765 X2.7176 Y0.9498
N17770 X2.717 Y0.9418
N17775 X2.7161 Y0.9339
N17780 X2.7157 Y0.9299
N17785 X2.7152 Y0.9259
N17790 X2.7142 Y0.9179
N17795 X2.7131 Y0.9099
N17800 X2.7118 Y0.902
N17805 X2.7105 Y0.894
N17810 X2.709 Y0.886
N17815 X2.7077 Y0.8791
N17820 X2.7075 Y0.8781
N17825 X2.7058 Y0.8701
N17830 X2.7041 Y0.8621
N17835 X2.7022 Y0.8541
N17840 X2.7002 Y0.8462
N17845 X2.6981 Y0.8382
N17850 X2.6958 Y0.8302
N17855 X2.6935 Y0.8222
N17860 X2.6918 Y0.8166
N17865 X2.691 Y0.8143
N17870 X2.6885 Y0.8063
N17875 X2.6858 Y0.7983
N17880 X2.6838 Y0.7926
N17885 X2.683 Y0.7903
N17890 X2.68 Y0.7824
N17895 X2.677 Y0.7744
N17900 X2.6738 Y0.7664
N17905 X2.6705 Y0.7584
N17910 X2.667 Y0.7505
N17915 X2.6634 Y0.7425
N17920 X2.6599 Y0.7348
N17925 X2.6598 Y0.7345
N17930 X2.6559 Y0.7266
N17935 X2.6519 Y0.7186
N17940 X2.6477 Y0.7106
N17945 X2.6439 Y0.7035
N17950 X2.6434 Y0.7026
N17955 X2.639 Y0.6947
N17960 X2.6359 Y0.6893
N17965 X2.6344 Y0.6867
N17970 X2.6297 Y0.6787
N17975 X2.6247 Y0.6707
N17980 X2.62 Y0.6633
N17985 X2.6196 Y0.6628
N17990 X2.6144 Y0.6548
N17995 X2.612 Y0.6513
N18000 X2.6089 Y0.6468
N18005 X2.6041 Y0.6399
N18010 X2.6033 Y0.6388
N18015 X2.5975 Y0.6309
N18020 X2.5961 Y0.6289
N18025 X2.5915 Y0.6229
N18030 X2.5881 Y0.6185
N18035 X2.5853 Y0.6149
N18040 X2.5801 Y0.6085
N18045 X2.5789 Y0.6069
N18050 X2.5722 Y0.5989
N18055 X2.5653 Y0.591
N18060 X2.5642 Y0.5897
N18065 X2.5582 Y0.583
N18070 X2.5562 Y0.5809
N18075 X2.5508 Y0.5751
N18080 X2.5482 Y0.5723
N18085 X2.5432 Y0.5671
N18090 X2.5403 Y0.5641
N18095 X2.5353 Y0.5591
N18100 X2.5323 Y0.5562
N18105 X2.5271 Y0.5511
N18110 X2.5243 Y0.5486
N18115 X2.5185 Y0.5432
N18120 X2.5163 Y0.5411
N18125 X2.5096 Y0.5352
N18130 X2.5084 Y0.5341
N18135 X2.5004 Y0.5272
N18140 X2.4924 Y0.5205
N18145 X2.4909 Y0.5192
N18150 X2.4844 Y0.5141
N18155 X2.4809 Y0.5113
N18160 X2.4765 Y0.5079
N18165 X2.4704 Y0.5033
N18170 X2.4685 Y0.5018
N18175 X2.4605 Y0.4961
N18180 X2.4595 Y0.4953
N18185 X2.4526 Y0.4904
N18190 X2.4481 Y0.4873
N18195 X2.4446 Y0.485
N18200 X2.4366 Y0.4797
N18205 X2.436 Y0.4794
N18210 X2.4286 Y0.4746
N18215 X2.4207 Y0.4697
N18220 X2.4127 Y0.465
N18225 X2.41 Y0.4634
N18230 X2.4047 Y0.4603
N18235 X2.3967 Y0.4559
N18240 X2.3959 Y0.4554
N18245 X2.3888 Y0.4516
N18250 X2.3808 Y0.4475
N18255 X2.3728 Y0.4435
N18260 X2.3648 Y0.4396
N18265 X2.3646 Y0.4395
N18270 X2.3569 Y0.4359
N18275 X2.3489 Y0.4323
N18280 X2.3409 Y0.4289
N18285 X2.3329 Y0.4256
N18290 X2.325 Y0.4224
N18295 X2.317 Y0.4193
N18300 X2.309 Y0.4164
N18305 X2.3068 Y0.4156
N18310 X2.3011 Y0.4136
N18315 X2.2931 Y0.4109
N18320 X2.2851 Y0.4083
N18325 X2.2828 Y0.4076
N18330 X2.2771 Y0.4059
N18335 X2.2692 Y0.4035
N18340 X2.2612 Y0.4013
N18345 X2.2532 Y0.3992
N18350 X2.2452 Y0.3972
N18355 X2.2373 Y0.3953
N18360 X2.2293 Y0.3936
N18365 X2.2213 Y0.3919
N18370 X2.2203 Y0.3917
N18375 X2.2133 Y0.3903
N18380 X2.2054 Y0.3889
N18385 X2.1974 Y0.3876
N18390 X2.1894 Y0.3863
N18395 X2.1814 Y0.3852
N18400 X2.1735 Y0.3841
N18405 X2.1694 Y0.3837
N18410 X2.1655 Y0.3832
N18415 X2.1575 Y0.3824
N18420 X2.1496 Y0.3817
N18425 X2.1416 Y0.3811
N18430 X2.1336 Y0.3806
N18435 X2.1256 Y0.3802
N18440 X2.1177 Y0.3799
N18445 X2.1097 Y0.3797
N18450 X2.1017 Y0.3796
N18455 X2.0937
N18460 X1.7956
N18465 Y0.3795
N18470 X1.7955 Y0.3791
N18475 X1.7954 Y0.3786
N18480 X1.7952 Y0.3777
N18485 X1.7951 Y0.3767
N18490 X1.795 Y0.3762
N18495 X1.7949 Y0.3758
N18500 G0 Z0.6
N18505 M5
N18510 G28 G91 Z0
N18515 G90

(Contour3)
N18520 M9
N18525 M1
N18530 T2 M6
N18535 T5
N18540 S1000 M3
N18545 M8
N18550 G0 X0.8889 Y0.9676
N18555 Z0.6
N18560 Z0.0393
N18565 G1 Z-0.0069 F40
N18570 X0.8892 Y0.9677 Z-0.0081
N18575 X0.8898 Y0.9678 Z-0.0091
N18580 X0.8908 Y0.9679 Z-0.0098
N18585 X0.892 Y0.9681 Z-0.01
N18590 G3 X0.8947 Y0.9716 I-0.0005 J0.0031
N18595 G1 X0.8942 Y0.9749
N18600 X0.8939 Y0.9776
N18605 X0.8936 Y0.9803
N18610 X0.8934 Y0.983
N18615 X0.8931 Y0.9858
N18620 X0.893 Y0.9885
N18625 X0.8928 Y0.9912
N18630 X0.8927 Y0.9939
N18635 X0.8926 Y0.9966
N18640 Y0.9994
N18645 Y1.0021
N18650 X0.8925 Y1.4646
N18655 Y1.4701
N18660 Y1.4755
N18665 Y1.481
N18670 X0.8926 Y1.5
N18675 X0.8925 Y1.519
N18680 Y1.5245
N18685 Y1.5299
N18690 Y1.5354
N18695 X0.8926 Y1.9979
N18700 Y2.0006
N18705 Y2.0034
N18710 X0.8927 Y2.0061
N18715 X0.8928 Y2.0088
N18720 X0.893 Y2.0115
N18725 X0.8931 Y2.0142
N18730 X0.8934 Y2.017
N18735 X0.8936 Y2.0197
N18740 X0.8939 Y2.0224
N18745 X0.8942 Y2.0251
N18750 X0.8947 Y2.0284
N18755 X0.895 Y2.0306
N18760 X0.8954 Y2.0333
N18765 X0.8959 Y2.036
N18770 X0.8964 Y2.0387
N18775 X0.897 Y2.0415
N18780 X0.8975 Y2.0442
N18785 X0.8982 Y2.0469
N18790 X0.8988 Y2.0496
N18795 X0.8995 Y2.0523
N18800 X0.9001 Y2.0545
N18805 X0.9011 Y2.0578
N18810 X0.9019 Y2.0605
N18815 X0.9028 Y2.0635
N18820 X0.9037 Y2.0659
N18825 X0.9046 Y2.0687
N18830 X0.9055 Y2.0712
N18835 X0.9056 Y2.0714
N18840 X0.9066 Y2.0741
N18845 X0.9083 Y2.0782
N18850 X0.9088 Y2.0796
N18855 X0.91 Y2.0823
N18860 X0.911 Y2.0845
N18865 X0.9124 Y2.0877
N18870 X0.9138 Y2.0904
N18875 X0.9151 Y2.0932
N18880 X0.9165 Y2.0959
N18885 X0.918 Y2.0986
N18890 X0.9195 Y2.1013
N18895 X0.9211 Y2.104
N18900 X0.9219 Y2.1054
N18905 X0.9227 Y2.1068
N18910 X0.9246 Y2.1098
N18915 X0.9261 Y2.1122
N18920 X0.9273 Y2.114
N18925 X0.9279 Y2.1149
N18930 X0.93 Y2.118
N18935 X0.9317 Y2.1204
N18940 X0.9327 Y2.1218
N18945 X0.9337 Y2.1231
N18950 X0.9357 Y2.1258
N18955 X0.9379 Y2.1285
N18960 X0.9382 Y2.1289
N18965 X0.9401 Y2.1312
N18970 X0.9424 Y2.134
N18975 X0.9436 Y2.1354
N18980 X0.9464 Y2.1385
N18985 X0.9472 Y2.1394
N18990 X0.9497 Y2.1421
N18995 X0.9518 Y2.1443
