%
(1004)
(Bottom of workpiece)
(T4 D=0.25 CR=0 - ZMIN=0.1 - flat end mill)
N10 G90
N15 G28 G91 Z0
N20 G90

(Face2)
N25 M9
N30 T4 M6
N35 S1000 M3
N40 M9
N45 G0 X2.5787 Y0.5595
N50 Z1.1
N55 Z0.7
N60 G1 Z0.485 F40
N65 X2.5784 Z0.4811
N70 X2.5775 Z0.4773
N75 X2.576 Z0.4737
N80 X2.5739 Z0.4703
N85 X2.5714 Z0.4673
N90 X2.5684 Z0.4648
N95 X2.565 Z0.4627
N100 X2.5614 Z0.4612
N105 X2.5576 Z0.4603
N110 X2.5537 Z0.46
N115 X2.4858
N120 X0.713
N125 X0.6186
N130 G2 Y0.7414 J0.091
N135 G1 X2.5802
N140 X2.5987
N145 G3 Y0.9234 J0.091
N150 G1 X0.6
N155 G2 Y1.1053 J0.091
N160 G1 X2.5987
N165 G3 Y1.2872 J0.091
N170 G1 X0.6
N175 G2 Y1.4691 J0.091
N180 G1 X2.5987
N185 G3 Y1.651 J0.091
N190 G1 X0.6
N195 G2 Y1.8329 J0.091
N200 G1 X2.5987
N205 G3 Y2.0148 J0.091
N210 G1 X0.6
N215 G2 Y2.1967 J0.091
N220 G1 X0.6054
N225 X2.5934
N230 G3 Y2.3786 J0.091
N235 G1 X2.529
N240 X0.6698
N245 X0.6659 Z0.4603
N250 X0.662 Z0.4612
N255 X0.6584 Z0.4627
N260 X0.6551 Z0.4648
N265 X0.6521 Z0.4673
N270 X0.6495 Z0.4703
N275 X0.6475 Z0.4737
N280 X0.646 Z0.4773
N285 X0.6451 Z0.4811
N290 X0.6448 Z0.485
N295 G0 Z0.7
N300 X0.6201 Y0.5595
N305 G1 Z0.385 F40
N310 X0.6204 Z0.3811
N315 X0.6213 Z0.3773
N320 X0.6228 Z0.3737
N325 X0.6248 Z0.3703
N330 X0.6274 Z0.3673
N335 X0.6304 Z0.3648
N340 X0.6337 Z0.3627
N345 X0.6373 Z0.3612
N350 X0.6412 Z0.3603
N355 X0.6451 Z0.36
N360 X0.713
N365 X2.4858
N370 X2.5802
N375 G3 Y0.7414 J0.091
N380 G1 X0.6186
N385 X0.6
N390 G2 Y0.9234 J0.091
N395 G1 X2.5987
N400 G3 Y1.1053 J0.091
N405 G1 X0.6
N410 G2 Y1.2872 J0.091
N415 G1 X2.5987
N420 G3 Y1.4691 J0.091
N425 G1 X0.6
N430 G2 Y1.651 J0.091
N435 G1 X2.5987
N440 G3 Y1.8329 J0.091
N445 G1 X0.6
N450 G2 Y2.0148 J0.091
N455 G1 X2.5987
N460 G3 Y2.1967 J0.091
N465 G1 X2.5934
N470 X0.6054
N475 G2 Y2.3786 J0.091
N480 G1 X0.6698
N485 X2.529
N490 X2.5329 Z0.3603
N495 X2.5367 Z0.3612
N500 X2.5404 Z0.3627
N505 X2.5437 Z0.3648
N510 X2.5467 Z0.3673
N515 X2.5492 Z0.3703
N520 X2.5513 Z0.3737
N525 X2.5528 Z0.3773
N530 X2.5537 Z0.3811
N535 X2.554 Z0.385
N540 G0 Z1.1

(Pocket2)
N545 M9
N550 X1.459 Y1.6033
N555 Z1.1
N560 Z0.5206
N565 G1 Z0.51 F40
N570 G3 X1.4584 Y1.6029 Z0.5042 I0.0586 J-0.1033
N575 X1.4567 Y1.6019 Z0.4988 I0.0592 J-0.1029
N580 X1.454 Y1.6002 Z0.4939 I0.0609 J-0.1019
N585 X1.4505 Y1.5979 Z0.4899 I0.0637 J-0.1002
N590 X1.4464 Y1.595 Z0.487 I0.0672 J-0.0979
N595 X1.4429 Y1.5923 Z0.4856 I0.0712 J-0.095
N600 X1.4394 Y1.5893 Z0.485 I0.0747 J-0.0923
N605 X1.5959 Y1.4107 Z0.472 I0.0783 J-0.0893
N610 X1.4394 Y1.5893 Z0.4589 I-0.0783 J0.0893
N615 X1.5959 Y1.4107 Z0.4459 I0.0783 J-0.0893
N620 X1.4394 Y1.5893 Z0.4329 I-0.0783 J0.0893
N625 X1.5959 Y1.4107 Z0.4199 I0.0783 J-0.0893
N630 X1.4394 Y1.5893 Z0.4068 I-0.0783 J0.0893
N635 X1.5959 Y1.4107 Z0.3938 I0.0783 J-0.0893
N640 X1.4394 Y1.5893 Z0.3808 I-0.0783 J0.0893
N645 X1.5959 Y1.4107 Z0.3678 I0.0783 J-0.0893
N650 X1.4394 Y1.5893 Z0.3547 I-0.0783 J0.0893
N655 X1.5959 Y1.4107 Z0.3417 I0.0783 J-0.0893
N660 X1.4394 Y1.5893 Z0.3287 I-0.0783 J0.0893
N665 X1.5959 Y1.4107 Z0.3156 I0.0783 J-0.0893
N670 X1.4394 Y1.5893 Z0.3026 I-0.0783 J0.0893
N675 X1.5959 Y1.4107 Z0.2896 I0.0783 J-0.0893
N680 X1.4394 Y1.5893 Z0.2766 I-0.0783 J0.0893
N685 X1.5959 Y1.4107 Z0.2635 I0.0783 J-0.0893
N690 X1.6364 Y1.5 Z0.26 I-0.0783 J0.0893
N695 X1.5624 I-0.037
N700 X1.6364 I0.037
N705 G2 X1.6887 Y1.562 I0.0629
N710 G3 X1.6954 Y1.6428 I-0.007 J0.0413
N715 X1.6704 Y1.647 I-0.0249 J-0.0716
N720 G1 X1.5272 Y1.6469
N725 G3 X1.4524 Y1.572 J-0.0749
N730 G1 X1.4525 Y1.4288
N735 G3 X1.5283 Y1.353 I0.0758
N740 G1 X1.6706 Y1.3531
N745 G3 X1.7464 Y1.4289 J0.0758
N750 G1 X1.7463 Y1.5712
N755 G3 X1.6954 Y1.6428 I-0.0758
N760 G2 X1.5863 Y1.7468 I0.0596 J0.1717
N765 G3 X1.4615 Y1.8313 I-0.1248 J-0.05
N770 G1 X1.343 Y1.8312
N775 G3 X1.268 Y1.7563 J-0.0749
N780 G1 X1.2681 Y1.2444
N785 G3 X1.3439 Y1.1687 I0.0757
N790 G1 X1.8549 Y1.1688
N795 G3 X1.9307 Y1.2445 J0.0757
N800 G1 X1.9306 Y1.7556
N805 G3 X1.8548 Y1.8313 I-0.0757
N810 G1 X1.4615
N815 G2 X1.3232 Y1.9234 J0.1498
N820 G3 X1.1849 Y2.0156 I-0.1383 J-0.0576
N825 G1 X1.1586
N830 G3 X1.0837 Y1.9407 J-0.0749
N835 G1 X1.0838 Y1.0604
N840 G3 X1.1599 Y0.9843 I0.0761
N845 G1 X2.0389 Y0.9844
N850 G3 X2.1151 Y1.0605 J0.0761
N855 G1 X2.115 Y1.9396
N860 G3 X2.0389 Y2.0157 I-0.0761
N865 G1 X1.1849 Y2.0156
N870 G2 X1.0565 Y2.1022 J0.1385
N875 G3 X0.9024 Y2.1181 I-0.0812 J-0.0328
N880 G1 X0.9019 Y2.1174
N885 X0.8914 Y2.0977
N890 X0.8832 Y2.0781
N895 X0.8769 Y2.0581
N900 X0.8723 Y2.0384
N905 X0.8698 Y2.019
N910 X0.8687 Y1.9981
N915 X0.869 Y1.4001
N920 X0.8688 Y1.0019
N925 X0.8698 Y0.9812
N930 X0.8725 Y0.9615
N935 X0.877 Y0.9417
N940 X0.8836 Y0.9208
N945 X0.8913 Y0.9025
N950 X0.9034 Y0.8801
N955 X0.9156 Y0.8621
N960 X0.9229 Y0.8526
N965 X0.931 Y0.8436
N970 X0.943 Y0.8317
N975 X0.9519 Y0.8235
N980 X0.9613 Y0.8164
N985 X0.982 Y0.8025
N990 X1.0016 Y0.7921
N995 X1.0213 Y0.7838
N1000 X1.0413 Y0.7775
N1005 X1.0609 Y0.773
N1010 X1.0804 Y0.7704
N1015 X1.1013 Y0.7693
N1020 X1.6993 Y0.7697
N1025 X2.0975 Y0.7694
N1030 X2.1181 Y0.7705
N1035 X2.1379 Y0.7732
N1040 X2.1577 Y0.7776
N1045 X2.1786 Y0.7842
N1050 X2.1969 Y0.792
N1055 X2.2193 Y0.804
N1060 X2.2373 Y0.8163
N1065 X2.2468 Y0.8235
N1070 X2.2558 Y0.8317
N1075 X2.2677 Y0.8436
N1080 X2.2758 Y0.8526
N1085 X2.283 Y0.8619
N1090 X2.2968 Y0.8826
N1095 X2.3073 Y0.9023
N1100 X2.3155 Y0.9219
N1105 X2.3218 Y0.9419
N1110 X2.3264 Y0.9616
N1115 X2.329 Y0.981
N1120 X2.33 Y1.0019
N1125 X2.3297 Y1.5999
N1130 X2.33 Y1.9981
N1135 X2.3289 Y2.0188
N1140 X2.3262 Y2.0385
N1145 X2.3218 Y2.0583
N1150 X2.3151 Y2.0792
N1155 X2.3074 Y2.0975
N1160 X2.2953 Y2.1199
N1165 X2.2831 Y2.1379
N1170 X2.2758 Y2.1474
N1175 X2.2677 Y2.1564
N1180 X2.2558 Y2.1683
N1185 X2.2468 Y2.1765
N1190 X2.2375 Y2.1836
N1195 X2.2168 Y2.1975
N1200 X2.1971 Y2.2079
N1205 X2.1774 Y2.2162
N1210 X2.1575 Y2.2225
N1215 X2.1378 Y2.227
N1220 X2.1183 Y2.2296
N1225 X2.0975 Y2.2307
N1230 X1.4995 Y2.2303
N1235 X1.1013 Y2.2306
N1240 X1.0806 Y2.2295
N1245 X1.0609 Y2.2268
N1250 X1.0411 Y2.2224
N1255 X1.0201 Y2.2158
N1260 X1.0018 Y2.208
N1265 X0.9795 Y2.196
N1270 X0.9614 Y2.1837
N1275 X0.9519 Y2.1765
N1280 X0.943 Y2.1683
N1285 X0.931 Y2.1564
N1290 X0.9229 Y2.1474
N1295 X0.9158 Y2.1381
N1300 X0.9024 Y2.1181
N1305 X0.9019 Y2.1174
N1310 X0.9002 Y2.1142 Z0.2604
N1315 X0.8986 Y2.1112 Z0.2613
N1320 X0.897 Y2.1083 Z0.2627
N1325 X0.8956 Y2.1056 Z0.2645
N1330 X0.8943 Y2.1031 Z0.2667
N1335 X0.8931 Y2.1009 Z0.2694
N1340 X0.8922 Y2.0992 Z0.2723
N1345 X0.8914 Y2.0977 Z0.2755
N1350 X0.891 Y2.0968 Z0.2786
N1355 X0.8908 Y2.0962 Z0.2818
N1360 X0.8907 Y2.096 Z0.285
N1365 G0 Z0.7
N1370 X1.5039 Y1.6033
N1375 Z0.41
N1380 G3 X1.5033 Y1.6029 Z0.4042 I0.0586 J-0.1033 F40
N1385 X1.5016 Y1.6019 Z0.3988 I0.0592 J-0.1029
N1390 X1.4989 Y1.6003 Z0.3939 I0.0609 J-0.1019
N1395 X1.4954 Y1.5979 Z0.3899 I0.0636 J-0.1003
N1400 X1.4913 Y1.595 Z0.387 I0.0672 J-0.0979
N1405 X1.4878 Y1.5923 Z0.3856 I0.0712 J-0.095
N1410 X1.4843 Y1.5893 Z0.385 I0.0747 J-0.0923
N1415 X1.6408 Y1.4107 Z0.372 I0.0783 J-0.0893
N1420 X1.4843 Y1.5893 Z0.3589 I-0.0783 J0.0893
N1425 X1.6408 Y1.4107 Z0.3459 I0.0783 J-0.0893
N1430 X1.4843 Y1.5893 Z0.3329 I-0.0783 J0.0893
N1435 X1.6408 Y1.4107 Z0.3199 I0.0783 J-0.0893
N1440 X1.4843 Y1.5893 Z0.3068 I-0.0783 J0.0893
N1445 X1.6408 Y1.4107 Z0.2938 I0.0783 J-0.0893
N1450 X1.4843 Y1.5893 Z0.2808 I-0.0783 J0.0893
N1455 X1.6408 Y1.4107 Z0.2678 I0.0783 J-0.0893
N1460 X1.4843 Y1.5893 Z0.2547 I-0.0783 J0.0893
N1465 X1.6408 Y1.4107 Z0.2417 I0.0783 J-0.0893
N1470 X1.4843 Y1.5893 Z0.2287 I-0.0783 J0.0893
N1475 X1.6408 Y1.4107 Z0.2156 I0.0783 J-0.0893
N1480 X1.4843 Y1.5893 Z0.2026 I-0.0783 J0.0893
N1485 X1.6408 Y1.4107 Z0.1896 I0.0783 J-0.0893
N1490 X1.4843 Y1.5893 Z0.1766 I-0.0783 J0.0893
N1495 X1.6408 Y1.4107 Z0.1635 I0.0783 J-0.0893
N1500 X1.6813 Y1.5 Z0.16 I-0.0783 J0.0893
N1505 G1 Y1.5061
N1510 G3 X1.6055 Y1.5819 I-0.0758
N1515 G1 X1.5923
N1520 G3 X1.5174 Y1.507 J-0.0749
N1525 G1 Y1.4939
N1530 G3 X1.5933 Y1.4181 I0.0758
N1535 G1 X1.6054
N1540 G3 X1.6813 Y1.4939 J0.0758
N1545 G1 Y1.5
N1550 G2 X1.7611 Y1.6229 I0.1345
N1555 G3 X1.7307 Y1.7662 I-0.0304 J0.0684
N1560 G1 X1.4081 Y1.7663
N1565 G3 X1.3332 Y1.6914 J-0.0749
N1570 G1 X1.3331 Y1.3096
N1575 G3 X1.409 Y1.2338 I0.0758
N1580 G1 X1.7897 Y1.2337
N1585 G3 X1.8656 Y1.3096 J0.0758
N1590 G1 Y1.6904
N1595 G3 X1.7898 Y1.7662 I-0.0758
N1600 G1 X1.7307
N1605 G2 X1.5925 Y1.8584 J0.1498
N1610 G3 X1.4543 Y1.9505 I-0.1382 J-0.0576
N1615 G1 X1.2247
N1620 G3 X1.1488 Y1.8746 J-0.0759
N1625 G1 Y1.1253
N1630 G3 X1.2248 Y1.0495 I0.0759
N1635 G1 X1.974
N1640 G3 X2.0499 Y1.1254 J0.0759
N1645 G1 Y1.8747
N1650 G3 X1.974 Y1.9505 I-0.0759
N1655 G1 X1.4543
N1660 G2 X1.31 Y2.0466 J0.1563
N1665 G3 X1.1658 Y2.1427 I-0.1441 J-0.06
N1670 G1 X1.1022
N1675 X1.0827 Y2.1412
N1680 X1.067 Y2.1384
N1685 X1.047 Y2.132
N1690 X1.0391 Y2.1285
N1695 X1.03 Y2.1239
N1700 X1.0267 Y2.1219
N1705 X1.0128 Y2.1124
N1710 X1.0024 Y2.1035
N1715 X0.9958 Y2.0969
N1720 X0.987 Y2.0865
N1725 X0.9775 Y2.0726
N1730 X0.9755 Y2.0693
N1735 X0.9709 Y2.0603
N1740 X0.9674 Y2.0524
N1745 X0.961 Y2.0325
N1750 X0.9609 Y2.0321
N1755 X0.958 Y2.0165
N1760 X0.9566 Y1.9974
N1765 X0.9565 Y1.2502
N1770 X0.9567 Y1.0028
N1775 X0.9582 Y0.9833
N1780 X0.961 Y0.9677
N1785 X0.9674 Y0.9476
N1790 X0.9709 Y0.9397
N1795 X0.9755 Y0.9307
N1800 X0.9775 Y0.9273
N1805 X0.987 Y0.9135
N1810 X0.9958 Y0.9031
N1815 X1.0024 Y0.8965
N1820 X1.0128 Y0.8876
N1825 X1.0267 Y0.8781
N1830 X1.03 Y0.8761
N1835 X1.0391 Y0.8715
N1840 X1.047 Y0.868
N1845 X1.0669 Y0.8617
N1850 X1.0673 Y0.8616
N1855 X1.0828 Y0.8586
N1860 X1.102 Y0.8572
N1865 X1.8492
N1870 X2.0966 Y0.8573
N1875 X2.116 Y0.8588
N1880 X2.1317 Y0.8616
N1885 X2.1518 Y0.868
N1890 X2.1596 Y0.8715
N1895 X2.1687 Y0.8761
N1900 X2.172 Y0.8781
N1905 X2.1859 Y0.8876
N1910 X2.1963 Y0.8965
N1915 X2.2029 Y0.9031
N1920 X2.2117 Y0.9135
N1925 X2.2213 Y0.9274
N1930 X2.2233 Y0.9307
N1935 X2.2279 Y0.9397
N1940 X2.2314 Y0.9476
N1945 X2.2377 Y0.9675
N1950 X2.2378 Y0.9679
N1955 X2.2407 Y0.9835
N1960 X2.2421 Y1.0026
N1965 X2.2422 Y1.7498
N1970 X2.242 Y1.9972
N1975 X2.2405 Y2.0167
N1980 X2.2377 Y2.0324
N1985 X2.2314 Y2.0524
N1990 X2.2279 Y2.0603
N1995 X2.2233 Y2.0693
N2000 X2.2213 Y2.0727
N2005 X2.2117 Y2.0865
N2010 X2.2029 Y2.0969
N2015 X2.1963 Y2.1035
N2020 X2.1859 Y2.1124
N2025 X2.172 Y2.1219
N2030 X2.1687 Y2.1239
N2035 X2.1596 Y2.1285
N2040 X2.1518 Y2.132
N2045 X2.1319 Y2.1383
N2050 X2.1314 Y2.1384
N2055 X2.1159 Y2.1414
N2060 X2.0967 Y2.1428
N2065 X1.3496
N2070 X1.1658 Y2.1427
N2075 G3 X1.1603 Y2.1421 Z0.1606 J-0.025
N2080 X1.1553 Y2.1404 Z0.1625 I0.0055 J-0.0244
N2085 X1.1512 Y2.138 Z0.1655 I0.0105 J-0.0227
N2090 X1.1482 Y2.1355 Z0.1694 I0.0146 J-0.0203
N2095 X1.1462 Y2.1332 Z0.1742 I0.0176 J-0.0177
N2100 X1.1451 Y2.1317 Z0.1794 I0.0196 J-0.0155
N2105 X1.1448 Y2.1312 Z0.185 I0.0207 J-0.014
N2110 G0 Z0.7
N2115 X1.5945 Y1.4121
N2120 Z0.31
N2125 G3 X1.5949 Y1.4125 Z0.3045 I-0.0799 J0.0879 F40
N2130 X1.5962 Y1.4137 Z0.2994 I-0.0803 J0.0875
N2135 X1.5983 Y1.4157 Z0.2947 I-0.0816 J0.0863
N2140 X1.6009 Y1.4184 Z0.2908 I-0.0837 J0.0843
N2145 X1.604 Y1.4218 Z0.2877 I-0.0863 J0.0816
N2150 X1.6073 Y1.4257 Z0.2858 I-0.0894 J0.0782
N2155 X1.6106 Y1.43 Z0.285 I-0.0927 J0.0743
N2160 X1.4187 Y1.57 Z0.272 I-0.096 J0.07
N2165 X1.6106 Y1.43 Z0.2589 I0.096 J-0.07
N2170 X1.4187 Y1.57 Z0.2459 I-0.096 J0.07
N2175 X1.6106 Y1.43 Z0.2329 I0.096 J-0.07
N2180 X1.4187 Y1.57 Z0.2199 I-0.096 J0.07
N2185 X1.6106 Y1.43 Z0.2068 I0.096 J-0.07
N2190 X1.4187 Y1.57 Z0.1938 I-0.096 J0.07
N2195 X1.6106 Y1.43 Z0.1808 I0.096 J-0.07
N2200 X1.4187 Y1.57 Z0.1678 I-0.096 J0.07
N2205 X1.6106 Y1.43 Z0.1547 I0.096 J-0.07
N2210 X1.4187 Y1.57 Z0.1417 I-0.096 J0.07
N2215 X1.6106 Y1.43 Z0.1287 I0.096 J-0.07
N2220 X1.4187 Y1.57 Z0.1156 I-0.096 J0.07
N2225 X1.6106 Y1.43 Z0.1026 I0.096 J-0.07
N2230 X1.6334 Y1.5 Z0.1 I-0.096 J0.07
N2235 X1.5654 I-0.034
N2240 X1.6334 I0.034
N2245 G2 X1.6811 Y1.5584 I0.0595
N2250 G3 X1.6862 Y1.6336 I-0.0077 J0.0383
N2255 X1.6613 Y1.6378 I-0.0249 J-0.0716
N2260 G1 X1.5365
N2265 G3 X1.4616 Y1.5629 J-0.0749
N2270 G1 Y1.438
N2275 G3 X1.5374 Y1.3622 I0.0758
N2280 G1 X1.6613
N2285 G3 X1.7372 Y1.438 J0.0758
N2290 G1 Y1.562
N2295 G3 X1.6862 Y1.6336 I-0.0758
N2300 G2 X1.5772 Y1.7377 I0.0597 J0.1716
N2305 G3 X1.4524 Y1.8221 I-0.1248 J-0.05
N2310 G1 X1.3522
N2315 G3 X1.2773 Y1.7472 J-0.0749
N2320 G1 Y1.254
N2325 G3 X1.3534 Y1.1779 I0.0761
N2330 G1 X1.8454
N2335 G3 X1.9215 Y1.254 J0.0761
N2340 G1 Y1.746
N2345 G3 X1.8454 Y1.8221 I-0.0761
N2350 G1 X1.4524
N2355 G2 X1.3125 Y1.9151 J0.1518
N2360 G3 X1.1716 Y2.0067 I-0.1378 J-0.0579
N2365 G1 X1.1066 Y2.0054
N2370 X1.0983 Y2.0037
N2375 X1.0967 Y2.0027
N2380 X1.0957 Y2.001
N2385 X1.094 Y1.9928
N2390 X1.09 Y1.7991
N2395 Y1.2009
N2400 X1.094 Y1.0072
N2405 X1.0957 Y0.999
N2410 X1.0967 Y0.9973
N2415 X1.0983 Y0.9963
N2420 X1.1066 Y0.9946
N2425 X1.3002 Y0.9907
N2430 X1.8985
N2435 X2.0921 Y0.9946
N2440 X2.1004 Y0.9963
N2445 X2.102 Y0.9973
N2450 X2.1031 Y0.999
N2455 X2.1047 Y1.0072
N2460 X2.1087 Y1.2009
N2465 Y1.7991
N2470 X2.1047 Y1.9928
N2475 X2.1031 Y2.001
N2480 X2.102 Y2.0027
N2485 X2.1004 Y2.0037
N2490 X2.0921 Y2.0054
N2495 X1.8985 Y2.0093
N2500 X1.3002
N2505 X1.1716 Y2.0067
N2510 G3 X1.1661 Y2.006 Z0.1006 I0.0005 J-0.025
N2515 X1.1611 Y2.0042 Z0.1025 I0.006 J-0.0243
N2520 X1.1571 Y2.0017 Z0.1055 I0.011 J-0.0225
N2525 X1.1541 Y1.9991 Z0.1094 I0.015 J-0.02
N2530 X1.1522 Y1.9968 Z0.1142 I0.018 J-0.0174
N2535 X1.1511 Y1.9953 Z0.1194 I0.0199 J-0.0151
N2540 X1.1508 Y1.9948 Z0.125 I0.021 J-0.0136
N2545 G0 Z1.1

(Contour1)
N2550 M9
N2555 X0.8716 Y0.9988
N2560 Z1.1
N2565 Z0.4243
N2570 G1 Z0.3321 F40
N2575 X0.8713 Z0.3294
N2580 X0.8704 Y0.9987 Z0.3269
N2585 X0.869 Y0.9985 Z0.3246
N2590 X0.867 Y0.9982 Z0.3226
N2595 X0.8648 Y0.9979 Z0.3212
N2600 X0.8622 Y0.9976 Z0.3203
N2605 X0.8595 Y0.9972 Z0.32
N2610 G3 X0.8381 Y0.9691 I0.0034 J-0.0248
N2615 G1 X0.8391 Y0.9619
N2620 X0.8404 Y0.954
N2625 X0.842 Y0.946
N2630 X0.8438 Y0.938
N2635 X0.8459 Y0.9301
N2640 X0.8461 Y0.9294
N2645 X0.8483 Y0.9221
N2650 X0.8509 Y0.9141
N2655 X0.8538 Y0.9061
N2660 X0.8541 Y0.9055
N2665 X0.857 Y0.8982
N2670 X0.8606 Y0.8902
N2675 X0.862 Y0.887
N2680 X0.8644 Y0.8822
N2685 X0.8686 Y0.8743
N2690 X0.87 Y0.8717
N2695 X0.8731 Y0.8663
N2700 X0.8738 Y0.8651
N2705 X0.8741 Y0.8646
N2710 X0.8742 Y0.8645
N2715 X0.8747 Y0.8643
N2720 X0.8755 Y0.8638
N2725 X0.878 Y0.8625
N2730 X0.885 Y0.8583
N2735 X0.8859 Y0.8577
N2740 X0.8939 Y0.852
N2745 X0.896 Y0.8504
N2750 X0.9019 Y0.8452
N2755 X0.9049 Y0.8424
N2760 X0.9099 Y0.8374
N2765 X0.9368 Y0.8105
N2770 X0.9417 Y0.8055
N2775 X0.9446 Y0.8025
N2780 X0.9497 Y0.7966
N2785 X0.9514 Y0.7946
N2790 X0.9571 Y0.7866
N2795 X0.9577 Y0.7856
N2800 X0.9619 Y0.7786
N2805 X0.9632 Y0.7762
N2810 X0.9636 Y0.7753
N2815 X0.9639 Y0.7748
N2820 X0.964 Y0.7747
N2825 X0.9644 Y0.7745
N2830 X0.9657 Y0.7738
N2835 X0.971 Y0.7706
N2840 X0.9736 Y0.7692
N2845 X0.9816 Y0.765
N2850 X0.9864 Y0.7627
N2855 X0.9896 Y0.7612
N2860 X0.9975 Y0.7577
N2865 X1.0048 Y0.7547
N2870 X1.0055 Y0.7544
N2875 X1.0135 Y0.7515
N2880 X1.0215 Y0.7489
N2885 X1.0287 Y0.7467
N2890 X1.0294 Y0.7465
N2895 X1.0374 Y0.7444
N2900 X1.0454 Y0.7426
N2905 X1.0533 Y0.741
N2910 X1.0613 Y0.7397
N2915 X1.0684 Y0.7388
N2920 X1.0693 Y0.7387
N2925 X1.0773 Y0.7378
N2930 X1.0852 Y0.7373
N2935 X1.0932 Y0.7369
N2940 X1.1012 Y0.7368
N2945 X1.4997
N2950 X1.5954
N2955 X1.6034
N2960 X1.699
N2965 X2.0976
N2970 X2.1055 Y0.7369
N2975 X2.1135 Y0.7373
N2980 X2.1215 Y0.7378
N2985 X2.1294 Y0.7387
N2990 X2.1303 Y0.7388
N2995 X2.1374 Y0.7397
N3000 X2.1454 Y0.741
N3005 X2.1534 Y0.7426
N3010 X2.1613 Y0.7444
N3015 X2.1693 Y0.7465
N3020 X2.17 Y0.7467
N3025 X2.1773 Y0.7489
N3030 X2.1852 Y0.7515
N3035 X2.1932 Y0.7544
N3040 X2.1939 Y0.7547
N3045 X2.2012 Y0.7577
N3050 X2.2092 Y0.7612
N3055 X2.2123 Y0.7627
N3060 X2.2171 Y0.765
N3065 X2.2251 Y0.7692
N3070 X2.2277 Y0.7706
N3075 X2.2331 Y0.7738
N3080 X2.2343 Y0.7745
N3085 X2.2347 Y0.7747
N3090 X2.2348 Y0.7748
N3095 X2.2351 Y0.7753
N3100 X2.2355 Y0.7762
N3105 X2.2368 Y0.7786
N3110 X2.241 Y0.7856
N3115 X2.2417 Y0.7866
N3120 X2.2474 Y0.7946
N3125 X2.249 Y0.7966
N3130 X2.2541 Y0.8025
N3135 X2.257 Y0.8055
N3140 X2.2619 Y0.8105
N3145 X2.2889 Y0.8374
N3150 X2.2938 Y0.8424
N3155 X2.2968 Y0.8452
N3160 X2.3027 Y0.8504
N3165 X2.3048 Y0.852
N3170 X2.3128 Y0.8577
N3175 X2.3138 Y0.8583
N3180 X2.3208 Y0.8625
N3185 X2.3232 Y0.8638
N3190 X2.324 Y0.8643
N3195 X2.3246 Y0.8645
N3200 Y0.8646
N3205 X2.3249 Y0.8651
N3210 X2.3256 Y0.8663
N3215 X2.3287 Y0.8717
N3220 X2.3301 Y0.8743
N3225 X2.3344 Y0.8822
N3230 X2.3367 Y0.887
N3235 X2.3382 Y0.8902
N3240 X2.3417 Y0.8982
N3245 X2.3447 Y0.9055
N3250 X2.3449 Y0.9061
N3255 X2.3478 Y0.9141
N3260 X2.3505 Y0.9221
N3265 X2.3526 Y0.9294
N3270 X2.3528 Y0.9301
N3275 X2.3549 Y0.938
N3280 X2.3567 Y0.946
N3285 X2.3583 Y0.954
N3290 X2.3596 Y0.9619
N3295 X2.3606 Y0.9691
N3300 X2.3607 Y0.9699
N3305 X2.3615 Y0.9779
N3310 X2.3621 Y0.9859
N3315 X2.3624 Y0.9938
N3320 X2.3626 Y1.0018
N3325 Y1.4004
N3330 Y1.496
N3335 Y1.504
N3340 Y1.5996
N3345 Y1.9982
N3350 X2.3624 Y2.0062
N3355 X2.3621 Y2.0141
N3360 X2.3615 Y2.0221
N3365 X2.3607 Y2.0301
N3370 X2.3606 Y2.0309
N3375 X2.3596 Y2.0381
N3380 X2.3583 Y2.046
N3385 X2.3567 Y2.054
N3390 X2.3549 Y2.062
N3395 X2.3528 Y2.0699
N3400 X2.3526 Y2.0706
N3405 X2.3505 Y2.0779
N3410 X2.3478 Y2.0859
N3415 X2.3449 Y2.0939
N3420 X2.3447 Y2.0945
N3425 X2.3417 Y2.1018
N3430 X2.3382 Y2.1098
N3435 X2.3367 Y2.113
N3440 X2.3344 Y2.1178
N3445 X2.3301 Y2.1257
N3450 X2.3287 Y2.1283
N3455 X2.3256 Y2.1337
N3460 X2.3208 Y2.1416
N3465 X2.3207 Y2.1417
N3470 X2.3154 Y2.1496
N3475 X2.3128 Y2.1533
N3480 X2.3096 Y2.1576
N3485 X2.3048 Y2.1638
N3490 X2.3034 Y2.1656
N3495 X2.2968 Y2.1733
N3500 X2.2966 Y2.1736
N3505 X2.2893 Y2.1815
N3510 X2.2889 Y2.182
N3515 X2.2814 Y2.1895
N3520 X2.2809 Y2.19
N3525 X2.2729 Y2.1973
N3530 X2.2727 Y2.1975
N3535 X2.265 Y2.204
N3540 X2.2632 Y2.2054
N3545 X2.257 Y2.2103
N3550 X2.2527 Y2.2134
N3555 X2.249 Y2.216
N3560 X2.241 Y2.2213
N3565 Y2.2214
N3570 X2.2331 Y2.2262
N3575 X2.2277 Y2.2294
N3580 X2.2251 Y2.2308
N3585 X2.2171 Y2.235
N3590 X2.2123 Y2.2373
N3595 X2.2092 Y2.2388
N3600 X2.2012 Y2.2423
N3605 X2.1939 Y2.2453
N3610 X2.1932 Y2.2456
N3615 X2.1852 Y2.2485
N3620 X2.1773 Y2.2511
N3625 X2.17 Y2.2533
N3630 X2.1693 Y2.2535
N3635 X2.1613 Y2.2556
N3640 X2.1534 Y2.2574
N3645 X2.1454 Y2.259
N3650 X2.1374 Y2.2603
N3655 X2.1303 Y2.2612
N3660 X2.1294 Y2.2613
N3665 X2.1215 Y2.2622
N3670 X2.1135 Y2.2627
N3675 X2.1055 Y2.2631
N3680 X2.0976 Y2.2632
N3685 X1.699
N3690 X1.6034
N3695 X1.5954
N3700 X1.4997
N3705 X1.1012
N3710 X1.0932 Y2.2631
N3715 X1.0852 Y2.2627
N3720 X1.0773 Y2.2622
N3725 X1.0693 Y2.2613
N3730 X1.0684 Y2.2612
N3735 X1.0613 Y2.2603
N3740 X1.0533 Y2.259
N3745 X1.0454 Y2.2574
N3750 X1.0374 Y2.2556
N3755 X1.0294 Y2.2535
N3760 X1.0287 Y2.2533
N3765 X1.0215 Y2.2511
N3770 X1.0135 Y2.2485
N3775 X1.0055 Y2.2456
N3780 X1.0048 Y2.2453
N3785 X0.9975 Y2.2423
N3790 X0.9896 Y2.2388
N3795 X0.9864 Y2.2373
N3800 X0.9816 Y2.235
N3805 X0.9736 Y2.2308
N3810 X0.971 Y2.2294
N3815 X0.9657 Y2.2262
N3820 X0.9644 Y2.2255
N3825 X0.964 Y2.2253
N3830 X0.9639 Y2.2252
N3835 X0.9636 Y2.2247
N3840 X0.9632 Y2.2238
N3845 X0.9619 Y2.2214
N3850 X0.9577 Y2.2144
N3855 X0.9571 Y2.2134
N3860 X0.9514 Y2.2054
N3865 X0.9497 Y2.2034
N3870 X0.9446 Y2.1975
N3875 X0.9417 Y2.1945
N3880 X0.9368 Y2.1895
N3885 X0.9099 Y2.1626
N3890 X0.9049 Y2.1576
N3895 X0.9019 Y2.1548
N3900 X0.896 Y2.1496
N3905 X0.8939 Y2.148
N3910 X0.8859 Y2.1423
N3915 X0.885 Y2.1417
N3920 X0.878 Y2.1375
N3925 X0.8755 Y2.1362
N3930 X0.8747 Y2.1357
N3935 X0.8742 Y2.1355
N3940 X0.8741 Y2.1354
N3945 X0.8738 Y2.1349
N3950 X0.8731 Y2.1337
N3955 X0.87 Y2.1283
N3960 X0.8686 Y2.1257
N3965 X0.8644 Y2.1178
N3970 X0.862 Y2.113
N3975 X0.8606 Y2.1098
N3980 X0.857 Y2.1018
N3985 X0.8541 Y2.0945
N3990 X0.8538 Y2.0939
N3995 X0.8509 Y2.0859
N4000 X0.8483 Y2.0779
N4005 X0.8461 Y2.0706
N4010 X0.8459 Y2.0699
N4015 X0.8438 Y2.062
N4020 X0.842 Y2.054
N4025 X0.8404 Y2.046
N4030 X0.8391 Y2.0381
N4035 X0.8381 Y2.0309
N4040 X0.838 Y2.0301
N4045 X0.8372 Y2.0221
N4050 X0.8366 Y2.0141
N4055 X0.8363 Y2.0062
N4060 X0.8362 Y1.9982
N4065 Y1.5996
N4070 Y1.504
N4075 Y1.496
N4080 Y1.4004
N4085 Y1.0018
N4090 X0.8363 Y0.9938
N4095 X0.8366 Y0.9859
N4100 X0.8372 Y0.9779
N4105 X0.838 Y0.9699
N4110 X0.8381 Y0.9691
N4115 X0.8392 Y0.9615
N4120 X0.8405 Y0.954
N4125 X0.842 Y0.9465
N4130 X0.8437 Y0.939 Z0.3199
N4135 X0.8455 Y0.9319
N4140 X0.8475 Y0.9249
N4145 X0.8499 Y0.9175 Z0.3198
N4150 X0.8525 Y0.9102
N4155 X0.8552 Y0.9031 Z0.3197
N4160 X0.8581 Y0.8961
N4165 X0.8612 Y0.8894 Z0.3196
N4170 X0.8644 Y0.8828 Z0.3195
N4175 X0.868 Y0.8759 Z0.3194
N4180 X0.8718 Y0.8692 Z0.3193
N4185 X0.8738 Y0.8657
N4190 X0.8744 Y0.8648
N4195 X0.8747 Y0.8643
N4200 X0.8748 Y0.8642
N4205 X0.8751 Y0.8641
N4210 X0.8769 Y0.8631 Z0.3192
N4215 X0.8838 Y0.8591 Z0.3191
N4220 X0.8903 Y0.8547 Z0.319
N4225 X0.8965 Y0.85 Z0.3189
N4230 X0.902 Y0.8452 Z0.3188
N4235 X0.9072 Y0.8401 Z0.3187
N4240 X0.9123 Y0.835 Z0.3185
N4245 X0.9175 Y0.8298 Z0.3184
N4250 X0.9225 Y0.8248 Z0.3183
N4255 X0.9275 Y0.8198 Z0.3181
N4260 X0.9327 Y0.8146 Z0.318
N4265 X0.9378 Y0.8095 Z0.3178
N4270 X0.9429 Y0.8044 Z0.3177
N4275 X0.9478 Y0.799 Z0.3175
N4280 X0.9525 Y0.7931 Z0.3174
N4285 X0.9569 Y0.7869 Z0.3172
N4290 X0.9611 Y0.78 Z0.317
N4295 X0.9621 Y0.7782 Z0.3169
N4300 X0.9626 Y0.7773
N4305 X0.9627 Y0.7771
N4310 X0.9628 Y0.777
N4315 X0.9635 Y0.7766
N4320 X0.967 Y0.7745 Z0.3168
N4325 X0.9735 Y0.7709 Z0.3166
N4330 X0.98 Y0.7675 Z0.3164
N4335 X0.9869 Y0.7642 Z0.3162
N4340 X0.9904 Y0.7626 Z0.3161
N4345 X0.9939 Y0.761 Z0.316
N4350 X0.9974 Y0.7596 Z0.3159
N4355 X1.0009 Y0.7582 Z0.3158
N4360 X1.0044 Y0.7568 Z0.3157
N4365 X1.0079 Y0.7555 Z0.3156
N4370 X1.0114 Y0.7542 Z0.3155
N4375 X1.0149 Y0.7531 Z0.3154
N4380 X1.0183 Y0.7519 Z0.3153
N4385 X1.0219 Y0.7508 Z0.3152
N4390 X1.0255 Y0.7498 Z0.3151
N4395 X1.0292 Y0.7488 Z0.315
N4400 X1.0329 Y0.7478 Z0.3148
N4405 X1.0366 Y0.7469 Z0.3147
N4410 X1.0403 Y0.746 Z0.3146
N4415 X1.044 Y0.7452 Z0.3145
N4420 X1.0477 Y0.7445 Z0.3144
N4425 X1.0514 Y0.7438 Z0.3143
N4430 X1.055 Y0.7432 Z0.3141
N4435 X1.0586 Y0.7427 Z0.314
N4440 X1.0622 Y0.7421 Z0.3139
N4445 X1.0658 Y0.7417 Z0.3138
N4450 X1.0696 Y0.7413 Z0.3137
N4455 X1.0734 Y0.7409 Z0.3136
N4460 X1.0771 Y0.7406 Z0.3134
N4465 X1.0809 Y0.7403 Z0.3133
N4470 X1.0847 Y0.7401 Z0.3132
N4475 X1.0884 Y0.74 Z0.3131
N4480 X1.0922 Y0.7399 Z0.3129
N4485 X1.096 Z0.3128
N4490 X1.0995 Z0.3127
N4495 X1.1031 Z0.3126
N4500 X1.1066 Z0.3124
N4505 X1.1102 Y0.74 Z0.3123
N4510 X1.1137 Y0.7401 Z0.3122
N4515 X1.1172 Z0.3121
N4520 X1.1207 Y0.7402 Z0.3119
N4525 X1.1242 Z0.3118
N4530 X1.1277 Y0.7403 Z0.3117
N4535 X1.1312 Z0.3116
N4540 X1.1347 Y0.7404 Z0.3115
N4545 X1.1382 Z0.3113
N4550 X1.1452 Y0.7405 Z0.3111
N4555 X1.1557 Y0.7407 Z0.3107
N4560 X1.1627 Y0.7408 Z0.3105
N4565 X1.1662 Y0.7409 Z0.3104
N4570 X1.1732 Y0.741 Z0.3101
N4575 X1.1837 Y0.7411 Z0.3097
N4580 X1.1907 Y0.7413 Z0.3095
N4585 X1.1942 Z0.3094
N4590 X1.2012 Y0.7414 Z0.3091
N4595 X1.2117 Y0.7416 Z0.3088
N4600 X1.2187 Y0.7417 Z0.3085
N4605 X1.2222 Y0.7418 Z0.3084
N4610 X1.2292 Y0.7419 Z0.3082
N4615 X1.2397 Y0.742 Z0.3078
N4620 X1.2467 Y0.7421 Z0.3075
N4625 X1.2502 Y0.7422 Z0.3074
N4630 X1.2572 Y0.7423 Z0.3072
N4635 X1.2782 Y0.7426 Z0.3064
N4640 X1.2817 Y0.7427 Z0.3063
N4645 X1.2887 Y0.7428 Z0.3061
N4650 X1.2922 Y0.7429 Z0.306
N4655 X1.2992 Y0.743 Z0.3057
N4660 X1.3202 Y0.7433 Z0.305
N4665 X1.3307 Y0.7435 Z0.3046
N4670 X1.3377 Y0.7436 Z0.3044
N4675 X1.3587 Y0.744 Z0.3036
N4680 X1.3657 Y0.7441 Z0.3034
N4685 X1.3972 Y0.7446 Z0.3023
N4690 X1.4497 Y0.7455 Z0.3005
N4695 X1.4672 Y0.7458 Z0.2998
N4700 X1.5162 Y0.7466 Z0.2981
N4705 X1.5197 Y0.7467 Z0.298
N4710 X1.5407 Y0.7471 Z0.2973
N4715 X1.5442 Z0.2972
N4720 X1.5547 Y0.7473 Z0.2968
N4725 X1.5617 Y0.7475 Z0.2965
N4730 X1.5827 Y0.7479 Z0.2958
N4735 X1.5897 Y0.748 Z0.2956
N4740 X1.5967 Y0.7481 Z0.2953
N4745 X1.6002 Y0.7482 Z0.2952
N4750 X1.6107 Y0.7484 Z0.2948
N4755 X1.6142 Z0.2947
N4760 X1.6212 Y0.7486 Z0.2945
N4765 X1.6422 Y0.7489 Z0.2937
N4770 X1.6492 Y0.7491 Z0.2935
N4775 X1.6702 Y0.7495 Z0.2928
N4780 X1.6772 Y0.7496 Z0.2925
N4785 X1.6877 Y0.7498 Z0.2921
N4790 X1.6947 Y0.7499 Z0.2919
N4795 X1.6982 Y0.75 Z0.2918
N4800 X1.7052 Y0.7501 Z0.2915
N4805 X1.7157 Y0.7503 Z0.2912
N4810 X1.7227 Y0.7504 Z0.2909
N4815 X1.7262 Y0.7505 Z0.2908
N4820 X1.7332 Y0.7506 Z0.2906
N4825 X1.7437 Y0.7508 Z0.2902
N4830 X1.7507 Y0.7509 Z0.2899
N4835 X1.7542 Y0.751 Z0.2898
N4840 X1.7612 Y0.7511 Z0.2896
N4845 X1.7682 Y0.7512 Z0.2893
N4850 X1.7717 Y0.7513 Z0.2892
N4855 X1.7752 Y0.7514 Z0.2891
N4860 X1.7787 Z0.289
N4865 X1.7822 Y0.7515 Z0.2888
N4870 X1.7857 Y0.7516 Z0.2887
N4875 X1.7892 Y0.7517 Z0.2886
N4880 X1.7927 Z0.2885
N4885 X1.7962 Y0.7518 Z0.2884
N4890 X1.7997 Y0.7519 Z0.2882
N4895 X1.8032 Z0.2881
N4900 X1.8067 Y0.752 Z0.288
N4905 X1.8102 Y0.7521 Z0.2879
N4910 X1.8137 Z0.2877
N4915 X1.8172 Y0.7522 Z0.2876
N4920 X1.8207 Y0.7523 Z0.2875
N4925 X1.8242 Z0.2874
N4930 X1.8277 Y0.7524 Z0.2873
N4935 X1.8312 Y0.7525 Z0.2871
N4940 X1.8347 Y0.7526 Z0.287
N4945 X1.8382 Z0.2869
N4950 X1.8417 Y0.7527 Z0.2868
N4955 X1.8452 Y0.7528 Z0.2867
N4960 X1.8487 Z0.2866
N4965 X1.8522 Y0.7529 Z0.2864
N4970 X1.8557 Z0.2863
N4975 X1.8592 Y0.753 Z0.2862
N4980 X1.8627 Y0.7531 Z0.2861
N4985 X1.8662 Z0.286
N4990 X1.8697 Y0.7532 Z0.2859
N4995 X1.8732 Y0.7533 Z0.2858
N5000 X1.8767 Z0.2857
N5005 X1.8802 Y0.7534 Z0.2855
N5010 X1.8837 Y0.7535 Z0.2854
N5015 X1.8872 Z0.2853
N5020 X1.8907 Y0.7536 Z0.2852
N5025 X1.8942 Z0.2851
N5030 X1.8977 Y0.7537 Z0.285
N5035 X1.9012 Y0.7538 Z0.2849
N5040 X1.9047 Z0.2848
N5045 X1.9082 Y0.7539 Z0.2847
N5050 X1.9117 Z0.2846
N5055 X1.9152 Y0.754 Z0.2845
N5060 X1.9222 Y0.7541 Z0.2843
N5065 X1.9292 Y0.7542 Z0.2841
N5070 X1.9362 Y0.7543 Z0.2839
N5075 X1.9432 Y0.7544 Z0.2837
N5080 X1.9502 Y0.7545 Z0.2835
N5085 X1.9572 Y0.7546 Z0.2834
N5090 X1.9642 Y0.7547 Z0.2832
N5095 X1.9712 Y0.7548 Z0.283
N5100 X1.9782 Y0.7549 Z0.2828
N5105 X1.9852 Y0.755 Z0.2827
N5110 X1.9922 Y0.7551 Z0.2825
N5115 X1.9992 Y0.7552 Z0.2824
N5120 X2.0062 Y0.7553 Z0.2822
N5125 X2.0132 Y0.7554 Z0.2821
N5130 X2.0202 Z0.2819
N5135 X2.0272 Y0.7555 Z0.2818
N5140 X2.0342 Y0.7556 Z0.2817
N5145 X2.0412 Y0.7557 Z0.2815
N5150 X2.0482 Z0.2814
N5155 X2.0552 Y0.7558 Z0.2813
N5160 X2.0622 Y0.7559 Z0.2812
N5165 X2.0692 Z0.2811
N5170 X2.0762 Y0.756 Z0.281
N5175 X2.0902 Y0.7561 Z0.2808
N5180 X2.1042 Y0.7563 Z0.2806
N5185 X2.1182 Y0.7571 Z0.2804
N5190 X2.1321 Y0.7587 Z0.2803
N5195 X2.1459 Y0.7611 Z0.2802
N5200 X2.1596 Y0.7643 Z0.2801
N5205 X2.173 Y0.7682
N5210 X2.1862 Y0.7729 Z0.28
N5215 X2.1991 Y0.7783
N5220 X2.2008 Y0.7791
N5225 X2.2012 Y0.7792
N5230 X2.2092 Y0.7831
N5235 X2.2157 Y0.7866
N5240 X2.2171 Y0.7873
N5245 X2.2251 Y0.792
N5250 X2.2293 Y0.7946
N5255 X2.2331 Y0.797
N5260 X2.241 Y0.8025
N5265 X2.2411
N5270 X2.249 Y0.8085
N5275 X2.2515 Y0.8105
N5280 X2.257 Y0.815
N5285 X2.261 Y0.8185
N5290 X2.265 Y0.8221
N5295 X2.2695 Y0.8264
N5300 X2.2729 Y0.8299
N5305 X2.2773 Y0.8344
N5310 X2.2809 Y0.8384
N5315 X2.2844 Y0.8424
N5320 X2.2889 Y0.8478
N5325 X2.2909 Y0.8504
N5330 X2.2968 Y0.8583
N5335 X2.2969
N5340 X2.3024 Y0.8663
N5345 X2.3048 Y0.8701
N5350 X2.3074 Y0.8743
N5355 X2.312 Y0.8822
N5360 X2.3128 Y0.8836
N5365 X2.3163 Y0.8902
N5370 X2.3201 Y0.8982
N5375 X2.3208 Y0.8995
N5380 X2.3237 Y0.9061
N5385 X2.3269 Y0.9141
N5390 X2.3287 Y0.9192
N5395 X2.3297 Y0.9221
N5400 X2.3323 Y0.9301
N5405 X2.3346 Y0.938
N5410 X2.3365 Y0.946
N5415 X2.3367 Y0.9466
N5420 X2.3383 Y0.954
N5425 X2.3397 Y0.9619
N5430 X2.3408 Y0.9699
N5435 X2.3417 Y0.9779
N5440 X2.3423 Y0.9859
N5445 X2.3427 Y0.9938
N5450 X2.3428 Y1.0018
N5455 Y1.0895
N5460 Y1.0975
N5465 Y1.496
N5470 Y1.5279
N5475 Y1.9025
N5480 Y1.9105
N5485 Y1.9982
N5490 X2.3427 Y2.0062
N5495 X2.3423 Y2.0141
N5500 X2.3417 Y2.0221
N5505 X2.3408 Y2.0301
N5510 X2.3397 Y2.0381
N5515 X2.3383 Y2.046
N5520 X2.3367 Y2.0534
N5525 X2.3365 Y2.054
N5530 X2.3346 Y2.062
N5535 X2.3323 Y2.0699
N5540 X2.3297 Y2.0779
N5545 X2.3287 Y2.0808
N5550 X2.3269 Y2.0859
N5555 X2.3237 Y2.0939
N5560 X2.3208 Y2.1005
N5565 X2.3201 Y2.1018
N5570 X2.3163 Y2.1098
N5575 X2.3128 Y2.1164
N5580 X2.312 Y2.1178
N5585 X2.3074 Y2.1257
N5590 X2.3048 Y2.1299
N5595 X2.3024 Y2.1337
N5600 X2.2969 Y2.1417
N5605 X2.2968
N5610 X2.2909 Y2.1496
N5615 X2.2889 Y2.1522
N5620 X2.2844 Y2.1576
N5625 X2.2809 Y2.1616
N5630 X2.2773 Y2.1656
N5635 X2.2729 Y2.1701
N5640 X2.2695 Y2.1736
N5645 X2.265 Y2.1779
N5650 X2.261 Y2.1815
N5655 X2.257 Y2.185
N5660 X2.2515 Y2.1895
N5665 X2.249 Y2.1915
N5670 X2.2411 Y2.1975
N5675 X2.241
N5680 X2.2331 Y2.203
N5685 X2.2293 Y2.2054
N5690 X2.2251 Y2.208
N5695 X2.2171 Y2.2127
N5700 X2.2157 Y2.2134
N5705 X2.2092 Y2.2169
N5710 X2.2012 Y2.2208
N5715 X2.1998 Y2.2214
N5720 X2.1932 Y2.2243
N5725 X2.1852 Y2.2275
N5730 X2.1802 Y2.2294
N5735 X2.1773 Y2.2304
N5740 X2.1693 Y2.2329
N5745 X2.1613 Y2.2352
N5750 X2.1534 Y2.2372
N5755 X2.1527 Y2.2373
N5760 X2.1454 Y2.2389
N5765 X2.1374 Y2.2403
N5770 X2.1294 Y2.2415
N5775 X2.1215 Y2.2424
N5780 X2.1135 Y2.243
N5785 X2.1055 Y2.2433
N5790 X2.0976 Y2.2435
N5795 X2.0099
N5800 X2.0019
N5805 X1.6034
N5810 X1.5715
N5815 X1.1968
N5820 X1.1889
N5825 X1.1012
N5830 X1.0932 Y2.2433
N5835 X1.0852 Y2.243
N5840 X1.0773 Y2.2424
N5845 X1.0693 Y2.2415
N5850 X1.0613 Y2.2403
N5855 X1.0533 Y2.2389
N5860 X1.046 Y2.2373
N5865 X1.0454 Y2.2372
N5870 X1.0374 Y2.2352
N5875 X1.0294 Y2.2329
N5880 X1.0215 Y2.2304
N5885 X1.0186 Y2.2294
N5890 X1.0135 Y2.2275
N5895 X1.0055 Y2.2243
N5900 X0.9989 Y2.2214
N5905 X0.9975 Y2.2208
N5910 X0.9896 Y2.2169
N5915 X0.983 Y2.2134
N5920 X0.9816 Y2.2127
N5925 X0.9736 Y2.208
N5930 X0.9694 Y2.2054
N5935 X0.9657 Y2.203
N5940 X0.9577 Y2.1975
N5945 X0.9497 Y2.1915
N5950 X0.9472 Y2.1895
N5955 X0.9417 Y2.185
N5960 X0.9378 Y2.1815
N5965 X0.9338 Y2.1779
N5970 X0.9292 Y2.1736
N5975 X0.9258 Y2.1701
N5980 X0.9215 Y2.1656
N5985 X0.9178 Y2.1616
N5990 X0.9144 Y2.1576
N5995 X0.9099 Y2.1522
N6000 X0.9078 Y2.1496
N6005 X0.9019 Y2.1417
N6010 X0.8964 Y2.1337
N6015 X0.8939 Y2.1299
N6020 X0.8913 Y2.1257
N6025 X0.8867 Y2.1178
N6030 X0.8859 Y2.1164
N6035 X0.8825 Y2.1098
N6040 X0.8786 Y2.1018
N6045 X0.878 Y2.1005
N6050 X0.8751 Y2.0939
N6055 X0.8719 Y2.0859
N6060 X0.87 Y2.0808
N6065 X0.869 Y2.0779
N6070 X0.8664 Y2.0699
N6075 X0.8642 Y2.062
N6080 X0.8622 Y2.054
N6085 X0.862 Y2.0534
N6090 X0.8605 Y2.046
N6095 X0.8591 Y2.0381
N6100 X0.8579 Y2.0301
N6105 X0.857 Y2.0221
N6110 X0.8564 Y2.0141
N6115 X0.856 Y2.0062
N6120 X0.8559 Y1.9982
N6125 Y1.9105
N6130 Y1.9025
N6135 Y1.504
N6140 Y1.4721
N6145 Y1.0975
N6150 Y1.0895
N6155 Y1.0018
N6160 X0.856 Y0.9938
N6165 X0.8564 Y0.9859
N6170 X0.857 Y0.9779
N6175 X0.8577 Y0.9713
N6180 X0.8579 Y0.9699
N6185 X0.8591 Y0.9619
N6190 X0.8605 Y0.954
N6195 X0.862 Y0.9466
N6200 X0.8622 Y0.946
N6205 X0.8642 Y0.938
N6210 X0.8664 Y0.9301
N6215 X0.869 Y0.9221
N6220 X0.87 Y0.9192
N6225 X0.8719 Y0.9141
N6230 X0.8751 Y0.9061
N6235 X0.878 Y0.8995
N6240 X0.8786 Y0.8982
N6245 X0.8825 Y0.8902
N6250 X0.8859 Y0.8836
N6255 X0.8867 Y0.8822
N6260 X0.8913 Y0.8743
N6265 X0.8939 Y0.8701
N6270 X0.8964 Y0.8663
N6275 X0.9019 Y0.8583
N6280 X0.9078 Y0.8504
N6285 X0.9099 Y0.8478
N6290 X0.9144 Y0.8424
N6295 X0.9178 Y0.8384
N6300 X0.9215 Y0.8344
N6305 X0.9258 Y0.8299
N6310 X0.9292 Y0.8264
N6315 X0.9338 Y0.8221
N6320 X0.9378 Y0.8185
N6325 X0.9417 Y0.815
N6330 X0.9472 Y0.8105
N6335 X0.9497 Y0.8085
N6340 X0.9577 Y0.8025
N6345 X0.9657 Y0.797
N6350 X0.9694 Y0.7946
N6355 X0.9736 Y0.792
N6360 X0.9816 Y0.7873
N6365 X0.983 Y0.7866
N6370 X0.9896 Y0.7831
N6375 X0.9975 Y0.7792
N6380 X0.9989 Y0.7786
N6385 X1.0055 Y0.7757
N6390 X1.0135 Y0.7725
N6395 X1.0186 Y0.7706
N6400 X1.0215 Y0.7696
N6405 X1.0294 Y0.7671
N6410 X1.0374 Y0.7648
N6415 X1.0454 Y0.7628
N6420 X1.046 Y0.7627
N6425 X1.0533 Y0.7611
N6430 X1.0613 Y0.7597
N6435 X1.0693 Y0.7585
N6440 X1.0773 Y0.7576
N6445 X1.0852 Y0.757
N6450 X1.0932 Y0.7567
N6455 X1.1012 Y0.7565
N6460 X1.1889
N6465 X1.1968
N6470 X1.5954
N6475 X1.6273
N6480 X2.0019
N6485 X2.0099
N6490 X2.0976
N6495 X2.1055 Y0.7567
N6500 X2.1135 Y0.757
N6505 X2.1215 Y0.7576
N6510 X2.1294 Y0.7585
N6515 X2.1374 Y0.7597
N6520 X2.1454 Y0.7611
N6525 X2.1527 Y0.7627
N6530 X2.1534 Y0.7628
N6535 X2.1613 Y0.7648
N6540 X2.1693 Y0.7671
N6545 X2.1773 Y0.7696
N6550 X2.1802 Y0.7706
N6555 X2.1852 Y0.7725
N6560 X2.1932 Y0.7757
N6565 X2.1998 Y0.7786
N6570 X2.2008 Y0.7791
N6575 X2.2079 Y0.7825
N6580 X2.2149 Y0.7861
N6585 X2.2216 Y0.7899
N6590 X2.2281 Y0.7939 Z0.2799
N6595 X2.2348 Y0.7982
N6600 X2.2414 Y0.8028
N6605 X2.2475 Y0.8075 Z0.2798
N6610 X2.2536 Y0.8123
N6615 X2.2594 Y0.8173 Z0.2797
N6620 X2.265 Y0.8225 Z0.2796
N6625 X2.271 Y0.8283
N6630 X2.2767 Y0.8343 Z0.2795
N6635 X2.2818 Y0.84 Z0.2794
N6640 X2.2868 Y0.8459 Z0.2793
N6645 X2.2915 Y0.852 Z0.2792
N6650 X2.2961 Y0.8582 Z0.2791
N6655 X2.3006 Y0.8647 Z0.279
N6660 X2.3049 Y0.8715 Z0.2788
N6665 X2.3088 Y0.8781 Z0.2787
N6670 X2.3125 Y0.8848 Z0.2786
N6675 X2.3161 Y0.8918 Z0.2785
N6680 X2.3194 Y0.8989 Z0.2783
N6685 X2.3226 Y0.9063 Z0.2782
N6690 X2.3255 Y0.9139 Z0.278
N6695 X2.328 Y0.921 Z0.2778
N6700 X2.3303 Y0.9281 Z0.2777
N6705 X2.3324 Y0.9357 Z0.2775
N6710 X2.3343 Y0.9434 Z0.2773
N6715 X2.336 Y0.9512 Z0.2772
N6720 X2.3374 Y0.959 Z0.277
N6725 X2.3385 Y0.9664 Z0.2768
N6730 X2.3393 Y0.9738 Z0.2766
N6735 X2.3397 Y0.9777 Z0.2765
N6740 X2.3399 Y0.9817 Z0.2764
N6745 X2.3402 Y0.9856 Z0.2763
N6750 X2.3403 Y0.9896 Z0.2762
N6755 X2.3404 Y0.9934 Z0.2761
N6760 Y0.9972 Z0.276
N6765 Y1.001 Z0.2759
N6770 X2.3403 Y1.0048 Z0.2758
N6775 X2.3402 Y1.0118 Z0.2756
N6780 X2.3401 Y1.0153 Z0.2755
N6785 Y1.0188 Z0.2754
N6790 X2.34 Y1.0223 Z0.2753
N6795 X2.3399 Y1.0258 Z0.2752
N6800 Y1.0293 Z0.2751
N6805 X2.3398 Y1.0328 Z0.275
N6810 X2.3397 Y1.0363 Z0.2749
N6815 Y1.0398 Z0.2748
N6820 X2.3396 Y1.0433 Z0.2747
N6825 X2.3395 Y1.0468 Z0.2746
N6830 Y1.0503 Z0.2744
N6835 X2.3394 Y1.0538 Z0.2743
N6840 X2.3393 Y1.0573 Z0.2742
N6845 Y1.0608 Z0.2741
N6850 X2.3392 Y1.0643 Z0.274
N6855 X2.3391 Y1.0678 Z0.2739
N6860 Y1.0713 Z0.2738
N6865 X2.339 Y1.0748 Z0.2737
N6870 X2.3389 Y1.0783 Z0.2735
N6875 Y1.0818 Z0.2734
N6880 X2.3388 Y1.0853 Z0.2733
N6885 X2.3387 Y1.0888 Z0.2732
N6890 X2.3386 Y1.0923 Z0.2731
N6895 Y1.0958 Z0.273
N6900 X2.3385 Y1.0993 Z0.2728
N6905 X2.3384 Y1.1028 Z0.2727
N6910 X2.3383 Y1.1063 Z0.2726
N6915 Y1.1098 Z0.2725
N6920 X2.3382 Y1.1133 Z0.2724
N6925 X2.3381 Y1.1168 Z0.2722
N6930 X2.338 Y1.1203 Z0.2721
N6935 Y1.1238 Z0.272
N6940 X2.3379 Y1.1273 Z0.2719
N6945 X2.3378 Y1.1308 Z0.2717
N6950 X2.3377 Y1.1343 Z0.2716
N6955 Y1.1378 Z0.2715
N6960 X2.3376 Y1.1413 Z0.2714
N6965 X2.3375 Y1.1448 Z0.2713
N6970 X2.3374 Y1.1483 Z0.2711
N6975 Y1.1518 Z0.271
N6980 X2.3373 Y1.1553 Z0.2709
N6985 X2.3372 Y1.1588 Z0.2708
N6990 X2.3371 Y1.1658 Z0.2705
N6995 X2.3368 Y1.1763 Z0.2702
N7000 X2.3367 Y1.1833 Z0.2699
N7005 X2.3366 Y1.1868 Z0.2698
N7010 X2.3365 Y1.1938 Z0.2696
N7015 X2.3362 Y1.2043 Z0.2692
N7020 X2.3361 Y1.2113 Z0.2689
N7025 X2.336 Y1.2148 Z0.2688
N7030 X2.3359 Y1.2218 Z0.2686
N7035 X2.3356 Y1.2323 Z0.2682
N7040 X2.3355 Y1.2393 Z0.268
N7045 X2.3354 Y1.2428 Z0.2678
N7050 X2.3353 Y1.2498 Z0.2676
N7055 X2.335 Y1.2603 Z0.2672
N7060 X2.3349 Y1.2673 Z0.267
N7065 X2.3348 Y1.2708 Z0.2669
N7070 X2.3347 Y1.2778 Z0.2666
N7075 X2.3345 Y1.2848 Z0.2664
N7080 X2.3344 Y1.2883 Z0.2662
N7085 X2.3343 Y1.2953 Z0.266
N7090 X2.3342 Y1.2988 Z0.2659
N7095 X2.334 Y1.3058 Z0.2656
N7100 X2.3335 Y1.3268 Z0.2649
N7105 X2.3333 Y1.3373 Z0.2645
N7110 X2.3331 Y1.3443 Z0.2643
N7115 X2.3326 Y1.3653 Z0.2636
N7120 X2.3325 Y1.3723 Z0.2633
N7125 X2.332 Y1.3933 Z0.2626
N7130 X2.3318 Y1.4038 Z0.2622
N7135 X2.3305 Y1.4563 Z0.2604
N7140 X2.3295 Y1.5018 Z0.2588
N7145 X2.3289 Y1.5263 Z0.2579
N7150 Y1.5298 Z0.2578
N7155 X2.3282 Y1.5578 Z0.2568
N7160 X2.328 Y1.5648 Z0.2566
N7165 X2.3278 Y1.5753 Z0.2562
N7170 X2.3276 Y1.5823 Z0.256
N7175 X2.3271 Y1.6033 Z0.2552
N7180 X2.327 Y1.6068 Z0.2551
N7185 X2.3268 Y1.6138 Z0.2549
N7190 X2.3263 Y1.6348 Z0.2541
N7195 X2.3262 Y1.6418 Z0.2539
N7200 X2.3256 Y1.6628 Z0.2532
N7205 X2.3255 Y1.6698 Z0.2529
N7210 X2.3252 Y1.6803 Z0.2526
N7215 X2.3251 Y1.6873 Z0.2523
N7220 X2.325 Y1.6908 Z0.2522
N7225 X2.3248 Y1.6978 Z0.2519
N7230 X2.3245 Y1.7083 Z0.2516
N7235 X2.3244 Y1.7153 Z0.2513
N7240 X2.3243 Y1.7188 Z0.2512
N7245 X2.3241 Y1.7258 Z0.251
N7250 X2.3239 Y1.7363 Z0.2506
N7255 X2.3237 Y1.7433 Z0.2504
N7260 X2.3236 Y1.7468 Z0.2502
N7265 X2.3234 Y1.7538 Z0.25
N7270 Y1.7573 Z0.2499
N7275 X2.3233 Y1.7608 Z0.2497
N7280 X2.3231 Y1.7678 Z0.2495
N7285 X2.323 Y1.7713 Z0.2494
N7290 X2.3229 Y1.7748 Z0.2493
N7295 X2.3228 Y1.7783 Z0.2491
N7300 X2.3227 Y1.7818 Z0.249
N7305 X2.3226 Y1.7853 Z0.2489
N7310 X2.3225 Y1.7888 Z0.2488
N7315 Y1.7923 Z0.2486
N7320 X2.3224 Y1.7958 Z0.2485
N7325 X2.3223 Y1.7993 Z0.2484
N7330 X2.3222 Y1.8028 Z0.2483
N7335 X2.3221 Y1.8063 Z0.2482
N7340 X2.322 Y1.8098 Z0.248
N7345 X2.3219 Y1.8133 Z0.2479
N7350 X2.3218 Y1.8168 Z0.2478
N7355 X2.3217 Y1.8203 Z0.2477
N7360 Y1.8238 Z0.2475
N7365 X2.3216 Y1.8273 Z0.2474
N7370 X2.3215 Y1.8308 Z0.2473
N7375 X2.3214 Y1.8343 Z0.2472
N7380 X2.3213 Y1.8378 Z0.2471
N7385 X2.3212 Y1.8413 Z0.2469
N7390 X2.3211 Y1.8448 Z0.2468
N7395 X2.321 Y1.8483 Z0.2467
N7400 Y1.8518 Z0.2466
N7405 X2.3209 Y1.8553 Z0.2465
N7410 X2.3208 Y1.8588 Z0.2464
N7415 X2.3207 Y1.8623 Z0.2462
N7420 X2.3206 Y1.8658 Z0.2461
N7425 X2.3205 Y1.8693 Z0.246
N7430 Y1.8728 Z0.2459
N7435 X2.3204 Y1.8763 Z0.2458
N7440 X2.3203 Y1.8798 Z0.2457
N7445 X2.3202 Y1.8833 Z0.2456
N7450 X2.3201 Y1.8868 Z0.2455
N7455 Y1.8903 Z0.2454
N7460 X2.32 Y1.8938 Z0.2453
N7465 X2.3199 Y1.8973 Z0.2452
N7470 X2.3198 Y1.9008 Z0.245
N7475 Y1.9043 Z0.2449
N7480 X2.3197 Y1.9078 Z0.2448
N7485 X2.3196 Y1.9113 Z0.2447
N7490 X2.3195 Y1.9148 Z0.2446
N7495 Y1.9183 Z0.2445
N7500 X2.3194 Y1.9218 Z0.2444
N7505 X2.3192 Y1.9288 Z0.2442
N7510 X2.3191 Y1.9358 Z0.244
N7515 X2.319 Y1.9428 Z0.2439
N7520 X2.3188 Y1.9498 Z0.2437
N7525 X2.3187 Y1.9568 Z0.2435
N7530 X2.3186 Y1.9638 Z0.2433
N7535 X2.3184 Y1.9708 Z0.2431
N7540 X2.3183 Y1.9778 Z0.243
N7545 X2.3182 Y1.9848 Z0.2428
N7550 X2.3181 Y1.9918 Z0.2426
N7555 X2.318 Y1.9988 Z0.2425
N7560 X2.3177 Y2.0058 Z0.2423
N7565 X2.3173 Y2.0128 Z0.2422
N7570 X2.3166 Y2.0199 Z0.242
N7575 X2.3158 Y2.0269 Z0.2419
N7580 X2.3146 Y2.0338 Z0.2417
N7585 X2.3133 Y2.0407 Z0.2416
N7590 X2.3118 Y2.0476 Z0.2415
N7595 X2.31 Y2.0544 Z0.2414
N7600 X2.3081 Y2.0611 Z0.2412
N7605 X2.3059 Y2.0678 Z0.2411
N7610 X2.3035 Y2.0744 Z0.241
N7615 X2.3009 Y2.0809 Z0.2409
N7620 X2.2951 Y2.0937 Z0.2407
N7625 X2.2885 Y2.1061 Z0.2406
N7630 X2.2811 Y2.118 Z0.2404
N7635 X2.273 Y2.1294 Z0.2403
N7640 X2.2642 Y2.1403 Z0.2402
N7645 X2.2548 Y2.1506 Z0.2401
N7650 X2.2447 Y2.1603 Z0.24
N7655 X2.234 Y2.1694
N7660 X2.2246 Y2.1767
N7665 X2.2174 Y2.1815
N7670 X2.2171 Y2.1817
N7675 X2.2092 Y2.1867
N7680 X2.2042 Y2.1895
N7685 X2.2012 Y2.1912
N7690 X2.1932 Y2.1952
N7695 X2.1884 Y2.1975
N7700 X2.1852 Y2.1989
N7705 X2.1773 Y2.2021
N7710 X2.1693 Y2.2051
N7715 X2.1682 Y2.2054
N7720 X2.1613 Y2.2076
N7725 X2.1534 Y2.2099
N7730 X2.1454 Y2.2118
N7735 X2.1374 Y2.2134
N7740 X2.1373
N7745 X2.1294 Y2.2147
N7750 X2.1215 Y2.2157
N7755 X2.1135 Y2.2164
N7760 X2.1055 Y2.2168
N7765 X2.0976 Y2.2169
N7770 X2.0418
N7775 X1.6034
N7780 X1.5794
N7785 X1.157
N7790 X1.1012
N7795 X1.0932 Y2.2168
N7800 X1.0852 Y2.2164
N7805 X1.0773 Y2.2157
N7810 X1.0693 Y2.2147
N7815 X1.0614 Y2.2134
N7820 X1.0613
N7825 X1.0533 Y2.2118
N7830 X1.0454 Y2.2099
N7835 X1.0374 Y2.2076
N7840 X1.0306 Y2.2054
N7845 X1.0294 Y2.2051
N7850 X1.0215 Y2.2021
N7855 X1.0135 Y2.1989
N7860 X1.0104 Y2.1975
N7865 X1.0055 Y2.1952
N7870 X0.9975 Y2.1912
N7875 X0.9945 Y2.1895
N7880 X0.9896 Y2.1867
N7885 X0.9816 Y2.1817
N7890 X0.9813 Y2.1815
N7895 X0.9736 Y2.1763
N7900 X0.9699 Y2.1736
N7905 X0.9657 Y2.1703
N7910 X0.9599 Y2.1656
N7915 X0.9577 Y2.1637
N7920 X0.9509 Y2.1576
N7925 X0.9497 Y2.1565
N7930 X0.9429 Y2.1496
N7935 X0.9417 Y2.1484
N7940 X0.9356 Y2.1417
N7945 X0.9338 Y2.1395
N7950 X0.9291 Y2.1337
N7955 X0.9258 Y2.1295
N7960 X0.9231 Y2.1257
N7965 X0.9178 Y2.118
N7970 X0.9177 Y2.1178
N7975 X0.9127 Y2.1098
N7980 X0.9099 Y2.1048
N7985 X0.9082 Y2.1018
N7990 X0.9042 Y2.0939
N7995 X0.9019 Y2.089
N8000 X0.9005 Y2.0859
N8005 X0.8972 Y2.0779
N8010 X0.8943 Y2.0699
N8015 X0.8939 Y2.0688
N8020 X0.8917 Y2.062
N8025 X0.8895 Y2.054
N8030 X0.8876 Y2.046
N8035 X0.886 Y2.0381
N8040 X0.8859 Y2.0379
N8045 X0.8847 Y2.0301
N8050 X0.8837 Y2.0221
N8055 X0.883 Y2.0141
N8060 X0.8826 Y2.0062
N8065 X0.8824 Y1.9982
N8070 Y1.9424
N8075 Y1.504
N8080 Y1.4801
N8085 Y1.0576
N8090 Y1.0018
N8095 X0.8826 Y0.9938
N8100 X0.883 Y0.9859
N8105 X0.8837 Y0.9779
N8110 X0.8847 Y0.9699
N8115 X0.8859 Y0.9621
N8120 X0.886 Y0.9619
N8125 X0.8876 Y0.954
N8130 X0.8895 Y0.946
N8135 X0.8917 Y0.938
N8140 X0.8939 Y0.9312
N8145 X0.8943 Y0.9301
N8150 X0.8972 Y0.9221
N8155 X0.9005 Y0.9141
N8160 X0.9019 Y0.911
N8165 X0.9042 Y0.9061
N8170 X0.9082 Y0.8982
N8175 X0.9099 Y0.8952
N8180 X0.9127 Y0.8902
N8185 X0.9177 Y0.8822
N8190 X0.9178 Y0.882
N8195 X0.9231 Y0.8743
N8200 X0.9258 Y0.8705
N8205 X0.9291 Y0.8663
N8210 X0.9338 Y0.8605
N8215 X0.9356 Y0.8583
N8220 X0.9417 Y0.8516
N8225 X0.9429 Y0.8504
N8230 X0.9497 Y0.8435
N8235 X0.9509 Y0.8424
N8240 X0.9577 Y0.8363
N8245 X0.9599 Y0.8344
N8250 X0.9657 Y0.8297
N8255 X0.9699 Y0.8264
N8260 X0.9736 Y0.8237
N8265 X0.9813 Y0.8185
N8270 X0.9816 Y0.8183
N8275 X0.9896 Y0.8133
N8280 X0.9945 Y0.8105
N8285 X0.9975 Y0.8088
N8290 X1.0055 Y0.8048
N8295 X1.0104 Y0.8025
N8300 X1.0135 Y0.8011
N8305 X1.0215 Y0.7979
N8310 X1.0294 Y0.7949
N8315 X1.0306 Y0.7946
N8320 X1.0374 Y0.7924
N8325 X1.0454 Y0.7901
N8330 X1.0533 Y0.7882
N8335 X1.0613 Y0.7866
N8340 X1.0614
N8345 X1.0693 Y0.7853
N8350 X1.0773 Y0.7843
N8355 X1.0852 Y0.7836
N8360 X1.0932 Y0.7832
N8365 X1.1012 Y0.7831
N8370 X1.157
N8375 X1.5954
N8380 X1.6193
N8385 X2.0418
N8390 X2.0976
N8395 X2.1055 Y0.7832
N8400 X2.1135 Y0.7836
N8405 X2.1215 Y0.7843
N8410 X2.1294 Y0.7853
N8415 X2.1373 Y0.7866
N8420 X2.1374
N8425 X2.1454 Y0.7882
N8430 X2.1534 Y0.7901
N8435 X2.1613 Y0.7924
N8440 X2.1682 Y0.7946
N8445 X2.1693 Y0.7949
N8450 X2.1773 Y0.7979
N8455 X2.1852 Y0.8011
N8460 X2.1884 Y0.8025
N8465 X2.1932 Y0.8048
N8470 X2.2012 Y0.8088
N8475 X2.2042 Y0.8105
N8480 X2.2092 Y0.8133
N8485 X2.2171 Y0.8183
N8490 X2.2174 Y0.8185
N8495 X2.2251 Y0.8237
N8500 X2.2288 Y0.8264
N8505 X2.2331 Y0.8297
N8510 X2.2389 Y0.8344
N8515 X2.241 Y0.8363
N8520 X2.2478 Y0.8424
N8525 X2.249 Y0.8435
N8530 X2.2558 Y0.8504
N8535 X2.257 Y0.8516
N8540 X2.2631 Y0.8583
N8545 X2.265 Y0.8605
N8550 X2.2697 Y0.8663
N8555 X2.2729 Y0.8705
N8560 X2.2756 Y0.8743
N8565 X2.2809 Y0.882
N8570 X2.2811 Y0.8822
N8575 X2.286 Y0.8902
N8580 X2.2889 Y0.8952
N8585 X2.2905 Y0.8982
N8590 X2.2946 Y0.9061
N8595 X2.2968 Y0.911
N8600 X2.2982 Y0.9141
N8605 X2.3015 Y0.9221
N8610 X2.3044 Y0.9301
N8615 X2.3048 Y0.9312
N8620 X2.307 Y0.938
N8625 X2.3092 Y0.946
N8630 X2.3112 Y0.954
N8635 X2.3128 Y0.9619
N8640 Y0.9621
N8645 X2.3141 Y0.9699
N8650 X2.3151 Y0.9779
N8655 X2.3158 Y0.9859
N8660 X2.3162 Y0.9938
N8665 X2.3163 Y1.0018
N8670 Y1.0576
N8675 Y1.496
N8680 Y1.5199
N8685 Y1.9424
N8690 Y1.9982
N8695 X2.3162 Y2.0062
N8700 X2.3158 Y2.0141
N8705 X2.3151 Y2.0221
N8710 X2.3141 Y2.0301
N8715 X2.3128 Y2.0379
N8720 Y2.0381
N8725 X2.3112 Y2.046
N8730 X2.3092 Y2.054
N8735 X2.307 Y2.062
N8740 X2.3048 Y2.0688
N8745 X2.3044 Y2.0699
N8750 X2.3015 Y2.0779
N8755 X2.2982 Y2.0859
N8760 X2.2968 Y2.089
N8765 X2.2946 Y2.0939
N8770 X2.2905 Y2.1018
N8775 X2.2889 Y2.1048
N8780 X2.286 Y2.1098
N8785 X2.2811 Y2.1178
N8790 X2.2809 Y2.118
N8795 X2.2756 Y2.1257
N8800 X2.2729 Y2.1295
N8805 X2.2697 Y2.1337
N8810 X2.265 Y2.1395
N8815 X2.2631 Y2.1417
N8820 X2.257 Y2.1484
N8825 X2.2558 Y2.1496
N8830 X2.249 Y2.1565
N8835 X2.2478 Y2.1576
N8840 X2.241 Y2.1637
N8845 X2.2389 Y2.1656
N8850 X2.2331 Y2.1703
N8855 X2.2288 Y2.1736
N8860 X2.2251 Y2.1763
N8865 X2.2246 Y2.1767
N8870 X2.2179 Y2.181
N8875 X2.2112 Y2.1853
N8880 X2.2037 Y2.1896
N8885 X2.1961 Y2.1936 Z0.2399
N8890 X2.1883 Y2.1973
N8895 X2.1804 Y2.2006 Z0.2398
N8900 X2.173 Y2.2034
N8905 X2.1655 Y2.2059 Z0.2397
N8910 X2.1575 Y2.2083
N8915 X2.1495 Y2.2104 Z0.2396
N8920 X2.1414 Y2.2121 Z0.2395
N8925 X2.1333 Y2.2135 Z0.2394
N8930 X2.1254 Y2.2146 Z0.2393
N8935 X2.1175 Y2.2153 Z0.2392
N8940 X2.1091 Y2.2158 Z0.2391
N8945 X2.1008 Y2.216 Z0.239
N8950 X2.0935 Z0.2389
N8955 X2.0862 Y2.2159 Z0.2388
N8960 X2.0792 Y2.2158 Z0.2386
N8965 X2.0722 Y2.2157 Z0.2385
N8970 X2.0652 Y2.2156 Z0.2384
N8975 X2.0582 Y2.2155 Z0.2383
N8980 X2.0512 Y2.2154 Z0.2381
N8985 X2.0442 Y2.2153 Z0.238
N8990 X2.0372 Y2.2152 Z0.2379
N8995 X2.0302 Y2.2151 Z0.2377
N9000 X2.0232 Y2.2149 Z0.2375
N9005 X2.0162 Y2.2148 Z0.2374
N9010 X2.0092 Y2.2147 Z0.2372
N9015 X2.0022 Y2.2146 Z0.2371
N9020 X1.9952 Y2.2144 Z0.2369
N9025 X1.9882 Y2.2143 Z0.2367
N9030 X1.9812 Y2.2142 Z0.2365
N9035 X1.9742 Y2.214 Z0.2364
N9040 X1.9672 Y2.2139 Z0.2362
N9045 X1.9602 Y2.2137 Z0.236
N9050 X1.9532 Y2.2136 Z0.2358
N9055 X1.9462 Y2.2134 Z0.2356
N9060 X1.9427 Z0.2355
N9065 X1.9392 Y2.2133 Z0.2354
N9070 X1.9357 Y2.2132 Z0.2353
N9075 X1.9322 Y2.2131 Z0.2352
N9080 X1.9287 Y2.213 Z0.2351
N9085 X1.9252 Z0.235
N9090 X1.9217 Y2.2129 Z0.2349
N9095 X1.9182 Y2.2128 Z0.2348
N9100 X1.9147 Y2.2127 Z0.2347
N9105 X1.9112 Y2.2126 Z0.2346
N9110 X1.9077 Z0.2345
N9115 X1.9042 Y2.2125 Z0.2343
N9120 X1.9007 Y2.2124 Z0.2342
N9125 X1.8972 Y2.2123 Z0.2341
N9130 X1.8937 Y2.2122 Z0.234
N9135 X1.8902 Y2.2121 Z0.2339
N9140 X1.8867 Y2.212 Z0.2338
N9145 X1.8832 Y2.2119 Z0.2337
N9150 X1.8797 Z0.2336
N9155 X1.8762 Y2.2118 Z0.2334
N9160 X1.8727 Y2.2117 Z0.2333
N9165 X1.8692 Y2.2116 Z0.2332
N9170 X1.8657 Y2.2115 Z0.2331
N9175 X1.8622 Y2.2114 Z0.233
N9180 X1.8587 Y2.2113 Z0.2329
N9185 X1.8552 Y2.2112 Z0.2327
N9190 X1.8517 Y2.2111 Z0.2326
N9195 X1.8447 Y2.2109 Z0.2324
N9200 X1.8412 Z0.2323
N9205 X1.8377 Y2.2108 Z0.2321
N9210 X1.8342 Y2.2107 Z0.232
N9215 X1.8307 Y2.2106 Z0.2319
N9220 X1.8272 Y2.2105 Z0.2318
N9225 X1.8237 Y2.2104 Z0.2316
N9230 X1.8202 Y2.2103 Z0.2315
N9235 X1.8167 Y2.2102 Z0.2314
N9240 X1.8132 Y2.2101 Z0.2313
N9245 X1.8097 Y2.21 Z0.2312
N9250 X1.8062 Y2.2099 Z0.231
N9255 X1.8027 Y2.2098 Z0.2309
N9260 X1.7992 Y2.2097 Z0.2308
N9265 X1.7957 Y2.2096 Z0.2307
N9270 X1.7922 Y2.2095 Z0.2305
N9275 X1.7887 Y2.2094 Z0.2304
N9280 X1.7817 Y2.2092 Z0.2302
N9285 X1.7782 Y2.2091 Z0.23
N9290 X1.7712 Y2.209 Z0.2298
N9295 X1.7607 Y2.2087 Z0.2294
N9300 X1.7537 Y2.2085 Z0.2292
N9305 X1.7502 Y2.2084 Z0.2291
N9310 X1.7432 Y2.2082 Z0.2288
N9315 X1.7327 Y2.2079 Z0.2285
N9320 X1.7292 Y2.2078 Z0.2283
N9325 X1.7257 Y2.2077 Z0.2282
N9330 X1.7222 Y2.2076 Z0.2281
N9335 X1.7152 Y2.2074 Z0.2278
N9340 X1.7047 Y2.2071 Z0.2275
N9345 X1.6977 Y2.2069 Z0.2272
N9350 X1.6942 Y2.2068 Z0.2271
N9355 X1.6872 Y2.2066 Z0.2269
N9360 X1.6767 Y2.2063 Z0.2265
N9365 X1.6697 Y2.2061 Z0.2263
N9370 X1.6662 Y2.206 Z0.2261
N9375 X1.6592 Y2.2058 Z0.2259
N9380 X1.6382 Y2.2052 Z0.2252
N9385 X1.6312 Y2.2051 Z0.2249
N9390 X1.6102 Y2.2045 Z0.2242
N9395 X1.5997 Y2.2042 Z0.2238
N9400 X1.5927 Y2.204 Z0.2236
N9405 X1.5717 Y2.2034 Z0.2228
N9410 X1.5612 Y2.2031 Z0.2225
N9415 X1.5157 Y2.2018 Z0.2209
N9420 X1.4807 Y2.2008 Z0.2197
N9425 X1.4422 Y2.1997 Z0.2183
N9430 X1.4387 Y2.1996 Z0.2182
N9435 X1.4037 Y2.1985 Z0.217
N9440 X1.3967 Y2.1983 Z0.2167
N9445 X1.3757 Y2.1977 Z0.216
N9450 X1.3687 Y2.1975 Z0.2157
N9455 X1.3617 Y2.1973 Z0.2155
N9460 X1.3582 Y2.1972 Z0.2154
N9465 X1.3512 Y2.197 Z0.2151
N9470 X1.3302 Y2.1964 Z0.2144
N9475 X1.3232 Y2.1962 Z0.2142
N9480 X1.3127 Y2.1958 Z0.2138
N9485 X1.3057 Y2.1956 Z0.2135
N9490 X1.3022 Y2.1955 Z0.2134
N9495 X1.2987 Y2.1954 Z0.2133
N9500 X1.2917 Y2.1952 Z0.2131
N9505 X1.2882 Y2.1951 Z0.2129
N9510 X1.2812 Y2.1949 Z0.2127
N9515 X1.2707 Y2.1946 Z0.2123
N9520 X1.2637 Y2.1944 Z0.2121
N9525 X1.2602 Y2.1943 Z0.212
N9530 X1.2532 Y2.194 Z0.2117
N9535 X1.2427 Y2.1937 Z0.2113
N9540 X1.2357 Y2.1935 Z0.2111
N9545 X1.2322 Y2.1934 Z0.211
N9550 X1.2252 Y2.1932 Z0.2107
N9555 X1.2147 Y2.1929 Z0.2104
N9560 X1.2077 Y2.1926 Z0.2101
N9565 X1.2042 Y2.1925 Z0.21
N9570 X1.2007 Y2.1924 Z0.2099
N9575 X1.1972 Y2.1923 Z0.2097
N9580 X1.1937 Y2.1922 Z0.2096
N9585 X1.1902 Y2.1921 Z0.2095
N9590 X1.1867 Y2.192 Z0.2094
N9595 X1.1832 Y2.1919 Z0.2093
N9600 X1.1797 Y2.1918 Z0.2091
N9605 X1.1762 Y2.1917 Z0.209
N9610 X1.1727 Y2.1916 Z0.2089
N9615 X1.1692 Y2.1915 Z0.2088
N9620 X1.1657 Y2.1914 Z0.2086
N9625 X1.1622 Y2.1913 Z0.2085
N9630 X1.1587 Y2.1911 Z0.2084
N9635 X1.1552 Y2.191 Z0.2083
N9640 X1.1517 Y2.1909 Z0.2082
N9645 X1.1482 Y2.1908 Z0.208
N9650 X1.1447 Y2.1907 Z0.2079
N9655 X1.1412 Y2.1906 Z0.2078
N9660 X1.1377 Y2.1905 Z0.2077
N9665 X1.1307 Y2.1903 Z0.2074
N9670 X1.1272 Y2.1902 Z0.2073
N9675 X1.1237 Y2.1901 Z0.2072
N9680 X1.1202 Y2.19 Z0.2071
N9685 X1.1167 Y2.1899 Z0.207
N9690 X1.1132 Y2.1898 Z0.2068
N9695 X1.1097 Y2.1897 Z0.2067
N9700 X1.1062 Y2.1896 Z0.2066
N9705 X1.1026 Y2.1895 Z0.2065
N9710 X1.099 Y2.1893 Z0.2064
N9715 X1.0955 Y2.1891 Z0.2062
N9720 X1.0919 Y2.1889 Z0.2061
N9725 X1.0883 Y2.1886 Z0.206
N9730 X1.0848 Y2.1883 Z0.2059
N9735 X1.0813 Y2.1878 Z0.2058
N9740 X1.0777 Y2.1873 Z0.2057
N9745 X1.0742 Y2.1868 Z0.2056
N9750 X1.0706 Y2.1861 Z0.2054
N9755 X1.0671 Y2.1855 Z0.2053
N9760 X1.0635 Y2.1847 Z0.2052
N9765 X1.06 Y2.1839 Z0.2051
N9770 X1.0566 Y2.183 Z0.205
N9775 X1.0531 Y2.182 Z0.2049
N9780 X1.0496 Y2.181 Z0.2048
N9785 X1.0462 Y2.1799 Z0.2047
N9790 X1.0429 Y2.1788 Z0.2046
N9795 X1.0395 Y2.1776 Z0.2045
N9800 X1.0362 Y2.1763 Z0.2044
N9805 X1.0329 Y2.175 Z0.2043
N9810 X1.0296 Y2.1736 Z0.2042
N9815 X1.0231 Y2.1706 Z0.204
N9820 X1.0167 Y2.1674 Z0.2038
N9825 X1.0104 Y2.1639 Z0.2036
N9830 X1.0043 Y2.1603 Z0.2034
N9835 X0.9984 Y2.1564 Z0.2032
N9840 X0.9926 Y2.1523 Z0.203
N9845 X0.9869 Y2.1479 Z0.2029
N9850 X0.9815 Y2.1434 Z0.2027
N9855 X0.9762 Y2.1387 Z0.2025
N9860 X0.9711 Y2.1338 Z0.2024
N9865 X0.9662 Y2.1287 Z0.2022
N9870 X0.9614 Y2.1235 Z0.2021
N9875 X0.9569 Y2.118 Z0.2019
N9880 X0.9526 Y2.1124 Z0.2018
N9885 X0.9485 Y2.1067 Z0.2016
N9890 X0.9446 Y2.1008 Z0.2015
N9895 X0.941 Y2.0948 Z0.2014
N9900 X0.9376 Y2.0886 Z0.2013
N9905 X0.9344 Y2.0823 Z0.2011
N9910 X0.9314 Y2.0759 Z0.201
N9915 X0.9287 Y2.0694 Z0.2009
N9920 X0.9241 Y2.0561 Z0.2007
N9925 X0.9204 Y2.0426 Z0.2006
N9930 X0.9178 Y2.0288 Z0.2004
N9935 X0.9161 Y2.0149 Z0.2003
N9940 X0.9156 Y2.0009 Z0.2002
N9945 Y1.9869 Z0.2001
N9950 X0.9157 Y1.9729 Z0.2
N9955 Y1.9589
N9960 Y1.9456
N9965 Y1.775
N9970 Y1.504
N9975 Y1.488
N9980 Y1.225
N9985 Y1.0018
N9990 X0.9159 Y0.9938
N9995 X0.9163 Y0.9859
N10000 X0.9172 Y0.978
N10005 Y0.9779
N10010 X0.9178 Y0.9732
N10015 X0.9184 Y0.9699
N10020 X0.9199 Y0.9619
N10025 X0.9218 Y0.954
N10030 X0.9241 Y0.946
N10035 X0.9258 Y0.9408
N10040 X0.9268 Y0.938
N10045 X0.9299 Y0.9301
N10050 X0.9334 Y0.9221
N10055 X0.9338 Y0.9214
N10060 X0.9374 Y0.9141
N10065 X0.9417 Y0.9065
N10070 X0.9419 Y0.9061
N10075 X0.947 Y0.8982
N10080 X0.9497 Y0.8942
N10085 X0.9527 Y0.8902
N10090 X0.9577 Y0.8838
N10095 X0.959 Y0.8822
N10100 X0.9657 Y0.8747
N10105 X0.9661 Y0.8743
N10110 X0.9736 Y0.8667
N10115 X0.9741 Y0.8663
N10120 X0.9816 Y0.8596
N10125 X0.9832 Y0.8583
N10130 X0.9896 Y0.8533
N10135 X0.9936 Y0.8504
N10140 X0.9975 Y0.8476
N10145 X1.0055 Y0.8426
N10150 X1.0058 Y0.8424
N10155 X1.0135 Y0.8381
N10160 X1.0207 Y0.8344
N10165 X1.0215 Y0.8341
N10170 X1.0294 Y0.8305
N10175 X1.0374 Y0.8274
N10180 X1.0402 Y0.8264
N10185 X1.0454 Y0.8247
N10190 X1.0533 Y0.8225
N10195 X1.0613 Y0.8205
N10200 X1.0693 Y0.819
N10205 X1.0725 Y0.8185
N10210 X1.0773 Y0.8178
N10215 X1.0852 Y0.817
N10220 X1.0932 Y0.8165
N10225 X1.1012 Y0.8164
N10230 X1.3244 Y0.8163
N10235 X1.5954
N10240 X1.6113
N10245 X1.8744
N10250 X2.0976 Y0.8164
N10255 X2.1055 Y0.8165
N10260 X2.1135 Y0.817
N10265 X2.1215 Y0.8178
N10270 X2.1262 Y0.8185
N10275 X2.1294 Y0.819
N10280 X2.1374 Y0.8205
N10285 X2.1454 Y0.8225
N10290 X2.1534 Y0.8247
N10295 X2.1585 Y0.8264
N10300 X2.1613 Y0.8274
N10305 X2.1693 Y0.8305
N10310 X2.1773 Y0.8341
N10315 X2.178 Y0.8344
N10320 X2.1852 Y0.8381
N10325 X2.1929 Y0.8424
N10330 X2.1932 Y0.8426
N10335 X2.2012 Y0.8476
N10340 X2.2051 Y0.8504
N10345 X2.2092 Y0.8533
N10350 X2.2156 Y0.8583
N10355 X2.2171 Y0.8596
N10360 X2.2246 Y0.8663
N10365 X2.2251 Y0.8667
N10370 X2.2326 Y0.8743
N10375 X2.2331 Y0.8747
N10380 X2.2397 Y0.8822
N10385 X2.241 Y0.8838
N10390 X2.2461 Y0.8902
N10395 X2.249 Y0.8942
N10400 X2.2517 Y0.8982
N10405 X2.2568 Y0.9061
N10410 X2.257 Y0.9065
N10415 X2.2613 Y0.9141
N10420 X2.265 Y0.9214
N10425 X2.2653 Y0.9221
N10430 X2.2688 Y0.9301
N10435 X2.2719 Y0.938
N10440 X2.2729 Y0.9408
N10445 X2.2746 Y0.946
N10450 X2.2769 Y0.954
N10455 X2.2788 Y0.9619
N10460 X2.2804 Y0.9699
N10465 X2.2809 Y0.9731
N10470 X2.2816 Y0.9779
N10475 X2.2824 Y0.9859
N10480 X2.2829 Y0.9938
N10485 X2.283 Y1.0018
N10490 Y1.225
N10495 Y1.496
N10500 Y1.512
N10505 Y1.775
N10510 Y1.9982
N10515 X2.2829 Y2.0062
N10520 X2.2824 Y2.0141
N10525 X2.2816 Y2.0221
N10530 X2.2809 Y2.0269
N10535 X2.2804 Y2.0301
N10540 X2.2788 Y2.0381
N10545 X2.2769 Y2.046
N10550 X2.2746 Y2.054
N10555 X2.2729 Y2.0592
N10560 X2.2719 Y2.062
N10565 X2.2688 Y2.0699
N10570 X2.2653 Y2.0779
N10575 X2.265 Y2.0786
N10580 X2.2613 Y2.0859
N10585 X2.257 Y2.0935
N10590 X2.2568 Y2.0939
N10595 X2.2517 Y2.1018
N10600 X2.249 Y2.1058
N10605 X2.2461 Y2.1098
N10610 X2.241 Y2.1162
N10615 X2.2397 Y2.1178
N10620 X2.2331 Y2.1253
N10625 X2.2326 Y2.1257
N10630 X2.2251 Y2.1333
N10635 X2.2246 Y2.1337
N10640 X2.2171 Y2.1404
N10645 X2.2156 Y2.1417
N10650 X2.2092 Y2.1467
N10655 X2.2051 Y2.1496
N10660 X2.2012 Y2.1524
N10665 X2.1932 Y2.1574
N10670 X2.1929 Y2.1576
N10675 X2.1852 Y2.1619
N10680 X2.178 Y2.1656
N10685 X2.1773 Y2.1659
N10690 X2.1693 Y2.1695
N10695 X2.1613 Y2.1726
N10700 X2.1585 Y2.1736
N10705 X2.1534 Y2.1753
N10710 X2.1454 Y2.1776
N10715 X2.1374 Y2.1795
N10720 X2.1294 Y2.181
N10725 X2.1262 Y2.1815
N10730 X2.1215 Y2.1822
N10735 X2.1135 Y2.183
N10740 X2.1055 Y2.1835
N10745 X2.0976 Y2.1836
N10750 X1.8744 Y2.1837
N10755 X1.6034
N10760 X1.5874
N10765 X1.3244
N10770 X1.1012 Y2.1836
N10775 X1.0932 Y2.1835
N10780 X1.0852 Y2.183
N10785 X1.0773 Y2.1822
N10790 X1.0725 Y2.1815
N10795 X1.0693 Y2.181
N10800 X1.0613 Y2.1795
N10805 X1.0533 Y2.1775
N10810 X1.0454 Y2.1753
N10815 X1.0402 Y2.1736
N10820 X1.0374 Y2.1726
N10825 X1.0294 Y2.1695
N10830 X1.0215 Y2.1659
N10835 X1.0207 Y2.1656
N10840 X1.0135 Y2.1619
N10845 X1.0058 Y2.1576
N10850 X1.0055 Y2.1574
N10855 X0.9975 Y2.1524
N10860 X0.9936 Y2.1496
N10865 X0.9896 Y2.1467
N10870 X0.9832 Y2.1417
N10875 X0.9816 Y2.1404
N10880 X0.9741 Y2.1337
N10885 X0.9736 Y2.1333
N10890 X0.9661 Y2.1257
N10895 X0.9657 Y2.1253
N10900 X0.959 Y2.1178
N10905 X0.9577 Y2.1162
N10910 X0.9527 Y2.1098
N10915 X0.9497 Y2.1058
N10920 X0.947 Y2.1018
N10925 X0.9419 Y2.0939
N10930 X0.9417 Y2.0935
N10935 X0.9374 Y2.0859
N10940 X0.9338 Y2.0786
N10945 X0.9334 Y2.0779
N10950 X0.9299 Y2.0699
N10955 X0.9268 Y2.062
N10960 X0.9258 Y2.0592
N10965 X0.9241 Y2.054
N10970 X0.9218 Y2.046
N10975 X0.9199 Y2.0381
N10980 X0.9184 Y2.0301
N10985 X0.9178 Y2.0268
N10990 X0.9172 Y2.0221
N10995 X0.9163 Y2.0141
N11000 X0.9159 Y2.0062
N11005 X0.9157 Y1.9982
N11010 Y1.9456
N11015 Y1.9316
N11020 X0.9158 Y1.9176
N11025 Y1.9036 Z0.1999
N11030 X0.9159 Y1.8896 Z0.1998
N11035 X0.916 Y1.8756 Z0.1997
N11040 X0.9161 Y1.8616 Z0.1996
N11045 X0.9162 Y1.8476 Z0.1994
N11050 X0.9164 Y1.8336 Z0.1993
N11055 X0.9166 Y1.8196 Z0.1991
N11060 X0.9167 Y1.8126 Z0.199
N11065 X0.9168 Y1.8056 Z0.1989
N11070 X0.9169 Y1.7986 Z0.1987
N11075 X0.917 Y1.7916 Z0.1986
N11080 X0.9171 Y1.7846 Z0.1985
N11085 X0.9172 Y1.7776 Z0.1984
N11090 X0.9173 Y1.7706 Z0.1982
N11095 X0.9174 Y1.7636 Z0.1981
N11100 X0.9176 Y1.7566 Z0.198
N11105 X0.9177 Y1.7496 Z0.1978
N11110 X0.9178 Y1.7426 Z0.1977
N11115 X0.918 Y1.7356 Z0.1975
N11120 X0.9181 Y1.7286 Z0.1974
N11125 X0.9183 Y1.7216 Z0.1972
N11130 X0.9184 Y1.7146 Z0.197
N11135 X0.9186 Y1.7076 Z0.1969
N11140 X0.9187 Y1.7006 Z0.1967
N11145 X0.9189 Y1.6936 Z0.1965
N11150 X0.9191 Y1.6866 Z0.1963
N11155 X0.9192 Y1.6796 Z0.1961
N11160 X0.9194 Y1.6726 Z0.196
N11165 X0.9196 Y1.6656 Z0.1958
N11170 X0.9198 Y1.6586 Z0.1956
N11175 X0.9199 Y1.6551 Z0.1955
N11180 X0.92 Y1.6516 Z0.1954
N11185 X0.9201 Y1.6481 Z0.1953
N11190 X0.9202 Y1.6446 Z0.1952
N11195 Y1.6411 Z0.1951
N11200 X0.9203 Y1.6376 Z0.195
N11205 X0.9204 Y1.6341 Z0.1948
N11210 X0.9205 Y1.6306 Z0.1947
N11215 X0.9206 Y1.6271 Z0.1946
N11220 X0.9207 Y1.6236 Z0.1945
N11225 X0.9208 Y1.6201 Z0.1944
N11230 X0.9209 Y1.6166 Z0.1943
N11235 X0.9211 Y1.6131 Z0.1942
N11240 X0.9212 Y1.6096 Z0.1941
N11245 X0.9213 Y1.6061 Z0.194
N11250 X0.9214 Y1.6026 Z0.1939
N11255 X0.9215 Y1.5991 Z0.1937
N11260 X0.9216 Y1.5956 Z0.1936
N11265 X0.9217 Y1.5921 Z0.1935
N11270 X0.9218 Y1.5886 Z0.1934
N11275 X0.9219 Y1.5851 Z0.1933
N11280 X0.922 Y1.5816 Z0.1932
N11285 X0.9221 Y1.5781 Z0.1931
N11290 X0.9223 Y1.5746 Z0.1929
N11295 X0.9224 Y1.5711 Z0.1928
N11300 X0.9225 Y1.5676 Z0.1927
N11305 X0.9226 Y1.5641 Z0.1926
N11310 X0.9227 Y1.5606 Z0.1925
N11315 X0.9228 Y1.5571 Z0.1923
N11320 X0.9229 Y1.5536 Z0.1922
N11325 X0.9231 Y1.5501 Z0.1921
N11330 X0.9232 Y1.5466 Z0.192
N11335 X0.9233 Y1.5431 Z0.1918
N11340 X0.9234 Y1.5396 Z0.1917
N11345 X0.9235 Y1.5361 Z0.1916
N11350 X0.9236 Y1.5326 Z0.1915
N11355 X0.9238 Y1.5291 Z0.1914
N11360 X0.9239 Y1.5256 Z0.1912
N11365 X0.924 Y1.5221 Z0.1911
N11370 X0.9241 Y1.5186 Z0.191
N11375 X0.9242 Y1.5151 Z0.1909
N11380 X0.9243 Y1.5116 Z0.1907
N11385 X0.9245 Y1.5081 Z0.1906
N11390 X0.9246 Y1.5046 Z0.1905
N11395 X0.9248 Y1.4976 Z0.1903
N11400 X0.9249 Y1.4941 Z0.1901
N11405 X0.925 Y1.4906 Z0.19
N11410 X0.9252 Y1.4871 Z0.1899
N11415 X0.9253 Y1.4836 Z0.1898
N11420 X0.9255 Y1.4766 Z0.1895
N11425 X0.9257 Y1.4696 Z0.1893
N11430 X0.9258 Y1.4661 Z0.1892
N11435 X0.9261 Y1.4591 Z0.1889
N11440 X0.9262 Y1.4556 Z0.1888
N11445 X0.9264 Y1.4486 Z0.1885
N11450 X0.9268 Y1.4381 Z0.1882
N11455 X0.9269 Y1.4346 Z0.1881
N11460 X0.9273 Y1.4241 Z0.1877
N11465 X0.9275 Y1.4171 Z0.1874
N11470 X0.9276 Y1.4136 Z0.1873
N11475 X0.9279 Y1.4066 Z0.1871
N11480 X0.9282 Y1.3961 Z0.1867
N11485 X0.9285 Y1.3891 Z0.1865
N11490 X0.9286 Y1.3856 Z0.1863
N11495 X0.9288 Y1.3786 Z0.1861
N11500 X0.9296 Y1.3576 Z0.1854
N11505 X0.9298 Y1.3506 Z0.1851
N11510 X0.9305 Y1.3296 Z0.1844
N11515 X0.9308 Y1.3226 Z0.1841
N11520 X0.9316 Y1.2981 Z0.1833
N11525 X0.9323 Y1.2771 Z0.1825
N11530 X0.9324 Y1.2736 Z0.1824
N11535 X0.9328 Y1.2631 Z0.1821
N11540 X0.9333 Y1.2491 Z0.1816
N11545 X0.9339 Y1.2316 Z0.181
N11550 X0.9349 Y1.2036 Z0.18
N11555 X0.9383 Y1.1091 Z0.1767
N11560 X0.9386 Y1.1021 Z0.1764
N11565 X0.9393 Y1.0811 Z0.1757
N11570 X0.9395 Y1.0776 Z0.1756
N11575 X0.9397 Y1.0706 Z0.1753
N11580 X0.9405 Y1.0496 Z0.1746
N11585 X0.9407 Y1.0426 Z0.1744
N11590 X0.9411 Y1.0321 Z0.174
N11595 X0.9414 Y1.0251 Z0.1737
N11600 X0.9415 Y1.0216 Z0.1736
N11605 X0.9417 Y1.0146 Z0.1734
N11610 X0.9421 Y1.0038 Z0.173
N11615 X0.9423 Y1 Z0.1729
N11620 X0.9426 Y0.9962 Z0.1727
N11625 X0.9429 Y0.9925 Z0.1726
N11630 X0.9433 Y0.9888 Z0.1725
N11635 X0.9437 Y0.9851 Z0.1723
N11640 X0.9443 Y0.9814 Z0.1722
N11645 X0.9449 Y0.9777 Z0.1721
N11650 X0.9457 Y0.974 Z0.1719
N11655 X0.9465 Y0.9702 Z0.1718
N11660 X0.9475 Y0.9665 Z0.1717
N11665 X0.9485 Y0.9628 Z0.1715
N11670 X0.9496 Y0.9592 Z0.1714
N11675 X0.9508 Y0.9555 Z0.1713
N11680 X0.9521 Y0.952 Z0.1711
N11685 X0.9534 Y0.9484 Z0.171
N11690 X0.9549 Y0.945 Z0.1709
N11695 X0.9564 Y0.9415 Z0.1708
N11700 X0.958 Y0.9382 Z0.1706
N11705 X0.9597 Y0.9348 Z0.1705
N11710 X0.9615 Y0.9314 Z0.1704
N11715 X0.9634 Y0.9281 Z0.1702
N11720 X0.9653 Y0.9247 Z0.1701
N11725 X0.9674 Y0.9215 Z0.17
N11730 X0.9695 Y0.9184 Z0.1698
N11735 X0.9716 Y0.9154 Z0.1697
N11740 X0.9738 Y0.9124 Z0.1696
N11745 X0.9761 Y0.9095 Z0.1694
N11750 X0.9785 Y0.9065 Z0.1693
N11755 X0.9809 Y0.9036 Z0.1692
N11760 X0.9835 Y0.9008 Z0.169
N11765 X0.9861 Y0.898 Z0.1689
N11770 X0.9887 Y0.8954 Z0.1688
N11775 X0.9914 Y0.8928 Z0.1686
N11780 X0.9941 Y0.8903 Z0.1685
N11785 X0.9969 Y0.8879 Z0.1684
N11790 X0.9998 Y0.8855 Z0.1683
N11795 X1.0028 Y0.8832 Z0.1681
N11800 X1.0058 Y0.8809 Z0.168
N11805 X1.0089 Y0.8787 Z0.1679
N11810 X1.0119 Y0.8767 Z0.1677
N11815 X1.015 Y0.8747 Z0.1676
N11820 X1.0181 Y0.8728 Z0.1675
N11825 X1.0213 Y0.871 Z0.1673
N11830 X1.0246 Y0.8692 Z0.1672
N11835 X1.028 Y0.8675 Z0.1671
N11840 X1.0314 Y0.8659 Z0.167
N11845 X1.0348 Y0.8644 Z0.1668
N11850 X1.0381 Y0.8629 Z0.1667
N11855 X1.0415 Y0.8616 Z0.1666
N11860 X1.045 Y0.8604 Z0.1665
N11865 X1.0484 Y0.8592 Z0.1663
N11870 X1.0519 Y0.8581 Z0.1662
N11875 X1.0555 Y0.8571 Z0.1661
N11880 X1.059 Y0.8562 Z0.166
N11885 X1.0626 Y0.8553 Z0.1659
N11890 X1.0662 Y0.8546 Z0.1657
N11895 X1.0698 Y0.8539 Z0.1656
N11900 X1.0734 Y0.8534 Z0.1655
N11905 X1.077 Y0.8529 Z0.1654
N11910 X1.0806 Y0.8525 Z0.1653
N11915 X1.0842 Y0.8522 Z0.1652
N11920 X1.0878 Y0.852 Z0.1651
N11925 X1.0914 Y0.8518 Z0.1649
N11930 X1.095 Z0.1648
N11935 X1.0986 Z0.1647
N11940 X1.1022 Z0.1646
N11945 X1.1058 Y0.852 Z0.1645
N11950 X1.1128 Y0.8522 Z0.1643
N11955 X1.1198 Y0.8524 Z0.1641
N11960 X1.1268 Y0.8526 Z0.1639
N11965 X1.1338 Y0.8528 Z0.1637
N11970 X1.1408 Y0.853 Z0.1636
N11975 X1.1478 Y0.8532 Z0.1634
N11980 X1.1548 Y0.8534 Z0.1632
N11985 X1.1618 Y0.8536 Z0.163
N11990 X1.1688 Y0.8538 Z0.1629
N11995 X1.1758 Y0.854 Z0.1627
N12000 X1.1828 Y0.8542 Z0.1625
N12005 X1.1898 Y0.8543 Z0.1624
N12010 X1.1968 Y0.8545 Z0.1622
N12015 X1.2038 Y0.8547 Z0.1621
N12020 X1.2108 Y0.8548 Z0.1619
N12025 X1.2178 Y0.855 Z0.1618
N12030 X1.2248 Y0.8552 Z0.1617
N12035 X1.2318 Y0.8553 Z0.1615
N12040 X1.2388 Y0.8554 Z0.1614
N12045 X1.2458 Y0.8556 Z0.1613
N12050 X1.2528 Y0.8557 Z0.1612
N12055 X1.2598 Y0.8558 Z0.1611
N12060 X1.2668 Y0.856 Z0.161
N12065 X1.2738 Y0.8561 Z0.1609
N12070 X1.2878 Y0.8563 Z0.1607
N12075 X1.3018 Y0.8565 Z0.1605
N12080 X1.3158 Y0.8566 Z0.1604
N12085 X1.3298 Y0.8568 Z0.1603
N12090 X1.3438 Y0.8569 Z0.1602
N12095 X1.3578 Y0.857 Z0.1601
N12100 X1.3718 Z0.16
N12105 X1.3858 Y0.8571
N12110 X1.3956
N12115 X1.5236 Y0.857
N12120 X1.5396
N12125 X1.5954
N12130 X1.6113
N12135 X1.6671
N12140 X1.6751
N12145 X2.0976 Y0.8571
N12150 X2.1055 Y0.8573
N12155 X2.1135 Y0.8579
N12160 X2.117 Y0.8583
N12165 X2.1215 Y0.859
N12170 X2.1294 Y0.8605
N12175 X2.1374 Y0.8625
N12180 X2.1454 Y0.865
N12185 X2.1489 Y0.8663
N12190 X2.1534 Y0.868
N12195 X2.1613 Y0.8716
N12200 X2.1665 Y0.8743
N12205 X2.1693 Y0.8758
N12210 X2.1773 Y0.8807
N12215 X2.1796 Y0.8822
N12220 X2.1852 Y0.8863
N12225 X2.1902 Y0.8902
N12230 X2.1932 Y0.8928
N12235 X2.199 Y0.8982
N12240 X2.2012 Y0.9003
N12245 X2.2066 Y0.9061
N12250 X2.2092 Y0.9092
N12255 X2.2131 Y0.9141
N12260 X2.2171 Y0.9198
N12265 X2.2187 Y0.9221
N12270 X2.2236 Y0.9301
N12275 X2.2251 Y0.9329
N12280 X2.2277 Y0.938
N12285 X2.2313 Y0.946
N12290 X2.2331 Y0.9504
N12295 X2.2344 Y0.954
N12300 X2.2369 Y0.9619
N12305 X2.2389 Y0.9699
N12310 X2.2404 Y0.9779
N12315 X2.241 Y0.9824
N12320 X2.2415 Y0.9859
N12325 X2.2421 Y0.9938
N12330 X2.2423 Y1.0018
N12335 Y1.4243
N12340 Y1.4402
N12345 Y1.496
N12350 Y1.512
N12355 Y1.5678
N12360 Y1.5757
N12365 Y1.9982
N12370 X2.2421 Y2.0062
N12375 X2.2415 Y2.0141
N12380 X2.241 Y2.0176
N12385 X2.2404 Y2.0221
N12390 X2.2389 Y2.0301
N12395 X2.2369 Y2.0381
N12400 X2.2344 Y2.046
N12405 X2.2331 Y2.0496
N12410 X2.2313 Y2.054
N12415 X2.2277 Y2.062
N12420 X2.2251 Y2.0671
N12425 X2.2236 Y2.0699
N12430 X2.2187 Y2.0779
N12435 X2.2171 Y2.0802
N12440 X2.2131 Y2.0859
N12445 X2.2092 Y2.0908
N12450 X2.2066 Y2.0939
N12455 X2.2012 Y2.0997
N12460 X2.199 Y2.1018
N12465 X2.1932 Y2.1072
N12470 X2.1902 Y2.1098
N12475 X2.1852 Y2.1137
N12480 X2.1796 Y2.1178
N12485 X2.1773 Y2.1193
N12490 X2.1693 Y2.1242
N12495 X2.1665 Y2.1257
N12500 X2.1613 Y2.1284
N12505 X2.1534 Y2.132
N12510 X2.1489 Y2.1337
N12515 X2.1454 Y2.135
N12520 X2.1374 Y2.1375
N12525 X2.1294 Y2.1395
N12530 X2.1215 Y2.141
N12535 X2.117 Y2.1417
N12540 X2.1135 Y2.1421
N12545 X2.1055 Y2.1427
N12550 X2.0976 Y2.1429
N12555 X1.6751 Y2.143
N12560 X1.6591
N12565 X1.6034
N12570 X1.5874
N12575 X1.5316
N12580 X1.5236
N12585 X1.1012 Y2.1429
N12590 X1.0932 Y2.1427
N12595 X1.0852 Y2.1421
N12600 X1.0817 Y2.1417
N12605 X1.0773 Y2.141
N12610 X1.0693 Y2.1395
N12615 X1.0613 Y2.1375
N12620 X1.0533 Y2.135
N12625 X1.0498 Y2.1337
N12630 X1.0454 Y2.132
N12635 X1.0374 Y2.1284
N12640 X1.0322 Y2.1257
N12645 X1.0294 Y2.1242
N12650 X1.0215 Y2.1193
N12655 X1.0191 Y2.1178
N12660 X1.0135 Y2.1137
N12665 X1.0086 Y2.1098
N12670 X1.0055 Y2.1072
N12675 X0.9997 Y2.1018
N12680 X0.9975 Y2.0997
N12685 X0.9922 Y2.0939
N12690 X0.9896 Y2.0908
N12695 X0.9857 Y2.0859
N12700 X0.9816 Y2.0802
N12705 X0.98 Y2.0779
N12710 X0.9752 Y2.0699
N12715 X0.9736 Y2.0671
N12720 X0.971 Y2.062
N12725 X0.9674 Y2.054
N12730 X0.9657 Y2.0496
N12735 X0.9644 Y2.046
N12740 X0.9619 Y2.0381
N12745 X0.9599 Y2.0301
N12750 X0.9583 Y2.0221
N12755 X0.9577 Y2.0176
N12760 X0.9573 Y2.0141
N12765 X0.9567 Y2.0062
N12770 X0.9565 Y1.9982
N12775 X0.9564 Y1.5757
N12780 Y1.5598
N12785 Y1.504
N12790 Y1.488
N12795 Y1.4322
N12800 Y1.4243
N12805 X0.9565 Y1.0018
N12810 X0.9567 Y0.9938
N12815 X0.9573 Y0.9859
N12820 X0.9576 Y0.9827
N12825 X0.9577 Y0.9824
N12830 X0.9583 Y0.9779
N12835 X0.9599 Y0.9699
N12840 X0.9619 Y0.9619
N12845 X0.9644 Y0.954
N12850 X0.9657 Y0.9504
N12855 X0.9674 Y0.946
N12860 X0.971 Y0.938
N12865 X0.9736 Y0.9329
N12870 X0.9752 Y0.9301
N12875 X0.98 Y0.9221
N12880 X0.9816 Y0.9198
N12885 X0.9857 Y0.9141
N12890 X0.9896 Y0.9092
N12895 X0.9922 Y0.9061
N12900 X0.9975 Y0.9003
N12905 X0.9997 Y0.8982
N12910 X1.0055 Y0.8928
N12915 X1.0086 Y0.8902
N12920 X1.0135 Y0.8863
N12925 X1.0191 Y0.8822
N12930 X1.0215 Y0.8807
N12935 X1.0294 Y0.8758
N12940 X1.0322 Y0.8743
N12945 X1.0374 Y0.8716
N12950 X1.0454 Y0.868
N12955 X1.0498 Y0.8663
N12960 X1.0533 Y0.865
N12965 X1.0613 Y0.8625
N12970 X1.0693 Y0.8605
N12975 X1.0773 Y0.859
N12980 X1.0817 Y0.8583
N12985 X1.0852 Y0.8579
N12990 X1.0932 Y0.8573
N12995 X1.1012 Y0.8571
N13000 X1.3956
N13005 X1.4096
N13010 X1.4236
N13015 X1.4376 Y0.8572 Z0.1599
N13020 X1.4516 Y0.8573 Z0.1598
N13025 X1.4656 Y0.8574 Z0.1597
N13030 X1.4796 Y0.8575 Z0.1596
N13035 X1.4936 Y0.8577 Z0.1594
N13040 X1.5076 Y0.8579 Z0.1593
N13045 X1.5216 Y0.8581 Z0.1591
N13050 X1.5286 Y0.8582 Z0.159
N13055 X1.5356 Y0.8584 Z0.1589
N13060 X1.5426 Y0.8585 Z0.1587
N13065 X1.5496 Y0.8586 Z0.1586
N13070 X1.5566 Y0.8588 Z0.1585
N13075 X1.5636 Y0.8589 Z0.1584
N13080 X1.5706 Y0.8591 Z0.1582
N13085 X1.5776 Y0.8592 Z0.1581
N13090 X1.5846 Y0.8594 Z0.158
N13095 X1.5916 Y0.8596 Z0.1578
N13100 X1.5986 Y0.8597 Z0.1577
N13105 X1.6056 Y0.8599 Z0.1575
N13110 X1.6126 Y0.8601 Z0.1574
N13115 X1.6196 Y0.8603 Z0.1572
N13120 X1.6266 Y0.8605 Z0.157
N13125 X1.6336 Y0.8607 Z0.1569
N13130 X1.6406 Y0.8609 Z0.1567
N13135 X1.6476 Y0.8611 Z0.1565
N13140 X1.6546 Y0.8613 Z0.1563
N13145 X1.6616 Y0.8615 Z0.1561
N13150 X1.6686 Y0.8618 Z0.156
N13155 X1.6756 Y0.862 Z0.1558
N13160 X1.6826 Y0.8622 Z0.1556
N13165 X1.6861 Y0.8623 Z0.1555
N13170 X1.6896 Y0.8625 Z0.1554
N13175 X1.6931 Y0.8626 Z0.1553
N13180 X1.6966 Y0.8627 Z0.1552
N13185 X1.7001 Y0.8628 Z0.1551
N13190 X1.7036 Y0.8629 Z0.155
N13195 X1.7071 Y0.8631 Z0.1548
N13200 X1.7106 Y0.8632 Z0.1547
N13205 X1.7141 Y0.8633 Z0.1546
N13210 X1.7176 Y0.8634 Z0.1545
N13215 X1.7211 Y0.8636 Z0.1544
N13220 X1.7246 Y0.8637 Z0.1543
N13225 X1.7281 Y0.8638 Z0.1542
N13230 X1.7316 Y0.864 Z0.1541
N13235 X1.7351 Y0.8641 Z0.154
N13240 X1.7386 Y0.8642 Z0.1539
N13245 X1.7421 Y0.8644 Z0.1537
N13250 X1.7456 Y0.8645 Z0.1536
N13255 X1.7491 Y0.8647 Z0.1535
N13260 X1.7526 Y0.8648 Z0.1534
N13265 X1.7561 Y0.8649 Z0.1533
N13270 X1.7596 Y0.8651 Z0.1532
N13275 X1.7631 Y0.8652 Z0.1531
N13280 X1.7666 Y0.8654 Z0.1529
N13285 X1.7701 Y0.8655 Z0.1528
N13290 X1.7736 Y0.8657 Z0.1527
N13295 X1.7771 Y0.8658 Z0.1526
N13300 X1.7806 Y0.866 Z0.1525
N13305 X1.7841 Y0.8661 Z0.1523
N13310 X1.7876 Y0.8663 Z0.1522
N13315 X1.7911 Y0.8664 Z0.1521
N13320 X1.7946 Y0.8666 Z0.152
N13325 X1.7981 Y0.8667 Z0.1518
N13330 X1.8016 Y0.8669 Z0.1517
N13335 X1.8051 Y0.867 Z0.1516
N13340 X1.8086 Y0.8672 Z0.1515
N13345 X1.8121 Y0.8673 Z0.1514
N13350 X1.8156 Y0.8675 Z0.1512
N13355 X1.8191 Y0.8676 Z0.1511
N13360 X1.8226 Y0.8678 Z0.151
N13365 X1.8261 Y0.8679 Z0.1509
N13370 X1.8296 Y0.8681 Z0.1507
N13375 X1.8331 Y0.8682 Z0.1506
N13380 X1.8366 Y0.8684 Z0.1505
N13385 X1.8401 Y0.8685 Z0.1504
N13390 X1.8436 Y0.8687 Z0.1503
N13395 X1.8471 Y0.8688 Z0.1501
N13400 X1.8506 Y0.869 Z0.15
N13405 X1.8541 Y0.8691 Z0.1499
N13410 X1.8576 Y0.8693 Z0.1498
N13415 X1.8611 Y0.8694 Z0.1496
N13420 X1.8646 Y0.8696 Z0.1495
N13425 X1.8681 Y0.8697 Z0.1494
N13430 X1.8716 Y0.8699 Z0.1493
N13435 X1.8751 Y0.87 Z0.1492
N13440 X1.8786 Y0.8702 Z0.149
N13445 X1.8891 Y0.8706 Z0.1487
N13450 X1.8961 Y0.8709 Z0.1484
N13455 X1.8996 Y0.8711 Z0.1483
N13460 X1.9066 Y0.8714 Z0.1481
N13465 X1.9101 Y0.8715 Z0.1479
N13470 X1.9136 Y0.8717 Z0.1478
N13475 X1.9206 Y0.872 Z0.1476
N13480 X1.9311 Y0.8725 Z0.1472
N13485 X1.9381 Y0.8728 Z0.1469
N13490 X1.9416 Y0.8729 Z0.1468
N13495 X1.9486 Y0.8732 Z0.1466
N13500 X1.9556 Y0.8736 Z0.1463
N13505 X1.9591 Y0.8737 Z0.1462
N13510 X1.9661 Y0.874 Z0.146
N13515 X1.9696 Y0.8742 Z0.1458
N13520 X1.9766 Y0.8745 Z0.1456
N13525 X1.9871 Y0.875 Z0.1452
N13530 X1.9941 Y0.8753 Z0.145
N13535 X1.9976 Y0.8755 Z0.1449
N13540 X2.0046 Y0.8758 Z0.1446
N13545 X2.0256 Y0.8768 Z0.1439
N13550 X2.0326 Y0.8771 Z0.1436
N13555 X2.0571 Y0.8782 Z0.1428
N13560 X2.0781 Y0.8792 Z0.1421
N13565 X2.0886 Y0.8797 Z0.1417
N13570 X2.1003 Y0.8802 Z0.1413
N13575 X2.105 Y0.8806 Z0.1411
N13580 X2.1096 Y0.8812 Z0.141
N13585 X2.1143 Y0.882 Z0.1408
N13590 X2.1191 Y0.8829 Z0.1406
N13595 X2.1238 Y0.8841 Z0.1404
N13600 X2.1285 Y0.8855 Z0.1403
N13605 X2.1331 Y0.887 Z0.1401
N13610 X2.1374 Y0.8887 Z0.1399
N13615 X2.1416 Y0.8904 Z0.1398
N13620 X2.1458 Y0.8924 Z0.1396
N13625 X2.1498 Y0.8945 Z0.1395
N13630 X2.1538 Y0.8968 Z0.1393
N13635 X2.1577 Y0.8992 Z0.1391
N13640 X2.1615 Y0.9018 Z0.139
N13645 X2.1652 Y0.9045 Z0.1388
N13650 X2.169 Y0.9076 Z0.1387
N13655 X2.1727 Y0.9108 Z0.1385
N13660 X2.1763 Y0.9142 Z0.1383
N13665 X2.1797 Y0.9177 Z0.1381
N13670 X2.1826 Y0.921 Z0.138
N13675 X2.1855 Y0.9244 Z0.1378
N13680 X2.1882 Y0.928 Z0.1377
N13685 X2.1908 Y0.9316 Z0.1375
N13690 X2.1932 Y0.9353 Z0.1374
N13695 X2.1955 Y0.9392 Z0.1372
N13700 X2.1976 Y0.9431 Z0.1371
N13705 X2.1996 Y0.9471 Z0.1369
N13710 X2.2016 Y0.9515 Z0.1367
N13715 X2.2034 Y0.956 Z0.1366
N13720 X2.205 Y0.9606 Z0.1364
N13725 X2.2064 Y0.9652 Z0.1362
N13730 X2.2075 Y0.9697 Z0.1361
N13735 X2.2085 Y0.9742 Z0.1359
N13740 X2.2092 Y0.9787 Z0.1357
N13745 X2.2098 Y0.9833 Z0.1356
N13750 X2.2102 Y0.9875 Z0.1354
N13755 X2.2104 Y0.9917 Z0.1353
N13760 X2.2105 Y0.9959 Z0.1351
N13765 X2.2103 Y1.0002 Z0.135
N13770 X2.2102 Y1.0038 Z0.1349
N13775 X2.2098 Y1.0112 Z0.1346
N13780 X2.2096 Y1.0149 Z0.1345
N13785 X2.2093 Y1.0219 Z0.1342
N13790 X2.2087 Y1.0324 Z0.1339
N13795 X2.2084 Y1.0394 Z0.1336
N13800 X2.2082 Y1.0429 Z0.1335
N13805 X2.208 Y1.0464 Z0.1334
N13810 X2.2077 Y1.0534 Z0.1331
N13815 X2.2075 Y1.0569 Z0.133
N13820 X2.2071 Y1.0639 Z0.1328
N13825 X2.2066 Y1.0744 Z0.1324
N13830 X2.2062 Y1.0814 Z0.1322
N13835 X2.206 Y1.0849 Z0.132
N13840 X2.2058 Y1.0884 Z0.1319
N13845 X2.2056 Y1.0919 Z0.1318
N13850 X2.2054 Y1.0954 Z0.1317
N13855 X2.2052 Y1.0989 Z0.1315
N13860 X2.205 Y1.1024 Z0.1314
N13865 X2.2048 Y1.1059 Z0.1313
N13870 X2.2047 Y1.1094 Z0.1312
N13875 X2.2045 Y1.1129 Z0.1311
N13880 X2.2043 Y1.1164 Z0.1309
N13885 X2.2041 Y1.1199 Z0.1308
N13890 X2.2039 Y1.1234 Z0.1307
N13895 X2.2037 Y1.1269 Z0.1306
N13900 X2.2035 Y1.1304 Z0.1304
N13905 X2.2033 Y1.1339 Z0.1303
N13910 X2.2031 Y1.1374 Z0.1302
N13915 X2.203 Y1.1409 Z0.1301
N13920 X2.2028 Y1.1444 Z0.1299
N13925 X2.2026 Y1.1479 Z0.1298
N13930 X2.2024 Y1.1514 Z0.1297
N13935 X2.2022 Y1.1549 Z0.1296
N13940 X2.202 Y1.1584 Z0.1295
N13945 X2.2018 Y1.1619 Z0.1293
N13950 X2.2016 Y1.1654 Z0.1292
N13955 X2.2014 Y1.1689 Z0.1291
N13960 X2.2012 Y1.1724 Z0.129
N13965 X2.2011 Y1.1759 Z0.1288
N13970 X2.2009 Y1.1794 Z0.1287
N13975 X2.2007 Y1.1829 Z0.1286
N13980 X2.2005 Y1.1864 Z0.1285
N13985 X2.2003 Y1.1899 Z0.1284
N13990 X2.2001 Y1.1934 Z0.1282
N13995 X2.1999 Y1.1969 Z0.1281
N14000 X2.1997 Y1.2004 Z0.128
N14005 X2.1995 Y1.2039 Z0.1279
N14010 X2.1994 Y1.2074 Z0.1277
N14015 X2.1992 Y1.2109 Z0.1276
N14020 X2.199 Y1.2144 Z0.1275
N14025 X2.1988 Y1.2179 Z0.1274
N14030 X2.1986 Y1.2214 Z0.1273
N14035 X2.1984 Y1.2249 Z0.1271
N14040 X2.1982 Y1.2284 Z0.127
N14045 X2.198 Y1.2319 Z0.1269
N14050 X2.1978 Y1.2354 Z0.1268
N14055 X2.1976 Y1.2389 Z0.1267
N14060 X2.1974 Y1.2424 Z0.1266
N14065 X2.1972 Y1.2459 Z0.1264
N14070 X2.197 Y1.2494 Z0.1263
N14075 X2.1968 Y1.2529 Z0.1262
N14080 X2.1966 Y1.2564 Z0.1261
N14085 X2.1965 Y1.2599 Z0.126
N14090 X2.1963 Y1.2634 Z0.1259
N14095 X2.1961 Y1.2669 Z0.1258
N14100 X2.1959 Y1.2704 Z0.1257
N14105 X2.1957 Y1.2739 Z0.1255
N14110 X2.1955 Y1.2774 Z0.1254
N14115 X2.1953 Y1.2809 Z0.1253
N14120 X2.1952 Y1.2844 Z0.1252
N14125 X2.195 Y1.2879 Z0.1251
N14130 X2.1948 Y1.2914 Z0.125
N14135 X2.1946 Y1.2949 Z0.1249
N14140 X2.1945 Y1.2984 Z0.1248
N14145 X2.1943 Y1.3019 Z0.1247
N14150 X2.1941 Y1.3054 Z0.1246
N14155 X2.1939 Y1.3089 Z0.1245
N14160 X2.1936 Y1.3159 Z0.1243
N14165 X2.1933 Y1.3229 Z0.1241
N14170 X2.1929 Y1.3299 Z0.1239
N14175 X2.1926 Y1.3369 Z0.1237
N14180 X2.1923 Y1.3439 Z0.1235
N14185 X2.192 Y1.3509 Z0.1234
N14190 X2.1917 Y1.3579 Z0.1232
N14195 X2.1914 Y1.3649 Z0.123
N14200 X2.1911 Y1.3719 Z0.1229
N14205 X2.1908 Y1.3789 Z0.1227
N14210 X2.1905 Y1.3859 Z0.1225
N14215 X2.1902 Y1.3929 Z0.1224
N14220 X2.19 Y1.3999 Z0.1222
N14225 X2.1897 Y1.4069 Z0.1221
N14230 X2.1895 Y1.4139 Z0.1219
N14235 X2.1892 Y1.4209 Z0.1218
N14240 X2.189 Y1.4279 Z0.1217
N14245 X2.1887 Y1.4349 Z0.1215
N14250 X2.1885 Y1.4419 Z0.1214
N14255 X2.1883 Y1.4489 Z0.1213
N14260 X2.1881 Y1.4559 Z0.1212
N14265 X2.1879 Y1.4629 Z0.1211
N14270 X2.1877 Y1.4699 Z0.121
N14275 X2.1875 Y1.4769 Z0.1209
N14280 X2.1871 Y1.4909 Z0.1207
N14285 X2.1868 Y1.5049 Z0.1205
N14290 X2.1866 Y1.5189 Z0.1204
N14295 X2.1863 Y1.5329 Z0.1203
N14300 X2.1861 Y1.5469 Z0.1202
N14305 X2.186 Y1.5609 Z0.1201
N14310 X2.1859 Y1.5749 Z0.12
N14315 Y1.5889
N14320 X2.1858 Y1.5982
N14325 Y1.7033
N14330 Y1.7112
N14335 Y1.9982
N14340 X2.1855 Y2.0062
N14345 X2.1852 Y2.0091
N14350 X2.1845 Y2.0141
N14355 X2.1827 Y2.0221
N14360 X2.1801 Y2.0301
N14365 X2.1773 Y2.0367
N14370 X2.1766 Y2.0381
N14375 X2.1721 Y2.046
N14380 X2.1693 Y2.0502
N14385 X2.1664 Y2.054
N14390 X2.1613 Y2.0597
N14395 X2.1591 Y2.062
N14400 X2.1534 Y2.067
N14405 X2.1495 Y2.0699
N14410 X2.1454 Y2.0728
N14415 X2.1374 Y2.0773
N14420 X2.1361 Y2.0779
N14425 X2.1294 Y2.0808
N14430 X2.1215 Y2.0834
N14435 X2.1135 Y2.0851
N14440 X2.1085 Y2.0859
N14445 X2.1055 Y2.0862
N14450 X2.0976 Y2.0864
N14455 X1.8106 Y2.0865
N14460 X1.8026
N14465 X1.6034
N14470 X1.5874
N14475 X1.3961
N14480 X1.3881
N14485 X1.1012 Y2.0864
N14490 X1.0932 Y2.0862
N14495 X1.0903 Y2.0859
N14500 X1.0852 Y2.0851
N14505 X1.0773 Y2.0834
N14510 X1.0693 Y2.0808
N14515 X1.0626 Y2.0779
N14520 X1.0613 Y2.0773
N14525 X1.0533 Y2.0728
N14530 X1.0492 Y2.0699
N14535 X1.0454 Y2.067
N14540 X1.0397 Y2.062
N14545 X1.0374 Y2.0597
N14550 X1.0324 Y2.054
N14555 X1.0294 Y2.0502
N14560 X1.0266 Y2.046
N14565 X1.0221 Y2.0381
N14570 X1.0215 Y2.0367
N14575 X1.0186 Y2.0301
N14580 X1.016 Y2.0221
N14585 X1.0142 Y2.0141
N14590 X1.0135 Y2.0091
N14595 X1.0132 Y2.0062
N14600 X1.013 Y1.9982
N14605 X1.0129 Y1.7112
N14610 Y1.7033
N14615 Y1.504
N14620 Y1.488
N14625 Y1.2967
N14630 Y1.2888
N14635 X1.013 Y1.0018
N14640 X1.0132 Y0.9938
N14645 X1.0135 Y0.9909
N14650 X1.0142 Y0.9859
N14655 X1.016 Y0.9779
N14660 X1.0186 Y0.9699
N14665 X1.0215 Y0.9633
N14670 X1.0221 Y0.9619
N14675 X1.0266 Y0.954
N14680 X1.0294 Y0.9498
N14685 X1.0324 Y0.946
N14690 X1.0374 Y0.9403
N14695 X1.0397 Y0.938
N14700 X1.0454 Y0.933
N14705 X1.0492 Y0.9301
N14710 X1.0533 Y0.9272
N14715 X1.0613 Y0.9227
N14720 X1.0626 Y0.9221
N14725 X1.0693 Y0.9192
N14730 X1.0773 Y0.9166
N14735 X1.0852 Y0.9149
N14740 X1.0903 Y0.9141
N14745 X1.0932 Y0.9138
N14750 X1.1012 Y0.9136
N14755 X1.3881 Y0.9135
N14760 X1.3956
N14765 X1.3961
N14770 X1.5954
N14775 X1.6113
N14780 X1.8026
N14785 X1.8106
N14790 X2.0976 Y0.9136
N14795 X2.1055 Y0.9138
N14800 X2.1085 Y0.9141
N14805 X2.1135 Y0.9149
N14810 X2.1215 Y0.9166
N14815 X2.1294 Y0.9192
N14820 X2.1361 Y0.9221
N14825 X2.1374 Y0.9227
N14830 X2.1454 Y0.9272
N14835 X2.1495 Y0.9301
N14840 X2.1534 Y0.933
N14845 X2.1591 Y0.938
N14850 X2.1613 Y0.9403
N14855 X2.1664 Y0.946
N14860 X2.1693 Y0.9498
N14865 X2.1721 Y0.954
N14870 X2.1766 Y0.9619
N14875 X2.1773 Y0.9633
N14880 X2.1801 Y0.9699
N14885 X2.1827 Y0.9779
N14890 X2.1845 Y0.9859
N14895 X2.1852 Y0.9909
N14900 X2.1855 Y0.9938
N14905 X2.1858 Y1.0018
N14910 Y1.2888
N14915 Y1.2967
N14920 Y1.496
N14925 Y1.512
N14930 Y1.5982
N14935 Y1.612
N14940 X2.1857 Y1.6259 Z0.1199
N14945 X2.1855 Y1.6397 Z0.1198
N14950 X2.1852 Y1.6536 Z0.1196
N14955 X2.1848 Y1.6675 Z0.1194
N14960 X2.1846 Y1.6744 Z0.1193
N14965 X2.1843 Y1.6813 Z0.1192
N14970 X2.1841 Y1.6883 Z0.1191
N14975 X2.1838 Y1.6952 Z0.1189
N14980 X2.1835 Y1.7021 Z0.1188
N14985 X2.1832 Y1.709 Z0.1186
N14990 X2.1829 Y1.716 Z0.1185
N14995 X2.1826 Y1.7229 Z0.1183
N15000 X2.1822 Y1.7298 Z0.1181
N15005 X2.1818 Y1.7368 Z0.1179
N15010 X2.1814 Y1.7437 Z0.1177
N15015 X2.1812 Y1.7472 Z0.1176
N15020 X2.181 Y1.7507 Z0.1175
N15025 X2.1808 Y1.7542 Z0.1174
N15030 X2.1806 Y1.7577 Z0.1173
N15035 X2.1804 Y1.7612 Z0.1172
N15040 X2.1802 Y1.7647 Z0.1171
N15045 X2.1799 Y1.7681 Z0.117
N15050 X2.1797 Y1.7716 Z0.1169
N15055 X2.1795 Y1.7751 Z0.1168
N15060 X2.1792 Y1.7785 Z0.1166
N15065 X2.179 Y1.782 Z0.1165
N15070 X2.1787 Y1.7854 Z0.1164
N15075 X2.1785 Y1.7889 Z0.1163
N15080 X2.1782 Y1.7924 Z0.1162
N15085 X2.1779 Y1.7958 Z0.116
N15090 X2.1777 Y1.7993 Z0.1159
N15095 X2.1774 Y1.8028 Z0.1158
N15100 X2.1771 Y1.8062 Z0.1157
N15105 X2.1769 Y1.8097 Z0.1156
N15110 X2.1766 Y1.8132 Z0.1154
N15115 X2.1763 Y1.8166 Z0.1153
N15120 X2.1761 Y1.8201 Z0.1152
N15125 X2.1758 Y1.8236 Z0.1151
N15130 X2.1756 Y1.827 Z0.115
N15135 X2.1753 Y1.8305 Z0.1148
N15140 X2.175 Y1.834 Z0.1147
N15145 X2.1748 Y1.8374 Z0.1146
N15150 X2.1745 Y1.8409 Z0.1145
N15155 X2.1742 Y1.8443 Z0.1143
N15160 X2.174 Y1.8478 Z0.1142
N15165 X2.1737 Y1.8513 Z0.1141
N15170 X2.1734 Y1.8547 Z0.114
N15175 X2.1732 Y1.8582 Z0.1139
N15180 X2.1729 Y1.8617 Z0.1137
N15185 X2.1726 Y1.8651 Z0.1136
N15190 X2.1723 Y1.8686 Z0.1135
N15195 X2.1721 Y1.8721 Z0.1134
N15200 X2.1718 Y1.8755 Z0.1133
N15205 X2.1715 Y1.879 Z0.1131
N15210 X2.1712 Y1.8825 Z0.113
N15215 X2.1709 Y1.8859 Z0.1129
N15220 X2.1706 Y1.8894 Z0.1128
N15225 X2.1703 Y1.8929 Z0.1127
N15230 X2.17 Y1.8963 Z0.1125
N15235 X2.1697 Y1.8998 Z0.1124
N15240 X2.1694 Y1.9032 Z0.1123
N15245 X2.1691 Y1.9067 Z0.1122
N15250 X2.1688 Y1.9102 Z0.112
N15255 X2.1685 Y1.9136 Z0.1119
N15260 X2.1681 Y1.9171 Z0.1118
N15265 X2.1678 Y1.9206 Z0.1117
N15270 X2.1672 Y1.9275 Z0.1114
N15275 X2.1669 Y1.931 Z0.1113
N15280 X2.1663 Y1.9379 Z0.1111
N15285 X2.165 Y1.9517 Z0.1106
N15290 X2.1632 Y1.9725 Z0.1099
N15295 X2.1629 Y1.976 Z0.1097
N15300 X2.1625 Y1.9795 Z0.1096
N15305 X2.1606 Y1.9973 Z0.109
N15310 X2.1602 Y2.001 Z0.1089
N15315 X2.1597 Y2.0046 Z0.1087
N15320 X2.1589 Y2.0082 Z0.1086
N15325 X2.1578 Y2.0118 Z0.1085
N15330 X2.1566 Y2.0152 Z0.1083
N15335 X2.1551 Y2.0185 Z0.1082
N15340 X2.1535 Y2.0217 Z0.1081
N15345 X2.1517 Y2.0249 Z0.108
N15350 X2.1497 Y2.0279 Z0.1079
N15355 X2.1475 Y2.0307 Z0.1077
N15360 X2.1451 Y2.0335 Z0.1076
N15365 X2.1426 Y2.0361 Z0.1075
N15370 X2.1399 Y2.0385 Z0.1074
N15375 X2.1371 Y2.0407 Z0.1073
N15380 X2.1341 Y2.0428 Z0.1071
N15385 X2.131 Y2.0447 Z0.107
N15390 X2.1278 Y2.0464 Z0.1069
N15395 X2.1245 Y2.0478 Z0.1068
N15400 X2.1211 Y2.0491 Z0.1067
N15405 X2.1176 Y2.0501 Z0.1065
N15410 X2.1141 Y2.0508 Z0.1064
N15415 X2.1107 Y2.0513 Z0.1063
N15420 X2.1073 Y2.0515 Z0.1062
N15425 X2.104 Z0.1061
N15430 X2.1006 Y2.0513 Z0.106
N15435 X2.0972 Y2.0509 Z0.1058
N15440 X2.0939 Y2.0505 Z0.1057
N15445 X2.0905 Y2.05 Z0.1056
N15450 X2.0872 Y2.0496 Z0.1055
N15455 X2.0837 Y2.0491 Z0.1054
N15460 X2.0803 Y2.0487 Z0.1053
N15465 X2.0768 Y2.0482 Z0.1051
N15470 X2.0733 Y2.0478 Z0.105
N15475 X2.0699 Y2.0473 Z0.1049
N15480 X2.0664 Y2.0468 Z0.1048
N15485 X2.0629 Y2.0464 Z0.1047
N15490 X2.0595 Y2.0458 Z0.1045
N15495 X2.056 Y2.0452 Z0.1044
N15500 X2.0525 Y2.0446 Z0.1043
N15505 X2.0491 Y2.044 Z0.1042
N15510 X2.0456 Y2.0434 Z0.104
N15515 X2.0421 Y2.0428 Z0.1039
N15520 X2.0387 Y2.0422 Z0.1038
N15525 X2.0352 Y2.0416 Z0.1037
N15530 X2.0317 Y2.0411 Z0.1036
N15535 X2.0283 Y2.0405 Z0.1034
N15540 X2.0248 Y2.0399 Z0.1033
N15545 X2.0214 Y2.0393 Z0.1032
N15550 X2.0179 Y2.0388 Z0.1031
N15555 X2.0144 Y2.0382 Z0.103
N15560 X2.0109 Y2.0377 Z0.1029
N15565 X2.0075 Y2.0371 Z0.1028
N15570 X2.004 Y2.0364 Z0.1027
N15575 X2.0006 Y2.0357 Z0.1026
N15580 X1.9971 Y2.035 Z0.1025
N15585 X1.9936 Y2.0343 Z0.1024
N15590 X1.9902 Y2.0336 Z0.1023
N15595 X1.9832 Y2.0323 Z0.1021
N15600 X1.9763 Y2.031 Z0.1019
N15605 X1.9694 Y2.0298 Z0.1017
N15610 X1.9624 Y2.0284 Z0.1015
N15615 X1.9555 Y2.027 Z0.1014
N15620 X1.9486 Y2.0254 Z0.1012
N15625 X1.9416 Y2.0239 Z0.101
N15630 X1.9347 Y2.0224 Z0.1009
N15635 X1.9277 Y2.0211 Z0.1008
N15640 X1.9208 Y2.0193 Z0.1007
N15645 X1.9139 Y2.0176 Z0.1005
N15650 X1.907 Y2.0159 Z0.1004
N15655 X1.9001 Y2.0141
N15660 X1.8931 Y2.0125 Z0.1003
N15665 X1.8861 Y2.0111 Z0.1002
N15670 X1.8792 Y2.0093 Z0.1001
N15675 X1.8723 Y2.007
N15680 X1.8654 Y2.0044 Z0.1
N15685 X1.8585 Y2.0023
N15690 X1.8568 Y2.0018
N15695 X1.855 Y2.0013
N15700 X1.8515 Y2.0005
N15705 X1.8485 Y2.0001
N15710 X1.8454 Y2.011
N15715 X1.8425
N15720 X1.6034 Y2.0107
N15725 X1.5954
N15730 X1.3562 Y2.011
N15735 X1.3483
N15740 X1.1091 Y2.0107
N15745 X1.1012 Y2.0105
N15750 X1.0932 Y2.008
N15755 X1.0914 Y2.0062
N15760 X1.0888 Y1.9982
N15765 X1.0887 Y1.9902
N15770 X1.0884 Y1.7511
N15775 Y1.7431
N15780 X1.0886 Y1.504
N15785 Y1.496
N15790 X1.0884 Y1.2569
N15795 Y1.2489
N15800 X1.0887 Y1.0098
N15805 X1.0888 Y1.0018
N15810 X1.0914 Y0.9938
N15815 X1.0932 Y0.992
N15820 X1.1012 Y0.9895
N15825 X1.1091 Y0.9893
N15830 X1.3483 Y0.989
N15835 X1.3562
N15840 X1.5954 Y0.9893
N15845 X1.6034
N15850 X1.8425 Y0.989
N15855 X1.8505
N15860 X2.0896 Y0.9893
N15865 X2.0976 Y0.9895
N15870 X2.1055 Y0.992
N15875 X2.1073 Y0.9938
N15880 X2.1099 Y1.0018
N15885 X2.11 Y1.0098
N15890 X2.1104 Y1.2489
N15895 Y1.2569
N15900 X2.1101 Y1.496
N15905 Y1.504
N15910 X2.1104 Y1.7431
N15915 Y1.7511
N15920 X2.11 Y1.9902
N15925 X2.1099 Y1.9982
N15930 X2.1073 Y2.0062
N15935 X2.1055 Y2.008
N15940 X2.0976 Y2.0105
N15945 X2.0896 Y2.0107
N15950 X1.8505 Y2.011
N15955 X1.8454
N15960 G3 X1.8204 Y1.986 J-0.025
N15965 G1 Y1.9821 Z0.1003
N15970 X1.8205 Y1.9783 Z0.1012
N15975 Y1.9746 Z0.1027
N15980 Y1.9713 Z0.1048
N15985 Y1.9683 Z0.1073
N15990 Y1.9658 Z0.1103
N15995 Y1.9637 Z0.1137
N16000 Y1.9622 Z0.1173
N16005 Y1.9613 Z0.1211
N16010 Y1.961 Z0.125
N16015 G0 Z1.1

(Face1)
N16020 M9
N16025 X3.1625 Y0.1083
N16030 Z1.1
N16035 Z0.7
N16040 G1 Z0.385 F40
N16045 X3.1622 Z0.3811
N16050 X3.1613 Z0.3773
N16055 X3.1598 Z0.3737
N16060 X3.1577 Z0.3703
N16065 X3.1552 Z0.3673
N16070 X3.1522 Z0.3648
N16075 X3.1488 Z0.3627
N16080 X3.1452 Z0.3612
N16085 X3.1414 Z0.3603
N16090 X3.1375 Z0.36
N16095 X3
N16100 X0
N16105 G2 Y0.3391 J0.1154
N16110 G1 X3
N16115 G3 Y0.57 J0.1154
N16120 G1 X0
N16125 G2 Y0.8009 J0.1154
N16130 G1 X3
N16135 G3 Y1.0318 J0.1154
N16140 G1 X0
N16145 G2 Y1.2627 J0.1154
N16150 G1 X3
N16155 G3 Y1.4936 J0.1154
N16160 G1 X0
N16165 G2 Y1.7245 J0.1154
N16170 G1 X3
N16175 G3 Y1.9553 J0.1154
N16180 G1 X0
N16185 G2 Y2.1862 J0.1154
N16190 G1 X3
N16195 G3 Y2.4171 J0.1154
N16200 G1 X0
N16205 G2 Y2.648 J0.1154
N16210 G1 X3
N16215 G3 Y2.8789 J0.1154
N16220 G1 X0
N16225 X-0.0039 Z0.3603
N16230 X-0.0077 Z0.3612
N16235 X-0.0113 Z0.3627
N16240 X-0.0147 Z0.3648
N16245 X-0.0177 Z0.3673
N16250 X-0.0202 Z0.3703
N16255 X-0.0223 Z0.3737
N16260 X-0.0238 Z0.3773
N16265 X-0.0247 Z0.3811
N16270 X-0.025 Z0.385
N16275 G0 Z1.1
N16280 M9
N16285 G28 G91 Z0
N16290 M30
%
