%
(1004)
(Bottom of workpiece)
(T2 D=0.0312 CR=0.0156 - ZMIN=-0.2 - ball end mill)
(T4 D=0.25 CR=0 - ZMIN=-0.16 - flat end mill)
N10 G90
N15 G28 G91 Z0
N20 G90

(Contour1)
N25 M9
N30 T4 M6
N35 T2
N40 S1000 M3
N45 M9
N50 G0 X3.6628 Y0.9821
N55 Z0.6
N60 Z0.0643
N65 G1 Z-0.017 F40
N70 X3.6625 Y0.982 Z-0.0206
N75 X3.6617 Y0.9818 Z-0.0241
N80 X3.6604 Y0.9816 Z-0.0274
N85 X3.6585 Y0.9812 Z-0.0305
N90 X3.6562 Y0.9807 Z-0.0333
N95 X3.6535 Y0.9802 Z-0.0356
N100 X3.6505 Y0.9796 Z-0.0375
N105 X3.6472 Y0.9789 Z-0.0389
N110 X3.6438 Y0.9782 Z-0.0397
N115 X3.6402 Y0.9775 Z-0.04
N120 G3 X3.6207 Y0.9481 I0.0049 J-0.0245
N125 G1 X3.6211 Y0.946
N130 X3.6228 Y0.938
N135 X3.6248 Y0.9301
N140 X3.6271 Y0.9221
N145 X3.6286 Y0.9171
N150 X3.6296 Y0.9141
N155 X3.6324 Y0.9061
N160 X3.6355 Y0.8982
N165 X3.6366 Y0.8953
N170 X3.6388 Y0.8902
N175 X3.6425 Y0.8822
N180 X3.6446 Y0.8779
N185 X3.6464 Y0.8743
N190 X3.6478 Y0.8718
N195 Y0.8717
N200 X3.648 Y0.8716
N205 X3.6484 Y0.8715
N210 X3.6495 Y0.8711
N215 X3.6526 Y0.87
N220 X3.6605 Y0.8666
N225 X3.6611 Y0.8663
N230 X3.6685 Y0.8625
N235 X3.6755 Y0.8583
N240 X3.6765 Y0.8577
N245 X3.6844 Y0.852
N250 X3.6865 Y0.8504
N255 X3.6924 Y0.8452
N260 X3.6954 Y0.8424
N265 X3.7004 Y0.8374
N270 X3.7273 Y0.8105
N275 X3.7323 Y0.8055
N280 X3.7351 Y0.8025
N285 X3.7402 Y0.7966
N290 X3.7419 Y0.7946
N295 X3.7476 Y0.7866
N300 X3.7482 Y0.7856
N305 X3.7524 Y0.7786
N310 X3.7562 Y0.7713
N315 X3.7565 Y0.7706
N320 X3.7598 Y0.7627
N325 X3.761 Y0.7596
N330 X3.7614 Y0.7585
N335 X3.7615 Y0.7581
N340 Y0.758
N345 X3.7616 Y0.7579
N350 X3.7641 Y0.7566
N355 X3.7678 Y0.7547
N360 X3.7721 Y0.7526
N365 X3.7801 Y0.7489
N370 X3.7852 Y0.7467
N375 X3.7881 Y0.7456
N380 X3.796 Y0.7425
N385 X3.804 Y0.7397
N390 X3.807 Y0.7388
N395 X3.812 Y0.7372
N400 X3.8199 Y0.735
N405 X3.8279 Y0.733
N410 X3.8359 Y0.7312
N415 X3.838 Y0.7308
N420 X3.8439 Y0.7297
N425 X3.8518 Y0.7284
N430 X3.8598 Y0.7274
N435 X3.8678 Y0.7266
N440 X3.8757 Y0.7261
N445 X3.8837 Y0.7257
N450 X3.8917 Y0.7256
N455 X4.8881
N460 X4.8961 Y0.7257
N465 X4.904 Y0.7261
N470 X4.912 Y0.7266
N475 X4.92 Y0.7274
N480 X4.9279 Y0.7284
N485 X4.9359 Y0.7297
N490 X4.9418 Y0.7308
N495 X4.9439 Y0.7312
N500 X4.9519 Y0.733
N505 X4.9598 Y0.735
N510 X4.9678 Y0.7372
N515 X4.9728 Y0.7388
N520 X4.9758 Y0.7397
N525 X4.9837 Y0.7425
N530 X4.9917 Y0.7456
N535 X4.9946 Y0.7467
N540 X4.9997 Y0.7489
N545 X5.0076 Y0.7526
N550 X5.012 Y0.7547
N555 X5.0156 Y0.7566
N560 X5.0236 Y0.7609
N565 X5.0268 Y0.7627
N570 X5.0316 Y0.7655
N575 X5.0395 Y0.7705
N580 X5.0397 Y0.7706
N585 X5.0475 Y0.7759
N590 X5.0512 Y0.7786
N595 X5.0555 Y0.7818
N600 X5.0616 Y0.7866
N605 X5.0634 Y0.788
N610 X5.0711 Y0.7946
N615 X5.0714 Y0.7949
N620 X5.0794 Y0.8022
N625 X5.0797 Y0.8025
N630 X5.0874 Y0.8102
N635 X5.0877 Y0.8105
N640 X5.095 Y0.8185
N645 X5.0953 Y0.8188
N650 X5.1018 Y0.8264
N655 X5.1033 Y0.8283
N660 X5.1081 Y0.8344
N665 X5.1113 Y0.8387
N670 X5.114 Y0.8424
N675 X5.1192 Y0.8502
N680 X5.1194 Y0.8504
N685 X5.1244 Y0.8583
N690 X5.1272 Y0.8631
N695 X5.129 Y0.8663
N700 X5.1333 Y0.8743
N705 X5.1352 Y0.8779
N710 X5.1373 Y0.8822
N715 X5.141 Y0.8902
N720 X5.1432 Y0.8953
N725 X5.1443 Y0.8982
N730 X5.1474 Y0.9061
N735 X5.1502 Y0.9141
N740 X5.1511 Y0.9171
N745 X5.1527 Y0.9221
N750 X5.1549 Y0.9301
N755 X5.1569 Y0.938
N760 X5.1587 Y0.946
N765 X5.1591 Y0.9481
N770 X5.1602 Y0.954
N775 X5.1614 Y0.9619
N780 X5.1625 Y0.9699
N785 X5.1632 Y0.9779
N790 X5.1638 Y0.9859
N795 X5.1641 Y0.9938
N800 X5.1643 Y1.0018
N805 Y1.9982
N810 X5.1641 Y2.0062
N815 X5.1638 Y2.0141
N820 X5.1632 Y2.0221
N825 X5.1625 Y2.0301
N830 X5.1614 Y2.0381
N835 X5.1602 Y2.046
N840 X5.1591 Y2.0519
N845 X5.1587 Y2.054
N850 X5.1569 Y2.062
N855 X5.1549 Y2.0699
N860 X5.1527 Y2.0779
N865 X5.1511 Y2.0829
N870 X5.1502 Y2.0859
N875 X5.1474 Y2.0939
N880 X5.1443 Y2.1018
N885 X5.1432 Y2.1047
N890 X5.141 Y2.1098
N895 X5.1373 Y2.1178
N900 X5.1352 Y2.1221
N905 X5.1333 Y2.1257
N910 X5.132 Y2.1282
N915 X5.1319 Y2.1283
N920 X5.1318 Y2.1284
N925 X5.1314 Y2.1285
N930 X5.1303 Y2.1289
N935 X5.1272 Y2.13
N940 X5.1192 Y2.1334
N945 X5.1186 Y2.1337
N950 X5.1113 Y2.1375
N955 X5.1043 Y2.1417
N960 X5.1033 Y2.1423
N965 X5.0953 Y2.148
N970 X5.0933 Y2.1496
N975 X5.0874 Y2.1547
N980 X5.0843 Y2.1576
N985 X5.0794 Y2.1626
N990 X5.0525 Y2.1895
N995 X5.0475 Y2.1945
N1000 X5.0446 Y2.1975
N1005 X5.0395 Y2.2034
N1010 X5.0379 Y2.2054
N1015 X5.0322 Y2.2134
N1020 X5.0316 Y2.2144
N1025 X5.0274 Y2.2214
N1030 X5.0236 Y2.2287
N1035 X5.0233 Y2.2294
N1040 X5.0199 Y2.2373
N1045 X5.0188 Y2.2404
N1050 X5.0184 Y2.2415
N1055 X5.0183 Y2.2419
N1060 X5.0182 Y2.242
N1065 X5.0181 Y2.2421
N1070 X5.0156 Y2.2434
N1075 X5.012 Y2.2453
N1080 X5.0076 Y2.2474
N1085 X4.9997 Y2.2511
N1090 X4.9945 Y2.2533
N1095 X4.9917 Y2.2544
N1100 X4.9837 Y2.2575
N1105 X4.9758 Y2.2603
N1110 X4.9728 Y2.2612
N1115 X4.9678 Y2.2628
N1120 X4.9598 Y2.265
N1125 X4.9519 Y2.267
N1130 X4.9439 Y2.2688
N1135 X4.9418 Y2.2692
N1140 X4.9359 Y2.2703
N1145 X4.9279 Y2.2716
N1150 X4.92 Y2.2726
N1155 X4.912 Y2.2734
N1160 X4.904 Y2.2739
N1165 X4.8961 Y2.2743
N1170 X4.8881 Y2.2744
N1175 X3.8917
N1180 X3.8837 Y2.2743
N1185 X3.8757 Y2.2739
N1190 X3.8678 Y2.2734
N1195 X3.8598 Y2.2726
N1200 X3.8518 Y2.2716
N1205 X3.8439 Y2.2703
N1210 X3.838 Y2.2692
N1215 X3.8359 Y2.2688
N1220 X3.8279 Y2.267
N1225 X3.8199 Y2.265
N1230 X3.812 Y2.2628
N1235 X3.807 Y2.2612
N1240 X3.804 Y2.2603
N1245 X3.796 Y2.2575
N1250 X3.7881 Y2.2544
N1255 X3.7852 Y2.2533
N1260 X3.7801 Y2.2511
N1265 X3.7721 Y2.2474
N1270 X3.7678 Y2.2453
N1275 X3.7641 Y2.2434
N1280 X3.7616 Y2.2421
N1285 X3.7615 Y2.242
N1290 Y2.2419
N1295 X3.7614 Y2.2415
N1300 X3.761 Y2.2404
N1305 X3.7598 Y2.2373
N1310 X3.7565 Y2.2294
N1315 X3.7562 Y2.2287
N1320 X3.7524 Y2.2214
N1325 X3.7482 Y2.2144
N1330 X3.7476 Y2.2134
N1335 X3.7419 Y2.2054
N1340 X3.7402 Y2.2034
N1345 X3.7351 Y2.1975
N1350 X3.7323 Y2.1945
N1355 X3.7273 Y2.1895
N1360 X3.7004 Y2.1626
N1365 X3.6954 Y2.1576
N1370 X3.6924 Y2.1548
N1375 X3.6865 Y2.1496
N1380 X3.6844 Y2.148
N1385 X3.6765 Y2.1423
N1390 X3.6755 Y2.1417
N1395 X3.6685 Y2.1375
N1400 X3.6611 Y2.1337
N1405 X3.6605 Y2.1334
N1410 X3.6526 Y2.13
N1415 X3.6495 Y2.1289
N1420 X3.6484 Y2.1285
N1425 X3.648 Y2.1284
N1430 X3.6478 Y2.1283
N1435 Y2.1282
N1440 X3.6464 Y2.1257
N1445 X3.6446 Y2.1221
N1450 X3.6425 Y2.1178
N1455 X3.6388 Y2.1098
N1460 X3.6366 Y2.1047
N1465 X3.6355 Y2.1018
N1470 X3.6324 Y2.0939
N1475 X3.6296 Y2.0859
N1480 X3.6286 Y2.0829
N1485 X3.6271 Y2.0779
N1490 X3.6248 Y2.0699
N1495 X3.6228 Y2.062
N1500 X3.6211 Y2.054
N1505 X3.6207 Y2.0519
N1510 X3.6196 Y2.046
N1515 X3.6183 Y2.0381
N1520 X3.6173 Y2.0301
N1525 X3.6165 Y2.0221
N1530 X3.616 Y2.0141
N1535 X3.6156 Y2.0062
N1540 X3.6155 Y1.9982
N1545 Y1.0018
N1550 X3.6156 Y0.9938
N1555 X3.616 Y0.9859
N1560 X3.6165 Y0.9779
N1565 X3.6173 Y0.9699
N1570 X3.6183 Y0.9619
N1575 X3.6196 Y0.954
N1580 X3.6207 Y0.9481
N1585 X3.6222 Y0.9409
N1590 X3.6239 Y0.9337
N1595 X3.6257 Y0.9267
N1600 X3.6278 Y0.9198 Z-0.0401
N1605 X3.6301 Y0.9128
N1610 X3.6325 Y0.9059
N1615 X3.6352 Y0.8989 Z-0.0402
N1620 X3.638 Y0.892
N1625 X3.641 Y0.8854 Z-0.0403
N1630 X3.6441 Y0.8789
N1635 X3.646 Y0.8752 Z-0.0404
N1640 X3.6477 Y0.8718
N1645 X3.6478 Y0.8717
N1650 X3.6481 Y0.8716
N1655 X3.6559 Y0.8686 Z-0.0405
N1660 X3.6633 Y0.8653 Z-0.0406
N1665 X3.6704 Y0.8614 Z-0.0407
N1670 X3.6764 Y0.8577 Z-0.0408
N1675 X3.6821 Y0.8537
N1680 X3.6876 Y0.8494 Z-0.0409
N1685 X3.6929 Y0.8448 Z-0.041
N1690 X3.6979 Y0.8399 Z-0.0412
N1695 X3.7029 Y0.835 Z-0.0413
N1700 X3.7078 Y0.83 Z-0.0414
N1705 X3.7128 Y0.8251 Z-0.0415
N1710 X3.7177 Y0.8201 Z-0.0416
N1715 X3.7227 Y0.8152 Z-0.0418
N1720 X3.7276 Y0.8102 Z-0.0419
N1725 X3.7325 Y0.8053 Z-0.042
N1730 X3.7373 Y0.8001 Z-0.0422
N1735 X3.7418 Y0.7947 Z-0.0423
N1740 X3.7459 Y0.7891 Z-0.0425
N1745 X3.7497 Y0.7832 Z-0.0427
N1750 X3.7536 Y0.7765 Z-0.0428
N1755 X3.757 Y0.7696 Z-0.043
N1760 X3.7586 Y0.7658 Z-0.0431
N1765 X3.7601 Y0.7619 Z-0.0432
N1770 X3.7609 Y0.7598 Z-0.0433
N1775 X3.7613 Y0.7588
N1780 X3.7615 Y0.7581
N1785 Y0.758
N1790 X3.7616 Y0.7579
N1795 X3.7617 Y0.7578
N1800 X3.7657 Y0.7558 Z-0.0434
N1805 X3.7723 Y0.7525 Z-0.0436
N1810 X3.7791 Y0.7494 Z-0.0438
N1815 X3.7825 Y0.7479 Z-0.0439
N1820 X3.785 Y0.7468 Z-0.044
N1825 X3.7859 Y0.7465
N1830 X3.7893 Y0.7451 Z-0.0441
N1835 X3.7927 Y0.7438 Z-0.0442
N1840 X3.7961 Y0.7425 Z-0.0443
N1845 X3.7995 Y0.7413 Z-0.0444
N1850 X3.803 Y0.7402 Z-0.0445
N1855 X3.8064 Y0.7391 Z-0.0446
N1860 X3.8099 Y0.738 Z-0.0447
N1865 X3.8135 Y0.7369 Z-0.0448
N1870 X3.817 Y0.7359 Z-0.0449
N1875 X3.8206 Y0.735 Z-0.045
N1880 X3.8242 Y0.7341 Z-0.0452
N1885 X3.8278 Y0.7332 Z-0.0453
N1890 X3.8314 Y0.7324 Z-0.0454
N1895 X3.835 Y0.7317 Z-0.0455
N1900 X3.8385 Y0.731 Z-0.0456
N1905 X3.8421 Y0.7304 Z-0.0457
N1910 X3.8456 Y0.7298 Z-0.0458
N1915 X3.8492 Y0.7292 Z-0.0459
N1920 X3.8528 Y0.7287 Z-0.0461
N1925 X3.8565 Y0.7282 Z-0.0462
N1930 X3.8601 Y0.7278 Z-0.0463
N1935 X3.8638 Y0.7275 Z-0.0464
N1940 X3.8675 Y0.7272 Z-0.0465
N1945 X3.8711 Y0.7269 Z-0.0467
N1950 X3.8748 Y0.7267 Z-0.0468
N1955 X3.8785 Y0.7265 Z-0.0469
N1960 X3.8821 Y0.7264 Z-0.047
N1965 X3.8858 Y0.7263 Z-0.0471
N1970 X3.8894 Z-0.0473
N1975 X3.893 Z-0.0474
N1980 X3.8965 Z-0.0475
N1985 X3.9 Z-0.0476
N1990 X3.9035 Y0.7264 Z-0.0478
N1995 X3.907 Z-0.0479
N2000 X3.9105 Z-0.048
N2005 X3.914 Z-0.0481
N2010 X3.9175 Y0.7265 Z-0.0482
N2015 X3.921 Z-0.0484
N2020 X3.928 Z-0.0486
N2025 X3.9385 Y0.7266 Z-0.049
N2030 X3.9455 Y0.7267 Z-0.0492
N2035 X3.949 Z-0.0493
N2040 X3.956 Z-0.0496
N2045 X3.9665 Y0.7268 Z-0.05
N2050 X3.97 Y0.7269 Z-0.0501
N2055 X3.9805 Z-0.0504
N2060 X3.9875 Y0.727 Z-0.0507
N2065 X3.991 Z-0.0508
N2070 X3.998 Y0.7271 Z-0.0511
N2075 X4.0085 Y0.7272 Z-0.0514
N2080 X4.0155 Z-0.0517
N2085 X4.019 Y0.7273 Z-0.0518
N2090 X4.026 Z-0.052
N2095 X4.0365 Y0.7274 Z-0.0524
N2100 X4.0435 Y0.7275 Z-0.0526
N2105 X4.047 Z-0.0528
N2110 X4.054 Y0.7276 Z-0.053
N2115 X4.075 Y0.7278 Z-0.0537
N2120 X4.082 Z-0.054
N2125 X4.103 Y0.728 Z-0.0547
N2130 X4.1065 Z-0.0548
N2135 X4.1275 Y0.7283 Z-0.0556
N2140 X4.1345 Z-0.0558
N2145 X4.1555 Y0.7286 Z-0.0566
N2150 X4.166 Y0.7287 Z-0.0569
N2155 X4.2045 Y0.7291 Z-0.0583
N2160 X4.236 Y0.7294 Z-0.0594
N2165 X4.2395 Z-0.0595
N2170 X4.3095 Y0.7303 Z-0.0619
N2175 X4.327 Y0.7305 Z-0.0625
N2180 X4.3445 Y0.7307 Z-0.0632
N2185 X4.3655 Y0.7309 Z-0.0639
N2190 X4.369 Y0.731 Z-0.064
N2195 X4.3725 Z-0.0641
N2200 X4.3935 Y0.7313 Z-0.0649
N2205 X4.4005 Y0.7314 Z-0.0651
N2210 X4.4075 Y0.7315 Z-0.0654
N2215 X4.411 Z-0.0655
N2220 X4.418 Y0.7316 Z-0.0657
N2225 X4.439 Y0.7319 Z-0.0665
N2230 X4.446 Y0.732 Z-0.0667
N2235 X4.467 Y0.7323 Z-0.0674
N2240 X4.474 Y0.7324 Z-0.0677
N2245 X4.4845 Y0.7325 Z-0.068
N2250 X4.4915 Y0.7326 Z-0.0683
N2255 X4.495 Y0.7327 Z-0.0684
N2260 X4.502 Y0.7328 Z-0.0687
N2265 X4.5055 Z-0.0688
N2270 X4.509 Y0.7329 Z-0.0689
N2275 X4.516 Y0.733 Z-0.0691
N2280 X4.5265 Y0.7331 Z-0.0695
N2285 X4.5335 Y0.7332 Z-0.0698
N2290 X4.537 Y0.7333 Z-0.0699
N2295 X4.544 Y0.7334 Z-0.0701
N2300 X4.5545 Y0.7336 Z-0.0705
N2305 X4.5615 Y0.7337 Z-0.0707
N2310 X4.565 Z-0.0709
N2315 X4.572 Y0.7338 Z-0.0711
N2320 X4.579 Y0.7339 Z-0.0713
N2325 X4.5825 Y0.734 Z-0.0715
N2330 X4.586 Y0.7341 Z-0.0716
N2335 X4.5895 Z-0.0717
N2340 X4.593 Y0.7342 Z-0.0718
N2345 X4.5965 Z-0.072
N2350 X4.6 Y0.7343 Z-0.0721
N2355 X4.6035 Z-0.0722
N2360 X4.607 Y0.7344 Z-0.0723
N2365 X4.6105 Z-0.0724
N2370 X4.614 Y0.7345 Z-0.0726
N2375 X4.6175 Z-0.0727
N2380 X4.621 Y0.7346 Z-0.0728
N2385 X4.6245 Z-0.0729
N2390 X4.628 Y0.7347 Z-0.073
N2395 X4.6315 Z-0.0732
N2400 X4.635 Y0.7348 Z-0.0733
N2405 X4.6385 Y0.7349 Z-0.0734
N2410 X4.642 Z-0.0735
N2415 X4.6455 Y0.735 Z-0.0736
N2420 X4.649 Z-0.0737
N2425 X4.6525 Y0.7351 Z-0.0739
N2430 X4.656 Z-0.074
N2435 X4.6595 Y0.7352 Z-0.0741
N2440 X4.663 Z-0.0742
N2445 X4.6665 Y0.7353 Z-0.0743
N2450 X4.67 Y0.7354 Z-0.0744
N2455 X4.6735 Z-0.0745
N2460 X4.677 Y0.7355 Z-0.0746
N2465 X4.6805 Z-0.0747
N2470 X4.684 Y0.7356 Z-0.0748
N2475 X4.6875 Z-0.0749
N2480 X4.691 Y0.7357 Z-0.075
N2485 X4.6945 Z-0.0752
N2490 X4.698 Y0.7358 Z-0.0753
N2495 X4.7015 Z-0.0754
N2500 X4.705 Y0.7359 Z-0.0755
N2505 X4.712 Y0.736 Z-0.0757
N2510 X4.719 Y0.7361 Z-0.0759
N2515 X4.726 Y0.7362 Z-0.076
N2520 X4.733 Z-0.0762
N2525 X4.74 Y0.7363 Z-0.0764
N2530 X4.747 Y0.7364 Z-0.0766
N2535 X4.754 Y0.7365 Z-0.0768
N2540 X4.761 Y0.7366 Z-0.0769
N2545 X4.768 Y0.7367 Z-0.0771
N2550 X4.775 Y0.7368 Z-0.0773
N2555 X4.782 Z-0.0774
N2560 X4.789 Y0.7369 Z-0.0776
N2565 X4.796 Y0.737 Z-0.0777
N2570 X4.803 Y0.7371 Z-0.0779
N2575 X4.81 Z-0.078
N2580 X4.817 Y0.7372 Z-0.0782
N2585 X4.824 Y0.7373 Z-0.0783
N2590 X4.831 Y0.7374 Z-0.0784
N2595 X4.838 Z-0.0786
N2600 X4.845 Y0.7375 Z-0.0787
N2605 X4.852 Y0.7376 Z-0.0788
N2610 X4.859 Z-0.0789
N2615 X4.866 Y0.7377 Z-0.079
N2620 X4.873 Z-0.0791
N2625 X4.887 Y0.7378 Z-0.0793
N2630 X4.901 Y0.7382 Z-0.0795
N2635 X4.915 Y0.7393 Z-0.0796
N2640 X4.9289 Y0.7411 Z-0.0797
N2645 X4.9426 Y0.7437 Z-0.0798
N2650 X4.9563 Y0.747 Z-0.0799
N2655 X4.9697 Y0.7509 Z-0.08
N2660 X4.9829 Y0.7556
N2665 X4.9927 Y0.7596
N2670 X4.9996 Y0.7627
N2675 X4.9997
N2680 X5.0076 Y0.7666
N2685 X5.0153 Y0.7706
N2690 X5.0156 Y0.7708
N2695 X5.0236 Y0.7754
N2700 X5.0289 Y0.7786
N2705 X5.0316 Y0.7803
N2710 X5.0395 Y0.7857
N2715 X5.0408 Y0.7866
N2720 X5.0475 Y0.7915
N2725 X5.0515 Y0.7946
N2730 X5.0555 Y0.7978
N2735 X5.0611 Y0.8025
N2740 X5.0634 Y0.8046
N2745 X5.0699 Y0.8105
N2750 X5.0714 Y0.812
N2755 X5.0779 Y0.8185
N2760 X5.0794 Y0.82
N2765 X5.0853 Y0.8264
N2770 X5.0874 Y0.8288
N2775 X5.0921 Y0.8344
N2780 X5.0953 Y0.8384
N2785 X5.0984 Y0.8424
N2790 X5.1033 Y0.8491
N2795 X5.1042 Y0.8504
N2800 X5.1096 Y0.8583
N2805 X5.1113 Y0.861
N2810 X5.1145 Y0.8663
N2815 X5.1191 Y0.8743
N2820 X5.1192 Y0.8746
N2825 X5.1233 Y0.8822
N2830 X5.1272 Y0.8902
N2835 Y0.8903
N2840 X5.1307 Y0.8982
N2845 X5.134 Y0.9061
N2850 X5.1352 Y0.9094
N2855 X5.1369 Y0.9141
N2860 X5.1395 Y0.9221
N2865 X5.1419 Y0.9301
N2870 X5.1432 Y0.9347
N2875 X5.144 Y0.938
N2880 X5.1458 Y0.946
N2885 X5.1474 Y0.954
N2890 X5.1488 Y0.9619
N2895 X5.1498 Y0.9699
N2900 X5.1506 Y0.9779
N2905 X5.1511 Y0.9843
N2910 X5.1512 Y0.9859
N2915 X5.1516 Y0.9938
N2920 X5.1517 Y1.0018
N2925 Y1.9982
N2930 X5.1516 Y2.0062
N2935 X5.1512 Y2.0141
N2940 X5.1511 Y2.0157
N2945 X5.1506 Y2.0221
N2950 X5.1498 Y2.0301
N2955 X5.1488 Y2.0381
N2960 X5.1474 Y2.046
N2965 X5.1458 Y2.054
N2970 X5.144 Y2.062
N2975 X5.1432 Y2.0653
N2980 X5.1419 Y2.0699
N2985 X5.1395 Y2.0779
N2990 X5.1369 Y2.0859
N2995 X5.1352 Y2.0906
N3000 X5.134 Y2.0939
N3005 X5.1307 Y2.1018
N3010 X5.1272 Y2.1097
N3015 Y2.1098
N3020 X5.1233 Y2.1178
N3025 X5.1192 Y2.1254
N3030 X5.1191 Y2.1257
N3035 X5.1145 Y2.1337
N3040 X5.1134 Y2.1356
N3045 X5.1127 Y2.1367
N3050 X5.1123 Y2.1369
N3055 X5.1113 Y2.1375
N3060 X5.1043 Y2.1417
N3065 X5.1033 Y2.1423
N3070 X5.0953 Y2.148
N3075 X5.0933 Y2.1496
N3080 X5.0874 Y2.1547
N3085 X5.0843 Y2.1576
N3090 X5.0794 Y2.1626
N3095 X5.0525 Y2.1895
N3100 X5.0475 Y2.1945
N3105 X5.0446 Y2.1975
N3110 X5.0395 Y2.2034
N3115 X5.0379 Y2.2054
N3120 X5.0322 Y2.2134
N3125 X5.0316 Y2.2144
N3130 X5.0274 Y2.2214
N3135 X5.0268 Y2.2224
N3140 X5.0266 Y2.2228
N3145 X5.0265
N3150 X5.0255 Y2.2235
N3155 X5.0236 Y2.2246
N3160 X5.0156 Y2.2292
N3165 X5.0153 Y2.2294
N3170 X5.0076 Y2.2334
N3175 X4.9997 Y2.2373
N3180 X4.9996
N3185 X4.9917 Y2.2408
N3190 X4.9837 Y2.2441
N3195 X4.9805 Y2.2453
N3200 X4.9758 Y2.247
N3205 X4.9678 Y2.2496
N3210 X4.9598 Y2.252
N3215 X4.9552 Y2.2533
N3220 X4.9519 Y2.2541
N3225 X4.9439 Y2.256
N3230 X4.9359 Y2.2575
N3235 X4.9279 Y2.2589
N3240 X4.92 Y2.2599
N3245 X4.912 Y2.2608
N3250 X4.9056 Y2.2612
N3255 X4.904 Y2.2613
N3260 X4.8961 Y2.2617
N3265 X4.8881 Y2.2618
N3270 X3.8917
N3275 X3.8837 Y2.2617
N3280 X3.8757 Y2.2613
N3285 X3.8742 Y2.2612
N3290 X3.8678 Y2.2608
N3295 X3.8598 Y2.2599
N3300 X3.8518 Y2.2589
N3305 X3.8439 Y2.2575
N3310 X3.8359 Y2.256
N3315 X3.8279 Y2.2541
N3320 X3.8246 Y2.2533
N3325 X3.8199 Y2.252
N3330 X3.812 Y2.2496
N3335 X3.804 Y2.247
N3340 X3.7993 Y2.2453
N3345 X3.796 Y2.2441
N3350 X3.7881 Y2.2408
N3355 X3.7802 Y2.2373
N3360 X3.7801
N3365 X3.7721 Y2.2334
N3370 X3.7645 Y2.2294
N3375 X3.7641 Y2.2292
N3380 X3.7562 Y2.2246
N3385 X3.7543 Y2.2235
N3390 X3.7532 Y2.2228
N3395 X3.753 Y2.2224
N3400 X3.7524 Y2.2214
N3405 X3.7482 Y2.2144
N3410 X3.7476 Y2.2134
N3415 X3.7419 Y2.2054
N3420 X3.7402 Y2.2034
N3425 X3.7351 Y2.1975
N3430 X3.7323 Y2.1945
N3435 X3.7273 Y2.1895
N3440 X3.7004 Y2.1626
N3445 X3.6954 Y2.1576
N3450 X3.6924 Y2.1548
N3455 X3.6865 Y2.1496
N3460 X3.6844 Y2.148
N3465 X3.6765 Y2.1423
N3470 X3.6755 Y2.1417
N3475 X3.6685 Y2.1375
N3480 X3.6674 Y2.1369
N3485 X3.6671 Y2.1367
N3490 X3.667
N3495 X3.6664 Y2.1356
N3500 X3.6652 Y2.1337
N3505 X3.6607 Y2.1257
N3510 X3.6605 Y2.1254
N3515 X3.6565 Y2.1178
N3520 X3.6526 Y2.1098
N3525 Y2.1097
N3530 X3.6491 Y2.1018
N3535 X3.6458 Y2.0939
N3540 X3.6446 Y2.0906
N3545 X3.6429 Y2.0859
N3550 X3.6402 Y2.0779
N3555 X3.6379 Y2.0699
N3560 X3.6366 Y2.0653
N3565 X3.6358 Y2.062
N3570 X3.6339 Y2.054
N3575 X3.6323 Y2.046
N3580 X3.631 Y2.0381
N3585 X3.6299 Y2.0301
N3590 X3.6291 Y2.0221
N3595 X3.6286 Y2.0157
N3600 X3.6285 Y2.0141
N3605 X3.6282 Y2.0062
N3610 X3.6281 Y1.9982
N3615 Y1.0018
N3620 X3.6282 Y0.9938
N3625 X3.6285 Y0.9859
N3630 X3.6286 Y0.9843
N3635 X3.6291 Y0.9779
N3640 X3.6299 Y0.9699
N3645 X3.631 Y0.9619
N3650 X3.6323 Y0.954
N3655 X3.6339 Y0.946
N3660 X3.6358 Y0.938
N3665 X3.6366 Y0.9347
N3670 X3.6379 Y0.9301
N3675 X3.6402 Y0.9221
N3680 X3.6429 Y0.9141
N3685 X3.6446 Y0.9094
N3690 X3.6458 Y0.9061
N3695 X3.6491 Y0.8982
N3700 X3.6526 Y0.8903
N3705 Y0.8902
N3710 X3.6565 Y0.8822
N3715 X3.6605 Y0.8746
N3720 X3.6607 Y0.8743
N3725 X3.6652 Y0.8663
N3730 X3.6664 Y0.8644
N3735 X3.667 Y0.8633
N3740 X3.6671
N3745 X3.6674 Y0.8631
N3750 X3.6685 Y0.8625
N3755 X3.6755 Y0.8583
N3760 X3.6765 Y0.8577
N3765 X3.6844 Y0.852
N3770 X3.6865 Y0.8504
N3775 X3.6924 Y0.8452
N3780 X3.6954 Y0.8424
N3785 X3.7004 Y0.8374
N3790 X3.7273 Y0.8105
N3795 X3.7323 Y0.8055
N3800 X3.7351 Y0.8025
N3805 X3.7402 Y0.7966
N3810 X3.7419 Y0.7946
N3815 X3.7476 Y0.7866
N3820 X3.7482 Y0.7856
N3825 X3.7524 Y0.7786
N3830 X3.753 Y0.7776
N3835 X3.7532 Y0.7772
N3840 X3.7543 Y0.7765
N3845 X3.7562 Y0.7754
N3850 X3.7641 Y0.7708
N3855 X3.7645 Y0.7706
N3860 X3.7721 Y0.7666
N3865 X3.7801 Y0.7627
N3870 X3.7802
N3875 X3.7881 Y0.7592
N3880 X3.796 Y0.7559
N3885 X3.7993 Y0.7547
N3890 X3.804 Y0.753
N3895 X3.812 Y0.7504
N3900 X3.8199 Y0.748
N3905 X3.8246 Y0.7467
N3910 X3.8279 Y0.7459
N3915 X3.8359 Y0.744
N3920 X3.8439 Y0.7425
N3925 X3.8518 Y0.7411
N3930 X3.8598 Y0.7401
N3935 X3.8678 Y0.7392
N3940 X3.8742 Y0.7388
N3945 X3.8757 Y0.7387
N3950 X3.8837 Y0.7383
N3955 X3.8917 Y0.7382
N3960 X4.8881
N3965 X4.8961 Y0.7383
N3970 X4.904 Y0.7387
N3975 X4.9056 Y0.7388
N3980 X4.912 Y0.7392
N3985 X4.92 Y0.7401
N3990 X4.9279 Y0.7411
N3995 X4.9359 Y0.7425
N4000 X4.9439 Y0.744
N4005 X4.9519 Y0.7459
N4010 X4.9552 Y0.7467
N4015 X4.9598 Y0.748
N4020 X4.9678 Y0.7504
N4025 X4.9758 Y0.753
N4030 X4.9805 Y0.7547
N4035 X4.9837 Y0.7559
N4040 X4.9917 Y0.7592
N4045 X4.9927 Y0.7596
N4050 X5.0003 Y0.763
N4055 X5.0077 Y0.7666
N4060 X5.0143 Y0.7701
N4065 X5.0209 Y0.7738 Z-0.0801
N4070 X5.0279 Y0.7781
N4075 X5.0348 Y0.7825
N4080 X5.0412 Y0.787 Z-0.0802
N4085 X5.0475 Y0.7917
N4090 X5.0539 Y0.7967 Z-0.0803
N4095 X5.0602 Y0.802 Z-0.0804
N4100 X5.0663 Y0.8075 Z-0.0805
N4105 X5.0722 Y0.8132 Z-0.0806
N4110 X5.0777 Y0.8187
N4115 X5.083 Y0.8244 Z-0.0807
N4120 X5.0881 Y0.8303 Z-0.0808
N4125 X5.093 Y0.8364 Z-0.0809
N4130 X5.098 Y0.8429 Z-0.0811
N4135 X5.1028 Y0.8496 Z-0.0812
N4140 X5.1072 Y0.856 Z-0.0813
N4145 X5.1113 Y0.8626 Z-0.0815
N4150 X5.1155 Y0.8697 Z-0.0816
N4155 X5.1194 Y0.877 Z-0.0818
N4160 X5.1229 Y0.8839 Z-0.0819
N4165 X5.1262 Y0.8908 Z-0.0821
N4170 X5.1293 Y0.8981 Z-0.0822
N4175 X5.1323 Y0.9055 Z-0.0824
N4180 X5.1351 Y0.9134 Z-0.0826
N4185 X5.1376 Y0.9213 Z-0.0828
N4190 X5.1398 Y0.9287 Z-0.0829
N4195 X5.1417 Y0.9362 Z-0.0831
N4200 X5.1435 Y0.9439 Z-0.0833
N4205 X5.1442 Y0.9478 Z-0.0834
N4210 X5.145 Y0.9517 Z-0.0835
N4215 X5.1456 Y0.9557 Z-0.0836
N4220 X5.1462 Y0.9597 Z-0.0837
N4225 X5.1468 Y0.9637 Z-0.0838
N4230 X5.1473 Y0.9677 Z-0.0839
N4235 X5.1477 Y0.9715 Z-0.084
N4240 X5.148 Y0.9752 Z-0.0841
N4245 X5.1483 Y0.979 Z-0.0843
N4250 X5.1485 Y0.9828 Z-0.0844
N4255 X5.1487 Y0.9869 Z-0.0845
N4260 X5.1489 Y0.9909 Z-0.0846
N4265 Y0.995 Z-0.0847
N4270 Y0.9991 Z-0.0848
N4275 Y1.0026 Z-0.0849
N4280 X5.1488 Y1.0062 Z-0.085
N4285 X5.1487 Y1.0097 Z-0.0851
N4290 Y1.0133 Z-0.0852
N4295 X5.1486 Y1.0168 Z-0.0853
N4300 X5.1485 Y1.0203 Z-0.0855
N4305 Y1.0238 Z-0.0856
N4310 X5.1484 Y1.0273 Z-0.0857
N4315 X5.1483 Y1.0308 Z-0.0858
N4320 Y1.0343 Z-0.0859
N4325 X5.1482 Y1.0378 Z-0.086
N4330 X5.1481 Y1.0413 Z-0.0861
N4335 Y1.0448 Z-0.0862
N4340 X5.148 Y1.0483 Z-0.0863
N4345 X5.1479 Y1.0518 Z-0.0865
N4350 Y1.0553 Z-0.0866
N4355 X5.1478 Y1.0588 Z-0.0867
N4360 X5.1477 Y1.0623 Z-0.0868
N4365 X5.1476 Y1.0658 Z-0.0869
N4370 Y1.0693 Z-0.087
N4375 X5.1475 Y1.0728 Z-0.0872
N4380 X5.1474 Y1.0763 Z-0.0873
N4385 X5.1473 Y1.0798 Z-0.0874
N4390 X5.1472 Y1.0868 Z-0.0876
N4395 X5.1471 Y1.0903 Z-0.0878
N4400 X5.147 Y1.0938 Z-0.0879
N4405 X5.1469 Y1.0973 Z-0.088
N4410 X5.1468 Y1.1008 Z-0.0881
N4415 Y1.1043 Z-0.0883
N4420 X5.1467 Y1.1078 Z-0.0884
N4425 X5.1466 Y1.1113 Z-0.0885
N4430 X5.1465 Y1.1148 Z-0.0886
N4435 Y1.1183 Z-0.0887
N4440 X5.1464 Y1.1218 Z-0.0889
N4445 X5.1463 Y1.1253 Z-0.089
N4450 X5.1462 Y1.1288 Z-0.0891
N4455 X5.1461 Y1.1323 Z-0.0892
N4460 Y1.1358 Z-0.0894
N4465 X5.146 Y1.1393 Z-0.0895
N4470 X5.1458 Y1.1463 Z-0.0897
N4475 X5.1456 Y1.1568 Z-0.0901
N4480 X5.1454 Y1.1638 Z-0.0903
N4485 X5.1453 Y1.1673 Z-0.0905
N4490 Y1.1708 Z-0.0906
N4495 X5.1452 Y1.1743 Z-0.0907
N4500 X5.1449 Y1.1848 Z-0.0911
N4505 X5.1447 Y1.1918 Z-0.0913
N4510 Y1.1953 Z-0.0914
N4515 X5.1445 Y1.2023 Z-0.0917
N4520 X5.1442 Y1.2128 Z-0.092
N4525 X5.1441 Y1.2198 Z-0.0923
N4530 X5.144 Y1.2233 Z-0.0924
N4535 X5.1438 Y1.2303 Z-0.0927
N4540 X5.1435 Y1.2408 Z-0.093
N4545 X5.1434 Y1.2478 Z-0.0933
N4550 X5.1433 Y1.2513 Z-0.0934
N4555 X5.1431 Y1.2583 Z-0.0936
N4560 X5.1426 Y1.2793 Z-0.0944
N4565 X5.1424 Y1.2863 Z-0.0946
N4570 X5.1423 Y1.2898 Z-0.0947
N4575 X5.1422 Y1.2933 Z-0.0949
N4580 X5.142 Y1.3003 Z-0.0951
N4585 X5.1415 Y1.3213 Z-0.0958
N4590 X5.1412 Y1.3318 Z-0.0962
N4595 X5.141 Y1.3388 Z-0.0964
N4600 X5.1404 Y1.3598 Z-0.0972
N4605 X5.1402 Y1.3703 Z-0.0975
N4610 X5.1391 Y1.4088 Z-0.0989
N4615 X5.139 Y1.4123 Z-0.099
N4620 X5.1365 Y1.4998 Z-0.1021
N4625 X5.136 Y1.5173 Z-0.1027
N4630 X5.1358 Y1.5243 Z-0.1029
N4635 X5.1357 Y1.5278 Z-0.1031
N4640 X5.1355 Y1.5348 Z-0.1033
N4645 X5.1348 Y1.5558 Z-0.104
N4650 X5.1346 Y1.5628 Z-0.1043
N4655 X5.1344 Y1.5698 Z-0.1045
N4660 X5.1343 Y1.5733 Z-0.1046
N4665 X5.1341 Y1.5803 Z-0.1049
N4670 X5.1334 Y1.6013 Z-0.1056
N4675 X5.1332 Y1.6083 Z-0.1059
N4680 X5.1329 Y1.6188 Z-0.1062
N4685 X5.1326 Y1.6258 Z-0.1065
N4690 X5.1325 Y1.6293 Z-0.1066
N4695 X5.1323 Y1.6363 Z-0.1068
N4700 X5.1322 Y1.6398 Z-0.107
N4705 X5.1321 Y1.6433 Z-0.1071
N4710 X5.1319 Y1.6503 Z-0.1073
N4715 X5.1315 Y1.6608 Z-0.1077
N4720 X5.1313 Y1.6678 Z-0.1079
N4725 X5.1311 Y1.6713 Z-0.1081
N4730 X5.1309 Y1.6783 Z-0.1083
N4735 X5.1306 Y1.6888 Z-0.1087
N4740 X5.1303 Y1.6958 Z-0.1089
N4745 X5.1302 Y1.6993 Z-0.109
N4750 X5.13 Y1.7063 Z-0.1093
N4755 X5.1297 Y1.7133 Z-0.1095
N4760 X5.1295 Y1.7203 Z-0.1098
N4765 X5.1294 Y1.7238 Z-0.1099
N4770 X5.1293 Y1.7273 Z-0.11
N4775 X5.1292 Y1.7308 Z-0.1101
N4780 X5.129 Y1.7343 Z-0.1103
N4785 X5.1289 Y1.7378 Z-0.1104
N4790 X5.1288 Y1.7413 Z-0.1105
N4795 X5.1287 Y1.7448 Z-0.1106
N4800 X5.1286 Y1.7483 Z-0.1108
N4805 X5.1285 Y1.7518 Z-0.1109
N4810 X5.1283 Y1.7553 Z-0.111
N4815 X5.1282 Y1.7588 Z-0.1111
N4820 X5.1281 Y1.7623 Z-0.1112
N4825 X5.1279 Y1.7658 Z-0.1114
N4830 X5.1278 Y1.7693 Z-0.1115
N4835 X5.1277 Y1.7728 Z-0.1116
N4840 X5.1275 Y1.7763 Z-0.1117
N4845 X5.1274 Y1.7798 Z-0.1119
N4850 X5.1273 Y1.7833 Z-0.112
N4855 X5.1272 Y1.7868 Z-0.1121
N4860 X5.127 Y1.7903 Z-0.1122
N4865 X5.1269 Y1.7938 Z-0.1123
N4870 X5.1266 Y1.8008 Z-0.1126
N4875 X5.1265 Y1.8043 Z-0.1127
N4880 X5.1264 Y1.8078 Z-0.1128
N4885 X5.1263 Y1.8113 Z-0.1129
N4890 X5.1261 Y1.8148 Z-0.1131
N4895 X5.126 Y1.8183 Z-0.1132
N4900 X5.1259 Y1.8218 Z-0.1133
N4905 X5.1258 Y1.8253 Z-0.1134
N4910 X5.1256 Y1.8288 Z-0.1135
N4915 X5.1255 Y1.8323 Z-0.1136
N4920 X5.1254 Y1.8358 Z-0.1138
N4925 X5.1253 Y1.8393 Z-0.1139
N4930 X5.1252 Y1.8428 Z-0.114
N4935 X5.125 Y1.8463 Z-0.1141
N4940 X5.1249 Y1.8498 Z-0.1142
N4945 X5.1248 Y1.8533 Z-0.1143
N4950 X5.1247 Y1.8568 Z-0.1144
N4955 X5.1246 Y1.8603 Z-0.1145
N4960 X5.1245 Y1.8638 Z-0.1146
N4965 X5.1243 Y1.8673 Z-0.1148
N4970 X5.1242 Y1.8708 Z-0.1149
N4975 X5.1241 Y1.8743 Z-0.115
N4980 X5.124 Y1.8778 Z-0.1151
N4985 X5.1239 Y1.8813 Z-0.1152
N4990 X5.1238 Y1.8848 Z-0.1153
N4995 X5.1237 Y1.8883 Z-0.1154
N5000 X5.1236 Y1.8918 Z-0.1155
N5005 X5.1235 Y1.8953 Z-0.1156
N5010 X5.1233 Y1.9023 Z-0.1158
N5015 X5.1231 Y1.9093 Z-0.116
N5020 X5.1229 Y1.9163 Z-0.1162
N5025 X5.1227 Y1.9233 Z-0.1163
N5030 X5.1225 Y1.9303 Z-0.1165
N5035 X5.1223 Y1.9373 Z-0.1167
N5040 X5.1221 Y1.9443 Z-0.1169
N5045 X5.1219 Y1.9513 Z-0.117
N5050 X5.1217 Y1.9583 Z-0.1172
N5055 X5.1216 Y1.9653 Z-0.1174
N5060 X5.1214 Y1.9723 Z-0.1175
N5065 X5.1212 Y1.9793 Z-0.1177
N5070 X5.1211 Y1.9863 Z-0.1178
N5075 X5.1209 Y1.9933 Z-0.118
N5080 X5.1207 Y2.0003 Z-0.1181
N5085 X5.1204 Y2.0074 Z-0.1183
N5090 X5.1199 Y2.0144 Z-0.1184
N5095 X5.1192 Y2.0214 Z-0.1185
N5100 X5.1183 Y2.0284 Z-0.1186
N5105 X5.1171 Y2.0353 Z-0.1188
N5110 X5.1158 Y2.0422 Z-0.1189
N5115 X5.1143 Y2.0491 Z-0.119
N5120 X5.1125 Y2.0559 Z-0.1191
N5125 X5.1106 Y2.0627 Z-0.1192
N5130 X5.1061 Y2.076 Z-0.1194
N5135 X5.1008 Y2.089 Z-0.1195
N5140 X5.0948 Y2.1017 Z-0.1197
N5145 X5.0881 Y2.1139 Z-0.1198
N5150 X5.0806 Y2.1258 Z-0.1199
N5155 X5.0725 Y2.1372
N5160 X5.0637 Y2.1481 Z-0.12
N5165 X5.0543 Y2.1584
N5170 X5.051 Y2.1619
N5175 X5.0475 Y2.1654
N5180 X5.0473 Y2.1656
N5185 X5.0395 Y2.1726
N5190 X5.0384 Y2.1736
N5195 X5.0316 Y2.1792
N5200 X5.0286 Y2.1815
N5205 X5.0236 Y2.1852
N5210 X5.0175 Y2.1895
N5215 X5.0156 Y2.1908
N5220 X5.0076 Y2.1958
N5225 X5.0048 Y2.1975
N5230 X4.9997 Y2.2004
N5235 X4.9917 Y2.2046
N5240 X4.9899 Y2.2054
N5245 X4.9837 Y2.2084
N5250 X4.9758 Y2.2118
N5255 X4.9717 Y2.2134
N5260 X4.9678 Y2.2149
N5265 X4.9598 Y2.2176
N5270 X4.9519 Y2.2201
N5275 X4.947 Y2.2214
N5280 X4.9439 Y2.2222
N5285 X4.9359 Y2.224
N5290 X4.9279 Y2.2255
N5295 X4.92 Y2.2267
N5300 X4.912 Y2.2277
N5305 X4.904 Y2.2284
N5310 X4.8961 Y2.2287
N5315 X4.8881 Y2.2288
N5320 X3.8917
N5325 X3.8837 Y2.2287
N5330 X3.8757 Y2.2284
N5335 X3.8678 Y2.2277
N5340 X3.8598 Y2.2267
N5345 X3.8518 Y2.2255
N5350 X3.8439 Y2.224
N5355 X3.8359 Y2.2222
N5360 X3.8328 Y2.2214
N5365 X3.8279 Y2.2201
N5370 X3.8199 Y2.2176
N5375 X3.812 Y2.2149
N5380 X3.808 Y2.2134
N5385 X3.804 Y2.2118
N5390 X3.796 Y2.2084
N5395 X3.7898 Y2.2054
N5400 X3.7881 Y2.2046
N5405 X3.7801 Y2.2004
N5410 X3.775 Y2.1975
N5415 X3.7721 Y2.1958
N5420 X3.7641 Y2.1908
N5425 X3.7623 Y2.1895
N5430 X3.7562 Y2.1852
N5435 X3.7512 Y2.1815
N5440 X3.7482 Y2.1792
N5445 X3.7413 Y2.1736
N5450 X3.7402 Y2.1726
N5455 X3.7325 Y2.1656
N5460 X3.7323 Y2.1654
N5465 X3.7245 Y2.1576
N5470 X3.7243 Y2.1574
N5475 X3.7173 Y2.1496
N5480 X3.7163 Y2.1485
N5485 X3.7107 Y2.1417
N5490 X3.7083 Y2.1387
N5495 X3.7046 Y2.1337
N5500 X3.7004 Y2.1276
N5505 X3.6991 Y2.1257
N5510 X3.6941 Y2.1178
N5515 X3.6924 Y2.1149
N5520 X3.6895 Y2.1098
N5525 X3.6853 Y2.1018
N5530 X3.6844 Y2.1
N5535 X3.6815 Y2.0939
N5540 X3.6781 Y2.0859
N5545 X3.6765 Y2.0818
N5550 X3.675 Y2.0779
N5555 X3.6722 Y2.0699
N5560 X3.6698 Y2.062
N5565 X3.6685 Y2.0571
N5570 X3.6677 Y2.054
N5575 X3.6659 Y2.046
N5580 X3.6644 Y2.0381
N5585 X3.6631 Y2.0301
N5590 X3.6622 Y2.0221
N5595 X3.6615 Y2.0141
N5600 X3.6611 Y2.0062
N5605 Y1.9982
N5610 Y1.0018
N5615 Y0.9938
N5620 X3.6615 Y0.9859
N5625 X3.6622 Y0.9779
N5630 X3.6631 Y0.9699
N5635 X3.6644 Y0.9619
N5640 X3.6654 Y0.9568
N5645 X3.6659 Y0.954
N5650 X3.6677 Y0.946
N5655 X3.6685 Y0.9429
N5660 X3.6698 Y0.938
N5665 X3.6722 Y0.9301
N5670 X3.675 Y0.9221
N5675 X3.6765 Y0.9182
N5680 X3.6781 Y0.9141
N5685 X3.6815 Y0.9061
N5690 X3.6844 Y0.9
N5695 X3.6853 Y0.8982
N5700 X3.6895 Y0.8902
N5705 X3.6924 Y0.8851
N5710 X3.6941 Y0.8822
N5715 X3.6991 Y0.8743
N5720 X3.7004 Y0.8724
N5725 X3.7046 Y0.8663
N5730 X3.7083 Y0.8613
N5735 X3.7107 Y0.8583
N5740 X3.7163 Y0.8515
N5745 X3.7173 Y0.8504
N5750 X3.7243 Y0.8426
N5755 X3.7245 Y0.8424
N5760 X3.7323 Y0.8346
N5765 X3.7325 Y0.8344
N5770 X3.7402 Y0.8274
N5775 X3.7413 Y0.8264
N5780 X3.7482 Y0.8208
N5785 X3.7512 Y0.8185
N5790 X3.7562 Y0.8148
N5795 X3.7623 Y0.8105
N5800 X3.7641 Y0.8092
N5805 X3.7721 Y0.8042
N5810 X3.775 Y0.8025
N5815 X3.7801 Y0.7996
N5820 X3.7881 Y0.7954
N5825 X3.7898 Y0.7946
N5830 X3.796 Y0.7916
N5835 X3.804 Y0.7882
N5840 X3.808 Y0.7866
N5845 X3.812 Y0.7851
N5850 X3.8199 Y0.7824
N5855 X3.8279 Y0.7799
N5860 X3.8328 Y0.7786
N5865 X3.8359 Y0.7778
N5870 X3.8439 Y0.776
N5875 X3.8518 Y0.7745
N5880 X3.8598 Y0.7733
N5885 X3.8678 Y0.7723
N5890 X3.8757 Y0.7716
N5895 X3.8837 Y0.7713
N5900 X3.8917 Y0.7712
N5905 X4.8881
N5910 X4.8961 Y0.7713
N5915 X4.904 Y0.7716
N5920 X4.912 Y0.7723
N5925 X4.92 Y0.7733
N5930 X4.9279 Y0.7745
N5935 X4.9359 Y0.776
N5940 X4.9439 Y0.7778
N5945 X4.947 Y0.7786
N5950 X4.9519 Y0.7799
N5955 X4.9598 Y0.7824
N5960 X4.9678 Y0.7851
N5965 X4.9717 Y0.7866
N5970 X4.9758 Y0.7882
N5975 X4.9837 Y0.7916
N5980 X4.9899 Y0.7946
N5985 X4.9917 Y0.7954
N5990 X4.9997 Y0.7996
N5995 X5.0048 Y0.8025
N6000 X5.0076 Y0.8042
N6005 X5.0156 Y0.8092
N6010 X5.0175 Y0.8105
N6015 X5.0236 Y0.8148
N6020 X5.0286 Y0.8185
N6025 X5.0316 Y0.8208
N6030 X5.0384 Y0.8264
N6035 X5.0395 Y0.8274
N6040 X5.0473 Y0.8344
N6045 X5.0475 Y0.8346
N6050 X5.0552 Y0.8424
N6055 X5.0555 Y0.8426
N6060 X5.0625 Y0.8504
N6065 X5.0634 Y0.8515
N6070 X5.0691 Y0.8583
N6075 X5.0714 Y0.8613
N6080 X5.0751 Y0.8663
N6085 X5.0794 Y0.8724
N6090 X5.0806 Y0.8743
N6095 X5.0857 Y0.8822
N6100 X5.0874 Y0.8851
N6105 X5.0903 Y0.8902
N6110 X5.0945 Y0.8982
N6115 X5.0953 Y0.9
N6120 X5.0983 Y0.9061
N6125 X5.1017 Y0.9141
N6130 X5.1033 Y0.9182
N6135 X5.1048 Y0.9221
N6140 X5.1075 Y0.9301
N6145 X5.1099 Y0.938
N6150 X5.1113 Y0.9429
N6155 X5.1121 Y0.946
N6160 X5.1139 Y0.954
N6165 X5.1154 Y0.9619
N6170 X5.1166 Y0.9699
N6175 X5.1176 Y0.9779
N6180 X5.1182 Y0.9859
N6185 X5.1186 Y0.9938
N6190 X5.1187 Y1.0018
N6195 Y1.9982
N6200 X5.1186 Y2.0062
N6205 X5.1182 Y2.0141
N6210 X5.1176 Y2.0221
N6215 X5.1166 Y2.0301
N6220 X5.1154 Y2.0381
N6225 X5.1139 Y2.046
N6230 X5.1121 Y2.054
N6235 X5.1113 Y2.0571
N6240 X5.1099 Y2.062
N6245 X5.1075 Y2.0699
N6250 X5.1048 Y2.0779
N6255 X5.1033 Y2.0818
N6260 X5.1017 Y2.0859
N6265 X5.0983 Y2.0939
N6270 X5.0953 Y2.1
N6275 X5.0945 Y2.1018
N6280 X5.0903 Y2.1098
N6285 X5.0874 Y2.1149
N6290 X5.0857 Y2.1178
N6295 X5.0806 Y2.1257
N6300 X5.0794 Y2.1276
N6305 X5.0751 Y2.1337
N6310 X5.0714 Y2.1387
N6315 X5.0691 Y2.1417
N6320 X5.0634 Y2.1485
N6325 X5.0625 Y2.1496
N6330 X5.0555 Y2.1574
N6335 X5.0552 Y2.1576
N6340 X5.051 Y2.1619
N6345 X5.0442 Y2.1683
N6350 X5.0371 Y2.1745
N6355 X5.0287 Y2.1812 Z-0.1201
N6360 X5.0199 Y2.1876
N6365 X5.0122 Y2.1926
N6370 X5.0043 Y2.1973 Z-0.1202
N6375 X4.9948 Y2.2025 Z-0.1203
N6380 X4.985 Y2.2072 Z-0.1204
N6385 X4.9752 Y2.2113 Z-0.1205
N6390 X4.9652 Y2.2149 Z-0.1206
N6395 X4.9569 Y2.2175 Z-0.1207
N6400 X4.9484 Y2.2199 Z-0.1208
N6405 X4.9387 Y2.2221 Z-0.121
N6410 X4.929 Y2.2239 Z-0.1211
N6415 X4.9182 Y2.2253 Z-0.1213
N6420 X4.9074 Y2.2262 Z-0.1215
N6425 X4.8988 Y2.2266 Z-0.1216
N6430 X4.8903 Y2.2265 Z-0.1218
N6435 X4.8825 Y2.2264 Z-0.1219
N6440 X4.8748 Y2.2262 Z-0.1221
N6445 X4.8678 Y2.226 Z-0.1222
N6450 X4.8608 Y2.2258 Z-0.1224
N6455 X4.8538 Y2.2256 Z-0.1225
N6460 X4.8468 Y2.2254 Z-0.1227
N6465 X4.8398 Y2.2252 Z-0.1228
N6470 X4.8328 Y2.225 Z-0.123
N6475 X4.8258 Y2.2248 Z-0.1232
N6480 X4.8188 Y2.2246 Z-0.1234
N6485 X4.8118 Y2.2244 Z-0.1235
N6490 X4.8048 Y2.2242 Z-0.1237
N6495 X4.7978 Y2.2239 Z-0.1239
N6500 X4.7908 Y2.2237 Z-0.1241
N6505 X4.7838 Y2.2235 Z-0.1243
N6510 X4.7768 Y2.2232 Z-0.1245
N6515 X4.7733 Y2.2231 Z-0.1246
N6520 X4.7698 Y2.223 Z-0.1247
N6525 X4.7663 Y2.2229 Z-0.1248
N6530 X4.7628 Y2.2227 Z-0.1249
N6535 X4.7593 Y2.2226 Z-0.125
N6540 X4.7558 Y2.2225 Z-0.1251
N6545 X4.7523 Y2.2224 Z-0.1252
N6550 X4.7488 Y2.2222 Z-0.1253
N6555 X4.7453 Y2.2221 Z-0.1254
N6560 X4.7418 Y2.222 Z-0.1255
N6565 X4.7383 Y2.2218 Z-0.1256
N6570 X4.7348 Y2.2217 Z-0.1258
N6575 X4.7313 Y2.2215 Z-0.1259
N6580 X4.7278 Y2.2214 Z-0.126
N6585 X4.7243 Y2.2212 Z-0.1261
N6590 X4.7208 Y2.2211 Z-0.1262
N6595 X4.7173 Y2.2209 Z-0.1263
N6600 X4.7138 Y2.2208 Z-0.1264
N6605 X4.7103 Y2.2206 Z-0.1265
N6610 X4.7068 Y2.2205 Z-0.1267
N6615 X4.7033 Y2.2203 Z-0.1268
N6620 X4.6998 Y2.2201 Z-0.1269
N6625 X4.6963 Y2.22 Z-0.127
N6630 X4.6928 Y2.2198 Z-0.1271
N6635 X4.6893 Y2.2196 Z-0.1273
N6640 X4.6858 Y2.2195 Z-0.1274
N6645 X4.6823 Y2.2193 Z-0.1275
N6650 X4.6718 Y2.2188 Z-0.1279
N6655 X4.6683 Y2.2187 Z-0.128
N6660 X4.6648 Y2.2185 Z-0.1281
N6665 X4.6613 Y2.2183 Z-0.1282
N6670 X4.6578 Y2.2182 Z-0.1283
N6675 X4.6543 Y2.218 Z-0.1285
N6680 X4.6508 Y2.2178 Z-0.1286
N6685 X4.6473 Y2.2177 Z-0.1287
N6690 X4.6438 Y2.2175 Z-0.1288
N6695 X4.6403 Y2.2173 Z-0.129
N6700 X4.6368 Y2.2171 Z-0.1291
N6705 X4.6333 Y2.217 Z-0.1292
N6710 X4.6298 Y2.2168 Z-0.1293
N6715 X4.6263 Y2.2166 Z-0.1294
N6720 X4.6228 Y2.2165 Z-0.1296
N6725 X4.6193 Y2.2163 Z-0.1297
N6730 X4.6158 Y2.2161 Z-0.1298
N6735 X4.6123 Y2.216 Z-0.1299
N6740 X4.6088 Y2.2158 Z-0.1301
N6745 X4.6053 Y2.2156 Z-0.1302
N6750 X4.6018 Y2.2155 Z-0.1303
N6755 X4.5983 Y2.2153 Z-0.1304
N6760 X4.5948 Y2.2151 Z-0.1306
N6765 X4.5913 Y2.215 Z-0.1307
N6770 X4.5878 Y2.2148 Z-0.1308
N6775 X4.5843 Y2.2146 Z-0.1309
N6780 X4.5808 Y2.2145 Z-0.131
N6785 X4.5773 Y2.2143 Z-0.1312
N6790 X4.5738 Y2.2141 Z-0.1313
N6795 X4.5703 Y2.214 Z-0.1314
N6800 X4.5668 Y2.2138 Z-0.1315
N6805 X4.5598 Y2.2135 Z-0.1318
N6810 X4.5528 Y2.2131 Z-0.132
N6815 X4.5458 Y2.2128 Z-0.1323
N6820 X4.5423 Y2.2126 Z-0.1324
N6825 X4.5388 Y2.2125 Z-0.1325
N6830 X4.5318 Y2.2121 Z-0.1328
N6835 X4.5213 Y2.2115 Z-0.1331
N6840 X4.5143 Y2.2111 Z-0.1334
N6845 X4.5108 Y2.211 Z-0.1335
N6850 X4.5038 Y2.2106 Z-0.1337
N6855 X4.4933 Y2.21 Z-0.1341
N6860 X4.4863 Y2.2096 Z-0.1343
N6865 X4.4828 Y2.2094 Z-0.1345
N6870 X4.4758 Y2.2091 Z-0.1347
N6875 X4.4653 Y2.2085 Z-0.1351
N6880 X4.4583 Y2.2081 Z-0.1353
N6885 X4.4548 Y2.2079 Z-0.1354
N6890 X4.4478 Y2.2076 Z-0.1357
N6895 X4.4268 Y2.2064 Z-0.1364
N6900 X4.4198 Y2.2061 Z-0.1367
N6905 X4.3953 Y2.2047 Z-0.1375
N6910 X4.3743 Y2.2036 Z-0.1383
N6915 X4.3638 Y2.203 Z-0.1386
N6920 X4.3568 Y2.2027 Z-0.1389
N6925 X4.3533 Y2.2025 Z-0.139
N6930 X4.3008 Y2.1993 Z-0.1408
N6935 X4.2763 Y2.1978 Z-0.1417
N6940 X4.2658 Y2.1972 Z-0.1421
N6945 X4.2413 Y2.1957 Z-0.1429
N6950 X4.2343 Y2.1953 Z-0.1432
N6955 X4.2308 Y2.1951 Z-0.1433
N6960 X4.2238 Y2.1947 Z-0.1435
N6965 X4.2028 Y2.1934 Z-0.1443
N6970 X4.1958 Y2.193 Z-0.1445
N6975 X4.1853 Y2.1923 Z-0.1449
N6980 X4.1818 Y2.1921 Z-0.145
N6985 X4.1783 Y2.1919 Z-0.1451
N6990 X4.1748 Y2.1917 Z-0.1452
N6995 X4.1678 Y2.1912 Z-0.1455
N7000 X4.1573 Y2.1905 Z-0.1459
N7005 X4.1503 Y2.19 Z-0.1461
N7010 X4.1468 Y2.1898 Z-0.1462
N7015 X4.1398 Y2.1893 Z-0.1465
N7020 X4.1293 Y2.1886 Z-0.1468
N7025 X4.1223 Y2.1881 Z-0.1471
N7030 X4.1188 Y2.1879 Z-0.1472
N7035 X4.1153 Y2.1876 Z-0.1473
N7040 X4.1118 Y2.1874 Z-0.1474
N7045 X4.1083 Y2.1872 Z-0.1476
N7050 X4.1048 Y2.1869 Z-0.1477
N7055 X4.1013 Y2.1867 Z-0.1478
N7060 X4.0978 Y2.1864 Z-0.1479
N7065 X4.0943 Y2.1862 Z-0.1481
N7070 X4.0908 Y2.186 Z-0.1482
N7075 X4.0873 Y2.1857 Z-0.1483
N7080 X4.0838 Y2.1855 Z-0.1484
N7085 X4.0803 Y2.1853 Z-0.1485
N7090 X4.0768 Y2.185 Z-0.1487
N7095 X4.0733 Y2.1848 Z-0.1488
N7100 X4.0698 Y2.1846 Z-0.1489
N7105 X4.0663 Y2.1843 Z-0.149
N7110 X4.0628 Y2.1841 Z-0.1492
N7115 X4.0593 Y2.1838 Z-0.1493
N7120 X4.0558 Y2.1836 Z-0.1494
N7125 X4.0523 Y2.1834 Z-0.1495
N7130 X4.0488 Y2.1831 Z-0.1496
N7135 X4.0453 Y2.1829 Z-0.1498
N7140 X4.0418 Y2.1827 Z-0.1499
N7145 X4.0383 Y2.1824 Z-0.15
N7150 X4.0348 Y2.1822 Z-0.1501
N7155 X4.0313 Y2.1819 Z-0.1503
N7160 X4.0278 Y2.1817 Z-0.1504
N7165 X4.0243 Y2.1815 Z-0.1505
N7170 X4.0208 Y2.1812 Z-0.1506
N7175 X4.0173 Y2.181 Z-0.1508
N7180 X4.0138 Y2.1808 Z-0.1509
N7185 X4.0103 Y2.1805 Z-0.151
N7190 X4.0068 Y2.1802 Z-0.1511
N7195 X4.0033 Y2.18 Z-0.1512
N7200 X3.9998 Y2.1797 Z-0.1514
N7205 X3.9963 Y2.1794 Z-0.1515
N7210 X3.9928 Y2.1792 Z-0.1516
N7215 X3.9893 Y2.1789 Z-0.1517
N7220 X3.9858 Y2.1786 Z-0.1519
N7225 X3.9823 Y2.1784 Z-0.152
N7230 X3.9788 Y2.1781 Z-0.1521
N7235 X3.9753 Y2.1778 Z-0.1522
N7240 X3.9718 Y2.1776 Z-0.1523
N7245 X3.9683 Y2.1773 Z-0.1525
N7250 X3.9648 Y2.177 Z-0.1526
N7255 X3.9613 Y2.1768 Z-0.1527
N7260 X3.9578 Y2.1765 Z-0.1528
N7265 X3.9543 Y2.1763 Z-0.1529
N7270 X3.9508 Y2.176 Z-0.1531
N7275 X3.9473 Y2.1758 Z-0.1532
N7280 X3.9438 Y2.1755 Z-0.1533
N7285 X3.9403 Y2.1752 Z-0.1534
N7290 X3.9368 Y2.175 Z-0.1535
N7295 X3.9333 Y2.1748 Z-0.1536
N7300 X3.9298 Y2.1745 Z-0.1538
N7305 X3.9263 Y2.1743 Z-0.1539
N7310 X3.9228 Y2.174 Z-0.154
N7315 X3.9193 Y2.1738 Z-0.1541
N7320 X3.9158 Y2.1735 Z-0.1542
N7325 X3.9123 Y2.1733 Z-0.1543
N7330 X3.9088 Y2.1731 Z-0.1544
N7335 X3.9053 Y2.1728 Z-0.1545
N7340 X3.9018 Y2.1726 Z-0.1546
N7345 X3.8983 Y2.1724 Z-0.1548
N7350 X3.8948 Y2.1721 Z-0.1549
N7355 X3.8911 Y2.1719 Z-0.155
N7360 X3.8874 Y2.1715 Z-0.1551
N7365 X3.8837 Y2.1711 Z-0.1552
N7370 X3.88 Y2.1707 Z-0.1553
N7375 X3.8763 Y2.1702 Z-0.1554
N7380 X3.8726 Y2.1696 Z-0.1555
N7385 X3.8689 Y2.1689 Z-0.1556
N7390 X3.8653 Y2.1681 Z-0.1557
N7395 X3.8617 Y2.1673 Z-0.1558
N7400 X3.8582 Y2.1664 Z-0.1559
N7405 X3.8546 Y2.1654 Z-0.156
N7410 X3.8511 Y2.1644 Z-0.1561
N7415 X3.8476 Y2.1633 Z-0.1563
N7420 X3.844 Y2.1621 Z-0.1564
N7425 X3.8371 Y2.1594 Z-0.1566
N7430 X3.8302 Y2.1565 Z-0.1567
N7435 X3.8236 Y2.1533 Z-0.1569
N7440 X3.8172 Y2.1499 Z-0.1571
N7445 X3.8109 Y2.1462 Z-0.1573
N7450 X3.8048 Y2.1422 Z-0.1575
N7455 X3.7988 Y2.138 Z-0.1576
N7460 X3.7931 Y2.1336 Z-0.1578
N7465 X3.7876 Y2.1289 Z-0.1579
N7470 X3.7823 Y2.1241 Z-0.1581
N7475 X3.7772 Y2.1191 Z-0.1582
N7480 X3.7723 Y2.1137 Z-0.1584
N7485 X3.7676 Y2.1082 Z-0.1585
N7490 X3.7632 Y2.1026 Z-0.1586
N7495 X3.7591 Y2.0968 Z-0.1588
N7500 X3.7551 Y2.0908 Z-0.1589
N7505 X3.7515 Y2.0847 Z-0.159
N7510 X3.7481 Y2.0784 Z-0.1591
N7515 X3.7451 Y2.0721 Z-0.1592
N7520 X3.7422 Y2.0656 Z-0.1593
N7525 X3.7397 Y2.0589 Z-0.1594
N7530 X3.7375 Y2.0522 Z-0.1595
N7535 X3.7355 Y2.0454
N7540 X3.7324 Y2.0317 Z-0.1597
N7545 X3.7304 Y2.0178 Z-0.1598
N7550 X3.7296 Y2.0038 Z-0.1599
N7555 X3.7297 Y1.9898
N7560 X3.7298 Y1.9758 Z-0.16
N7565 X3.7299 Y1.9618
N7570 Y1.9587
N7575 Y1.0018
N7580 X3.73 Y0.9938
N7585 X3.7306 Y0.9859
N7590 X3.7315 Y0.9779
N7595 X3.7323 Y0.9734
N7600 X3.7329 Y0.9699
N7605 X3.7347 Y0.9619
N7610 X3.7369 Y0.954
N7615 X3.7396 Y0.946
N7620 X3.7402 Y0.9442
N7625 X3.7427 Y0.938
N7630 X3.7464 Y0.9301
N7635 X3.7482 Y0.9264
N7640 X3.7505 Y0.9221
N7645 X3.7553 Y0.9141
N7650 X3.7562 Y0.9128
N7655 X3.7608 Y0.9061
N7660 X3.7641 Y0.9017
N7665 X3.767 Y0.8982
N7670 X3.7721 Y0.8923
N7675 X3.7741 Y0.8902
N7680 X3.7801 Y0.8842
N7685 X3.7822 Y0.8822
N7690 X3.7881 Y0.8771
N7695 X3.7916 Y0.8743
N7700 X3.796 Y0.8709
N7705 X3.8027 Y0.8663
N7710 X3.804 Y0.8655
N7715 X3.812 Y0.8607
N7720 X3.8163 Y0.8583
N7725 X3.8199 Y0.8565
N7730 X3.8279 Y0.8528
N7735 X3.8341 Y0.8504
N7740 X3.8359 Y0.8497
N7745 X3.8439 Y0.847
N7750 X3.8518 Y0.8448
N7755 X3.8598 Y0.843
N7760 X3.8633 Y0.8424
N7765 X3.8678 Y0.8417
N7770 X3.8757 Y0.8407
N7775 X3.8837 Y0.8402
N7780 X3.8917 Y0.84
N7785 X4.8881
N7790 X4.8961 Y0.8402
N7795 X4.904 Y0.8407
N7800 X4.912 Y0.8417
N7805 X4.9165 Y0.8424
N7810 X4.92 Y0.843
N7815 X4.9279 Y0.8448
N7820 X4.9359 Y0.847
N7825 X4.9439 Y0.8497
N7830 X4.9457 Y0.8504
N7835 X4.9519 Y0.8528
N7840 X4.9598 Y0.8565
N7845 X4.9635 Y0.8583
N7850 X4.9678 Y0.8607
N7855 X4.9758 Y0.8655
N7860 X4.9771 Y0.8663
N7865 X4.9837 Y0.8709
N7870 X4.9882 Y0.8743
N7875 X4.9917 Y0.8771
N7880 X4.9976 Y0.8822
N7885 X4.9997 Y0.8842
N7890 X5.0057 Y0.8902
N7895 X5.0076 Y0.8923
N7900 X5.0128 Y0.8982
N7905 X5.0156 Y0.9017
N7910 X5.019 Y0.9061
N7915 X5.0236 Y0.9128
N7920 X5.0244 Y0.9141
N7925 X5.0292 Y0.9221
N7930 X5.0316 Y0.9264
N7935 X5.0334 Y0.9301
N7940 X5.0371 Y0.938
N7945 X5.0395 Y0.9442
N7950 X5.0402 Y0.946
N7955 X5.0429 Y0.954
N7960 X5.0451 Y0.9619
N7965 X5.0469 Y0.9699
N7970 X5.0475 Y0.9734
N7975 X5.0482 Y0.9779
N7980 X5.0492 Y0.9859
N7985 X5.0497 Y0.9938
N7990 X5.0499 Y1.0018
N7995 Y1.9982
N8000 X5.0497 Y2.0062
N8005 X5.0492 Y2.0141
N8010 X5.0482 Y2.0221
N8015 X5.0475 Y2.0266
N8020 X5.0469 Y2.0301
N8025 X5.0451 Y2.0381
N8030 X5.0429 Y2.046
N8035 X5.0402 Y2.054
N8040 X5.0395 Y2.0558
N8045 X5.0371 Y2.062
N8050 X5.0334 Y2.0699
N8055 X5.0316 Y2.0736
N8060 X5.0292 Y2.0779
N8065 X5.0244 Y2.0859
N8070 X5.0236 Y2.0872
N8075 X5.019 Y2.0939
N8080 X5.0156 Y2.0983
N8085 X5.0128 Y2.1018
N8090 X5.0076 Y2.1077
N8095 X5.0057 Y2.1098
N8100 X5.0023 Y2.1132
N8105 X4.9997 Y2.1158
N8110 X4.9976 Y2.1178
N8115 X4.9917 Y2.1229
N8120 X4.9882 Y2.1257
N8125 X4.9837 Y2.1291
N8130 X4.9771 Y2.1337
N8135 X4.9758 Y2.1345
N8140 X4.9678 Y2.1393
N8145 X4.9635 Y2.1417
N8150 X4.9598 Y2.1435
N8155 X4.9519 Y2.1472
N8160 X4.9457 Y2.1496
N8165 X4.9439 Y2.1503
N8170 X4.9359 Y2.153
N8175 X4.9279 Y2.1552
N8180 X4.92 Y2.157
N8185 X4.9165 Y2.1576
N8190 X4.912 Y2.1583
N8195 X4.904 Y2.1593
N8200 X4.8961 Y2.1598
N8205 X4.8881 Y2.16
N8210 X3.8917
N8215 X3.8837 Y2.1598
N8220 X3.8757 Y2.1593
N8225 X3.8678 Y2.1583
N8230 X3.8633 Y2.1576
N8235 X3.8598 Y2.157
N8240 X3.8518 Y2.1552
N8245 X3.8439 Y2.153
N8250 X3.8359 Y2.1503
N8255 X3.8341 Y2.1496
N8260 X3.8279 Y2.1472
N8265 X3.8199 Y2.1435
N8270 X3.8163 Y2.1417
N8275 X3.812 Y2.1393
N8280 X3.804 Y2.1345
N8285 X3.8027 Y2.1337
N8290 X3.796 Y2.1291
N8295 X3.7916 Y2.1257
N8300 X3.7881 Y2.1229
N8305 X3.7822 Y2.1178
N8310 X3.7801 Y2.1158
N8315 X3.7741 Y2.1098
N8320 X3.7721 Y2.1077
N8325 X3.767 Y2.1018
N8330 X3.7641 Y2.0983
N8335 X3.7608 Y2.0939
N8340 X3.7562 Y2.0872
N8345 X3.7553 Y2.0859
N8350 X3.7505 Y2.0779
N8355 X3.7482 Y2.0736
N8360 X3.7464 Y2.0699
N8365 X3.7427 Y2.062
N8370 X3.7402 Y2.0558
N8375 X3.7396 Y2.054
N8380 X3.7369 Y2.046
N8385 X3.7347 Y2.0381
N8390 X3.7329 Y2.0301
N8395 X3.7323 Y2.0266
N8400 X3.7315 Y2.0221
N8405 X3.7306 Y2.0141
N8410 X3.73 Y2.0062
N8415 X3.7299 Y1.9982
N8420 Y1.9587
N8425 G3 X3.7549 Y1.9337 I0.025
N8430 G1 X3.7588 Z-0.1597
N8435 X3.7626 Z-0.1588
N8440 X3.7662 Z-0.1573
N8445 X3.7696 Z-0.1552
N8450 X3.7725 Z-0.1527
N8455 X3.7751 Z-0.1497
N8460 X3.7771 Z-0.1463
N8465 X3.7786 Z-0.1427
N8470 X3.7796 Z-0.1389
N8475 X3.7799 Z-0.135
N8480 G0 Z0.6
N8485 M5
N8490 G28 G91 Z0
N8495 G90

(Ramp4)
N8500 M9
N8505 M1
N8510 T2 M6
N8515 T4
N8520 S1000 M3
N8525 M8
N8530 G0 X3.5135 Y0.9609
N8535 Z0.6
N8540 Z0.0777
N8545 G1 Z0.0031 F40
N8550 X3.5132 Z0.0019
N8555 X3.5126 Y0.9608 Z0.0009
N8560 X3.5116 Y0.9607 Z0.0002
N8565 X3.5104 Y0.9606 Z0
N8570 G3 X3.5076 Y0.9571 I0.0003 J-0.0031
N8575 G1 X3.5079 Y0.9549
N8580 X3.5082 Y0.9522
N8585 X3.5089 Y0.9467
N8590 X3.5093 Y0.944
N8595 X3.5106 Y0.9358
N8600 X3.5111 Y0.9331
N8605 X3.5121 Y0.9277
N8610 X3.5127 Y0.925 Z-0.0001
N8615 X3.5144 Y0.9168
N8620 X3.515 Y0.9141
N8625 X3.5163 Y0.9086
N8630 X3.517 Y0.9059
N8635 X3.5185 Y0.9003
N8640 X3.5192 Y0.8978
N8645 X3.5215 Y0.8896
N8650 X3.5224 Y0.8869
N8655 X3.5241 Y0.8815
N8660 X3.525 Y0.8787
N8665 X3.5269 Y0.8733
N8670 X3.5278 Y0.8706
N8675 X3.5308 Y0.8624 Z-0.0002
N8680 X3.5319 Y0.8597
N8685 X3.5341 Y0.8543
N8690 X3.5348 Y0.8525
N8695 X3.5376 Y0.8461
N8700 X3.5388 Y0.8434
N8705 X3.5413 Y0.838
N8710 X3.5425 Y0.8352
N8715 X3.5457 Y0.8288
N8720 X3.5465 Y0.8271
N8725 X3.5507 Y0.8189
N8730 X3.5511 Y0.8183
N8735 X3.5552 Y0.8108
N8740 X3.5566 Y0.8085
N8745 X3.56 Y0.8026 Z-0.0003
N8750 X3.5617 Y0.7999
N8755 X3.565 Y0.7945
N8760 X3.5668 Y0.7917
N8765 X3.5701 Y0.7866
N8770 X3.5703 Y0.7863
N8775 X3.5741 Y0.7809
N8780 X3.5756 Y0.7787
N8785 X3.581 Y0.7712
N8790 X3.5819 Y0.77
N8795 X3.5865 Y0.764
N8800 X3.5882 Y0.7618
N8805 X3.5925 Y0.7564
N8810 X3.5926 Y0.7563
N8815 X3.6462 Y0.7027 Z-0.0005
N8820 X3.6463
N8825 X3.6471 Y0.702
N8830 X3.6517 Y0.6983
N8835 X3.6539 Y0.6966
N8840 X3.661 Y0.6911
N8845 X3.6626 Y0.69
N8850 X3.6686 Y0.6857
N8855 X3.6707 Y0.6842
N8860 X3.6765 Y0.6803
N8865 X3.6789 Y0.6787
N8870 X3.6843 Y0.6751
N8875 X3.6848 Y0.6748
N8880 X3.6925 Y0.6701 Z-0.0006
N8885 X3.6937 Y0.6694
N8890 X3.7007 Y0.6654
N8895 X3.7032 Y0.664
N8900 X3.7088 Y0.6609
N8905 X3.7115 Y0.6595
N8910 X3.717 Y0.6566
N8915 X3.7186 Y0.6558
N8920 X3.7251 Y0.6526
N8925 X3.7278 Y0.6514
N8930 X3.7333 Y0.6489
N8935 X3.736 Y0.6477
N8940 X3.7424 Y0.6449
N8945 X3.7442 Y0.6442
N8950 X3.7496 Y0.642 Z-0.0007
N8955 X3.7523 Y0.6409
N8960 X3.7605 Y0.6379
N8965 X3.7632 Y0.637
N8970 X3.7686 Y0.6351
N8975 X3.7713 Y0.6342
N8980 X3.7768 Y0.6325
N8985 X3.7795 Y0.6316
N8990 X3.7877 Y0.6293
N8995 X3.7901 Y0.6286
N9000 X3.7958 Y0.6271
N9005 X3.7985 Y0.6264
N9010 X3.804 Y0.6251
N9015 X3.8067 Y0.6245
N9020 X3.8148 Y0.6228 Z-0.0008
N9025 X3.8176 Y0.6222
N9030 X3.823 Y0.6212
N9035 X3.8257 Y0.6208
N9040 X3.8339 Y0.6194
N9045 X3.8366 Y0.6191
N9050 X3.842 Y0.6183
N9055 X3.8448 Y0.618
N9060 X3.8529 Y0.6171
N9065 X3.8556 Y0.6168
N9070 X3.8611 Y0.6164
N9075 X3.8638 Y0.6162
N9080 X3.8692 Y0.6158
N9085 X3.8719 Y0.6157
N9090 X3.8801 Y0.6154 Z-0.0009
N9095 X3.8828 Y0.6153
N9100 X3.891 Y0.6152
N9105 X4.8888 Z-0.0024
N9110 X4.897 Y0.6153
N9115 X4.8997 Y0.6154
N9120 X4.9078 Y0.6157 Z-0.0025
N9125 X4.9105 Y0.6158
N9130 X4.916 Y0.6162
N9135 X4.9187 Y0.6164
N9140 X4.9241 Y0.6168
N9145 X4.9269 Y0.6171
N9150 X4.935 Y0.618
N9155 X4.9377 Y0.6183
N9160 X4.9432 Y0.6191
N9165 X4.9459 Y0.6194
N9170 X4.954 Y0.6208
N9175 X4.9568 Y0.6212
N9180 X4.9622 Y0.6223
N9185 X4.9649 Y0.6228 Z-0.0026
N9190 X4.9731 Y0.6245
N9195 X4.9758 Y0.6251
N9200 X4.9812 Y0.6264
N9205 X4.984 Y0.6271
N9210 X4.9896 Y0.6286
N9215 X4.9921 Y0.6293
N9220 X5.0003 Y0.6316
N9225 X5.003 Y0.6325
N9230 X5.0084 Y0.6342
N9235 X5.0111 Y0.6351
N9240 X5.0166 Y0.637
N9245 X5.0193 Y0.6379
N9250 X5.0275 Y0.641 Z-0.0027
N9255 X5.0302 Y0.642
N9260 X5.0356 Y0.6442
N9265 X5.0374 Y0.6449
N9270 X5.0438 Y0.6477
N9275 X5.0465 Y0.6489
N9280 X5.0519 Y0.6514
N9285 X5.0546 Y0.6526
N9290 X5.0611 Y0.6558
N9295 X5.0628 Y0.6566
N9300 X5.071 Y0.6609
N9305 X5.0716 Y0.6612
N9310 X5.0791 Y0.6654
N9315 X5.0814 Y0.6667
N9320 X5.0873 Y0.6701 Z-0.0028
N9325 X5.09 Y0.6718
N9330 X5.0954 Y0.6751
N9335 X5.0981 Y0.6769
N9340 X5.1033 Y0.6803
N9345 X5.1036 Y0.6805
N9350 X5.109 Y0.6842
N9355 X5.1112 Y0.6857
N9360 X5.1187 Y0.6911
N9365 X5.1199 Y0.692
N9370 X5.1259 Y0.6966
N9375 X5.1281 Y0.6983
N9380 X5.1335 Y0.7027
N9385 X5.136 Y0.7047
N9390 X5.1392 Y0.7075 Z-0.0029
N9395 X5.1416 Y0.7095
N9400 X5.1471 Y0.7144
N9405 X5.1485 Y0.7156
N9410 X5.1543 Y0.721
N9415 X5.1552 Y0.7219
N9420 X5.1607 Y0.7272
N9425 X5.1627 Y0.7292
N9430 X5.168 Y0.7346
N9435 X5.1688 Y0.7356
N9440 X5.1743 Y0.7414
N9445 X5.1755 Y0.7428
N9450 X5.1803 Y0.7482
N9455 X5.1824 Y0.7507 Z-0.003
N9460 X5.1872 Y0.7564
N9465 X5.1879 Y0.7572
N9470 X5.1916 Y0.7618
N9475 X5.1933 Y0.764
N9480 X5.1987 Y0.7712
N9485 X5.1999 Y0.7727
N9490 X5.2042 Y0.7787
N9495 X5.2057 Y0.7809
N9500 X5.2096 Y0.7866
N9505 X5.2112 Y0.789
N9510 X5.2147 Y0.7945
N9515 X5.2151 Y0.795
N9520 X5.2198 Y0.8026 Z-0.0031
N9525 X5.2205 Y0.8039
N9530 X5.2245 Y0.8108
N9535 X5.2259 Y0.8133
N9540 X5.229 Y0.8189
N9545 X5.2304 Y0.8216
N9550 X5.2333 Y0.8271
N9555 X5.2341 Y0.8288
N9560 X5.2372 Y0.8352
N9565 X5.2385 Y0.838
N9570 X5.241 Y0.8434
N9575 X5.2422 Y0.8461
N9580 X5.245 Y0.8525
N9585 X5.2457 Y0.8543
N9590 X5.2479 Y0.8597 Z-0.0032
N9595 X5.2489 Y0.8624
N9600 X5.252 Y0.8706
N9605 X5.2529 Y0.8733
N9610 X5.2548 Y0.8787
N9615 X5.2557 Y0.8815
N9620 X5.2574 Y0.8869
N9625 X5.2583 Y0.8896
N9630 X5.2606 Y0.8978
N9635 X5.2613 Y0.9003
N9640 X5.2628 Y0.9059
N9645 X5.2635 Y0.9086
N9650 X5.2647 Y0.9141
N9655 X5.2654 Y0.9168
N9660 X5.2671 Y0.925 Z-0.0033
N9665 X5.2676 Y0.9277
N9670 X5.2686 Y0.9331
N9675 X5.2691 Y0.9358
N9680 X5.2704 Y0.944
N9685 X5.2708 Y0.9467
N9690 X5.2716 Y0.9522
N9695 X5.2719 Y0.9549
N9700 X5.2728 Y0.963
N9705 X5.273 Y0.9657
N9710 X5.2735 Y0.9712
N9715 X5.2737 Y0.9739
N9720 X5.2741 Y0.9793
N9725 X5.2742 Y0.9821
N9730 X5.2745 Y0.9902 Z-0.0034
N9735 X5.2746 Y0.9929
N9740 X5.2747 Y1.0011
N9745 Y1.9989 Z-0.0049
N9750 X5.2746 Y2.0071
N9755 X5.2745 Y2.0098
N9760 X5.2742 Y2.0179 Z-0.005
N9765 X5.2741 Y2.0207
N9770 X5.2737 Y2.0261
N9775 X5.2735 Y2.0288
N9780 X5.273 Y2.0343
N9785 X5.2728 Y2.037
N9790 X5.2719 Y2.0451
N9795 X5.2716 Y2.0478
N9800 X5.2708 Y2.0533
N9805 X5.2704 Y2.056
N9810 X5.2691 Y2.0642
N9815 X5.2686 Y2.0669
N9820 X5.2676 Y2.0723
N9825 X5.2671 Y2.075 Z-0.0051
N9830 X5.2654 Y2.0832
N9835 X5.2647 Y2.0859
N9840 X5.2635 Y2.0914
N9845 X5.2628 Y2.0941
N9850 X5.2613 Y2.0997
N9855 X5.2606 Y2.1022
N9860 X5.2582 Y2.1104
N9865 X5.2574 Y2.1131
N9870 X5.2557 Y2.1185
N9875 X5.2548 Y2.1213
N9880 X5.2529 Y2.1267
N9885 X5.252 Y2.1294
N9890 X5.2489 Y2.1376 Z-0.0052
N9895 X5.2479 Y2.1403
N9900 X5.2457 Y2.1457
N9905 X5.245 Y2.1475
N9910 X5.2422 Y2.1539
N9915 X5.241 Y2.1566
N9920 X5.2385 Y2.162
N9925 X5.2373 Y2.1648
N9930 X5.2341 Y2.1712
N9935 X5.2333 Y2.1729
N9940 X5.229 Y2.1811
N9945 X5.2287 Y2.1817
N9950 X5.2245 Y2.1892
N9955 X5.2232 Y2.1915
N9960 X5.2198 Y2.1974 Z-0.0053
N9965 X5.2181 Y2.2001
N9970 X5.2147 Y2.2055
N9975 X5.213 Y2.2083
N9980 X5.2096 Y2.2134
N9985 X5.2094 Y2.2137
N9990 X5.2042 Y2.2213
N9995 X5.1987 Y2.2288
N10000 X5.1979 Y2.23
N10005 X5.1933 Y2.236
N10010 X5.1916 Y2.2382
N10015 X5.1872 Y2.2436
N10020 Y2.2437
N10025 X5.1336 Y2.2973 Z-0.0055
N10030 X5.1335
N10035 X5.1327 Y2.298
N10040 X5.1281 Y2.3017
N10045 X5.1259 Y2.3034
N10050 X5.1187 Y2.3089
N10055 X5.1172 Y2.31
N10060 X5.1112 Y2.3143
N10065 X5.109 Y2.3158
N10070 X5.1033 Y2.3197
N10075 X5.1009 Y2.3213
N10080 X5.0954 Y2.3249
N10085 X5.0949 Y2.3252
N10090 X5.0873 Y2.3299 Z-0.0056
N10095 X5.086 Y2.3306
N10100 X5.0791 Y2.3346
N10105 X5.0766 Y2.336
N10110 X5.071 Y2.3391
N10115 X5.0682 Y2.3405
N10120 X5.0628 Y2.3434
N10125 X5.0611 Y2.3442
N10130 X5.0546 Y2.3474
N10135 X5.0519 Y2.3486
N10140 X5.0465 Y2.3511
N10145 X5.0438 Y2.3523
N10150 X5.0373 Y2.3551
N10155 X5.0356 Y2.3558
N10160 X5.0302 Y2.358 Z-0.0057
N10165 X5.0275 Y2.3591
N10170 X5.0193 Y2.3621
N10175 X5.0166 Y2.363
N10180 X5.0111 Y2.3649
N10185 X5.0084 Y2.3658
N10190 X5.003 Y2.3675
N10195 X5.0003 Y2.3684
N10200 X4.9921 Y2.3707
N10205 X4.9896 Y2.3714
N10210 X4.984 Y2.3729
N10215 X4.9812 Y2.3736
N10220 X4.9758 Y2.3749
N10225 X4.9731 Y2.3755
N10230 X4.9649 Y2.3772 Z-0.0058
N10235 X4.9622 Y2.3778
N10240 X4.9568 Y2.3788
N10245 X4.954 Y2.3792
N10250 X4.9459 Y2.3806
N10255 X4.9432 Y2.3809
N10260 X4.9377 Y2.3817
N10265 X4.935 Y2.382
N10270 X4.9269 Y2.3829
N10275 X4.9241 Y2.3832
N10280 X4.9187 Y2.3836
N10285 X4.916 Y2.3838
N10290 X4.9105 Y2.3842
N10295 X4.9078 Y2.3843
N10300 X4.8997 Y2.3846 Z-0.0059
N10305 X4.897 Y2.3847
N10310 X4.8888 Y2.3848
N10315 X3.891 Z-0.0074
N10320 X3.8828 Y2.3847
N10325 X3.8801 Y2.3846
N10330 X3.8719 Y2.3843 Z-0.0075
N10335 X3.8692 Y2.3842
N10340 X3.8638 Y2.3838
N10345 X3.8611 Y2.3836
N10350 X3.8556 Y2.3832
N10355 X3.8529 Y2.3829
N10360 X3.8448 Y2.382
N10365 X3.842 Y2.3817
N10370 X3.8366 Y2.3809
N10375 X3.8339 Y2.3806
N10380 X3.8257 Y2.3792
N10385 X3.823 Y2.3788
N10390 X3.8176 Y2.3777
N10395 X3.8148 Y2.3772 Z-0.0076
N10400 X3.8067 Y2.3755
N10405 X3.804 Y2.3749
N10410 X3.7985 Y2.3736
N10415 X3.7958 Y2.3729
N10420 X3.7901 Y2.3714
N10425 X3.7877 Y2.3707
N10430 X3.7795 Y2.3684
N10435 X3.7768 Y2.3675
N10440 X3.7713 Y2.3658
N10445 X3.7686 Y2.3649
N10450 X3.7632 Y2.363
N10455 X3.7605 Y2.3621
N10460 X3.7523 Y2.359 Z-0.0077
N10465 X3.7496 Y2.358
N10470 X3.7442 Y2.3558
N10475 X3.7424 Y2.3551
N10480 X3.736 Y2.3523
N10485 X3.7333 Y2.3511
N10490 X3.7278 Y2.3486
N10495 X3.7251 Y2.3474
N10500 X3.7187 Y2.3442
N10505 X3.717 Y2.3434
N10510 X3.7088 Y2.3391
N10515 X3.7081 Y2.3388
N10520 X3.7007 Y2.3346
N10525 X3.6984 Y2.3333
N10530 X3.6925 Y2.3299 Z-0.0078
N10535 X3.6898 Y2.3282
N10540 X3.6843 Y2.3249
N10545 X3.6816 Y2.3231
N10550 X3.6765 Y2.3197
N10555 X3.6762 Y2.3195
N10560 X3.6707 Y2.3158
N10565 X3.6686 Y2.3143
N10570 X3.661 Y2.3089
N10575 X3.6599 Y2.308
N10580 X3.6539 Y2.3034
N10585 X3.6517 Y2.3017
N10590 X3.6463 Y2.2973
N10595 X3.6462
N10600 X3.5926 Y2.2437 Z-0.008
N10605 X3.5925 Y2.2436
N10610 X3.5919 Y2.2428
N10615 X3.5882 Y2.2382
N10620 X3.5865 Y2.236
N10625 X3.581 Y2.2288
N10630 X3.5799 Y2.2273
N10635 X3.5756 Y2.2213
N10640 X3.5741 Y2.2191
N10645 X3.5701 Y2.2134
N10650 X3.5686 Y2.211
N10655 X3.565 Y2.2055
N10660 X3.5647 Y2.205
N10665 X3.56 Y2.1974 Z-0.0081
N10670 X3.5593 Y2.1961
N10675 X3.5552 Y2.1892
N10680 X3.5538 Y2.1867
N10685 X3.5508 Y2.1811
N10690 X3.5493 Y2.1784
N10695 X3.5465 Y2.1729
N10700 X3.5457 Y2.1712
N10705 X3.5425 Y2.1648
N10710 X3.5412 Y2.162
N10715 X3.5388 Y2.1566
N10720 X3.5376 Y2.1539
N10725 X3.5348 Y2.1475
N10730 X3.5341 Y2.1457
N10735 X3.5319 Y2.1403 Z-0.0082
N10740 X3.5308 Y2.1376
N10745 X3.5278 Y2.1294
N10750 X3.5269 Y2.1267
N10755 X3.525 Y2.1213
N10760 X3.5241 Y2.1185
N10765 X3.5224 Y2.1131
N10770 X3.5215 Y2.1104
N10775 X3.5192 Y2.1022
N10780 X3.5185 Y2.0997
N10785 X3.517 Y2.0941
N10790 X3.5163 Y2.0914
N10795 X3.515 Y2.0859
N10800 X3.5144 Y2.0832
N10805 X3.5127 Y2.075 Z-0.0083
N10810 X3.5121 Y2.0723
N10815 X3.5111 Y2.0669
N10820 X3.5106 Y2.0642
N10825 X3.5093 Y2.056
N10830 X3.5089 Y2.0533
N10835 X3.5082 Y2.0478
N10840 X3.5079 Y2.0451
N10845 X3.507 Y2.037
N10850 X3.5067 Y2.0343
N10855 X3.5063 Y2.0288
N10860 X3.506 Y2.0261
N10865 X3.5057 Y2.0207
N10870 X3.5055 Y2.0179
N10875 X3.5052 Y2.0098 Z-0.0084
N10880 Y2.0071
N10885 X3.5051 Y1.9989
N10890 Y1.0011 Z-0.0099
N10895 X3.5052 Y0.9929
N10900 Y0.9902
N10905 X3.5055 Y0.9821 Z-0.01
N10910 X3.5057 Y0.9793
N10915 X3.506 Y0.9739
N10920 X3.5063 Y0.9712
N10925 X3.5067 Y0.9657
N10930 X3.507 Y0.963
N10935 X3.5076 Y0.9571
N10940 X3.5079 Y0.9546
N10945 X3.5082 Y0.9522
N10950 X3.5092 Y0.9447
N10955 X3.5096 Y0.9422
N10960 X3.5104 Y0.9373
N10965 X3.5108 Y0.9349
N10970 X3.5122 Y0.9275
N10975 X3.5127 Y0.925 Z-0.0101
N10980 X3.5142 Y0.9177
N10985 X3.5148 Y0.9153
N10990 X3.5165 Y0.908
N10995 X3.5171 Y0.9056
N11000 X3.5191 Y0.8983
N11005 X3.5197 Y0.8959
N11010 X3.5211 Y0.8911
N11015 X3.5218 Y0.8887
N11020 X3.5241 Y0.8816
N11025 X3.5249 Y0.8792
N11030 X3.5273 Y0.8721
N11035 X3.5282 Y0.8697
N11040 X3.5308 Y0.8627 Z-0.0102
N11045 X3.5317 Y0.8604
N11050 X3.5345 Y0.8535
N11055 X3.5355 Y0.8512
N11060 X3.5374 Y0.8466
N11065 X3.5384 Y0.8443
N11070 X3.5416 Y0.8375
N11075 X3.5426 Y0.8352
N11080 X3.5459 Y0.8285
N11085 X3.5471 Y0.8262
N11090 X3.5505 Y0.8196
N11095 X3.5517 Y0.8174
N11100 X3.5553 Y0.8108
N11105 X3.5566 Y0.8087
N11110 X3.5591 Y0.8044 Z-0.0103
N11115 X3.5604 Y0.8022
N11120 X3.5643 Y0.7958
N11125 X3.5656 Y0.7937
N11130 X3.5697 Y0.7874
N11135 X3.5711 Y0.7854
N11140 X3.5754 Y0.7792
N11145 X3.5768 Y0.7772
N11150 X3.5812 Y0.7711
N11155 X3.5869 Y0.7636
N11160 X3.5886 Y0.7616
N11165 X3.5913 Y0.7582
N11170 X3.5914 Y0.7581
N11175 X3.6016 Y0.7479 Z-0.0104
N11180 X3.6486 Y0.701 Z-0.0105
N11185 X3.6487 Y0.7009
N11190 X3.6524 Y0.698
N11195 X3.6547 Y0.6962
N11200 X3.6595 Y0.6926
N11205 X3.6619 Y0.6908
N11210 X3.6679 Y0.6864
N11215 X3.67 Y0.685
N11220 X3.6762 Y0.6807
N11225 X3.6782 Y0.6794
N11230 X3.6845 Y0.6753
N11235 X3.6867 Y0.674
N11240 X3.6909 Y0.6713
N11245 X3.693 Y0.67 Z-0.0106
N11250 X3.6995 Y0.6663
N11255 X3.7017 Y0.665
N11260 X3.7082 Y0.6614
N11265 X3.7105 Y0.6603
N11270 X3.7171 Y0.6568
N11275 X3.7193 Y0.6557
N11280 X3.7261 Y0.6524
N11285 X3.7306 Y0.6504
N11290 X3.7329 Y0.6493
N11295 X3.7352 Y0.6483
N11300 X3.7421 Y0.6453
N11305 X3.7444 Y0.6444
N11310 X3.7513 Y0.6416 Z-0.0107
N11315 X3.7537 Y0.6407
N11320 X3.7607 Y0.6381
N11325 X3.763 Y0.6373
N11330 X3.7678 Y0.6357
N11335 X3.7701 Y0.6349
N11340 X3.7773 Y0.6326
N11345 X3.7796 Y0.6319
N11350 X3.7868 Y0.6298
N11355 X3.7892 Y0.6291
N11360 X3.7965 Y0.6272
N11365 X3.7989 Y0.6266
N11370 X3.8062 Y0.6249
N11375 X3.8086 Y0.6244
N11380 X3.8135 Y0.6233 Z-0.0108
N11385 X3.816 Y0.6228
N11390 X3.8233 Y0.6215
N11395 X3.8258 Y0.621
N11400 X3.8332 Y0.6198
N11405 X3.8357 Y0.6195
N11410 X3.8431 Y0.6185
N11415 X3.8456 Y0.6182
N11420 X3.853 Y0.6174
N11425 X3.8555 Y0.6172
N11430 X3.8605 Y0.6167
N11435 X3.863 Y0.6165
N11440 X3.8704 Y0.6161
N11445 X3.8729 Y0.6159
N11450 X3.8804 Y0.6157 Z-0.0109
N11455 X3.8829 Y0.6156
N11460 X3.8904 Y0.6155
N11465 X3.8929
N11470 X3.9701 Y0.6156 Z-0.011
N11475 X4.0499 Z-0.0111
N11480 X4.1346 Z-0.0113
N11485 X4.2193 Y0.6157 Z-0.0114
N11490 X4.304 Z-0.0115
N11495 X4.3888 Z-0.0117
N11500 X4.4735 Y0.6158 Z-0.0118
N11505 X4.5582 Z-0.0119
N11510 X4.6429 Z-0.012
N11515 X4.7276 Y0.6159 Z-0.0122
N11520 X4.8124 Z-0.0123
N11525 X4.8871 Z-0.0124
N11530 X4.8896
N11535 X4.8971 Y0.616
N11540 X4.8996 Y0.6161
N11545 X4.907 Y0.6164 Z-0.0125
N11550 X4.9095 Y0.6165
N11555 X4.917 Y0.617
N11560 X4.9195 Y0.6172
N11565 X4.9245 Y0.6176
N11570 X4.927 Y0.6178
N11575 X4.9344 Y0.6187
N11580 X4.9369 Y0.619
N11585 X4.9443 Y0.62
N11590 X4.9467 Y0.6203
N11595 X4.9541 Y0.6215
N11600 X4.9566 Y0.622
N11605 X4.9639 Y0.6233
N11610 X4.9664 Y0.6239 Z-0.0126
N11615 X4.9713 Y0.6249
N11620 X4.9737 Y0.6254
N11625 X4.981 Y0.6271
N11630 X4.9834 Y0.6277
N11635 X4.9906 Y0.6297
N11640 X4.993 Y0.6303
N11645 X5.0002 Y0.6324
N11650 X5.0026 Y0.6332
N11655 X5.0097 Y0.6354
N11660 X5.0121 Y0.6362
N11665 X5.0168 Y0.6379
N11670 X5.0191 Y0.6387
N11675 X5.0262 Y0.6413
N11680 X5.0285 Y0.6422 Z-0.0127
N11685 X5.0354 Y0.645
N11690 X5.0377 Y0.6459
N11695 X5.0446 Y0.6489
N11700 X5.0469 Y0.6499
N11705 X5.0537 Y0.653
N11710 X5.0559 Y0.6541
N11715 X5.0604 Y0.6563
N11720 X5.0626 Y0.6574
N11725 X5.0693 Y0.6609
N11730 X5.0715 Y0.662
N11735 X5.078 Y0.6657
N11740 X5.0802 Y0.6669
N11745 X5.0866 Y0.6707 Z-0.0128
N11750 X5.0888 Y0.672
N11755 X5.093 Y0.6746
N11760 X5.0951 Y0.6759
N11765 X5.1014 Y0.68
N11770 X5.1035 Y0.6814
N11775 X5.1096 Y0.6856
N11780 X5.1117 Y0.687
N11785 X5.1177 Y0.6914
N11790 X5.1197 Y0.6929
N11795 X5.1257 Y0.6974
N11800 X5.1276 Y0.699
N11805 X5.1315 Y0.7021
N11810 X5.1335 Y0.7037
N11815 X5.1392 Y0.7085 Z-0.0129
N11820 X5.1411 Y0.7101
N11825 X5.1467 Y0.7151
N11830 X5.1485 Y0.7168
N11835 X5.154 Y0.7219
N11840 X5.1558 Y0.7236
N11845 X5.1611 Y0.7288
N11850 X5.1629 Y0.7306
N11855 X5.1664 Y0.7342
N11860 X5.1681 Y0.736
N11865 X5.1732 Y0.7415
N11870 X5.1749 Y0.7433
N11875 X5.1798 Y0.7489
N11880 X5.1814 Y0.7508
N11885 X5.1863 Y0.7565 Z-0.013
N11890 X5.1878 Y0.7585
N11895 X5.1925 Y0.7643
N11900 X5.197 Y0.7703
N11905 X5.1985 Y0.7723
N11910 X5.2029 Y0.7783
N11915 X5.2043 Y0.7804
N11920 X5.2086 Y0.7865
N11925 X5.2099 Y0.7886
N11930 X5.214 Y0.7949
N11935 X5.2153 Y0.797
N11940 X5.2179 Y0.8012
N11945 X5.2192 Y0.8034
N11950 X5.223 Y0.8098 Z-0.0131
N11955 X5.2242 Y0.812
N11960 X5.2278 Y0.8186
N11965 X5.229 Y0.8208
N11970 X5.2325 Y0.8274
N11975 X5.2336 Y0.8296
N11980 X5.2368 Y0.8363
N11985 X5.2379 Y0.8386
N11990 X5.24 Y0.8431
N11995 X5.241 Y0.8454
N12000 X5.2439 Y0.8523
N12005 X5.2449 Y0.8546
N12010 X5.2477 Y0.8615 Z-0.0132
N12015 X5.2486 Y0.8639
N12020 X5.2512 Y0.8709
N12025 X5.252 Y0.8732
N12030 X5.2544 Y0.8803
N12035 X5.2552 Y0.8827
N12040 X5.2567 Y0.8874
N12045 X5.2574 Y0.8898
N12050 X5.2595 Y0.897
N12055 X5.2602 Y0.8994
N12060 X5.2621 Y0.9066
N12065 X5.2627 Y0.9091
N12070 X5.2644 Y0.9163
N12075 X5.2649 Y0.9188
N12080 X5.2659 Y0.9236 Z-0.0133
N12085 X5.2664 Y0.9261
N12090 X5.2678 Y0.9334
N12095 X5.2682 Y0.9359
N12100 X5.2694 Y0.9433
N12105 X5.2698 Y0.9457
N12110 X5.2708 Y0.9532
N12115 X5.2711 Y0.9556
N12120 X5.2719 Y0.9631
N12125 X5.2724 Y0.968
N12130 X5.2726 Y0.9705
N12135 X5.2728 Y0.973
N12140 X5.2732 Y0.9805
N12145 X5.2734 Y0.983
N12150 X5.2736 Y0.9904 Z-0.0134
N12155 X5.2737 Y0.9929
N12160 X5.2738 Y1.0004
N12165 Y1.0029
N12170 Y1.0876 Z-0.0135
N12175 Y1.1723 Z-0.0136
N12180 X5.2737 Y1.257 Z-0.0138
N12185 Y1.3418 Z-0.0139
N12190 Y1.4265 Z-0.014
N12195 Y1.5162 Z-0.0142
N12200 Y1.6059 Z-0.0143
N12205 Y1.6956 Z-0.0145
N12210 Y1.7853 Z-0.0146
N12215 Y1.875 Z-0.0147
N12220 X5.2736 Y1.9647 Z-0.0149
N12225 Y1.9946
N12230 Y1.9996
N12235 Y2.0046
N12240 X5.2735 Y2.0096
N12245 X5.2733 Y2.0145 Z-0.015
N12250 X5.2731 Y2.0195
N12255 X5.2728 Y2.0245
N12260 X5.2724 Y2.0295
N12265 X5.272 Y2.0344
N12270 X5.2715 Y2.0394
N12275 X5.2709 Y2.0443
N12280 X5.2703 Y2.0493
N12285 X5.2696 Y2.0542
N12290 X5.2689 Y2.0591
N12295 X5.2681 Y2.0641
N12300 X5.2672 Y2.069
N12305 X5.2663 Y2.0739
N12310 X5.2653 Y2.0787 Z-0.0151
N12315 X5.2642 Y2.0836
N12320 X5.2631 Y2.0885
N12325 X5.2619 Y2.0933
N12330 X5.2606 Y2.0981
N12335 X5.2593 Y2.1029
N12340 X5.2579 Y2.1077
N12345 X5.2565 Y2.1125
N12350 X5.255 Y2.1172
N12355 X5.2534 Y2.122
N12360 X5.2518 Y2.1267
N12365 X5.2501 Y2.1314
N12370 X5.2484 Y2.1361
N12375 X5.2466 Y2.1407 Z-0.0152
N12380 X5.2447 Y2.1453
N12385 X5.2428 Y2.1499
N12390 X5.2408 Y2.1545
N12395 X5.2387 Y2.159
N12400 X5.2367 Y2.1636
N12405 X5.2345 Y2.168
N12410 X5.2323 Y2.1725
N12415 X5.23 Y2.1769
N12420 X5.2277 Y2.1813
N12425 X5.2253 Y2.1857
N12430 X5.2228 Y2.1901
N12435 X5.2203 Y2.1944
N12440 X5.2178 Y2.1986 Z-0.0153
N12445 X5.2151 Y2.2029
N12450 X5.2125 Y2.2071
N12455 X5.2098 Y2.2113
N12460 X5.207 Y2.2154
N12465 X5.2041 Y2.2195
N12470 X5.2013 Y2.2236
N12475 X5.1983 Y2.2276
N12480 X5.1968 Y2.2296
N12485 X5.1941 Y2.2333
N12490 X5.1939
N12495 X5.1937 Y2.2334
N12500 X5.1934 Y2.2335
N12505 X5.1922 Y2.234
N12510 X5.1909 Y2.2345
N12515 X5.1899 Y2.235
N12520 X5.1888 Y2.2356
N12525 X5.1878 Y2.2362
N12530 X5.1868 Y2.2369
N12535 X5.1859 Y2.2375
N12540 X5.185 Y2.2382
N12545 X5.1834 Y2.2398
N12550 X5.1665 Y2.2567 Z-0.0154
N12555 X5.1314 Y2.2917 Z-0.0155
N12560 X5.1286 Y2.2945
N12565 X5.1278 Y2.2954
N12570 X5.1271 Y2.2963
N12575 X5.1264 Y2.2972
N12580 X5.1258 Y2.2982
N12585 X5.1252 Y2.2993
N12590 X5.1246 Y2.3003
N12595 X5.1241 Y2.3014
N12600 X5.1237 Y2.3025
N12605 X5.1232 Y2.3038
N12610 Y2.304
N12615 X5.1231 Y2.3041
N12620 X5.123 Y2.3043
N12625 X5.1201 Y2.3065
N12630 X5.1161 Y2.3094
N12635 X5.1121 Y2.3124
N12640 X5.108 Y2.3152
N12645 X5.1039 Y2.318
N12650 X5.0997 Y2.3208
N12655 X5.0956 Y2.3235
N12660 X5.0913 Y2.3261
N12665 X5.0871 Y2.3288
N12670 X5.0828 Y2.3313 Z-0.0156
N12675 X5.0785 Y2.3338
N12680 X5.0741 Y2.3362
N12685 X5.0697 Y2.3386
N12690 X5.0653 Y2.3409
N12695 X5.0609 Y2.3431
N12700 X5.0564 Y2.3453
N12705 X5.0519 Y2.3475
N12710 X5.0474 Y2.3496
N12715 X5.0428 Y2.3516
N12720 X5.0382 Y2.3535
N12725 X5.0336 Y2.3554
N12730 X5.029 Y2.3573 Z-0.0157
N12735 X5.0243 Y2.3591
N12740 X5.0197 Y2.3608
N12745 X5.015 Y2.3625
N12750 X5.0103 Y2.3641
N12755 X5.0055 Y2.3656
N12760 X5.0008 Y2.3671
N12765 X4.996 Y2.3685
N12770 X4.9912 Y2.3699
N12775 X4.9864 Y2.3712
N12780 X4.9816 Y2.3724
N12785 X4.9767 Y2.3736
N12790 X4.9718 Y2.3747
N12795 X4.967 Y2.3757 Z-0.0158
N12800 X4.9621 Y2.3767
N12805 X4.9572 Y2.3776
N12810 X4.9523 Y2.3785
N12815 X4.9474 Y2.3793
N12820 X4.9424 Y2.38
N12825 X4.9375 Y2.3806
N12830 X4.9325 Y2.3812
N12835 X4.9276 Y2.3818
N12840 X4.9226 Y2.3822
N12845 X4.9177 Y2.3827
N12850 X4.9127 Y2.383
N12855 X4.9077 Y2.3833
N12860 X4.9027 Y2.3835 Z-0.0159
N12865 X4.8977 Y2.3836
N12870 X4.8928 Y2.3837
N12875 X4.8878
N12880 X3.8911 Z-0.0174
N12885 X3.8861
N12890 X3.8811 Y2.3836
N12895 X3.8761 Y2.3834 Z-0.0175
N12900 X3.8712 Y2.3832
N12905 X3.8662 Y2.3829
N12910 X3.8612 Y2.3826
N12915 X3.8562 Y2.3822
N12920 X3.8513 Y2.3817
N12925 X3.8463 Y2.3811
N12930 X3.8414 Y2.3805
N12935 X3.8364 Y2.3798
N12940 X3.8315 Y2.3791
N12945 X3.8266 Y2.3783
N12950 X3.8217 Y2.3774
N12955 X3.8168 Y2.3765
N12960 X3.8119 Y2.3755 Z-0.0176
N12965 X3.807 Y2.3745
N12970 X3.8022 Y2.3733
N12975 X3.7973 Y2.3722
N12980 X3.7925 Y2.3709
N12985 X3.7877 Y2.3696
N12990 X3.7829 Y2.3683
N12995 X3.7781 Y2.3668
N13000 X3.7734 Y2.3653
N13005 X3.7686 Y2.3638
N13010 X3.7639 Y2.3622
N13015 X3.7592 Y2.3605
N13020 X3.7546 Y2.3588
N13025 X3.7499 Y2.357 Z-0.0177
N13030 X3.7453 Y2.3551
N13035 X3.7407 Y2.3532
N13040 X3.7361 Y2.3512
N13045 X3.7316 Y2.3492
N13050 X3.727 Y2.3471
N13055 X3.7226 Y2.3449
N13060 X3.7181 Y2.3427
N13065 X3.7137 Y2.3405
N13070 X3.7092 Y2.3382
N13075 X3.7049 Y2.3358
N13080 X3.7005 Y2.3333
N13085 X3.6962 Y2.3308
N13090 X3.6919 Y2.3283 Z-0.0178
N13095 X3.6877 Y2.3257
N13100 X3.6835 Y2.323
N13105 X3.6793 Y2.3203
N13110 X3.6751 Y2.3175
N13115 X3.671 Y2.3147
N13120 X3.667 Y2.3118
N13125 X3.6629 Y2.3089
N13130 X3.6589 Y2.3059
N13135 X3.6579 Y2.3051
N13140 X3.6578 Y2.305
N13145 Y2.3048
N13150 X3.6577 Y2.3045
N13155 X3.6575 Y2.3039
N13160 X3.6572 Y2.3026
N13165 X3.6569 Y2.3014
N13170 X3.6565 Y2.3003
N13175 X3.6561 Y2.2992
N13180 X3.6556 Y2.298
N13185 X3.6551 Y2.2969
N13190 X3.6546 Y2.2959
N13195 X3.654 Y2.2948
N13200 X3.6533 Y2.2938
N13205 X3.6527 Y2.2929
N13210 X3.6519 Y2.292
N13215 X3.6512 Y2.2911
N13220 X3.6496 Y2.2895
N13225 X3.6004 Y2.2401 Z-0.018
N13230 X3.5987 Y2.2385
N13235 X3.5979 Y2.2378
N13240 X3.597 Y2.2371
N13245 X3.596 Y2.2364
N13250 X3.595 Y2.2358
N13255 X3.594 Y2.2352
N13260 X3.5929 Y2.2347
N13265 X3.5918 Y2.2342
N13270 X3.5906 Y2.2337
N13275 X3.5895 Y2.2333
N13280 X3.5883 Y2.2329
N13285 X3.5871 Y2.2326
N13290 X3.5859 Y2.2323
N13295 X3.5853 Y2.2321
N13300 X3.585
N13305 X3.5848 Y2.232
N13310 X3.5847 Y2.2319
N13315 X3.5839 Y2.2309
N13320 X3.5809 Y2.2269
N13325 X3.578 Y2.2228
N13330 X3.5751 Y2.2188
N13335 X3.5723 Y2.2147
N13340 X3.5695 Y2.2105
N13345 X3.5668 Y2.2063
N13350 X3.5642 Y2.2021
N13355 X3.5615 Y2.1979
N13360 X3.559 Y2.1936 Z-0.0181
N13365 X3.5565 Y2.1893
N13370 X3.5541 Y2.1849
N13375 X3.5517 Y2.1805
N13380 X3.5494 Y2.1761
N13385 X3.5471 Y2.1717
N13390 X3.5449 Y2.1672
N13395 X3.5427 Y2.1627
N13400 X3.5407 Y2.1582
N13405 X3.5386 Y2.1537
N13410 X3.5366 Y2.1491
N13415 X3.5347 Y2.1445
N13420 X3.5329 Y2.1399
N13425 X3.5311 Y2.1352 Z-0.0182
N13430 X3.5293 Y2.1305
N13435 X3.5277 Y2.1258
N13440 X3.5261 Y2.1211
N13445 X3.5245 Y2.1164
N13450 X3.523 Y2.1116
N13455 X3.5216 Y2.1069
N13460 X3.5202 Y2.1021
N13465 X3.5189 Y2.0973
N13470 X3.5177 Y2.0924
N13475 X3.5165 Y2.0876
N13480 X3.5154 Y2.0827
N13485 X3.5143 Y2.0779 Z-0.0183
N13490 X3.5133 Y2.073
N13495 X3.5124 Y2.0681
N13500 X3.5115 Y2.0632
N13505 X3.5108 Y2.0583
N13510 X3.51 Y2.0533
N13515 X3.5093 Y2.0484
N13520 X3.5087 Y2.0434
N13525 X3.5082 Y2.0385
N13530 X3.5077 Y2.0335
N13535 X3.5073 Y2.0286
N13540 X3.507 Y2.0236
N13545 X3.5067 Y2.0186
N13550 X3.5064 Y2.0136 Z-0.0184
N13555 X3.5063 Y2.0087
N13560 X3.5062 Y2.0037
N13565 X3.5061 Y1.9987
N13570 Y1.002 Z-0.0199
N13575 X3.5062 Y0.997
N13580 X3.5063 Y0.992
N13585 X3.5064 Y0.987 Z-0.02
N13590 X3.5066 Y0.9821
N13595 X3.5069 Y0.9771
N13600 X3.5072 Y0.9721
N13605 X3.5077 Y0.9671
N13610 X3.5081 Y0.9622
N13615 X3.5088 Y0.9557
N13620 X3.5095 Y0.9507
N13625 X3.5101 Y0.9458
N13630 X3.5109 Y0.9409
N13635 X3.5117 Y0.936
N13640 X3.5126 Y0.9311
N13645 X3.5135 Y0.9262
N13650 X3.5145 Y0.9213 Z-0.0201
N13655 X3.5156 Y0.9164
N13660 X3.5167 Y0.9116
N13665 X3.5179 Y0.9067
N13670 X3.5192 Y0.9019
N13675 X3.5205 Y0.8971
N13680 X3.5218 Y0.8923
N13685 X3.5233 Y0.8875
N13690 X3.5248 Y0.8828
N13695 X3.5263 Y0.8781
N13700 X3.528 Y0.8733
N13705 X3.5296 Y0.8687
N13710 X3.5314 Y0.864
N13715 X3.5332 Y0.8593 Z-0.0202
N13720 X3.535 Y0.8547
N13725 X3.537 Y0.8501
N13730 X3.539 Y0.8456
N13735 X3.541 Y0.841
N13740 X3.5431 Y0.8365
N13745 X3.5453 Y0.832
N13750 X3.5475 Y0.8275
N13755 X3.5498 Y0.8231
N13760 X3.5521 Y0.8187
N13765 X3.5545 Y0.8143
N13770 X3.5569 Y0.81
N13775 X3.5594 Y0.8057
N13780 X3.562 Y0.8014 Z-0.0203
N13785 X3.5646 Y0.7972
N13790 X3.5673 Y0.793
N13795 X3.57 Y0.7888
N13800 X3.5728 Y0.7846
N13805 X3.5756 Y0.7805
N13810 X3.5785 Y0.7765
N13815 X3.5814 Y0.7724
N13820 X3.5829 Y0.7704
N13825 X3.5843 Y0.7686
N13830 X3.5844
N13835 X3.5846 Y0.7685
N13840 X3.5859 Y0.7684
N13845 X3.5871 Y0.7682
N13850 X3.5884 Y0.7679
N13855 X3.5896 Y0.7677
N13860 X3.5908 Y0.7673
N13865 X3.5921 Y0.767
N13870 X3.5933 Y0.7665
N13875 X3.5945 Y0.7661
N13880 X3.5956 Y0.7656
N13885 X3.5967 Y0.7651
N13890 X3.5978 Y0.7645
N13895 X3.5989 Y0.7639
N13900 X3.5999 Y0.7632
N13905 X3.6009 Y0.7625
N13910 X3.6018 Y0.7617
N13915 X3.6027 Y0.7609
N13920 X3.628 Y0.7356 Z-0.0204
N13925 X3.6501 Y0.7137 Z-0.0205
N13930 X3.6517 Y0.712
N13935 X3.6524 Y0.7111
N13940 X3.6531 Y0.7102
N13945 X3.6538 Y0.7091
N13950 X3.6544 Y0.7081
N13955 X3.655 Y0.707
N13960 X3.6555 Y0.7059
N13965 X3.656 Y0.7047
N13970 X3.6565 Y0.7035
N13975 X3.6569 Y0.7023
N13980 X3.6572 Y0.7011
N13985 X3.6575 Y0.6999
N13990 X3.6578 Y0.6987
N13995 X3.6581 Y0.6974
N14000 X3.6583 Y0.6961
N14005 X3.6584 Y0.6949
N14010 X3.6585 Y0.6947
N14015 Y0.6945
N14020 Y0.6944
N14025 X3.6592 Y0.6939
N14030 X3.6612 Y0.6924
N14035 X3.6652 Y0.6894
N14040 X3.6693 Y0.6865
N14045 X3.6734 Y0.6837
N14050 X3.6775 Y0.6809
N14055 X3.6816 Y0.6782
N14060 X3.6858 Y0.6755
N14065 X3.6901 Y0.6728
N14070 X3.6943 Y0.6703 Z-0.0206
N14075 X3.6986 Y0.6678
N14080 X3.703 Y0.6653
N14085 X3.7073 Y0.6629
N14090 X3.7117 Y0.6605
N14095 X3.7162 Y0.6582
N14100 X3.7206 Y0.656
N14105 X3.7251 Y0.6538
N14110 X3.7296 Y0.6517
N14115 X3.7341 Y0.6496
N14120 X3.7387 Y0.6477
N14125 X3.7433 Y0.6457
N14130 X3.7479 Y0.6438
N14135 X3.7525 Y0.642 Z-0.0207
N14140 X3.7572 Y0.6403
N14145 X3.7619 Y0.6385
N14150 X3.7666 Y0.6369
N14155 X3.7713 Y0.6353
N14160 X3.7761 Y0.6338
N14165 X3.7808 Y0.6324
N14170 X3.7856 Y0.631
N14175 X3.7904 Y0.6296
N14180 X3.7952 Y0.6284
N14185 X3.8001 Y0.6272
N14190 X3.8049 Y0.626
N14195 X3.8098 Y0.6249
N14200 X3.8147 Y0.6239 Z-0.0208
N14205 X3.8195 Y0.623
N14210 X3.8244 Y0.622
N14215 X3.8294 Y0.6212
N14220 X3.8343 Y0.6204
N14225 X3.8392 Y0.6198
N14230 X3.8442 Y0.6191
N14235 X3.8491 Y0.6186
N14240 X3.8541 Y0.618
N14245 X3.859 Y0.6176
N14250 X3.864 Y0.6172
N14255 X3.869 Y0.6169
N14260 X3.8739 Y0.6167
N14265 X3.8789 Y0.6165 Z-0.0209
N14270 X3.8839 Y0.6163
N14275 X3.8889
N14280 X3.8939
N14285 X4.8854 Z-0.0224
N14290 X4.8904
N14295 X4.8954
N14300 X4.9004 Y0.6165
N14305 X4.9054 Y0.6166
N14310 X4.9103 Y0.6169 Z-0.0225
N14315 X4.9153 Y0.6172
N14320 X4.9203 Y0.6176
N14325 X4.9252 Y0.618
N14330 X4.9302 Y0.6185
N14335 X4.9351 Y0.6191
N14340 X4.9401 Y0.6197
N14345 X4.945 Y0.6204
N14350 X4.9499 Y0.6212
N14355 X4.9549 Y0.622
N14360 X4.9598 Y0.6229
N14365 X4.9647 Y0.6238
N14370 X4.9695 Y0.6248
N14375 X4.9744 Y0.6259 Z-0.0226
N14380 X4.9792 Y0.627
N14385 X4.9841 Y0.6282
N14390 X4.9889 Y0.6295
N14395 X4.9937 Y0.6308
N14400 X4.9985 Y0.6322
N14405 X5.0033 Y0.6337
N14410 X5.008 Y0.6352
N14415 X5.0127 Y0.6368
N14420 X5.0174 Y0.6384
N14425 X5.0221 Y0.6401
N14430 X5.0268 Y0.6418
N14435 X5.0314 Y0.6437
N14440 X5.0361 Y0.6455 Z-0.0227
N14445 X5.0406 Y0.6475
N14450 X5.0452 Y0.6495
N14455 X5.0497 Y0.6515
N14460 X5.0543 Y0.6536
N14465 X5.0587 Y0.6558
N14470 X5.0632 Y0.658
N14475 X5.0676 Y0.6603
N14480 X5.072 Y0.6627
N14485 X5.0764 Y0.6651
N14490 X5.0807 Y0.6675
N14495 X5.085 Y0.67
N14500 X5.0893 Y0.6726
N14505 X5.0935 Y0.6752 Z-0.0228
N14510 X5.0977 Y0.6779
N14515 X5.1019 Y0.6806
N14520 X5.106 Y0.6834
N14525 X5.1101 Y0.6862
N14530 X5.1142 Y0.6892
N14535 X5.1182 Y0.6921
N14540 X5.1222 Y0.6951
N14545 X5.1261 Y0.6981
N14550 X5.13 Y0.7012
N14555 X5.1339 Y0.7044
N14560 X5.1377 Y0.7076
N14565 X5.1415 Y0.7108
N14570 X5.1452 Y0.7141 Z-0.0229
N14575 X5.1489 Y0.7175
N14580 X5.1526 Y0.7209
N14585 X5.1562 Y0.7243
N14590 X5.1597 Y0.7278
N14595 X5.1632 Y0.7313
N14600 X5.1667 Y0.7349
N14605 X5.1701 Y0.7385
N14610 X5.1735 Y0.7422
N14615 X5.1768 Y0.7459
N14620 X5.1801 Y0.7496
N14625 X5.1834 Y0.7534
N14630 X5.1866 Y0.7572 Z-0.023
N14635 X5.1897 Y0.7611
N14640 X5.1928 Y0.765
N14645 X5.1958 Y0.769
N14650 X5.1988 Y0.773
N14655 X5.2017 Y0.777
N14660 X5.2046 Y0.7811
N14665 X5.2074 Y0.7852
N14670 X5.2102 Y0.7894
N14675 X5.2129 Y0.7935
N14680 X5.2155 Y0.7977
N14685 X5.2181 Y0.802
N14690 X5.2207 Y0.8063
N14695 X5.2232 Y0.8106 Z-0.0231
N14700 X5.2256 Y0.8149
N14705 X5.228 Y0.8193
N14710 X5.2303 Y0.8237
N14715 X5.2326 Y0.8281
N14720 X5.2348 Y0.8326
N14725 X5.237 Y0.8371
N14730 X5.239 Y0.8416
N14735 X5.2411 Y0.8462
N14740 X5.243 Y0.8508
N14745 X5.245 Y0.8554
N14750 X5.2468 Y0.86
N14755 X5.2486 Y0.8646
N14760 X5.2504 Y0.8693 Z-0.0232
N14765 X5.252 Y0.874
N14770 X5.2537 Y0.8787
N14775 X5.2552 Y0.8834
N14780 X5.2567 Y0.8882
N14785 X5.2581 Y0.893
N14790 X5.2595 Y0.8978
N14795 X5.2608 Y0.9026
N14800 X5.2621 Y0.9074
N14805 X5.2632 Y0.9122
N14810 X5.2644 Y0.9171
N14815 X5.2654 Y0.922
N14820 X5.2664 Y0.9268
N14825 X5.2673 Y0.9317 Z-0.0233
N14830 X5.2682 Y0.9366
N14835 X5.269 Y0.9416
N14840 X5.2697 Y0.9465
N14845 X5.2704 Y0.9514
N14850 X5.271 Y0.9564
N14855 X5.2716 Y0.9613
N14860 X5.272 Y0.9663
N14865 X5.2725 Y0.9712
N14870 X5.2728 Y0.9762
N14875 X5.2731 Y0.9812
N14880 X5.2733 Y0.9862
N14885 X5.2735 Y0.9911
N14890 X5.2736 Y0.9961 Z-0.0234
N14895 Y1.0011
N14900 Y1.9977 Z-0.0249
N14905 Y2.0026
N14910 X5.2735 Y2.0076
N14915 X5.2734 Y2.0126
N14920 X5.2732 Y2.0176
N14925 X5.2729 Y2.0225
N14930 X5.2726 Y2.0275 Z-0.025
N14935 X5.2721 Y2.0325
N14940 X5.2717 Y2.0374
N14945 X5.2711 Y2.0424
N14950 X5.2706 Y2.0474
N14955 X5.2699 Y2.0523
N14960 X5.2692 Y2.0572
N14965 X5.2684 Y2.0621
N14970 X5.2675 Y2.067
N14975 X5.2666 Y2.0719
N14980 X5.2656 Y2.0768
N14985 X5.2646 Y2.0817
N14990 X5.2635 Y2.0866
N14995 X5.2623 Y2.0914 Z-0.0251
N15000 X5.2611 Y2.0962
N15005 X5.2598 Y2.1011
N15010 X5.2585 Y2.1058
N15015 X5.2571 Y2.1106
N15020 X5.2556 Y2.1154
N15025 X5.2541 Y2.1201
N15030 X5.2524 Y2.1248
N15035 X5.2508 Y2.1295
N15040 X5.2491 Y2.1342
N15045 X5.2473 Y2.1389
N15050 X5.2454 Y2.1435
N15055 X5.2435 Y2.1481
N15060 X5.2416 Y2.1527 Z-0.0252
N15065 X5.2396 Y2.1572
N15070 X5.2375 Y2.1618
N15075 X5.2353 Y2.1663
N15080 X5.2331 Y2.1707
N15085 X5.2309 Y2.1752
N15090 X5.2286 Y2.1796
N15095 X5.2262 Y2.184
N15100 X5.2238 Y2.1883
N15105 X5.2213 Y2.1927
N15110 X5.2188 Y2.197
N15115 X5.2162 Y2.2012
N15120 X5.2135 Y2.2054
N15125 X5.2108 Y2.2096 Z-0.0253
N15130 X5.2081 Y2.2138
N15135 X5.2053 Y2.2179
N15140 X5.2024 Y2.222
N15145 X5.1995 Y2.226
N15150 X5.1965 Y2.23
N15155 X5.1957 Y2.231
N15160 X5.1956 Y2.2311
N15165 X5.1945
N15170 X5.1921
N15175 X5.1908 Y2.2312
N15180 X5.1896 Y2.2313
N15185 X5.1884 Y2.2314
N15190 X5.1871 Y2.2316
N15195 X5.1859 Y2.2318
N15200 X5.1847 Y2.232
N15205 X5.1835 Y2.2323
N15210 X5.1823 Y2.2326
N15215 X5.1811 Y2.2329
N15220 X5.1799 Y2.2333
N15225 X5.1788 Y2.2337
N15230 X5.1776 Y2.2341
N15235 X5.1766 Y2.2346
N15240 X5.1755 Y2.2351
N15245 X5.1745 Y2.2357
N15250 X5.1735 Y2.2363
N15255 X5.1725 Y2.2369
N15260 X5.1716 Y2.2376
N15265 X5.1708 Y2.2384
N15270 X5.17 Y2.2391
N15275 X5.1566 Y2.2524 Z-0.0254
N15280 X5.1291 Y2.2798
N15285 X5.1284 Y2.2806
N15290 X5.1276 Y2.2815
N15295 X5.1269 Y2.2824
N15300 X5.1263 Y2.2833
N15305 X5.1256 Y2.2843
N15310 X5.1251 Y2.2854
N15315 X5.1245 Y2.2864
N15320 X5.124 Y2.2875
N15325 X5.1236 Y2.2887
N15330 X5.1232 Y2.2898
N15335 X5.1228 Y2.291
N15340 X5.1225 Y2.2921 Z-0.0255
N15345 X5.1222 Y2.2933
N15350 X5.1219 Y2.2945
N15355 X5.1217 Y2.2957
N15360 X5.1215 Y2.297
N15365 X5.1213 Y2.2982
N15370 X5.1212 Y2.2994
N15375 X5.1211 Y2.3007
N15380 X5.121 Y2.3019
N15385 Y2.3043
N15390 Y2.3057
N15395 X5.1209 Y2.3059
N15400 X5.1201 Y2.3065
N15405 X5.1161 Y2.3094
N15410 X5.1121 Y2.3124
N15415 X5.108 Y2.3152
N15420 X5.1039 Y2.318
N15425 X5.0997 Y2.3208
N15430 X5.0955 Y2.3235
N15435 X5.0913 Y2.3261
N15440 X5.0871 Y2.3288
N15445 X5.0828 Y2.3313
N15450 X5.0785 Y2.3338 Z-0.0256
N15455 X5.0741 Y2.3362
N15460 X5.0697 Y2.3386
N15465 X5.0653 Y2.3409
N15470 X5.0609 Y2.3431
N15475 X5.0564 Y2.3453
N15480 X5.0519 Y2.3475
N15485 X5.0474 Y2.3496
N15490 X5.0428 Y2.3516
N15495 X5.0382 Y2.3535
N15500 X5.0336 Y2.3554
N15505 X5.029 Y2.3573
N15510 X5.0244 Y2.3591
N15515 X5.0197 Y2.3608 Z-0.0257
N15520 X5.015 Y2.3625
N15525 X5.0103 Y2.3641
N15530 X5.0055 Y2.3656
N15535 X5.0008 Y2.3671
N15540 X4.996 Y2.3685
N15545 X4.9912 Y2.3699
N15550 X4.9864 Y2.3712
N15555 X4.9816 Y2.3724
N15560 X4.9767 Y2.3736
N15565 X4.9719 Y2.3747
N15570 X4.967 Y2.3757
N15575 X4.9621 Y2.3767
N15580 X4.9572 Y2.3776 Z-0.0258
N15585 X4.9523 Y2.3785
N15590 X4.9474 Y2.3792
N15595 X4.9424 Y2.38
N15600 X4.9375 Y2.3806
N15605 X4.9326 Y2.3812
N15610 X4.9276 Y2.3818
N15615 X4.9226 Y2.3822
N15620 X4.9177 Y2.3827
N15625 X4.9127 Y2.383
N15630 X4.9077 Y2.3833
N15635 X4.9028 Y2.3835
N15640 X4.8978 Y2.3836
N15645 X4.8928 Y2.3837 Z-0.0259
N15650 X4.8878
N15655 X3.8913 Z-0.0274
N15660 X3.8863
N15665 X3.8813 Y2.3836
N15670 X3.8763 Y2.3834
N15675 X3.8713 Y2.3832
N15680 X3.8664 Y2.3829
N15685 X3.8614 Y2.3826 Z-0.0275
N15690 X3.8564 Y2.3822
N15695 X3.8515 Y2.3817
N15700 X3.8465 Y2.3812
N15705 X3.8416 Y2.3805
N15710 X3.8366 Y2.3799
N15715 X3.8317 Y2.3791
N15720 X3.8268 Y2.3783
N15725 X3.8219 Y2.3775
N15730 X3.817 Y2.3766
N15735 X3.8121 Y2.3756
N15740 X3.8072 Y2.3745
N15745 X3.8024 Y2.3734
N15750 X3.7975 Y2.3722 Z-0.0276
N15755 X3.7927 Y2.371
N15760 X3.7879 Y2.3697
N15765 X3.7831 Y2.3683
N15770 X3.7783 Y2.3669
N15775 X3.7736 Y2.3654
N15780 X3.7688 Y2.3639
N15785 X3.7641 Y2.3622
N15790 X3.7594 Y2.3606
N15795 X3.7548 Y2.3588
N15800 X3.7501 Y2.357
N15805 X3.7455 Y2.3552
N15810 X3.7409 Y2.3533
N15815 X3.7363 Y2.3513 Z-0.0277
N15820 X3.7318 Y2.3493
N15825 X3.7272 Y2.3472
N15830 X3.7228 Y2.345
N15835 X3.7183 Y2.3428
N15840 X3.7138 Y2.3406
N15845 X3.7094 Y2.3383
N15850 X3.7051 Y2.3359
N15855 X3.7007 Y2.3334
N15860 X3.6964 Y2.3309
N15865 X3.6921 Y2.3284
N15870 X3.6879 Y2.3258
N15875 X3.6836 Y2.3231
N15880 X3.6795 Y2.3204 Z-0.0278
N15885 X3.6753 Y2.3177
N15890 X3.6712 Y2.3148
N15895 X3.6671 Y2.312
N15900 X3.6631 Y2.309
N15905 X3.6591 Y2.3061
N15910 X3.6588 Y2.3059
N15915 Y2.3057
N15920 Y2.3037
N15925 Y2.3013
N15930 X3.6587 Y2.2988
N15935 Y2.2975
N15940 X3.6586 Y2.2963
N15945 X3.6585 Y2.295
N15950 X3.6583 Y2.2938
N15955 X3.6581 Y2.2926
N15960 X3.6579 Y2.2914
N15965 X3.6576 Y2.2902
N15970 X3.6574 Y2.289
N15975 X3.657 Y2.2878
N15980 X3.6567 Y2.2866
N15985 X3.6562 Y2.2855
N15990 X3.6558 Y2.2843
N15995 X3.6553 Y2.2832
N16000 X3.6548 Y2.2821
N16005 X3.6542 Y2.2811
N16010 X3.6536 Y2.2801
N16015 X3.6529 Y2.2791
N16020 X3.6522 Y2.2782
N16025 X3.6515 Y2.2773
N16030 X3.6507 Y2.2765
N16035 X3.628 Y2.2537 Z-0.0279
N16040 X3.614 Y2.2397
N16045 X3.6123 Y2.2381
N16050 X3.6115 Y2.2374
N16055 X3.6105 Y2.2367
N16060 X3.6095 Y2.236
N16065 X3.6085 Y2.2354
N16070 X3.6074 Y2.2349
N16075 X3.6063 Y2.2344
N16080 X3.6052 Y2.2339
N16085 X3.6041 Y2.2335
N16090 X3.6029 Y2.2331
N16095 X3.6017 Y2.2327
N16100 X3.6005 Y2.2324
N16105 X3.5993 Y2.2321
N16110 X3.5981 Y2.2319 Z-0.028
N16115 X3.5969 Y2.2317
N16120 X3.5957 Y2.2315
N16125 X3.5945 Y2.2313
N16130 X3.5932 Y2.2312
N16135 X3.592
N16140 X3.587 Y2.2311
N16145 X3.5842
N16150 X3.5841
N16155 X3.5828 Y2.2295
N16160 X3.5799 Y2.2254
N16165 X3.577 Y2.2214
N16170 X3.5741 Y2.2173
N16175 X3.5713 Y2.2132
N16180 X3.5686 Y2.209
N16185 X3.5659 Y2.2049
N16190 X3.5632 Y2.2006
N16195 X3.5606 Y2.1964
N16200 X3.5581 Y2.1921
N16205 X3.5556 Y2.1877 Z-0.0281
N16210 X3.5532 Y2.1834
N16215 X3.5509 Y2.179
N16220 X3.5486 Y2.1746
N16225 X3.5463 Y2.1701
N16230 X3.5441 Y2.1657
N16235 X3.542 Y2.1611
N16240 X3.5399 Y2.1566
N16245 X3.5379 Y2.1521
N16250 X3.536 Y2.1475
N16255 X3.5341 Y2.1429
N16260 X3.5322 Y2.1382
N16265 X3.5305 Y2.1336
N16270 X3.5287 Y2.1289 Z-0.0282
N16275 X3.5271 Y2.1242
N16280 X3.5255 Y2.1195
N16285 X3.524 Y2.1147
N16290 X3.5225 Y2.11
N16295 X3.5211 Y2.1052
N16300 X3.5198 Y2.1004
N16305 X3.5185 Y2.0956
N16310 X3.5173 Y2.0907
N16315 X3.5161 Y2.0859
N16320 X3.515 Y2.081
N16325 X3.514 Y2.0762
N16330 X3.513 Y2.0713
N16335 X3.5121 Y2.0664 Z-0.0283
N16340 X3.5113 Y2.0615
N16345 X3.5105 Y2.0565
N16350 X3.5098 Y2.0516
N16355 X3.5091 Y2.0467
N16360 X3.5086 Y2.0417
N16365 X3.508 Y2.0368
N16370 X3.5076 Y2.0318
N16375 X3.5072 Y2.0268
N16380 X3.5069 Y2.0219
N16385 X3.5066 Y2.0169
N16390 X3.5064 Y2.0119
N16395 X3.5062 Y2.0069
N16400 Y2.002 Z-0.0284
N16405 X3.5061 Y1.997
N16410 Y1.0054 Z-0.0299
N16415 Y1.0004
N16420 X3.5062 Y0.9954
N16425 X3.5063 Y0.9905
N16430 X3.5065 Y0.9855
N16435 X3.5067 Y0.9805
N16440 X3.507 Y0.9755
N16445 X3.5074 Y0.9706 Z-0.03
N16450 X3.5078 Y0.9656
N16455 X3.5083 Y0.9606
N16460 X3.5088 Y0.9557
N16465 X3.5095 Y0.9507
N16470 X3.5101 Y0.9458
N16475 X3.5106 Y0.9428
N16480 X3.5114 Y0.9379
N16485 X3.5122 Y0.933
N16490 X3.5131 Y0.9281
N16495 X3.5141 Y0.9232
N16500 X3.5152 Y0.9183
N16505 X3.5163 Y0.9135
N16510 X3.5174 Y0.9086 Z-0.0301
N16515 X3.5187 Y0.9038
N16520 X3.5199 Y0.899
N16525 X3.5213 Y0.8942
N16530 X3.5227 Y0.8894
N16535 X3.5242 Y0.8846
N16540 X3.5257 Y0.8799
N16545 X3.5273 Y0.8752
N16550 X3.529 Y0.8705
N16555 X3.5307 Y0.8658
N16560 X3.5325 Y0.8612
N16565 X3.5343 Y0.8565
N16570 X3.5362 Y0.8519
N16575 X3.5382 Y0.8473 Z-0.0302
N16580 X3.5402 Y0.8428
N16585 X3.5423 Y0.8383
N16590 X3.5444 Y0.8338
N16595 X3.5466 Y0.8293
N16600 X3.5489 Y0.8248
N16605 X3.5512 Y0.8204
N16610 X3.5535 Y0.816
N16615 X3.556 Y0.8117
N16620 X3.5584 Y0.8074
N16625 X3.561 Y0.8031
N16630 X3.5636 Y0.7988
N16635 X3.5662 Y0.7946
N16640 X3.5689 Y0.7904 Z-0.0303
N16645 X3.5717 Y0.7863
N16650 X3.5745 Y0.7822
N16655 X3.5773 Y0.7781
N16660 X3.5803 Y0.774
N16665 X3.5832 Y0.77
N16670 X3.584 Y0.769
N16675 X3.5841 Y0.7689
N16680 X3.5853
N16685 X3.5926
N16690 X3.5951 Y0.7688
N16695 X3.5964
N16700 X3.5976 Y0.7687
N16705 X3.5989 Y0.7685
N16710 X3.6001 Y0.7684
N16715 X3.6013 Y0.7682
N16720 X3.6026 Y0.7679
N16725 X3.6038 Y0.7676
N16730 X3.6051 Y0.7673
N16735 X3.6063 Y0.7669
N16740 X3.6075 Y0.7665
N16745 X3.6095 Y0.7657
N16750 X3.6105 Y0.7653
N16755 X3.6114 Y0.7648
N16760 X3.6131 Y0.7639
N16765 X3.6139 Y0.7634
N16770 X3.6147 Y0.7628
N16775 X3.6155 Y0.7621
N16780 X3.6163 Y0.7614
N16785 X3.6512 Y0.7266 Z-0.0304
N16790 X3.6519 Y0.7258
N16795 X3.6526 Y0.725
N16800 X3.6532 Y0.7242
N16805 X3.6537 Y0.7234
N16810 X3.6542 Y0.7226
N16815 X3.6547 Y0.7217
N16820 X3.6552 Y0.7208
N16825 X3.6556 Y0.7198
N16830 X3.656 Y0.7189
N16835 X3.6564 Y0.7179
N16840 X3.6568 Y0.7167
N16845 X3.6572 Y0.7154
N16850 X3.6575 Y0.7142
N16855 X3.6578 Y0.7129
N16860 X3.658 Y0.7117
N16865 X3.6582 Y0.7104 Z-0.0305
N16870 X3.6584 Y0.7092
N16875 X3.6586 Y0.7079
N16880 X3.6587 Y0.7067
N16885 Y0.7054
N16890 X3.6588 Y0.703
N16895 Y0.6943
N16900 Y0.6942
N16905 X3.6597 Y0.6935
N16910 X3.6637 Y0.6905
N16915 X3.6678 Y0.6876
N16920 X3.6719 Y0.6847
N16925 X3.676 Y0.6819
N16930 X3.6801 Y0.6792
N16935 X3.6843 Y0.6764
N16940 X3.6885 Y0.6738
N16945 X3.6928 Y0.6712
N16950 X3.6971 Y0.6687
N16955 X3.7014 Y0.6662 Z-0.0306
N16960 X3.7057 Y0.6638
N16965 X3.7101 Y0.6614
N16970 X3.7145 Y0.6591
N16975 X3.719 Y0.6568
N16980 X3.7234 Y0.6546
N16985 X3.7279 Y0.6525
N16990 X3.7325 Y0.6504
N16995 X3.737 Y0.6484
N17000 X3.7416 Y0.6464
N17005 X3.7462 Y0.6445
N17010 X3.7508 Y0.6427
N17015 X3.7555 Y0.6409
N17020 X3.7602 Y0.6392 Z-0.0307
N17025 X3.7649 Y0.6375
N17030 X3.7696 Y0.6359
N17035 X3.7743 Y0.6344
N17040 X3.7791 Y0.6329
N17045 X3.7839 Y0.6315
N17050 X3.7886 Y0.6301
N17055 X3.7935 Y0.6288
N17060 X3.7983 Y0.6276
N17065 X3.8031 Y0.6264
N17070 X3.808 Y0.6253
N17075 X3.8129 Y0.6243
N17080 X3.8177 Y0.6233
N17085 X3.8226 Y0.6224 Z-0.0308
N17090 X3.8275 Y0.6215
N17095 X3.8325 Y0.6207
N17100 X3.8374 Y0.62
N17105 X3.8423 Y0.6193
N17110 X3.8473 Y0.6188
N17115 X3.8522 Y0.6182
N17120 X3.8572 Y0.6178
N17125 X3.8622 Y0.6173
N17130 X3.8671 Y0.617
N17135 X3.8721 Y0.6167
N17140 X3.8771 Y0.6165
N17145 X3.8821 Y0.6164
N17150 X3.887 Y0.6163 Z-0.0309
N17155 X3.892
N17160 X4.8885 Z-0.0324
N17165 X4.8935
N17170 X4.8985 Y0.6164
N17175 X4.9035 Y0.6166
N17180 X4.9084 Y0.6168
N17185 X4.9134 Y0.6171
N17190 X4.9184 Y0.6174 Z-0.0325
N17195 X4.9233 Y0.6178
N17200 X4.9283 Y0.6183
N17205 X4.9332 Y0.6189
N17210 X4.9382 Y0.6195
N17215 X4.9431 Y0.6201
N17220 X4.9481 Y0.6209
N17225 X4.953 Y0.6217
N17230 X4.9579 Y0.6225
N17235 X4.9628 Y0.6234
N17240 X4.9677 Y0.6244
N17245 X4.9725 Y0.6255
N17250 X4.9774 Y0.6266
N17255 X4.9822 Y0.6278 Z-0.0326
N17260 X4.9871 Y0.629
N17265 X4.9919 Y0.6303
N17270 X4.9967 Y0.6317
N17275 X5.0014 Y0.6331
N17280 X5.0062 Y0.6346
N17285 X5.0109 Y0.6361
N17290 X5.0156 Y0.6378
N17295 X5.0203 Y0.6394
N17300 X5.025 Y0.6412
N17305 X5.0296 Y0.643
N17310 X5.0343 Y0.6448
N17315 X5.0389 Y0.6467
N17320 X5.0435 Y0.6487 Z-0.0327
N17325 X5.048 Y0.6507
N17330 X5.0525 Y0.6528
N17335 X5.057 Y0.655
N17340 X5.0615 Y0.6572
N17345 X5.0659 Y0.6594
N17350 X5.0703 Y0.6617
N17355 X5.0747 Y0.6641
N17360 X5.0791 Y0.6666
N17365 X5.0834 Y0.6691
N17370 X5.0877 Y0.6716
N17375 X5.0919 Y0.6742
N17380 X5.0961 Y0.6769
N17385 X5.1003 Y0.6796 Z-0.0328
N17390 X5.1044 Y0.6823
N17395 X5.1085 Y0.6852
N17400 X5.1126 Y0.688
N17405 X5.1167 Y0.691
N17410 X5.1207 Y0.6939
N17415 X5.1246 Y0.697
N17420 X5.1285 Y0.7
N17425 X5.1324 Y0.7032
N17430 X5.1362 Y0.7063
N17435 X5.14 Y0.7096
N17440 X5.1438 Y0.7129
N17445 X5.1475 Y0.7162
N17450 X5.1512 Y0.7196 Z-0.0329
N17455 X5.1548 Y0.723
N17460 X5.1584 Y0.7264
N17465 X5.1619 Y0.7299
N17470 X5.1654 Y0.7335
N17475 X5.1688 Y0.7371
N17480 X5.1722 Y0.7408
N17485 X5.1756 Y0.7444
N17490 X5.1789 Y0.7482
N17495 X5.1821 Y0.752
N17500 X5.1853 Y0.7558
N17505 X5.1885 Y0.7596
N17510 X5.1916 Y0.7635
N17515 X5.1946 Y0.7675 Z-0.033
N17520 X5.1976 Y0.7714
N17525 X5.2006 Y0.7755
N17530 X5.2035 Y0.7795
N17535 X5.2063 Y0.7836
N17540 X5.2091 Y0.7877
N17545 X5.2118 Y0.7919
N17550 X5.2145 Y0.7961
N17555 X5.2171 Y0.8003
N17560 X5.2197 Y0.8046
N17565 X5.2222 Y0.8089
N17570 X5.2247 Y0.8132
N17575 X5.2271 Y0.8176
N17580 X5.2294 Y0.822 Z-0.0331
N17585 X5.2317 Y0.8264
N17590 X5.2339 Y0.8309
N17595 X5.2361 Y0.8354
N17600 X5.2382 Y0.8399
N17605 X5.2403 Y0.8444
N17610 X5.2423 Y0.849
N17615 X5.2442 Y0.8536
N17620 X5.2461 Y0.8582
N17625 X5.2479 Y0.8628
N17630 X5.2497 Y0.8675
N17635 X5.2514 Y0.8722
N17640 X5.253 Y0.8769
N17645 X5.2546 Y0.8816 Z-0.0332
N17650 X5.2561 Y0.8863
N17655 X5.2576 Y0.8911
N17660 X5.259 Y0.8959
N17665 X5.2603 Y0.9007
N17670 X5.2616 Y0.9055
N17675 X5.2628 Y0.9103
N17680 X5.2639 Y0.9152
N17685 X5.265 Y0.9201
N17690 X5.266 Y0.9249
N17695 X5.267 Y0.9298
N17700 X5.2679 Y0.9347
N17705 X5.2687 Y0.9396
N17710 X5.2695 Y0.9446 Z-0.0333
N17715 X5.2701 Y0.9495
N17720 X5.2708 Y0.9544
N17725 X5.2713 Y0.9594
N17730 X5.2719 Y0.9643
N17735 X5.2723 Y0.9693
N17740 X5.2727 Y0.9743
N17745 X5.273 Y0.9793
N17750 X5.2732 Y0.9842
N17755 X5.2734 Y0.9892
N17760 X5.2735 Y0.9942
N17765 X5.2736 Y0.9992
N17770 Y1.0042
N17775 Y1.9956 Z-0.0349
N17780 Y2.0006
N17785 X5.2735 Y2.0056
N17790 X5.2734 Y2.0106
N17795 X5.2732 Y2.0156
N17800 X5.273 Y2.0205
N17805 X5.2727 Y2.0255
N17810 X5.2723 Y2.0305
N17815 X5.2719 Y2.0355
N17820 X5.2714 Y2.0404 Z-0.035
N17825 X5.2708 Y2.0454
N17830 X5.2702 Y2.0503
N17835 X5.2695 Y2.0552
N17840 X5.2687 Y2.0602
N17845 X5.2679 Y2.0651
N17850 X5.267 Y2.07
N17855 X5.2661 Y2.0749
N17860 X5.265 Y2.0797
N17865 X5.264 Y2.0846
N17870 X5.2628 Y2.0895
N17875 X5.2616 Y2.0943
N17880 X5.2603 Y2.0991
N17885 X5.259 Y2.1039 Z-0.0351
N17890 X5.2576 Y2.1087
N17895 X5.2562 Y2.1135
N17900 X5.2547 Y2.1182
N17905 X5.2531 Y2.1229
N17910 X5.2515 Y2.1276
N17915 X5.2498 Y2.1323
N17920 X5.248 Y2.137
N17925 X5.2462 Y2.1416
N17930 X5.2443 Y2.1463
N17935 X5.2424 Y2.1508
N17940 X5.2404 Y2.1554
N17945 X5.2383 Y2.1599
N17950 X5.2362 Y2.1645 Z-0.0352
N17955 X5.234 Y2.1689
N17960 X5.2318 Y2.1734
N17965 X5.2295 Y2.1778
N17970 X5.2272 Y2.1822
N17975 X5.2248 Y2.1866
N17980 X5.2223 Y2.1909
N17985 X5.2198 Y2.1952
N17990 X5.2172 Y2.1995
N17995 X5.2146 Y2.2037
N18000 X5.2119 Y2.2079
N18005 X5.2092 Y2.2121
N18010 X5.2064 Y2.2162
N18015 X5.2036 Y2.2203 Z-0.0353
N18020 X5.2007 Y2.2244
N18025 X5.1978 Y2.2284
N18030 X5.1957 Y2.2311
N18035 X5.1956
N18040 X5.1941
N18045 X5.1841
N18050 X5.1792
N18055 X5.1779
N18060 X5.1767 Y2.2312
N18065 X5.1754 Y2.2313
N18070 X5.1742 Y2.2314
N18075 X5.173 Y2.2316
N18080 X5.1718 Y2.2318
N18085 X5.1706 Y2.232
N18090 X5.1694 Y2.2323
N18095 X5.1682 Y2.2325
N18100 X5.1671 Y2.2329
N18105 X5.166 Y2.2333
N18110 X5.165 Y2.2338
N18115 X5.164 Y2.2344
N18120 X5.163 Y2.2351
N18125 X5.1621 Y2.2359
N18130 X5.1612 Y2.2367
N18135 X5.1295 Y2.2684 Z-0.0354
N18140 X5.126 Y2.2719
N18145 X5.1252 Y2.2728
N18150 X5.1245 Y2.2737
N18155 X5.1239 Y2.2747
N18160 X5.1234 Y2.2757
N18165 X5.1229 Y2.2768
N18170 X5.1225 Y2.2779
N18175 X5.1222 Y2.2791
N18180 X5.1219 Y2.2802
N18185 X5.1217 Y2.2814
N18190 X5.1215 Y2.2827
N18195 X5.1213 Y2.2839
N18200 X5.1212 Y2.2851
N18205 X5.1211 Y2.2863
N18210 X5.121 Y2.2876
N18215 Y2.2901
N18220 Y2.3057 Z-0.0355
N18225 X5.1209 Y2.3059
N18230 X5.1195 Y2.3069
N18235 X5.1176 Y2.3083
N18240 X5.1136 Y2.3113
N18245 X5.1096 Y2.3142
N18250 X5.1054 Y2.317
N18255 X5.1013 Y2.3198
N18260 X5.0971 Y2.3225
N18265 X5.0929 Y2.3252
N18270 X5.0887 Y2.3278
N18275 X5.0844 Y2.3303
N18280 X5.0801 Y2.3328
N18285 X5.0758 Y2.3353
N18290 X5.0714 Y2.3377 Z-0.0356
N18295 X5.067 Y2.34
N18300 X5.0626 Y2.3423
N18305 X5.0581 Y2.3445
N18310 X5.0536 Y2.3467
N18315 X5.0491 Y2.3488
N18320 X5.0446 Y2.3508
N18325 X5.04 Y2.3528
N18330 X5.0354 Y2.3547
N18335 X5.0308 Y2.3566
N18340 X5.0261 Y2.3584
N18345 X5.0215 Y2.3601
N18350 X5.0168 Y2.3618
N18355 X5.0121 Y2.3635 Z-0.0357
N18360 X5.0073 Y2.365
N18365 X5.0026 Y2.3665
N18370 X4.9978 Y2.368
N18375 X4.993 Y2.3694
N18380 X4.9882 Y2.3707
N18385 X4.9834 Y2.3719
N18390 X4.9786 Y2.3731
N18395 X4.9737 Y2.3743
N18400 X4.9689 Y2.3753
N18405 X4.964 Y2.3763
N18410 X4.9591 Y2.3773
N18415 X4.9542 Y2.3782
N18420 X4.9493 Y2.3789 Z-0.0358
N18425 X4.9443 Y2.3797
N18430 X4.9394 Y2.3804
N18435 X4.9345 Y2.381
N18440 X4.9295 Y2.3816
N18445 X4.9245 Y2.3821
N18450 X4.9196 Y2.3825
N18455 X4.9146 Y2.3829
N18460 X4.9096 Y2.3832
N18465 X4.9047 Y2.3834
N18470 X4.8997 Y2.3836
N18475 X4.8947 Y2.3837
N18480 X4.8897
N18485 X4.8847 Z-0.0359
N18490 X3.8932 Z-0.0374
N18495 X3.8883
N18500 X3.8833 Y2.3836
N18505 X3.8783 Y2.3835
N18510 X3.8733 Y2.3833
N18515 X3.8683 Y2.3831
N18520 X3.8634 Y2.3827
N18525 X3.8584 Y2.3823
N18530 X3.8534 Y2.3819 Z-0.0375
N18535 X3.8485 Y2.3814
N18540 X3.8435 Y2.3808
N18545 X3.8386 Y2.3801
N18550 X3.8337 Y2.3795
N18555 X3.8287 Y2.3787
N18560 X3.8238 Y2.3778
N18565 X3.8189 Y2.3769
N18570 X3.814 Y2.376
N18575 X3.8092 Y2.3749
N18580 X3.8043 Y2.3739
N18585 X3.7995 Y2.3727
N18590 X3.7946 Y2.3715
N18595 X3.7898 Y2.3702 Z-0.0376
N18600 X3.785 Y2.3689
N18605 X3.7802 Y2.3675
N18610 X3.7755 Y2.366
N18615 X3.7707 Y2.3645
N18620 X3.766 Y2.3629
N18625 X3.7613 Y2.3613
N18630 X3.7566 Y2.3595
N18635 X3.752 Y2.3578
N18640 X3.7473 Y2.3559
N18645 X3.7427 Y2.3541
N18650 X3.7381 Y2.3521
N18655 X3.7336 Y2.3501
N18660 X3.729 Y2.348 Z-0.0377
N18665 X3.7245 Y2.3459
N18670 X3.7201 Y2.3437
N18675 X3.7156 Y2.3415
N18680 X3.7112 Y2.3392
N18685 X3.7068 Y2.3368
N18690 X3.7024 Y2.3344
N18695 X3.6981 Y2.3319
N18700 X3.6938 Y2.3294
N18705 X3.6896 Y2.3268
N18710 X3.6853 Y2.3242
N18715 X3.6811 Y2.3215
N18720 X3.677 Y2.3188
N18725 X3.6729 Y2.316 Z-0.0378
N18730 X3.6688 Y2.3131
N18735 X3.6647 Y2.3102
N18740 X3.6607 Y2.3073
N18745 X3.6588 Y2.3059
N18750 Y2.3057
N18755 Y2.2883
N18760 Y2.2858
N18765 X3.6587 Y2.2846
N18770 Y2.2833
N18775 X3.6586 Y2.2821
N18780 X3.6585 Y2.2809
N18785 X3.6583 Y2.2796
N18790 X3.6581 Y2.2784
N18795 X3.6577 Y2.2772
N18800 X3.6573 Y2.2761
N18805 X3.6568 Y2.275
N18810 X3.6562 Y2.2739
N18815 X3.6555 Y2.2729
N18820 X3.6547 Y2.272
N18825 X3.6538 Y2.2711
N18830 X3.6459 Y2.2631 Z-0.0379
N18835 X3.6186 Y2.2358
N18840 X3.6177 Y2.235
N18845 X3.6168 Y2.2342
N18850 X3.6157 Y2.2336
N18855 X3.6147 Y2.233
N18860 X3.6135 Y2.2325
N18865 X3.6124 Y2.2321
N18870 X3.6112 Y2.2317
N18875 X3.61 Y2.2315
N18880 X3.6088 Y2.2314
N18885 X3.6075 Y2.2313
N18890 X3.6063 Y2.2312
N18895 X3.6038 Y2.2311
N18900 X3.5842 Z-0.038
N18905 X3.5841
N18910 X3.584 Y2.2309
N18915 X3.581 Y2.227
N18920 X3.578 Y2.2229
N18925 X3.5752 Y2.2189
N18930 X3.5723 Y2.2147
N18935 X3.5696 Y2.2106
N18940 X3.5669 Y2.2064
N18945 X3.5642 Y2.2022
N18950 X3.5616 Y2.198
N18955 X3.5591 Y2.1937
N18960 X3.5566 Y2.1894
N18965 X3.5541 Y2.185 Z-0.0381
N18970 X3.5517 Y2.1806
N18975 X3.5494 Y2.1762
N18980 X3.5471 Y2.1718
N18985 X3.545 Y2.1673
N18990 X3.5428 Y2.1628
N18995 X3.5407 Y2.1583
N19000 X3.5387 Y2.1538
N19005 X3.5367 Y2.1492
N19010 X3.5348 Y2.1446
N19015 X3.5329 Y2.14
N19020 X3.5311 Y2.1353
N19025 X3.5294 Y2.1307
N19030 X3.5277 Y2.126 Z-0.0382
N19035 X3.5261 Y2.1212
N19040 X3.5246 Y2.1165
N19045 X3.5231 Y2.1118
N19050 X3.5216 Y2.107
N19055 X3.5202 Y2.1022
N19060 X3.519 Y2.0974
N19065 X3.5177 Y2.0926
N19070 X3.5165 Y2.0877
N19075 X3.5154 Y2.0829
N19080 X3.5144 Y2.078
N19085 X3.5134 Y2.0731
N19090 X3.5124 Y2.0682
N19095 X3.5116 Y2.0633 Z-0.0383
N19100 X3.5108 Y2.0584
N19105 X3.51 Y2.0535
N19110 X3.5094 Y2.0485
N19115 X3.5088 Y2.0436
N19120 X3.5082 Y2.0386
N19125 X3.5077 Y2.0337
N19130 X3.5073 Y2.0287
N19135 X3.507 Y2.0237
N19140 X3.5067 Y2.0188
N19145 X3.5065 Y2.0138
N19150 X3.5063 Y2.0088
N19155 X3.5062 Y2.0038
N19160 X3.5061 Y1.9988 Z-0.0384
N19165 Y1.0024 Z-0.0399
N19170 X3.5062 Y0.9974
N19175 Y0.9924
N19180 X3.5064 Y0.9874
N19185 X3.5066 Y0.9824
N19190 X3.5069 Y0.9775
N19195 X3.5072 Y0.9725
N19200 X3.5076 Y0.9675
N19205 X3.5081 Y0.9626 Z-0.04
N19210 X3.5086 Y0.9576
N19215 X3.5092 Y0.9527
N19220 X3.5099 Y0.9477
N19225 X3.5106 Y0.9428
N19230 X3.5114 Y0.9379
N19235 X3.5119 Y0.935
N19240 X3.5128 Y0.9301
N19245 X3.5137 Y0.9252
N19250 X3.5147 Y0.9203
N19255 X3.5158 Y0.9154
N19260 X3.5169 Y0.9106
N19265 X3.5181 Y0.9057
N19270 X3.5194 Y0.9009 Z-0.0401
N19275 X3.5207 Y0.8961
N19280 X3.5221 Y0.8913
N19285 X3.5236 Y0.8866
N19290 X3.5251 Y0.8818
N19295 X3.5267 Y0.8771
N19300 X3.5283 Y0.8724
N19305 X3.53 Y0.8677
N19310 X3.5317 Y0.863
N19315 X3.5336 Y0.8584
N19320 X3.5354 Y0.8538
N19325 X3.5374 Y0.8492
N19330 X3.5394 Y0.8446
N19335 X3.5414 Y0.8401 Z-0.0402
N19340 X3.5435 Y0.8356
N19345 X3.5457 Y0.8311
N19350 X3.5479 Y0.8266
N19355 X3.5502 Y0.8222
N19360 X3.5526 Y0.8178
N19365 X3.555 Y0.8135
N19370 X3.5574 Y0.8091
N19375 X3.5599 Y0.8048
N19380 X3.5625 Y0.8006
N19385 X3.5651 Y0.7963
N19390 X3.5678 Y0.7921
N19395 X3.5705 Y0.7879
N19400 X3.5733 Y0.7838 Z-0.0403
N19405 X3.5762 Y0.7797
N19410 X3.5791 Y0.7757
N19415 X3.582 Y0.7716
N19420 X3.584 Y0.769
N19425 X3.5842 Y0.7689
N19430 X3.5856
N19435 X3.6055
N19440 X3.608
N19445 X3.6093 Y0.7688
N19450 X3.6105 Y0.7686
N19455 X3.6117 Y0.7684
N19460 X3.6129 Y0.768
N19465 X3.6141 Y0.7676
N19470 X3.6152 Y0.767
N19475 X3.6163 Y0.7664
N19480 X3.6173 Y0.7657
N19485 X3.6182 Y0.7649
N19490 X3.6191 Y0.764
N19495 X3.6508 Y0.7323 Z-0.0404
N19500 X3.6544 Y0.7288
N19505 X3.6552 Y0.7278
N19510 X3.6559 Y0.7268
N19515 X3.6566 Y0.7258
N19520 X3.6572 Y0.7247
N19525 X3.6577 Y0.7235
N19530 X3.6581 Y0.7224
N19535 X3.6584 Y0.7212
N19540 X3.6586 Y0.7199
N19545 X3.6587 Y0.7187
N19550 X3.6588 Y0.7175
N19555 Y0.6944 Z-0.0405
N19560 Y0.6942
N19565 X3.6602 Y0.6931
N19570 X3.6621 Y0.6917
N19575 X3.6661 Y0.6888
N19580 X3.6702 Y0.6859
N19585 X3.6743 Y0.6831
N19590 X3.6784 Y0.6803
N19595 X3.6826 Y0.6776
N19600 X3.6868 Y0.6749
N19605 X3.691 Y0.6723
N19610 X3.6953 Y0.6697
N19615 X3.6996 Y0.6672
N19620 X3.7039 Y0.6648 Z-0.0406
N19625 X3.7083 Y0.6624
N19630 X3.7127 Y0.66
N19635 X3.7171 Y0.6577
N19640 X3.7216 Y0.6555
N19645 X3.7261 Y0.6533
N19650 X3.7306 Y0.6513
N19655 X3.7351 Y0.6492
N19660 X3.7397 Y0.6472
N19665 X3.7443 Y0.6453
N19670 X3.7489 Y0.6434
N19675 X3.7536 Y0.6416
N19680 X3.7582 Y0.6399
N19685 X3.7629 Y0.6382 Z-0.0407
N19690 X3.7676 Y0.6366
N19695 X3.7724 Y0.635
N19700 X3.7771 Y0.6335
N19705 X3.7819 Y0.632
N19710 X3.7867 Y0.6307
N19715 X3.7915 Y0.6293
N19720 X3.7963 Y0.6281
N19725 X3.8011 Y0.6269
N19730 X3.806 Y0.6257
N19735 X3.8109 Y0.6247
N19740 X3.8157 Y0.6237
N19745 X3.8206 Y0.6228
N19750 X3.8255 Y0.6219 Z-0.0408
N19755 X3.8305 Y0.6211
N19760 X3.8354 Y0.6203
N19765 X3.8403 Y0.6196
N19770 X3.8453 Y0.619
N19775 X3.8502 Y0.6184
N19780 X3.8552 Y0.6179
N19785 X3.8601 Y0.6175
N19790 X3.8651 Y0.6171
N19795 X3.8701 Y0.6168
N19800 X3.875 Y0.6166
N19805 X3.88 Y0.6164
N19810 X3.885 Y0.6163
N19815 X3.89 Z-0.0409
N19820 X3.895
N19825 X4.8865 Z-0.0424
N19830 X4.8915
N19835 X4.8964 Y0.6164
N19840 X4.9014 Y0.6165
N19845 X4.9064 Y0.6167
N19850 X4.9114 Y0.6169
N19855 X4.9163 Y0.6173
N19860 X4.9213 Y0.6177 Z-0.0425
N19865 X4.9263 Y0.6181
N19870 X4.9312 Y0.6186
N19875 X4.9362 Y0.6192
N19880 X4.9411 Y0.6199
N19885 X4.9461 Y0.6205
N19890 X4.951 Y0.6213
N19895 X4.9559 Y0.6222
N19900 X4.9608 Y0.6231
N19905 X4.9657 Y0.624
N19910 X4.9706 Y0.6251
N19915 X4.9754 Y0.6261
N19920 X4.9803 Y0.6273
N19925 X4.9851 Y0.6285 Z-0.0426
N19930 X4.9899 Y0.6298
N19935 X4.9947 Y0.6311
N19940 X4.9995 Y0.6325
N19945 X5.0042 Y0.634
N19950 X5.009 Y0.6355
N19955 X5.0137 Y0.6371
N19960 X5.0184 Y0.6387
N19965 X5.0231 Y0.6405
N19970 X5.0278 Y0.6422
N19975 X5.0324 Y0.6441
N19980 X5.037 Y0.6459
N19985 X5.0416 Y0.6479
N19990 X5.0462 Y0.6499 Z-0.0427
N19995 X5.0507 Y0.652
N20000 X5.0552 Y0.6541
N20005 X5.0597 Y0.6563
N20010 X5.0641 Y0.6585
N20015 X5.0685 Y0.6608
N20020 X5.0729 Y0.6632
N20025 X5.0773 Y0.6656
N20030 X5.0816 Y0.668
N20035 X5.0859 Y0.6706
N20040 X5.0902 Y0.6731
N20045 X5.0944 Y0.6758
N20050 X5.0986 Y0.6785
N20055 X5.1028 Y0.6812 Z-0.0428
N20060 X5.1069 Y0.684
N20065 X5.111 Y0.6868
N20070 X5.115 Y0.6898
N20075 X5.119 Y0.6927
N20080 X5.123 Y0.6957
N20085 X5.1269 Y0.6988
N20090 X5.1308 Y0.7019
N20095 X5.1347 Y0.705
N20100 X5.1385 Y0.7083
N20105 X5.1423 Y0.7115
N20110 X5.146 Y0.7148
N20115 X5.1497 Y0.7182
N20120 X5.1533 Y0.7216 Z-0.0429
N20125 X5.1569 Y0.725
N20130 X5.1605 Y0.7285
N20135 X5.164 Y0.7321
N20140 X5.1674 Y0.7356
N20145 X5.1708 Y0.7393
N20150 X5.1742 Y0.7429
N20155 X5.1775 Y0.7467
N20160 X5.1808 Y0.7504
N20165 X5.184 Y0.7542
N20170 X5.1872 Y0.7581
N20175 X5.1903 Y0.7619
N20180 X5.1934 Y0.7659
N20185 X5.1964 Y0.7698 Z-0.043
N20190 X5.1994 Y0.7738
N20195 X5.2023 Y0.7779
N20200 X5.2051 Y0.7819
N20205 X5.208 Y0.7861
N20210 X5.2107 Y0.7902
