%
(1004)
(Bottom of workpiece)
(T2 D=0.0312 CR=0.0156 - ZMIN=-0.75 - ball end mill)
N10 G90
N15 G28 G91 Z0
N20 G90

(Contour3 2)
N25 M9
N30 T2 M6
N35 S1000 M3
N40 M8
N45 G0 X0.8889 Y0.9676
N50 Z0.6
N55 Z-0.3507
N60 G1 Z-0.3969 F40
N65 X0.8892 Y0.9677 Z-0.3981
N70 X0.8898 Y0.9678 Z-0.3991
N75 X0.8908 Y0.9679 Z-0.3998
N80 X0.892 Y0.9681 Z-0.4
N85 G3 X0.8947 Y0.9716 I-0.0005 J0.0031
N90 G1 X0.8942 Y0.9749
N95 X0.8939 Y0.9776
N100 X0.8936 Y0.9803
N105 X0.8934 Y0.983
N110 X0.8931 Y0.9858
N115 X0.893 Y0.9885
N120 X0.8928 Y0.9912
N125 X0.8927 Y0.9939
N130 X0.8926 Y0.9966
N135 Y0.9994
N140 Y1.0021
N145 X0.8925 Y1.4646
N150 Y1.4701
N155 Y1.4755
N160 Y1.481
N165 X0.8926 Y1.5
N170 X0.8925 Y1.519
N175 Y1.5245
N180 Y1.5299
N185 Y1.5354
N190 X0.8926 Y1.9979
N195 Y2.0006
N200 Y2.0034
N205 X0.8927 Y2.0061
N210 X0.8928 Y2.0088
N215 X0.893 Y2.0115
N220 X0.8931 Y2.0142
N225 X0.8934 Y2.017
N230 X0.8936 Y2.0197
N235 X0.8939 Y2.0224
N240 X0.8942 Y2.0251
N245 X0.8947 Y2.0284
N250 X0.895 Y2.0306
N255 X0.8954 Y2.0333
N260 X0.8959 Y2.036
N265 X0.8964 Y2.0387
N270 X0.897 Y2.0415
N275 X0.8975 Y2.0442
N280 X0.8982 Y2.0469
N285 X0.8988 Y2.0496
N290 X0.8995 Y2.0523
N295 X0.9001 Y2.0545
N300 X0.9011 Y2.0578
N305 X0.9019 Y2.0605
N310 X0.9028 Y2.0635
N315 X0.9037 Y2.0659
N320 X0.9046 Y2.0687
N325 X0.9055 Y2.0712
N330 X0.9056 Y2.0714
N335 X0.9066 Y2.0741
N340 X0.9083 Y2.0782
N345 X0.9088 Y2.0796
N350 X0.91 Y2.0823
N355 X0.911 Y2.0845
N360 X0.9124 Y2.0877
N365 X0.9138 Y2.0904
N370 X0.9151 Y2.0932
N375 X0.9165 Y2.0959
N380 X0.918 Y2.0986
N385 X0.9195 Y2.1013
N390 X0.9211 Y2.104
N395 X0.9219 Y2.1054
N400 X0.9227 Y2.1068
N405 X0.9246 Y2.1098
N410 X0.9261 Y2.1122
N415 X0.9273 Y2.114
N420 X0.9279 Y2.1149
N425 X0.93 Y2.118
N430 X0.9317 Y2.1204
N435 X0.9327 Y2.1218
N440 X0.9337 Y2.1231
N445 X0.9357 Y2.1258
N450 X0.9379 Y2.1285
N455 X0.9382 Y2.1289
N460 X0.9401 Y2.1312
N465 X0.9424 Y2.134
N470 X0.9436 Y2.1354
N475 X0.9464 Y2.1385
N480 X0.9472 Y2.1394
N485 X0.9497 Y2.1421
N490 X0.9518 Y2.1443
N495 X0.9524 Y2.1449
N500 X0.9545 Y2.147
N505 X0.9551 Y2.1476
N510 X0.9572 Y2.1497
N515 X0.96 Y2.1522
N520 X0.9609 Y2.153
N525 X0.9639 Y2.1557
N530 X0.9654 Y2.157
N535 X0.9681 Y2.1593
N540 X0.9705 Y2.1612
N545 X0.9708 Y2.1615
N550 X0.9736 Y2.1636
N555 X0.9763 Y2.1657
N560 X0.9776 Y2.1666
N565 X0.979 Y2.1677
N570 X0.9813 Y2.1693
N575 X0.9844 Y2.1715
N580 X0.9853 Y2.1721
N585 X0.9872 Y2.1733
N590 X0.9895 Y2.1748
N595 X0.9926 Y2.1767
N600 X0.994 Y2.1775
N605 X0.9953 Y2.1783
N610 X0.998 Y2.1799
N615 X1.0008 Y2.1814
N620 X1.0035 Y2.1828
N625 X1.0062 Y2.1842
N630 X1.0089 Y2.1856
N635 X1.0117 Y2.1869
N640 X1.0149 Y2.1884
N645 X1.0171 Y2.1894
N650 X1.0198 Y2.1906
N655 X1.0211 Y2.1911
N660 X1.0253 Y2.1928
N665 X1.028 Y2.1938
N670 X1.0281
N675 X1.0307 Y2.1948
N680 X1.0334 Y2.1957
N685 X1.0359 Y2.1965
N690 X1.0389 Y2.1975
N695 X1.0416 Y2.1983
N700 X1.0449 Y2.1993
N705 X1.047 Y2.1998
N710 X1.0497 Y2.2005
N715 X1.0525 Y2.2012
N720 X1.0552 Y2.2018
N725 X1.0579 Y2.2024
N730 X1.0606 Y2.203
N735 X1.0634 Y2.2035
N740 X1.0661 Y2.2039
N745 X1.0688 Y2.2044
N750 X1.071 Y2.2047
N755 X1.0742 Y2.2052
N760 X1.077 Y2.2055
N765 X1.0797 Y2.2058
N770 X1.0824 Y2.206
N775 X1.0851 Y2.2062
N780 X1.0878 Y2.2064
N785 X1.0906 Y2.2066
N790 X1.0933 Y2.2067
N795 X1.096 Y2.2068
N800 X1.0987
N805 X1.1014
N810 X1.564
N815 X1.5694
N820 X1.5749
N825 X1.5803
N830 X1.5994
N835 X1.6184
N840 X1.6239
N845 X1.6293
N850 X1.6347
N855 X2.0973
N860 X2.1
N865 X2.1027
N870 X2.1055 Y2.2067
N875 X2.1082 Y2.2066
N880 X2.1109 Y2.2064
N885 X2.1136 Y2.2062
N890 X2.1163 Y2.206
N895 X2.1191 Y2.2058
N900 X2.1218 Y2.2055
N905 X2.1245 Y2.2052
N910 X2.1277 Y2.2047
N915 X2.1299 Y2.2044
N920 X2.1327 Y2.2039
N925 X2.1354 Y2.2035
N930 X2.1381 Y2.203
N935 X2.1408 Y2.2024
N940 X2.1435 Y2.2018
N945 X2.1463 Y2.2012
N950 X2.149 Y2.2005
N955 X2.1517 Y2.1998
N960 X2.1538 Y2.1993
N965 X2.1571 Y2.1983
N970 X2.1599 Y2.1975
N975 X2.1628 Y2.1965
N980 X2.1653 Y2.1957
N985 X2.168 Y2.1948
N990 X2.1706 Y2.1938
N995 X2.1708
N1000 X2.1735 Y2.1928
N1005 X2.1776 Y2.1911
N1010 X2.1789 Y2.1906
N1015 X2.1816 Y2.1894
N1020 X2.1839 Y2.1884
N1025 X2.1871 Y2.1869
N1030 X2.1898 Y2.1856
N1035 X2.1925 Y2.1842
N1040 X2.1952 Y2.1828
N1045 X2.198 Y2.1814
N1050 X2.2007 Y2.1799
N1055 X2.2034 Y2.1783
N1060 X2.2048 Y2.1775
N1065 X2.2061 Y2.1767
N1070 X2.2092 Y2.1748
N1075 X2.2116 Y2.1733
N1080 X2.2134 Y2.1721
N1085 X2.2143 Y2.1715
N1090 X2.2174 Y2.1693
N1095 X2.2197 Y2.1677
N1100 X2.2212 Y2.1666
N1105 X2.2225 Y2.1657
N1110 X2.2252 Y2.1636
N1115 X2.2279 Y2.1615
N1120 X2.2283 Y2.1612
N1125 X2.2306 Y2.1593
N1130 X2.2333 Y2.157
N1135 X2.2348 Y2.1557
N1140 X2.2379 Y2.153
N1145 X2.2388 Y2.1522
N1150 X2.2415 Y2.1497
N1155 X2.2436 Y2.1476
N1160 X2.2442 Y2.147
N1165 X2.2464 Y2.1449
N1170 X2.2469 Y2.1443
N1175 X2.249 Y2.1421
N1180 X2.2515 Y2.1394
N1185 X2.2524 Y2.1385
N1190 X2.2551 Y2.1354
N1195 X2.2564 Y2.134
N1200 X2.2587 Y2.1312
N1205 X2.2605 Y2.1289
N1210 X2.2609 Y2.1285
N1215 X2.263 Y2.1258
N1220 X2.2651 Y2.1231
N1225 X2.266 Y2.1218
N1230 X2.267 Y2.1204
N1235 X2.2687 Y2.118
N1240 X2.2708 Y2.1149
N1245 X2.2714 Y2.114
N1250 X2.2726 Y2.1122
N1255 X2.2741 Y2.1098
N1260 X2.276 Y2.1068
N1265 X2.2769 Y2.1054
N1270 X2.2777 Y2.104
N1275 X2.2792 Y2.1013
N1280 X2.2807 Y2.0986
N1285 X2.2822 Y2.0959
N1290 X2.2836 Y2.0932
N1295 X2.285 Y2.0904
N1300 X2.2863 Y2.0877
N1305 X2.2878 Y2.0845
N1310 X2.2888 Y2.0823
N1315 X2.2899 Y2.0796
N1320 X2.2905 Y2.0782
N1325 X2.2921 Y2.0741
N1330 X2.2931 Y2.0714
N1335 X2.2932 Y2.0713
N1340 X2.2941 Y2.0687
N1345 X2.2951 Y2.0659
N1350 X2.2959 Y2.0635
N1355 X2.2969 Y2.0605
N1360 X2.2977 Y2.0578
N1365 X2.2986 Y2.0545
N1370 X2.2992 Y2.0523
N1375 X2.2999 Y2.0496
N1380 X2.3006 Y2.0469
N1385 X2.3012 Y2.0442
N1390 X2.3018 Y2.0415
N1395 X2.3023 Y2.0387
N1400 X2.3028 Y2.036
N1405 X2.3033 Y2.0333
N1410 X2.3038 Y2.0306
N1415 X2.3041 Y2.0284
N1420 X2.3045 Y2.0251
N1425 X2.3048 Y2.0224
N1430 X2.3051 Y2.0197
N1435 X2.3054 Y2.017
N1440 X2.3056 Y2.0142
N1445 X2.3058 Y2.0115
N1450 X2.3059 Y2.0088
N1455 X2.306 Y2.0061
N1460 X2.3061 Y2.0034
N1465 Y2.0006
N1470 Y1.9979
N1475 X2.3062 Y1.5354
N1480 Y1.5299
N1485 Y1.5245
N1490 Y1.519
N1495 Y1.5
N1500 Y1.481
N1505 Y1.4755
N1510 Y1.4701
N1515 Y1.4646
N1520 X2.3061 Y1.0021
N1525 Y0.9994
N1530 Y0.9966
N1535 X2.306 Y0.9939
N1540 X2.3059 Y0.9912
N1545 X2.3058 Y0.9885
N1550 X2.3056 Y0.9858
N1555 X2.3054 Y0.983
N1560 X2.3051 Y0.9803
N1565 X2.3048 Y0.9776
N1570 X2.3045 Y0.9749
N1575 X2.3041 Y0.9716
N1580 X2.3038 Y0.9694
N1585 X2.3033 Y0.9667
N1590 X2.3028 Y0.964
N1595 X2.3023 Y0.9613
N1600 X2.3018 Y0.9585
N1605 X2.3012 Y0.9558
N1610 X2.3006 Y0.9531
N1615 X2.2999 Y0.9504
N1620 X2.2992 Y0.9477
N1625 X2.2986 Y0.9455
N1630 X2.2977 Y0.9422
N1635 X2.2969 Y0.9395
N1640 X2.2959 Y0.9365
N1645 X2.2951 Y0.9341
N1650 X2.2941 Y0.9313
N1655 X2.2932 Y0.9287
N1660 X2.2931 Y0.9286
N1665 X2.2921 Y0.9259
N1670 X2.2905 Y0.9218
N1675 X2.2899 Y0.9204
N1680 X2.2888 Y0.9177
N1685 X2.2878 Y0.9155
N1690 X2.2863 Y0.9123
N1695 X2.285 Y0.9096
N1700 X2.2836 Y0.9068
N1705 X2.2822 Y0.9041
N1710 X2.2807 Y0.9014
N1715 X2.2792 Y0.8987
N1720 X2.2777 Y0.896
N1725 X2.2769 Y0.8946
N1730 X2.276 Y0.8932
N1735 X2.2741 Y0.8902
N1740 X2.2726 Y0.8878
N1745 X2.2714 Y0.886
N1750 X2.2708 Y0.8851
N1755 X2.2687 Y0.882
N1760 X2.267 Y0.8796
N1765 X2.266 Y0.8782
N1770 X2.2651 Y0.8769
N1775 X2.263 Y0.8742
N1780 X2.2609 Y0.8715
N1785 X2.2605 Y0.8711
N1790 X2.2587 Y0.8688
N1795 X2.2564 Y0.866
N1800 X2.2551 Y0.8646
N1805 X2.2524 Y0.8615
N1810 X2.2515 Y0.8606
N1815 X2.249 Y0.8579
N1820 X2.2469 Y0.8557
N1825 X2.2464 Y0.8551
N1830 X2.2442 Y0.853
N1835 X2.2436 Y0.8524
N1840 X2.2415 Y0.8503
N1845 X2.2388 Y0.8478
N1850 X2.2379 Y0.847
N1855 X2.2348 Y0.8443
N1860 X2.2333 Y0.843
N1865 X2.2306 Y0.8407
N1870 X2.2283 Y0.8388
N1875 X2.2279 Y0.8385
N1880 X2.2252 Y0.8364
N1885 X2.2225 Y0.8343
N1890 X2.2212 Y0.8334
N1895 X2.2197 Y0.8323
N1900 X2.2174 Y0.8307
N1905 X2.2143 Y0.8285
N1910 X2.2134 Y0.8279
N1915 X2.2116 Y0.8267
N1920 X2.2092 Y0.8252
N1925 X2.2061 Y0.8233
N1930 X2.2048 Y0.8225
N1935 X2.2034 Y0.8217
N1940 X2.2007 Y0.8201
N1945 X2.198 Y0.8186
N1950 X2.1952 Y0.8172
N1955 X2.1925 Y0.8158
N1960 X2.1898 Y0.8144
N1965 X2.1871 Y0.8131
N1970 X2.1839 Y0.8116
N1975 X2.1816 Y0.8106
N1980 X2.1789 Y0.8094
N1985 X2.1776 Y0.8089
N1990 X2.1735 Y0.8072
N1995 X2.1708 Y0.8062
N2000 X2.1706
N2005 X2.168 Y0.8052
N2010 X2.1653 Y0.8043
N2015 X2.1628 Y0.8035
N2020 X2.1599 Y0.8025
N2025 X2.1571 Y0.8017
N2030 X2.1538 Y0.8007
N2035 X2.1517 Y0.8002
N2040 X2.149 Y0.7995
N2045 X2.1463 Y0.7988
N2050 X2.1435 Y0.7982
N2055 X2.1408 Y0.7976
N2060 X2.1381 Y0.797
N2065 X2.1354 Y0.7965
N2070 X2.1327 Y0.7961
N2075 X2.1299 Y0.7956
N2080 X2.1277 Y0.7953
N2085 X2.1245 Y0.7948
N2090 X2.1218 Y0.7945
N2095 X2.1191 Y0.7942
N2100 X2.1163 Y0.794
N2105 X2.1136 Y0.7938
N2110 X2.1109 Y0.7936
N2115 X2.1082 Y0.7934
N2120 X2.1055 Y0.7933
N2125 X2.1027 Y0.7932
N2130 X2.1
N2135 X2.0973
N2140 X1.6347
N2145 X1.6293
N2150 X1.6239
N2155 X1.6184
N2160 X1.5994
N2165 X1.5803
N2170 X1.5749
N2175 X1.5694
N2180 X1.564
N2185 X1.1014
N2190 X1.0987
N2195 X1.096
N2200 X1.0933 Y0.7933
N2205 X1.0906 Y0.7934
N2210 X1.0878 Y0.7936
N2215 X1.0851 Y0.7938
N2220 X1.0824 Y0.794
N2225 X1.0797 Y0.7942
N2230 X1.077 Y0.7945
N2235 X1.0742 Y0.7948
N2240 X1.071 Y0.7953
N2245 X1.0688 Y0.7956
N2250 X1.0661 Y0.7961
N2255 X1.0634 Y0.7965
N2260 X1.0606 Y0.797
N2265 X1.0579 Y0.7976
N2270 X1.0552 Y0.7982
N2275 X1.0525 Y0.7988
N2280 X1.0497 Y0.7995
N2285 X1.047 Y0.8002
N2290 X1.0449 Y0.8007
N2295 X1.0416 Y0.8017
N2300 X1.0389 Y0.8025
N2305 X1.0359 Y0.8035
N2310 X1.0334 Y0.8043
N2315 X1.0307 Y0.8052
N2320 X1.0281 Y0.8062
N2325 X1.028
N2330 X1.0253 Y0.8072
N2335 X1.0211 Y0.8089
N2340 X1.0198 Y0.8094
N2345 X1.0171 Y0.8106
N2350 X1.0149 Y0.8116
N2355 X1.0117 Y0.8131
N2360 X1.0089 Y0.8144
N2365 X1.0062 Y0.8158
N2370 X1.0035 Y0.8172
N2375 X1.0008 Y0.8186
N2380 X0.998 Y0.8201
N2385 X0.9953 Y0.8217
N2390 X0.994 Y0.8225
N2395 X0.9926 Y0.8233
N2400 X0.9895 Y0.8252
N2405 X0.9872 Y0.8267
N2410 X0.9853 Y0.8279
N2415 X0.9844 Y0.8285
N2420 X0.9813 Y0.8307
N2425 X0.979 Y0.8323
N2430 X0.9776 Y0.8334
N2435 X0.9763 Y0.8343
N2440 X0.9736 Y0.8364
N2445 X0.9708 Y0.8385
N2450 X0.9705 Y0.8388
N2455 X0.9681 Y0.8407
N2460 X0.9654 Y0.843
N2465 X0.9639 Y0.8443
N2470 X0.9609 Y0.847
N2475 X0.96 Y0.8478
N2480 X0.9572 Y0.8503
N2485 X0.9551 Y0.8524
N2490 X0.9545 Y0.853
N2495 X0.9524 Y0.8551
N2500 X0.9518 Y0.8557
N2505 X0.9497 Y0.8579
N2510 X0.9472 Y0.8606
N2515 X0.9464 Y0.8615
N2520 X0.9436 Y0.8646
N2525 X0.9424 Y0.866
N2530 X0.9401 Y0.8688
N2535 X0.9382 Y0.8711
N2540 X0.9379 Y0.8715
N2545 X0.9357 Y0.8742
N2550 X0.9337 Y0.8769
N2555 X0.9327 Y0.8782
N2560 X0.9317 Y0.8796
N2565 X0.93 Y0.882
N2570 X0.9279 Y0.8851
N2575 X0.9273 Y0.886
N2580 X0.9261 Y0.8878
N2585 X0.9246 Y0.8902
N2590 X0.9227 Y0.8932
N2595 X0.9219 Y0.8946
N2600 X0.9211 Y0.896
N2605 X0.9195 Y0.8987
N2610 X0.918 Y0.9014
N2615 X0.9165 Y0.9041
N2620 X0.9151 Y0.9068
N2625 X0.9138 Y0.9096
N2630 X0.9124 Y0.9123
N2635 X0.911 Y0.9155
N2640 X0.91 Y0.9177
N2645 X0.9088 Y0.9204
N2650 X0.9083 Y0.9218
N2655 X0.9066 Y0.9259
N2660 X0.9056 Y0.9286
N2665 X0.9055 Y0.9288
N2670 X0.9046 Y0.9313
N2675 X0.9037 Y0.9341
N2680 X0.9028 Y0.9365
N2685 X0.9019 Y0.9395
N2690 X0.9011 Y0.9422
N2695 X0.9001 Y0.9455
N2700 X0.8995 Y0.9477
N2705 X0.8988 Y0.9504
N2710 X0.8982 Y0.9531
N2715 X0.8975 Y0.9558
N2720 X0.897 Y0.9585
N2725 X0.8964 Y0.9613
N2730 X0.8959 Y0.964
N2735 X0.8954 Y0.9667
N2740 X0.895 Y0.9694
N2745 X0.8947 Y0.9716
N2750 X0.8941 Y0.9758
N2755 X0.8935 Y0.9805
N2760 X0.893 Y0.985
N2765 X0.8927 Y0.9892 Z-0.4001
N2770 X0.8923 Y0.9934
N2775 X0.892 Y0.9978 Z-0.4002
N2780 X0.8918 Y1.0022
N2785 X0.8915 Y1.0072 Z-0.4003
N2790 X0.8912 Y1.0121 Z-0.4004
N2795 X0.8909 Y1.0171 Z-0.4005
N2800 X0.8905 Y1.022 Z-0.4006
N2805 X0.8901 Y1.027 Z-0.4007
N2810 X0.8897 Y1.0319 Z-0.4008
N2815 X0.8892 Y1.0369 Z-0.4009
N2820 X0.8888 Y1.0418 Z-0.4011
N2825 X0.8883 Y1.0468 Z-0.4012
N2830 X0.8877 Y1.0517 Z-0.4014
N2835 X0.8872 Y1.0567 Z-0.4015
N2840 X0.8866 Y1.0616 Z-0.4017
N2845 X0.8861 Y1.0666 Z-0.4018
N2850 X0.8855 Y1.0715 Z-0.402
N2855 X0.8844 Y1.0814 Z-0.4024
N2860 X0.8794 Y1.126 Z-0.4039
N2865 X0.8788 Y1.1309 Z-0.4041
N2870 X0.8768 Y1.1507 Z-0.4048
N2875 X0.8723 Y1.1953 Z-0.4064
N2880 X0.8718 Y1.2002 Z-0.4065
N2885 X0.8713 Y1.2052 Z-0.4067
N2890 X0.8685 Y1.2349 Z-0.4078
N2895 X0.8676 Y1.2448 Z-0.4081
N2900 X0.8672 Y1.2497 Z-0.4083
N2905 X0.8667 Y1.2547 Z-0.4084
N2910 X0.8663 Y1.2596 Z-0.4086
N2915 X0.8659 Y1.2646 Z-0.4087
N2920 X0.8655 Y1.2695 Z-0.4089
N2925 X0.8652 Y1.2745 Z-0.409
N2930 X0.8648 Y1.2794 Z-0.4092
N2935 X0.8645 Y1.2844 Z-0.4093
N2940 X0.8642 Y1.2893 Z-0.4094
N2945 X0.864 Y1.2943 Z-0.4095
N2950 X0.8637 Y1.2992 Z-0.4096
N2955 X0.8635 Y1.3042 Z-0.4097
N2960 X0.8633 Y1.3091 Z-0.4098
N2965 X0.8632 Y1.3141
N2970 X0.863 Y1.319 Z-0.4099
N2975 X0.8629 Y1.324
N2980 X0.8628 Y1.3289 Z-0.41
N2985 Y1.3339
N2990 Y1.3388
N2995 X0.8632 Y1.3413
N3000 Y1.3993
N3005 Y1.4048
N3010 X0.8633 Y1.5
N3015 X0.8632 Y1.5952
N3020 Y1.6007
N3025 Y1.9979
N3030 Y2.0006
N3035 X0.8633 Y2.0034
N3040 X0.8634 Y2.0061
N3045 X0.8635 Y2.0088
N3050 X0.8636 Y2.0115
N3055 X0.8638 Y2.0142
N3060 X0.864 Y2.017
N3065 X0.8642 Y2.0197
N3070 X0.8644 Y2.0224
N3075 X0.865 Y2.0279
N3080 X0.8654 Y2.0306
N3085 X0.8658 Y2.0333
N3090 X0.8662 Y2.036
N3095 X0.8666 Y2.0387
N3100 X0.8671 Y2.0415
N3105 X0.8676 Y2.0442
N3110 X0.8682 Y2.0469
N3115 X0.8688 Y2.0496
N3120 X0.8694 Y2.0523
N3125 X0.8702 Y2.0557
N3130 X0.8707 Y2.0578
N3135 X0.8714 Y2.0605
N3140 X0.8722 Y2.0632
N3145 X0.8729 Y2.0659
N3150 X0.8738 Y2.0687
N3155 X0.8746 Y2.0714
N3160 X0.8755 Y2.0741
N3165 X0.8764 Y2.0768
N3170 X0.8774 Y2.0796
N3175 X0.8784 Y2.0823
N3180 X0.8794 Y2.085
N3185 X0.8811 Y2.089
N3190 X0.8816 Y2.0904
N3195 X0.8828 Y2.0932
N3200 X0.8838 Y2.0954
N3205 X0.8852 Y2.0986
N3210 X0.8865 Y2.1013
N3215 X0.8878 Y2.104
N3220 X0.8892 Y2.1068
N3225 X0.8906 Y2.1095
N3230 X0.8919 Y2.1119
N3235 X0.8936 Y2.1149
N3240 X0.8947 Y2.1168
N3245 X0.8967 Y2.1204
N3250 X0.8974 Y2.1215
N3255 X0.9 Y2.1258
N3260 X0.9001 Y2.1259
N3265 X0.9028 Y2.1301
N3270 X0.9036 Y2.1312
N3275 X0.9055 Y2.1341
N3280 X0.9074 Y2.1367
N3285 X0.9093 Y2.1394
N3290 X0.911 Y2.1416
N3295 X0.9135 Y2.1449
N3300 X0.9137 Y2.1452
N3305 X0.9164 Y2.1486
N3310 X0.9178 Y2.1503
N3315 X0.9201 Y2.153
N3320 X0.9219 Y2.155
N3325 X0.9246 Y2.1581
N3330 X0.9249 Y2.1585
N3335 X0.9275 Y2.1612
N3340 X0.93 Y2.1639
N3345 X0.9327 Y2.1666
N3350 Y2.1667
N3355 X0.9355 Y2.1693
N3360 X0.9382 Y2.1719
N3365 X0.9409 Y2.1744
N3370 X0.9413 Y2.1748
N3375 X0.9444 Y2.1775
N3380 X0.9464 Y2.1792
N3385 X0.9491 Y2.1815
N3390 X0.9508 Y2.1829
N3395 X0.9542 Y2.1857
N3400 X0.9545 Y2.1859
N3405 X0.9578 Y2.1884
N3410 X0.96 Y2.19
N3415 X0.9627 Y2.192
N3420 X0.9653 Y2.1938
N3425 X0.9681 Y2.1958
N3430 X0.9693 Y2.1965
N3435 X0.9735 Y2.1993
N3440 X0.9736
N3445 X0.9779 Y2.202
N3450 X0.979 Y2.2027
N3455 X0.9825 Y2.2047
N3460 X0.9844 Y2.2058
N3465 X0.9874 Y2.2074
N3470 X0.9899 Y2.2088
N3475 X0.9926 Y2.2102
N3480 X0.9953 Y2.2115
N3485 X0.9981 Y2.2129
N3490 X1.0008 Y2.2141
N3495 X1.004 Y2.2156
N3500 X1.0062 Y2.2166
N3505 X1.0089 Y2.2177
N3510 X1.0103 Y2.2183
N3515 X1.0144 Y2.2199
N3520 X1.0171 Y2.221
N3525 X1.0198 Y2.222
N3530 X1.0225 Y2.2229
N3535 X1.0253 Y2.2239
N3540 X1.028 Y2.2247
N3545 X1.0307 Y2.2256
N3550 X1.0334 Y2.2264
N3555 X1.0361 Y2.2272
N3560 X1.0389 Y2.2279
N3565 X1.0416 Y2.2287
N3570 X1.0437 Y2.2292
N3575 X1.047 Y2.23
N3580 X1.0497 Y2.2306
N3585 X1.0525 Y2.2312
N3590 X1.0552 Y2.2317
N3595 X1.0579 Y2.2322
N3600 X1.0606 Y2.2327
N3605 X1.0634 Y2.2332
N3610 X1.0661 Y2.2336
N3615 X1.0688 Y2.234
N3620 X1.0715 Y2.2343
N3625 X1.077 Y2.2349
N3630 X1.0797 Y2.2352
N3635 X1.0824 Y2.2354
N3640 X1.0851 Y2.2356
N3645 X1.0878 Y2.2357
N3650 X1.0906 Y2.2359
N3655 X1.0933 Y2.236
N3660 X1.096 Y2.2361
N3665 X1.0987
N3670 X1.1014 Y2.2362
N3675 X1.4987 Y2.2361
N3680 X1.5041
N3685 X1.5994
N3690 X1.6946
N3695 X1.7
N3700 X2.0973 Y2.2362
N3705 X2.1 Y2.2361
N3710 X2.1027
N3715 X2.1055 Y2.236
N3720 X2.1082 Y2.2359
N3725 X2.1109 Y2.2357
N3730 X2.1136 Y2.2356
N3735 X2.1163 Y2.2354
N3740 X2.1191 Y2.2352
N3745 X2.1218 Y2.2349
N3750 X2.1272 Y2.2343
N3755 X2.1299 Y2.234
N3760 X2.1327 Y2.2336
N3765 X2.1354 Y2.2332
N3770 X2.1381 Y2.2327
N3775 X2.1408 Y2.2322
N3780 X2.1435 Y2.2317
N3785 X2.1463 Y2.2312
N3790 X2.149 Y2.2306
N3795 X2.1517 Y2.23
N3800 X2.155 Y2.2292
N3805 X2.1571 Y2.2287
N3810 X2.1599 Y2.2279
N3815 X2.1626 Y2.2272
N3820 X2.1653 Y2.2264
N3825 X2.168 Y2.2256
N3830 X2.1708 Y2.2247
N3835 X2.1735 Y2.2239
N3840 X2.1762 Y2.2229
N3845 X2.1789 Y2.222
N3850 X2.1816 Y2.221
N3855 X2.1844 Y2.2199
N3860 X2.1884 Y2.2183
N3865 X2.1898 Y2.2177
N3870 X2.1925 Y2.2166
N3875 X2.1948 Y2.2156
N3880 X2.198 Y2.2141
N3885 X2.2006 Y2.2129
N3890 X2.2034 Y2.2115
N3895 X2.2061 Y2.2102
N3900 X2.2088 Y2.2088
N3905 X2.2113 Y2.2074
N3910 X2.2143 Y2.2058
N3915 X2.2162 Y2.2047
N3920 X2.2197 Y2.2027
N3925 X2.2208 Y2.202
N3930 X2.2252 Y2.1993
N3935 X2.2253
N3940 X2.2294 Y2.1965
N3945 X2.2306 Y2.1958
N3950 X2.2334 Y2.1938
N3955 X2.2361 Y2.192
N3960 X2.2388 Y2.19
N3965 X2.241 Y2.1884
N3970 X2.2442 Y2.1859
N3975 X2.2445 Y2.1857
N3980 X2.2479 Y2.1829
N3985 X2.2497 Y2.1815
N3990 X2.2524 Y2.1792
N3995 X2.2544 Y2.1775
N4000 X2.2575 Y2.1748
N4005 X2.2578 Y2.1744
N4010 X2.2605 Y2.1719
N4015 X2.2632 Y2.1693
N4020 X2.266 Y2.1667
N4025 Y2.1666
N4030 X2.2687 Y2.1639
N4035 X2.2713 Y2.1612
N4040 X2.2738 Y2.1585
N4045 X2.2741 Y2.1581
N4050 X2.2769 Y2.155
N4055 X2.2786 Y2.153
N4060 X2.2809 Y2.1503
N4065 X2.2823 Y2.1486
N4070 X2.285 Y2.1452
N4075 X2.2853 Y2.1449
N4080 X2.2878 Y2.1416
N4085 X2.2894 Y2.1394
N4090 X2.2914 Y2.1367
N4095 X2.2932 Y2.1341
N4100 X2.2951 Y2.1312
N4105 X2.2959 Y2.1301
N4110 X2.2986 Y2.1259
N4115 X2.2987 Y2.1258
N4120 X2.3014 Y2.1215
N4125 X2.302 Y2.1204
N4130 X2.3041 Y2.1168
N4135 X2.3052 Y2.1149
N4140 X2.3068 Y2.112
N4145 X2.3081 Y2.1095
N4150 X2.3095 Y2.1068
N4155 X2.3109 Y2.104
N4160 X2.3122 Y2.1013
N4165 X2.3135 Y2.0986
N4170 X2.315 Y2.0954
N4175 X2.3159 Y2.0932
N4180 X2.3171 Y2.0904
N4185 X2.3177 Y2.089
N4190 X2.3193 Y2.085
N4195 X2.3203 Y2.0823
N4200 X2.3213 Y2.0796
N4205 X2.3223 Y2.0768
N4210 X2.3232 Y2.0741
N4215 X2.3241 Y2.0714
N4220 X2.325 Y2.0687
N4225 X2.3258 Y2.0659
N4230 X2.3266 Y2.0632
N4235 X2.3273 Y2.0605
N4240 X2.328 Y2.0578
N4245 X2.3286 Y2.0557
N4250 X2.3294 Y2.0523
N4255 X2.33 Y2.0496
N4260 X2.3305 Y2.0469
N4265 X2.3311 Y2.0442
N4270 X2.3316 Y2.0415
N4275 X2.3321 Y2.0387
N4280 X2.3325 Y2.036
N4285 X2.3329 Y2.0333
N4290 X2.3333 Y2.0306
N4295 X2.3337 Y2.0279
N4300 X2.3343 Y2.0224
N4305 X2.3345 Y2.0197
N4310 X2.3348 Y2.017
N4315 X2.3349 Y2.0142
N4320 X2.3351 Y2.0115
N4325 X2.3352 Y2.0088
N4330 X2.3353 Y2.0061
N4335 X2.3354 Y2.0034
N4340 X2.3355 Y2.0006
N4345 Y1.9979
N4350 Y1.6007
N4355 Y1.5952
N4360 X2.3354 Y1.5
N4365 X2.3355 Y1.4048
N4370 Y1.3993
N4375 Y1.0021
N4380 Y0.9994
N4385 X2.3354 Y0.9966
N4390 X2.3353 Y0.9939
N4395 X2.3352 Y0.9912
N4400 X2.3351 Y0.9885
N4405 X2.3349 Y0.9858
N4410 X2.3348 Y0.983
N4415 X2.3345 Y0.9803
N4420 X2.3343 Y0.9776
N4425 X2.3337 Y0.9721
N4430 X2.3333 Y0.9694
N4435 X2.3329 Y0.9667
N4440 X2.3325 Y0.964
N4445 X2.3321 Y0.9613
N4450 X2.3316 Y0.9585
N4455 X2.3311 Y0.9558
N4460 X2.3305 Y0.9531
N4465 X2.33 Y0.9504
N4470 X2.3294 Y0.9477
N4475 X2.3286 Y0.9443
N4480 X2.328 Y0.9422
N4485 X2.3273 Y0.9395
N4490 X2.3266 Y0.9368
N4495 X2.3258 Y0.9341
N4500 X2.325 Y0.9313
N4505 X2.3241 Y0.9286
N4510 X2.3232 Y0.9259
N4515 X2.3223 Y0.9232
N4520 X2.3213 Y0.9204
N4525 X2.3203 Y0.9177
N4530 X2.3193 Y0.915
N4535 X2.3177 Y0.911
N4540 X2.3171 Y0.9096
N4545 X2.3159 Y0.9068
N4550 X2.315 Y0.9046
N4555 X2.3135 Y0.9014
N4560 X2.3122 Y0.8987
N4565 X2.3109 Y0.896
N4570 X2.3095 Y0.8932
N4575 X2.3081 Y0.8905
N4580 X2.3068 Y0.888
N4585 X2.3052 Y0.8851
N4590 X2.3041 Y0.8832
N4595 X2.302 Y0.8796
N4600 X2.3014 Y0.8785
N4605 X2.2987 Y0.8742
N4610 X2.2986 Y0.8741
N4615 X2.2959 Y0.8699
N4620 X2.2951 Y0.8688
N4625 X2.2932 Y0.8659
N4630 X2.2914 Y0.8633
N4635 X2.2894 Y0.8606
N4640 X2.2878 Y0.8584
N4645 X2.2853 Y0.8551
N4650 X2.285 Y0.8548
N4655 X2.2823 Y0.8514
N4660 X2.2809 Y0.8497
N4665 X2.2786 Y0.847
N4670 X2.2769 Y0.845
N4675 X2.2741 Y0.8419
N4680 X2.2738 Y0.8415
N4685 X2.2713 Y0.8388
N4690 X2.2687 Y0.8361
N4695 X2.266 Y0.8334
N4700 Y0.8333
N4705 X2.2632 Y0.8307
N4710 X2.2605 Y0.8281
N4715 X2.2578 Y0.8256
N4720 X2.2575 Y0.8252
N4725 X2.2544 Y0.8225
N4730 X2.2524 Y0.8208
N4735 X2.2497 Y0.8185
N4740 X2.2479 Y0.8171
N4745 X2.2445 Y0.8143
N4750 X2.2442 Y0.8141
N4755 X2.241 Y0.8116
N4760 X2.2388 Y0.81
N4765 X2.2361 Y0.808
N4770 X2.2334 Y0.8062
N4775 X2.2306 Y0.8042
N4780 X2.2294 Y0.8035
N4785 X2.2253 Y0.8007
N4790 X2.2252
N4795 X2.2208 Y0.798
N4800 X2.2197 Y0.7973
N4805 X2.2162 Y0.7953
N4810 X2.2143 Y0.7942
N4815 X2.2113 Y0.7926
N4820 X2.2088 Y0.7912
N4825 X2.2061 Y0.7898
N4830 X2.2034 Y0.7885
N4835 X2.2006 Y0.7871
N4840 X2.198 Y0.7859
N4845 X2.1948 Y0.7844
N4850 X2.1925 Y0.7834
N4855 X2.1898 Y0.7823
N4860 X2.1884 Y0.7817
N4865 X2.1844 Y0.7801
N4870 X2.1816 Y0.779
N4875 X2.1789 Y0.778
N4880 X2.1762 Y0.7771
N4885 X2.1735 Y0.7761
N4890 X2.1708 Y0.7753
N4895 X2.168 Y0.7744
N4900 X2.1653 Y0.7736
N4905 X2.1626 Y0.7728
N4910 X2.1599 Y0.7721
N4915 X2.1571 Y0.7713
N4920 X2.155 Y0.7708
N4925 X2.1517 Y0.77
N4930 X2.149 Y0.7694
N4935 X2.1463 Y0.7688
N4940 X2.1435 Y0.7683
N4945 X2.1408 Y0.7678
N4950 X2.1381 Y0.7673
N4955 X2.1354 Y0.7668
N4960 X2.1327 Y0.7664
N4965 X2.1299 Y0.766
N4970 X2.1272 Y0.7657
N4975 X2.1218 Y0.7651
N4980 X2.1191 Y0.7648
N4985 X2.1163 Y0.7646
N4990 X2.1136 Y0.7644
N4995 X2.1109 Y0.7643
N5000 X2.1082 Y0.7641
N5005 X2.1055 Y0.764
N5010 X2.1027 Y0.7639
N5015 X2.1
N5020 X2.0973 Y0.7638
N5025 X1.7 Y0.7639
N5030 X1.6946
N5035 X1.5994
N5040 X1.5041
N5045 X1.4987
N5050 X1.1014 Y0.7638
N5055 X1.0987 Y0.7639
N5060 X1.096
N5065 X1.0933 Y0.764
N5070 X1.0906 Y0.7641
N5075 X1.0878 Y0.7643
N5080 X1.0851 Y0.7644
N5085 X1.0824 Y0.7646
N5090 X1.0797 Y0.7648
N5095 X1.077 Y0.7651
N5100 X1.0715 Y0.7657
N5105 X1.0688 Y0.766
N5110 X1.0661 Y0.7664
N5115 X1.0634 Y0.7668
N5120 X1.0606 Y0.7673
N5125 X1.0579 Y0.7678
N5130 X1.0552 Y0.7683
N5135 X1.0525 Y0.7688
N5140 X1.0497 Y0.7694
N5145 X1.047 Y0.77
N5150 X1.0437 Y0.7708
N5155 X1.0416 Y0.7713
N5160 X1.0389 Y0.7721
N5165 X1.0361 Y0.7728
N5170 X1.0334 Y0.7736
N5175 X1.0307 Y0.7744
N5180 X1.028 Y0.7753
N5185 X1.0253 Y0.7761
N5190 X1.0225 Y0.7771
N5195 X1.0198 Y0.778
N5200 X1.0171 Y0.779
N5205 X1.0144 Y0.7801
N5210 X1.0103 Y0.7817
N5215 X1.0089 Y0.7823
N5220 X1.0062 Y0.7834
N5225 X1.004 Y0.7844
N5230 X1.0008 Y0.7859
N5235 X0.9981 Y0.7871
N5240 X0.9953 Y0.7885
N5245 X0.9926 Y0.7898
N5250 X0.9899 Y0.7912
N5255 X0.9874 Y0.7926
N5260 X0.9844 Y0.7942
N5265 X0.9825 Y0.7953
N5270 X0.979 Y0.7973
N5275 X0.9779 Y0.798
N5280 X0.9736 Y0.8007
N5285 X0.9735
N5290 X0.9693 Y0.8035
N5295 X0.9681 Y0.8042
N5300 X0.9653 Y0.8062
N5305 X0.9627 Y0.808
N5310 X0.96 Y0.81
N5315 X0.9578 Y0.8116
N5320 X0.9545 Y0.8141
N5325 X0.9542 Y0.8143
N5330 X0.9508 Y0.8171
N5335 X0.9491 Y0.8185
N5340 X0.9464 Y0.8208
N5345 X0.9444 Y0.8225
N5350 X0.9413 Y0.8252
N5355 X0.9409 Y0.8256
N5360 X0.9382 Y0.8281
N5365 X0.9355 Y0.8307
N5370 X0.9327 Y0.8333
N5375 Y0.8334
N5380 X0.93 Y0.8361
N5385 X0.9275 Y0.8388
N5390 X0.9249 Y0.8415
N5395 X0.9246 Y0.8419
N5400 X0.9219 Y0.845
N5405 X0.9201 Y0.847
N5410 X0.9178 Y0.8497
N5415 X0.9164 Y0.8514
N5420 X0.9137 Y0.8548
N5425 X0.9135 Y0.8551
N5430 X0.911 Y0.8584
N5435 X0.9093 Y0.8606
N5440 X0.9074 Y0.8633
N5445 X0.9055 Y0.8659
N5450 X0.9036 Y0.8688
N5455 X0.9028 Y0.8699
N5460 X0.9001 Y0.8741
N5465 X0.9 Y0.8742
N5470 X0.8974 Y0.8785
N5475 X0.8967 Y0.8796
N5480 X0.8947 Y0.8832
N5485 X0.8936 Y0.8851
N5490 X0.8919 Y0.8881
N5495 X0.8906 Y0.8905
N5500 X0.8892 Y0.8932
N5505 X0.8878 Y0.896
N5510 X0.8865 Y0.8987
N5515 X0.8852 Y0.9014
N5520 X0.8838 Y0.9046
N5525 X0.8828 Y0.9068
N5530 X0.8816 Y0.9096
N5535 X0.8811 Y0.911
N5540 X0.8794 Y0.915
N5545 X0.8784 Y0.9177
N5550 X0.8774 Y0.9204
N5555 X0.8764 Y0.9232
N5560 X0.8755 Y0.9259
N5565 X0.8746 Y0.9286
N5570 X0.8738 Y0.9313
N5575 X0.8729 Y0.9341
N5580 X0.8722 Y0.9368
N5585 X0.8714 Y0.9395
N5590 X0.8707 Y0.9422
N5595 X0.8702 Y0.9443
N5600 X0.8694 Y0.9477
N5605 X0.8688 Y0.9504
N5610 X0.8682 Y0.9531
N5615 X0.8676 Y0.9558
N5620 X0.8671 Y0.9585
N5625 X0.8666 Y0.9613
N5630 X0.8662 Y0.964
N5635 X0.8658 Y0.9667
N5640 X0.8654 Y0.9694
N5645 X0.865 Y0.9721
N5650 X0.8647 Y0.9751
N5655 X0.8644 Y0.9776
N5660 X0.8642 Y0.9803
N5665 X0.864 Y0.983
N5670 X0.8638 Y0.9858
N5675 X0.8636 Y0.9885
N5680 X0.8635 Y0.9912
N5685 X0.8634 Y0.9939
N5690 X0.8633 Y0.9966
N5695 X0.8632 Y0.9994
N5700 Y1.0021
N5705 Y1.3413
N5710 X0.8627 Y1.3462
N5715 Y1.3512
N5720 X0.8626 Y1.3561 Z-0.4101
N5725 X0.8625 Y1.3611
N5730 X0.8624 Y1.366
N5735 X0.8623 Y1.371 Z-0.4102
N5740 X0.8621 Y1.3759 Z-0.4103
N5745 X0.8619 Y1.3809 Z-0.4104
N5750 X0.8617 Y1.3858 Z-0.4105
N5755 X0.8614 Y1.3908 Z-0.4106
N5760 X0.8612 Y1.3957 Z-0.4107
N5765 X0.8609 Y1.4007 Z-0.4108
N5770 X0.8606 Y1.4056 Z-0.4109
N5775 X0.8603 Y1.4106 Z-0.411
N5780 X0.86 Y1.4155 Z-0.4112
N5785 X0.8596 Y1.4205 Z-0.4113
N5790 X0.8592 Y1.4254 Z-0.4115
N5795 X0.8589 Y1.4304 Z-0.4116
N5800 X0.8585 Y1.4353 Z-0.4118
N5805 X0.8581 Y1.4403 Z-0.412
N5810 X0.8531 Y1.4997 Z-0.4141
N5815 X0.8523 Y1.5096 Z-0.4144
N5820 X0.8519 Y1.5146 Z-0.4146
N5825 X0.8515 Y1.5195 Z-0.4148
N5830 X0.8511 Y1.5245 Z-0.4149
N5835 X0.8507 Y1.5294 Z-0.4151
N5840 X0.8504 Y1.5344 Z-0.4153
N5845 X0.846 Y1.5938 Z-0.4174
N5850 X0.8446 Y1.6136 Z-0.4181
N5855 X0.8442 Y1.6185 Z-0.4182
N5860 X0.8438 Y1.6235 Z-0.4184
N5865 X0.8435 Y1.6284 Z-0.4185
N5870 X0.8432 Y1.6334 Z-0.4187
N5875 X0.8429 Y1.6383 Z-0.4188
N5880 X0.8426 Y1.6433 Z-0.419
N5885 X0.8423 Y1.6482 Z-0.4191
N5890 X0.8421 Y1.6532 Z-0.4192
N5895 X0.8418 Y1.6581 Z-0.4194
N5900 X0.8416 Y1.6631 Z-0.4195
N5905 X0.8414 Y1.668 Z-0.4196
N5910 X0.8412 Y1.673 Z-0.4197
N5915 X0.841 Y1.6779
N5920 X0.8409 Y1.6829 Z-0.4198
N5925 X0.8407 Y1.6878 Z-0.4199
N5930 X0.8406 Y1.6928
N5935 Y1.6977 Z-0.42
N5940 X0.8405 Y1.7027
N5945 Y1.7076
N5950 X0.8409 Y1.7116
N5955 X0.8408 Y1.7966
N5960 Y1.8075
N5965 Y1.8183
N5970 Y1.8292
N5975 Y1.8401
N5980 Y1.851
N5985 X0.8409 Y1.9979
N5990 Y2.0006
N5995 Y2.0034
N6000 X0.841 Y2.0061
N6005 X0.8412 Y2.0115
N6010 X0.8414 Y2.0142
N6015 X0.8416 Y2.017
N6020 X0.8418 Y2.0197
N6025 X0.842 Y2.0224
N6030 X0.8423 Y2.0251
N6035 X0.8429 Y2.0306
N6040 X0.843 Y2.0312
N6045 X0.8436 Y2.036
N6050 X0.844 Y2.0387
N6055 X0.8445 Y2.0415
N6060 X0.8449 Y2.0442
N6065 X0.8457 Y2.0483
N6070 X0.8459 Y2.0496
N6075 X0.8471 Y2.0551
N6080 X0.8477 Y2.0578
N6085 X0.8484 Y2.0607
N6090 X0.849 Y2.0632
N6095 X0.8497 Y2.0659
N6100 X0.8505 Y2.0687
N6105 X0.8521 Y2.0741
N6110 X0.8529 Y2.0768
N6115 X0.8538 Y2.0798
N6120 X0.8547 Y2.0823
N6125 X0.8556 Y2.085
N6130 X0.8566 Y2.0876
N6135 X0.8576 Y2.0904
N6140 X0.8586 Y2.0932
N6145 X0.8597 Y2.0959
N6150 X0.8608 Y2.0986
N6155 X0.8632 Y2.104
N6160 X0.8644 Y2.1068
N6165 X0.8656 Y2.1095
N6170 X0.867 Y2.1122
N6175 X0.8683 Y2.1149
N6180 X0.8697 Y2.1176
N6185 X0.8711 Y2.1204
N6190 X0.8726 Y2.1231
N6195 X0.8741 Y2.1258
N6200 X0.8756 Y2.1285
N6205 X0.8772 Y2.1312
N6210 X0.8783 Y2.1332
N6215 X0.8811 Y2.1376
N6220 X0.8822 Y2.1394
N6225 X0.884 Y2.1421
N6230 X0.8858 Y2.1449
N6235 X0.8877 Y2.1476
N6240 X0.8892 Y2.1497
N6245 X0.8919 Y2.1535
N6250 X0.8937 Y2.1557
N6255 X0.8957 Y2.1585
N6260 X0.8974 Y2.1605
N6265 X0.8979 Y2.1612
N6270 X0.9001 Y2.1639
N6275 X0.9028 Y2.1671
N6280 X0.9047 Y2.1693
N6285 X0.9071 Y2.1721
N6290 X0.9083 Y2.1733
N6295 X0.9121 Y2.1775
N6300 X0.9137 Y2.1791
N6305 X0.9164 Y2.1819
N6310 X0.9174 Y2.1829
N6315 X0.9202 Y2.1857
N6320 X0.9219 Y2.1872
N6325 X0.926 Y2.1911
N6330 X0.9273 Y2.1922
N6335 X0.93 Y2.1947
N6340 X0.9322 Y2.1965
N6345 X0.9355 Y2.1993
N6350 X0.9382 Y2.2015
N6355 X0.9389 Y2.202
N6360 X0.9409 Y2.2036
N6365 X0.9436 Y2.2057
N6370 X0.9459 Y2.2074
N6375 X0.9497 Y2.2102
N6380 X0.9518 Y2.2117
N6385 X0.9545 Y2.2135
N6390 X0.9572 Y2.2154
N6395 X0.96 Y2.2171
N6400 X0.9618 Y2.2183
N6405 X0.9662 Y2.221
N6410 X0.9681 Y2.2222
N6415 X0.9708 Y2.2238
N6420 X0.9736 Y2.2253
N6425 X0.9763 Y2.2268
N6430 X0.979 Y2.2283
N6435 X0.9817 Y2.2297
N6440 X0.9844 Y2.2311
N6445 X0.9872 Y2.2324
N6450 X0.9899 Y2.2337
N6455 X0.9926 Y2.235
N6460 X0.9953 Y2.2362
N6465 X1.0008 Y2.2385
N6470 X1.0035 Y2.2396
N6475 X1.0062 Y2.2407
N6480 X1.0089 Y2.2418
N6485 X1.0117 Y2.2428
N6490 X1.0144 Y2.2437
N6495 X1.0171 Y2.2447
N6500 X1.0196 Y2.2455
N6505 X1.0225 Y2.2465
N6510 X1.0253 Y2.2473
N6515 X1.0307 Y2.2489
N6520 X1.0334 Y2.2496
N6525 X1.0361 Y2.2503
N6530 X1.0387 Y2.251
N6535 X1.0416 Y2.2517
N6540 X1.0443 Y2.2523
N6545 X1.047 Y2.2529
N6550 X1.0497 Y2.2534
N6555 X1.0511 Y2.2537
N6560 X1.0552 Y2.2545
N6565 X1.0579 Y2.2549
N6570 X1.0606 Y2.2553
N6575 X1.0634 Y2.2558
N6580 X1.0681 Y2.2564
N6585 X1.0688 Y2.2565
N6590 X1.0742 Y2.2571
N6595 X1.077 Y2.2574
N6600 X1.0797 Y2.2576
N6605 X1.0824 Y2.2578
N6610 X1.0851 Y2.258
N6615 X1.0878 Y2.2581
N6620 X1.0933 Y2.2583
N6625 X1.096 Y2.2584
N6630 X1.0987 Y2.2585
N6635 X1.1014
N6640 X1.2538
N6645 X1.2647
N6650 X1.2756
N6655 X1.2865
N6660 X1.2973
N6665 X1.3082
N6670 X1.5994 Y2.2584
N6675 X1.8959 Y2.2585
N6680 X1.9068
N6685 X1.9177
N6690 X1.9286
N6695 X1.9395
N6700 X1.9504
N6705 X2.0973
N6710 X2.1
N6715 X2.1027 Y2.2584
N6720 X2.1055 Y2.2583
N6725 X2.1109 Y2.2581
N6730 X2.1136 Y2.258
N6735 X2.1163 Y2.2578
N6740 X2.1191 Y2.2576
N6745 X2.1218 Y2.2574
N6750 X2.1245 Y2.2571
N6755 X2.1299 Y2.2565
N6760 X2.1306 Y2.2564
N6765 X2.1354 Y2.2558
N6770 X2.1381 Y2.2553
N6775 X2.1408 Y2.2549
N6780 X2.1435 Y2.2545
N6785 X2.1477 Y2.2537
N6790 X2.149 Y2.2534
N6795 X2.1544 Y2.2523
N6800 X2.1571 Y2.2517
N6805 X2.1601 Y2.251
N6810 X2.1626 Y2.2503
N6815 X2.1653 Y2.2496
N6820 X2.168 Y2.2489
N6825 X2.1735 Y2.2473
N6830 X2.1762 Y2.2465
N6835 X2.1791 Y2.2455
N6840 X2.1816 Y2.2447
N6845 X2.1844 Y2.2437
N6850 X2.187 Y2.2428
N6855 X2.1898 Y2.2418
N6860 X2.1925 Y2.2407
N6865 X2.1952 Y2.2396
N6870 X2.198 Y2.2385
N6875 X2.2034 Y2.2362
N6880 X2.2061 Y2.235
N6885 X2.2088 Y2.2337
N6890 X2.2116 Y2.2324
N6895 X2.2143 Y2.2311
N6900 X2.217 Y2.2297
N6905 X2.2197 Y2.2283
N6910 X2.2225 Y2.2268
N6915 X2.2252 Y2.2253
N6920 X2.2279 Y2.2238
N6925 X2.2306 Y2.2222
N6930 X2.2325 Y2.221
N6935 X2.2369 Y2.2183
N6940 X2.2388 Y2.2171
N6945 X2.2415 Y2.2154
N6950 X2.2442 Y2.2135
N6955 X2.2469 Y2.2117
N6960 X2.2491 Y2.2102
N6965 X2.2528 Y2.2074
N6970 X2.2551 Y2.2057
N6975 X2.2578 Y2.2036
N6980 X2.2599 Y2.202
N6985 X2.2605 Y2.2015
N6990 X2.2633 Y2.1993
N6995 X2.2665 Y2.1965
N7000 X2.2687 Y2.1947
N7005 X2.2714 Y2.1922
N7010 X2.2727 Y2.1911
N7015 X2.2769 Y2.1872
N7020 X2.2785 Y2.1857
N7025 X2.2813 Y2.1829
N7030 X2.2823 Y2.1819
N7035 X2.285 Y2.1791
N7040 X2.2866 Y2.1775
N7045 X2.2905 Y2.1733
N7050 X2.2916 Y2.1721
N7055 X2.294 Y2.1693
N7060 X2.2959 Y2.1671
N7065 X2.2986 Y2.1639
N7070 X2.3008 Y2.1612
N7075 X2.3014 Y2.1605
N7080 X2.303 Y2.1585
N7085 X2.3051 Y2.1557
N7090 X2.3068 Y2.1535
N7095 X2.3095 Y2.1497
N7100 X2.311 Y2.1476
N7105 X2.3129 Y2.1449
N7110 X2.3147 Y2.1421
N7115 X2.3165 Y2.1394
N7120 X2.3177 Y2.1376
N7125 X2.3204 Y2.1332
N7130 X2.3215 Y2.1312
N7135 X2.3231 Y2.1285
N7140 X2.3247 Y2.1258
N7145 X2.3262 Y2.1231
N7150 X2.3276 Y2.1204
N7155 X2.3291 Y2.1176
N7160 X2.3304 Y2.1149
N7165 X2.3318 Y2.1122
N7170 X2.3331 Y2.1095
N7175 X2.3343 Y2.1068
N7180 X2.3356 Y2.104
N7185 X2.3379 Y2.0986
N7190 X2.339 Y2.0959
N7195 X2.3401 Y2.0932
N7200 X2.3411 Y2.0904
N7205 X2.3422 Y2.0876
N7210 X2.3431 Y2.085
N7215 X2.344 Y2.0823
N7220 X2.3449 Y2.0798
N7225 X2.3458 Y2.0768
N7230 X2.3467 Y2.0741
N7235 X2.3483 Y2.0687
N7240 X2.349 Y2.0659
N7245 X2.3497 Y2.0632
N7250 X2.3503 Y2.0607
N7255 X2.351 Y2.0578
N7260 X2.3517 Y2.0551
N7265 X2.3522 Y2.0523
N7270 X2.3528 Y2.0496
N7275 X2.3531 Y2.0483
N7280 X2.3538 Y2.0442
N7285 X2.3543 Y2.0415
N7290 X2.3547 Y2.0387
N7295 X2.3551 Y2.036
N7300 X2.3558 Y2.0313
N7305 X2.3559 Y2.0306
N7310 X2.3565 Y2.0251
N7315 X2.3567 Y2.0224
N7320 X2.357 Y2.0197
N7325 X2.3572 Y2.017
N7330 X2.3573 Y2.0142
N7335 X2.3575 Y2.0115
N7340 X2.3577 Y2.0061
N7345 X2.3578 Y2.0034
N7350 X2.3579 Y2.0006
N7355 X2.3578 Y1.9979
N7360 X2.3579 Y1.8456
N7365 Y1.8347
N7370 Y1.8238
N7375 Y1.8129
N7380 Y1.802
N7385 Y1.7911
N7390 X2.3578 Y1.5
N7395 X2.3579 Y1.2034
N7400 Y1.1925
N7405 Y1.1817
N7410 Y1.1708
N7415 Y1.1599
N7420 Y1.149
N7425 X2.3578 Y1.0021
N7430 X2.3579 Y0.9994
N7435 X2.3578 Y0.9966
N7440 X2.3577 Y0.9939
N7445 X2.3575 Y0.9885
N7450 X2.3573 Y0.9858
N7455 X2.3572 Y0.983
N7460 X2.357 Y0.9803
N7465 X2.3567 Y0.9776
N7470 X2.3565 Y0.9749
N7475 X2.3559 Y0.9694
N7480 X2.3558 Y0.9687
N7485 X2.3551 Y0.964
N7490 X2.3547 Y0.9613
N7495 X2.3543 Y0.9585
N7500 X2.3538 Y0.9558
N7505 X2.3531 Y0.9517
N7510 X2.3528 Y0.9504
N7515 X2.3517 Y0.9449
N7520 X2.351 Y0.9422
N7525 X2.3503 Y0.9393
N7530 X2.3497 Y0.9368
N7535 X2.349 Y0.9341
N7540 X2.3483 Y0.9313
N7545 X2.3467 Y0.9259
N7550 X2.3458 Y0.9232
N7555 X2.3449 Y0.9202
N7560 X2.344 Y0.9177
N7565 X2.3431 Y0.915
N7570 X2.3422 Y0.9124
N7575 X2.3411 Y0.9096
N7580 X2.3401 Y0.9068
N7585 X2.339 Y0.9041
N7590 X2.3379 Y0.9014
N7595 X2.3356 Y0.896
N7600 X2.3343 Y0.8932
N7605 X2.3331 Y0.8905
N7610 X2.3318 Y0.8878
N7615 X2.3304 Y0.8851
N7620 X2.3291 Y0.8824
N7625 X2.3276 Y0.8796
N7630 X2.3262 Y0.8769
N7635 X2.3247 Y0.8742
N7640 X2.3231 Y0.8715
N7645 X2.3215 Y0.8688
N7650 X2.3204 Y0.8668
N7655 X2.3177 Y0.8624
N7660 X2.3165 Y0.8606
N7665 X2.3147 Y0.8579
N7670 X2.3129 Y0.8551
N7675 X2.311 Y0.8524
N7680 X2.3095 Y0.8503
N7685 X2.3068 Y0.8465
N7690 X2.3051 Y0.8443
N7695 X2.303 Y0.8415
N7700 X2.3014 Y0.8395
N7705 X2.3008 Y0.8388
N7710 X2.2986 Y0.8361
N7715 X2.2959 Y0.8329
N7720 X2.294 Y0.8307
N7725 X2.2916 Y0.8279
N7730 X2.2905 Y0.8267
N7735 X2.2866 Y0.8225
N7740 X2.285 Y0.8209
N7745 X2.2823 Y0.8181
N7750 X2.2813 Y0.8171
N7755 X2.2785 Y0.8143
N7760 X2.2769 Y0.8128
N7765 X2.2727 Y0.8089
N7770 X2.2714 Y0.8078
N7775 X2.2687 Y0.8053
N7780 X2.2665 Y0.8035
N7785 X2.2633 Y0.8007
N7790 X2.2605 Y0.7985
N7795 X2.2599 Y0.798
N7800 X2.2578 Y0.7964
N7805 X2.2551 Y0.7943
N7810 X2.2528 Y0.7926
N7815 X2.2491 Y0.7898
N7820 X2.2469 Y0.7883
N7825 X2.2442 Y0.7865
N7830 X2.2415 Y0.7846
N7835 X2.2388 Y0.7829
N7840 X2.2369 Y0.7817
N7845 X2.2325 Y0.779
N7850 X2.2306 Y0.7778
N7855 X2.2279 Y0.7762
N7860 X2.2252 Y0.7747
N7865 X2.2225 Y0.7732
N7870 X2.2197 Y0.7717
N7875 X2.217 Y0.7703
N7880 X2.2143 Y0.7689
N7885 X2.2116 Y0.7676
N7890 X2.2088 Y0.7663
N7895 X2.2061 Y0.765
N7900 X2.2034 Y0.7638
N7905 X2.198 Y0.7615
N7910 X2.1952 Y0.7604
N7915 X2.1925 Y0.7593
N7920 X2.1898 Y0.7582
N7925 X2.187 Y0.7572
N7930 X2.1844 Y0.7563
N7935 X2.1816 Y0.7553
N7940 X2.1791 Y0.7545
N7945 X2.1762 Y0.7535
N7950 X2.1735 Y0.7527
N7955 X2.168 Y0.7511
N7960 X2.1653 Y0.7504
N7965 X2.1626 Y0.7497
N7970 X2.1601 Y0.749
N7975 X2.1571 Y0.7483
N7980 X2.1544 Y0.7477
N7985 X2.1517 Y0.7471
N7990 X2.149 Y0.7466
N7995 X2.1477 Y0.7463
N8000 X2.1435 Y0.7455
N8005 X2.1408 Y0.7451
N8010 X2.1381 Y0.7447
N8015 X2.1354 Y0.7442
N8020 X2.1306 Y0.7436
N8025 X2.1299 Y0.7435
N8030 X2.1245 Y0.7429
N8035 X2.1218 Y0.7426
N8040 X2.1191 Y0.7424
N8045 X2.1163 Y0.7422
N8050 X2.1136 Y0.742
N8055 X2.1109 Y0.7419
N8060 X2.1055 Y0.7417
N8065 X2.1027 Y0.7416
N8070 X2.1 Y0.7415
N8075 X2.0973
N8080 X1.9449
N8085 X1.934
N8090 X1.9232
N8095 X1.9123
N8100 X1.9014
N8105 X1.8905
N8110 X1.5994 Y0.7416
N8115 X1.3028 Y0.7415
N8120 X1.2919
N8125 X1.281
N8130 X1.2701
N8135 X1.2593
N8140 X1.2484
N8145 X1.1014
N8150 X1.0987
N8155 X1.096 Y0.7416
N8160 X1.0933 Y0.7417
N8165 X1.0878 Y0.7419
N8170 X1.0851 Y0.742
N8175 X1.0824 Y0.7422
N8180 X1.0797 Y0.7424
N8185 X1.077 Y0.7426
N8190 X1.0742 Y0.7429
N8195 X1.0688 Y0.7435
N8200 X1.0681 Y0.7436
N8205 X1.0634 Y0.7442
N8210 X1.0606 Y0.7447
N8215 X1.0579 Y0.7451
N8220 X1.0552 Y0.7455
N8225 X1.0511 Y0.7463
N8230 X1.0497 Y0.7466
N8235 X1.0443 Y0.7477
N8240 X1.0416 Y0.7483
N8245 X1.0387 Y0.749
N8250 X1.0361 Y0.7497
N8255 X1.0334 Y0.7504
N8260 X1.0307 Y0.7511
N8265 X1.0253 Y0.7527
N8270 X1.0225 Y0.7535
N8275 X1.0196 Y0.7545
N8280 X1.0171 Y0.7553
N8285 X1.0144 Y0.7563
N8290 X1.0117 Y0.7572
N8295 X1.0089 Y0.7582
N8300 X1.0062 Y0.7593
N8305 X1.0035 Y0.7604
N8310 X1.0008 Y0.7615
N8315 X0.9953 Y0.7638
N8320 X0.9926 Y0.765
N8325 X0.9899 Y0.7663
N8330 X0.9872 Y0.7676
N8335 X0.9844 Y0.7689
N8340 X0.9817 Y0.7703
N8345 X0.979 Y0.7717
N8350 X0.9763 Y0.7732
N8355 X0.9736 Y0.7747
N8360 X0.9708 Y0.7762
N8365 X0.9681 Y0.7778
N8370 X0.9662 Y0.779
N8375 X0.9618 Y0.7817
N8380 X0.96 Y0.7829
N8385 X0.9572 Y0.7846
N8390 X0.9545 Y0.7865
N8395 X0.9518 Y0.7883
N8400 X0.9497 Y0.7898
N8405 X0.9459 Y0.7926
N8410 X0.9436 Y0.7943
N8415 X0.9409 Y0.7964
N8420 X0.9389 Y0.798
N8425 X0.9382 Y0.7985
N8430 X0.9355 Y0.8007
N8435 X0.9322 Y0.8035
N8440 X0.93 Y0.8053
N8445 X0.9273 Y0.8078
N8450 X0.926 Y0.8089
N8455 X0.9219 Y0.8128
N8460 X0.9202 Y0.8143
N8465 X0.9174 Y0.8171
N8470 X0.9164 Y0.8181
N8475 X0.9137 Y0.8209
N8480 X0.9121 Y0.8225
N8485 X0.9083 Y0.8267
N8490 X0.9071 Y0.8279
N8495 X0.9047 Y0.8307
N8500 X0.9028 Y0.8329
N8505 X0.9001 Y0.8361
N8510 X0.8979 Y0.8388
N8515 X0.8974 Y0.8395
N8520 X0.8957 Y0.8415
N8525 X0.8937 Y0.8443
N8530 X0.8919 Y0.8465
N8535 X0.8892 Y0.8503
N8540 X0.8877 Y0.8524
N8545 X0.8858 Y0.8551
N8550 X0.884 Y0.8579
N8555 X0.8822 Y0.8606
N8560 X0.8811 Y0.8624
N8565 X0.8783 Y0.8668
N8570 X0.8772 Y0.8688
N8575 X0.8756 Y0.8715
N8580 X0.8741 Y0.8742
N8585 X0.8726 Y0.8769
N8590 X0.8711 Y0.8796
N8595 X0.8697 Y0.8824
N8600 X0.8683 Y0.8851
N8605 X0.867 Y0.8878
N8610 X0.8656 Y0.8905
N8615 X0.8644 Y0.8932
N8620 X0.8632 Y0.896
N8625 X0.8608 Y0.9014
N8630 X0.8597 Y0.9041
N8635 X0.8586 Y0.9068
N8640 X0.8576 Y0.9096
N8645 X0.8566 Y0.9124
N8650 X0.8556 Y0.915
N8655 X0.8547 Y0.9177
N8660 X0.8538 Y0.9202
N8665 X0.8529 Y0.9232
N8670 X0.8521 Y0.9259
N8675 X0.8505 Y0.9313
N8680 X0.8497 Y0.9341
N8685 X0.849 Y0.9368
N8690 X0.8484 Y0.9393
N8695 X0.8477 Y0.9422
N8700 X0.8471 Y0.9449
N8705 X0.8465 Y0.9477
N8710 X0.8459 Y0.9504
N8715 X0.8457 Y0.9517
N8720 X0.8449 Y0.9558
N8725 X0.8445 Y0.9585
N8730 X0.844 Y0.9613
N8735 X0.8436 Y0.964
N8740 X0.843 Y0.9688
N8745 X0.8429 Y0.9694
N8750 X0.8423 Y0.9749
N8755 X0.842 Y0.9776
N8760 X0.8418 Y0.9803
N8765 X0.8416 Y0.983
N8770 X0.8414 Y0.9858
N8775 X0.8412 Y0.9885
N8780 X0.841 Y0.9939
N8785 X0.8409 Y0.9966
N8790 Y0.9994
N8795 Y1.0021
N8800 X0.8408 Y1.1544
N8805 Y1.1653
N8810 Y1.1762
N8815 Y1.1871
N8820 Y1.198
N8825 Y1.2089
N8830 X0.8409 Y1.5
N8835 Y1.7116
N8840 X0.8404 Y1.7166
N8845 Y1.7215
N8850 X0.8403 Y1.7265 Z-0.4201
N8855 Y1.7314
N8860 X0.8401 Y1.7364
N8865 X0.84 Y1.7413 Z-0.4202
N8870 X0.8399 Y1.7463 Z-0.4203
N8875 X0.8397 Y1.7512 Z-0.4204
N8880 X0.8396 Y1.7562 Z-0.4205
N8885 X0.8394 Y1.7611 Z-0.4206
N8890 X0.8392 Y1.7661 Z-0.4207
N8895 X0.8389 Y1.771 Z-0.4208
N8900 X0.8387 Y1.776 Z-0.4209
N8905 X0.8384 Y1.7809 Z-0.421
N8910 X0.8382 Y1.7859 Z-0.4212
N8915 X0.8379 Y1.7908 Z-0.4213
N8920 X0.8376 Y1.7958 Z-0.4215
N8925 X0.8373 Y1.8007 Z-0.4216
N8930 X0.837 Y1.8057 Z-0.4218
N8935 X0.8366 Y1.8106 Z-0.422
N8940 X0.8307 Y1.8997 Z-0.4251
N8945 X0.8304 Y1.9047 Z-0.4253
N8950 X0.8301 Y1.9096 Z-0.4254
N8955 X0.8281 Y1.9393 Z-0.4265
N8960 X0.8278 Y1.9443 Z-0.4267
N8965 X0.8275 Y1.9492 Z-0.4268
N8970 X0.8254 Y1.9839 Z-0.428
N8975 X0.8251 Y1.9888 Z-0.4282
N8980 X0.8249 Y1.9938 Z-0.4284
N8985 X0.8246 Y1.9987 Z-0.4285
N8990 X0.8243 Y2.0036 Z-0.4287
N8995 X0.8242 Y2.0085 Z-0.4288
N9000 X0.8241 Y2.0135 Z-0.429
N9005 X0.8242 Y2.0184 Z-0.4291
N9010 X0.8244 Y2.0233 Z-0.4292
N9015 X0.8247 Y2.0282 Z-0.4293
N9020 X0.8251 Y2.0332 Z-0.4295
N9025 X0.8256 Y2.0381 Z-0.4296
N9030 X0.8262 Y2.043
N9035 X0.8268 Y2.0479 Z-0.4297
N9040 X0.8276 Y2.0528 Z-0.4298
N9045 X0.8285 Y2.0576 Z-0.4299
N9050 X0.8295 Y2.0625
N9055 X0.8306 Y2.0673
N9060 X0.8319 Y2.0721 Z-0.43
N9065 X0.8332 Y2.0769
N9070 X0.8346 Y2.0816
N9075 X0.8348 Y2.0823
N9080 X0.8357 Y2.085
N9085 X0.8366 Y2.0877
N9090 X0.8375 Y2.0905
N9095 X0.8384 Y2.0932
N9100 X0.8405 Y2.0986
N9105 X0.8415 Y2.1013
N9110 X0.843 Y2.1049
N9115 X0.8438 Y2.1068
N9120 X0.8457 Y2.1112
N9125 X0.8461 Y2.1122
N9130 X0.8486 Y2.1176
N9135 X0.8499 Y2.1204
N9140 X0.8512 Y2.1231
N9145 X0.8526 Y2.1258
N9150 X0.854 Y2.1285
N9155 X0.8555 Y2.1312
N9160 X0.857 Y2.134
N9165 X0.8585 Y2.1367
N9170 X0.8601 Y2.1394
N9175 X0.8617 Y2.1421
N9180 X0.865 Y2.1476
N9185 X0.8668 Y2.1503
N9190 X0.8685 Y2.153
N9195 X0.8702 Y2.1554
N9200 X0.8723 Y2.1585
N9205 X0.8729 Y2.1594
N9210 X0.8762 Y2.1639
N9215 X0.8782 Y2.1666
N9220 X0.8803 Y2.1693
N9225 X0.8811 Y2.1704
N9230 X0.8846 Y2.1748
N9235 X0.8865 Y2.1771
N9240 X0.8892 Y2.1803
N9245 X0.8915 Y2.1829
N9250 X0.8939 Y2.1857
N9255 X0.8947 Y2.1865
N9260 X0.8974 Y2.1894
N9265 X0.899 Y2.1911
N9270 X0.9028 Y2.1951
N9275 X0.9043 Y2.1965
N9280 X0.9083 Y2.2004
N9285 X0.91 Y2.202
N9290 X0.9129 Y2.2047
N9295 X0.9137 Y2.2055
N9300 X0.9164 Y2.2079
N9305 X0.919 Y2.2102
N9310 X0.9223 Y2.2129
N9315 X0.9246 Y2.2148
N9320 X0.929 Y2.2183
N9325 X0.93 Y2.2191
N9330 X0.9327 Y2.2212
N9335 X0.9355 Y2.2232
N9340 X0.94 Y2.2265
N9345 X0.9409 Y2.2271
N9350 X0.9439 Y2.2292
N9355 X0.9464 Y2.2308
N9360 X0.9491 Y2.2326
N9365 X0.9518 Y2.2344
N9370 X0.9572 Y2.2377
N9375 X0.96 Y2.2393
N9380 X0.9627 Y2.2409
N9385 X0.9654 Y2.2424
N9390 X0.9681 Y2.2439
N9395 X0.9708 Y2.2453
N9400 X0.9736 Y2.2468
N9405 X0.9763 Y2.2481
N9410 X0.979 Y2.2495
N9415 X0.9817 Y2.2508
N9420 X0.9872 Y2.2533
N9425 X0.9881 Y2.2537
N9430 X0.9926 Y2.2556
N9435 X0.9945 Y2.2564
N9440 X0.998 Y2.2578
N9445 X1.0008 Y2.2589
N9450 X1.0062 Y2.2609
N9455 X1.0089 Y2.2619
N9460 X1.0117 Y2.2628
N9465 X1.0144 Y2.2637
N9470 X1.0171 Y2.2646
N9475 X1.0198 Y2.2654
N9480 X1.0253 Y2.267
N9485 X1.0263 Y2.2673
N9490 X1.0307 Y2.2685
N9495 X1.0334 Y2.2692
N9500 X1.0389 Y2.2704
N9505 X1.0416 Y2.271
N9510 X1.0443 Y2.2716
N9515 X1.047 Y2.2722
N9520 X1.0525 Y2.2732
N9525 X1.0552 Y2.2736
N9530 X1.0579 Y2.2741
N9535 X1.0606 Y2.2745
N9540 X1.0661 Y2.2752
N9545 X1.0682 Y2.2755
N9550 X1.0715 Y2.2758
N9555 X1.0742 Y2.2761
N9560 X1.0797 Y2.2766
N9565 X1.0824 Y2.2767
N9570 X1.0851 Y2.2769
N9575 X1.0878 Y2.277
N9580 X1.0933 Y2.2772
N9585 X1.096 Y2.2773
N9590 X1.0987
N9595 X1.1014
N9600 X1.447 Y2.2774
N9605 X1.4497
N9610 X1.4552
N9615 X1.5994 Y2.2773
N9620 X1.7463 Y2.2774
N9625 X1.749
N9630 X1.798 Y2.2773
N9635 X2.0973
N9640 X2.1
N9645 X2.1027
N9650 X2.1055 Y2.2772
N9655 X2.1109 Y2.277
N9660 X2.1136 Y2.2769
N9665 X2.1163 Y2.2767
N9670 X2.1191 Y2.2766
N9675 X2.1245 Y2.2761
N9680 X2.1272 Y2.2758
N9685 X2.1305 Y2.2755
N9690 X2.1327 Y2.2752
N9695 X2.1381 Y2.2745
N9700 X2.1408 Y2.2741
N9705 X2.1435 Y2.2736
N9710 X2.1463 Y2.2732
N9715 X2.1517 Y2.2722
N9720 X2.1544 Y2.2716
N9725 X2.1571 Y2.271
N9730 X2.1599 Y2.2704
N9735 X2.1653 Y2.2692
N9740 X2.168 Y2.2685
N9745 X2.1724 Y2.2673
N9750 X2.1735 Y2.267
N9755 X2.1789 Y2.2654
N9760 X2.1816 Y2.2646
N9765 X2.1844 Y2.2637
N9770 X2.1871 Y2.2628
N9775 X2.1898 Y2.2618
N9780 X2.1925 Y2.2609
N9785 X2.198 Y2.2589
N9790 X2.2007 Y2.2578
N9795 X2.2042 Y2.2564
N9800 X2.2061 Y2.2556
N9805 X2.2106 Y2.2537
N9810 X2.2116 Y2.2533
N9815 X2.217 Y2.2508
N9820 X2.2197 Y2.2495
N9825 X2.2225 Y2.2481
N9830 X2.2252 Y2.2468
N9835 X2.2279 Y2.2453
N9840 X2.2306 Y2.2439
N9845 X2.2333 Y2.2424
N9850 X2.2361 Y2.2409
N9855 X2.2388 Y2.2393
N9860 X2.2415 Y2.2377
N9865 X2.2469 Y2.2344
N9870 X2.2497 Y2.2326
N9875 X2.2524 Y2.2308
N9880 X2.2548 Y2.2292
N9885 X2.2578 Y2.2271
N9890 X2.2587 Y2.2265
N9895 X2.2633 Y2.2232
N9900 X2.266 Y2.2212
N9905 X2.2687 Y2.2191
N9910 X2.2697 Y2.2183
N9915 X2.2741 Y2.2148
N9920 X2.2765 Y2.2129
N9925 X2.2797 Y2.2102
N9930 X2.2823 Y2.2079
N9935 X2.285 Y2.2055
N9940 X2.2858 Y2.2047
N9945 X2.2888 Y2.202
N9950 X2.2905 Y2.2004
N9955 X2.2944 Y2.1965
N9960 X2.2959 Y2.1951
N9965 X2.2998 Y2.1911
N9970 X2.3014 Y2.1894
N9975 X2.3041 Y2.1865
N9980 X2.3048 Y2.1857
N9985 X2.3072 Y2.1829
N9990 X2.3095 Y2.1803
N9995 X2.3122 Y2.1771
N10000 X2.3142 Y2.1748
N10005 X2.3177 Y2.1704
N10010 X2.3185 Y2.1693
N10015 X2.3205 Y2.1666
N10020 X2.3226 Y2.1639
N10025 X2.3258 Y2.1594
N10030 X2.3265 Y2.1585
N10035 X2.3286 Y2.1554
N10040 X2.3302 Y2.153
N10045 X2.332 Y2.1503
N10050 X2.3337 Y2.1476
N10055 X2.3371 Y2.1421
N10060 X2.3387 Y2.1394
N10065 X2.3403 Y2.1367
N10070 X2.3418 Y2.134
N10075 X2.3433 Y2.1312
N10080 X2.3447 Y2.1285
N10085 X2.3461 Y2.1258
N10090 X2.3475 Y2.1231
N10095 X2.3488 Y2.1204
N10100 X2.3501 Y2.1176
N10105 X2.3526 Y2.1122
N10110 X2.3531 Y2.1113
N10115 X2.355 Y2.1068
N10120 X2.3558 Y2.1049
N10125 X2.3572 Y2.1013
N10130 X2.3583 Y2.0986
N10135 X2.3603 Y2.0932
N10140 X2.3612 Y2.0904
N10145 X2.3622 Y2.0877
N10150 X2.3631 Y2.085
N10155 X2.3639 Y2.0823
N10160 X2.3648 Y2.0796
N10165 X2.3664 Y2.0741
N10170 X2.3667 Y2.0731
N10175 X2.3678 Y2.0687
N10180 X2.3685 Y2.0659
N10185 X2.3698 Y2.0605
N10190 X2.3704 Y2.0578
N10195 X2.371 Y2.0551
N10200 X2.3715 Y2.0523
N10205 X2.3725 Y2.0469
N10210 X2.373 Y2.0442
N10215 X2.3734 Y2.0415
N10220 X2.3738 Y2.0387
N10225 X2.3746 Y2.0333
N10230 X2.3748 Y2.0311
N10235 X2.3752 Y2.0279
N10240 X2.3755 Y2.0251
N10245 X2.3759 Y2.0197
N10250 X2.3761 Y2.017
N10255 X2.3763 Y2.0142
N10260 X2.3764 Y2.0115
N10265 X2.3766 Y2.0061
N10270 X2.3767 Y2.0034
N10275 X2.3766 Y2.0006
N10280 Y1.9979
N10285 X2.3767 Y1.6524
N10290 Y1.6496
N10295 Y1.6442
N10300 Y1.5
N10305 Y1.3531
N10310 Y1.3504
N10315 Y1.3014
N10320 X2.3766 Y1.0021
N10325 Y0.9994
N10330 X2.3767 Y0.9966
N10335 X2.3766 Y0.9939
N10340 X2.3764 Y0.9885
N10345 X2.3763 Y0.9858
N10350 X2.3761 Y0.983
N10355 X2.3759 Y0.9803
N10360 X2.3755 Y0.9749
N10365 X2.3752 Y0.9721
N10370 X2.3748 Y0.9689
N10375 X2.3746 Y0.9667
N10380 X2.3738 Y0.9613
N10385 X2.3734 Y0.9585
N10390 X2.373 Y0.9558
N10395 X2.3725 Y0.9531
N10400 X2.3715 Y0.9477
N10405 X2.371 Y0.9449
N10410 X2.3704 Y0.9422
N10415 X2.3698 Y0.9395
N10420 X2.3685 Y0.9341
N10425 X2.3678 Y0.9313
N10430 X2.3667 Y0.9269
N10435 X2.3664 Y0.9259
N10440 X2.3648 Y0.9204
N10445 X2.3639 Y0.9177
N10450 X2.3631 Y0.915
N10455 X2.3622 Y0.9123
N10460 X2.3612 Y0.9095
N10465 X2.3603 Y0.9068
N10470 X2.3583 Y0.9014
N10475 X2.3572 Y0.8987
N10480 X2.3558 Y0.8951
N10485 X2.355 Y0.8932
N10490 X2.3531 Y0.8887
N10495 X2.3526 Y0.8878
N10500 X2.3501 Y0.8824
N10505 X2.3488 Y0.8796
N10510 X2.3475 Y0.8769
N10515 X2.3461 Y0.8742
N10520 X2.3447 Y0.8715
N10525 X2.3433 Y0.8688
N10530 X2.3418 Y0.866
N10535 X2.3403 Y0.8633
N10540 X2.3387 Y0.8606
N10545 X2.3371 Y0.8579
N10550 X2.3337 Y0.8524
N10555 X2.332 Y0.8497
N10560 X2.3302 Y0.847
N10565 X2.3286 Y0.8446
N10570 X2.3265 Y0.8415
N10575 X2.3258 Y0.8406
N10580 X2.3226 Y0.8361
N10585 X2.3205 Y0.8334
N10590 X2.3185 Y0.8307
N10595 X2.3177 Y0.8296
N10600 X2.3142 Y0.8252
N10605 X2.3122 Y0.8229
N10610 X2.3095 Y0.8197
N10615 X2.3072 Y0.8171
N10620 X2.3048 Y0.8143
N10625 X2.3041 Y0.8135
N10630 X2.3014 Y0.8106
N10635 X2.2998 Y0.8089
N10640 X2.2959 Y0.8049
N10645 X2.2944 Y0.8035
N10650 X2.2905 Y0.7996
N10655 X2.2888 Y0.798
N10660 X2.2858 Y0.7953
N10665 X2.285 Y0.7945
N10670 X2.2823 Y0.7921
N10675 X2.2797 Y0.7898
N10680 X2.2765 Y0.7871
N10685 X2.2741 Y0.7852
N10690 X2.2697 Y0.7817
N10695 X2.2687 Y0.7809
N10700 X2.266 Y0.7788
N10705 X2.2633 Y0.7768
N10710 X2.2587 Y0.7735
N10715 X2.2578 Y0.7729
N10720 X2.2548 Y0.7708
N10725 X2.2524 Y0.7692
N10730 X2.2497 Y0.7674
N10735 X2.2469 Y0.7656
N10740 X2.2415 Y0.7623
N10745 X2.2388 Y0.7607
N10750 X2.2361 Y0.7591
N10755 X2.2333 Y0.7576
N10760 X2.2306 Y0.7561
N10765 X2.2279 Y0.7547
N10770 X2.2252 Y0.7532
N10775 X2.2225 Y0.7519
N10780 X2.2197 Y0.7505
N10785 X2.217 Y0.7492
N10790 X2.2116 Y0.7467
N10795 X2.2106 Y0.7463
N10800 X2.2061 Y0.7444
N10805 X2.2042 Y0.7436
N10810 X2.2007 Y0.7422
N10815 X2.198 Y0.7411
N10820 X2.1925 Y0.7391
N10825 X2.1898 Y0.7381
N10830 X2.1871 Y0.7372
N10835 X2.1844 Y0.7363
N10840 X2.1816 Y0.7354
N10845 X2.1789 Y0.7346
N10850 X2.1735 Y0.733
N10855 X2.1724 Y0.7327
N10860 X2.168 Y0.7315
N10865 X2.1653 Y0.7308
N10870 X2.1599 Y0.7296
N10875 X2.1571 Y0.729
N10880 X2.1544 Y0.7284
N10885 X2.1517 Y0.7278
N10890 X2.1463 Y0.7268
N10895 X2.1435 Y0.7264
N10900 X2.1408 Y0.7259
N10905 X2.1381 Y0.7255
N10910 X2.1327 Y0.7248
N10915 X2.1305 Y0.7245
N10920 X2.1272 Y0.7242
N10925 X2.1245 Y0.7239
N10930 X2.1191 Y0.7234
N10935 X2.1163 Y0.7233
N10940 X2.1136 Y0.7231
N10945 X2.1109 Y0.723
N10950 X2.1055 Y0.7228
N10955 X2.1027 Y0.7227
N10960 X2.1
N10965 X2.0973
N10970 X1.7517 Y0.7226
N10975 X1.749
N10980 X1.7436
N10985 X1.5994 Y0.7227
N10990 X1.4524 Y0.7226
N10995 X1.4497
N11000 X1.4007 Y0.7227
N11005 X1.1014
N11010 X1.0987
N11015 X1.096
N11020 X1.0933 Y0.7228
N11025 X1.0878 Y0.723
N11030 X1.0851 Y0.7231
N11035 X1.0824 Y0.7233
N11040 X1.0797 Y0.7234
N11045 X1.0742 Y0.7239
N11050 X1.0715 Y0.7242
N11055 X1.0682 Y0.7245
N11060 X1.0661 Y0.7248
N11065 X1.0606 Y0.7255
N11070 X1.0579 Y0.7259
N11075 X1.0552 Y0.7264
N11080 X1.0525 Y0.7268
N11085 X1.047 Y0.7278
N11090 X1.0443 Y0.7284
N11095 X1.0416 Y0.729
N11100 X1.0389 Y0.7296
N11105 X1.0334 Y0.7308
N11110 X1.0307 Y0.7315
N11115 X1.0263 Y0.7327
N11120 X1.0253 Y0.733
N11125 X1.0198 Y0.7346
N11130 X1.0171 Y0.7354
N11135 X1.0144 Y0.7363
N11140 X1.0117 Y0.7372
N11145 X1.0089 Y0.7382
N11150 X1.0062 Y0.7391
N11155 X1.0008 Y0.7411
N11160 X0.998 Y0.7422
N11165 X0.9945 Y0.7436
N11170 X0.9926 Y0.7444
N11175 X0.9881 Y0.7463
N11180 X0.9872 Y0.7467
N11185 X0.9817 Y0.7492
N11190 X0.979 Y0.7505
N11195 X0.9763 Y0.7519
N11200 X0.9736 Y0.7532
N11205 X0.9708 Y0.7547
N11210 X0.9681 Y0.7561
N11215 X0.9654 Y0.7576
N11220 X0.9627 Y0.7591
N11225 X0.96 Y0.7607
N11230 X0.9572 Y0.7623
N11235 X0.9518 Y0.7656
N11240 X0.9491 Y0.7674
N11245 X0.9464 Y0.7692
N11250 X0.9439 Y0.7708
N11255 X0.9409 Y0.7729
N11260 X0.94 Y0.7735
N11265 X0.9355 Y0.7768
N11270 X0.9327 Y0.7788
N11275 X0.93 Y0.7809
N11280 X0.929 Y0.7817
N11285 X0.9246 Y0.7852
N11290 X0.9223 Y0.7871
N11295 X0.919 Y0.7898
N11300 X0.9164 Y0.7921
N11305 X0.9137 Y0.7945
N11310 X0.9129 Y0.7953
N11315 X0.91 Y0.798
N11320 X0.9083 Y0.7996
N11325 X0.9043 Y0.8035
N11330 X0.9028 Y0.8049
N11335 X0.899 Y0.8089
N11340 X0.8974 Y0.8106
N11345 X0.8947 Y0.8135
N11350 X0.8939 Y0.8143
N11355 X0.8915 Y0.8171
N11360 X0.8892 Y0.8197
N11365 X0.8865 Y0.8229
N11370 X0.8846 Y0.8252
N11375 X0.8811 Y0.8296
N11380 X0.8803 Y0.8307
N11385 X0.8782 Y0.8334
N11390 X0.8762 Y0.8361
N11395 X0.8729 Y0.8406
N11400 X0.8723 Y0.8415
N11405 X0.8702 Y0.8446
N11410 X0.8685 Y0.847
N11415 X0.8668 Y0.8497
N11420 X0.865 Y0.8524
N11425 X0.8617 Y0.8579
N11430 X0.8601 Y0.8606
N11435 X0.8585 Y0.8633
N11440 X0.857 Y0.866
N11445 X0.8555 Y0.8688
N11450 X0.854 Y0.8715
N11455 X0.8526 Y0.8742
N11460 X0.8512 Y0.8769
N11465 X0.8499 Y0.8796
N11470 X0.8486 Y0.8824
N11475 X0.8461 Y0.8878
N11480 X0.8457 Y0.8888
N11485 X0.8438 Y0.8932
N11490 X0.843 Y0.8951
N11495 X0.8415 Y0.8987
N11500 X0.8405 Y0.9014
N11505 X0.8384 Y0.9068
N11510 X0.8375 Y0.9096
N11515 X0.8366 Y0.9123
N11520 X0.8357 Y0.915
N11525 X0.8348 Y0.9178
N11530 X0.8339 Y0.9204
N11535 X0.8324 Y0.9259
N11540 X0.8321 Y0.9269
N11545 X0.8309 Y0.9313
N11550 X0.8302 Y0.9341
N11555 X0.8289 Y0.9395
N11560 X0.8283 Y0.9422
N11565 X0.8278 Y0.9449
N11570 X0.8272 Y0.9477
N11575 X0.8262 Y0.9531
N11580 X0.8257 Y0.9558
N11585 X0.8253 Y0.9585
N11590 X0.8249 Y0.9613
N11595 X0.8242 Y0.9667
N11600 X0.8239 Y0.9689
N11605 X0.8235 Y0.9721
N11610 X0.8233 Y0.9749
N11615 X0.8228 Y0.9803
N11620 X0.8226 Y0.983
N11625 X0.8225 Y0.9858
N11630 X0.8223 Y0.9885
N11635 X0.8221 Y0.9939
N11640 Y0.9966
N11645 Y0.9994
N11650 Y1.0021
N11655 X0.822 Y1.3476
N11660 Y1.3504
N11665 Y1.3558
N11670 Y1.5
N11675 Y1.6469
N11680 Y1.6496
N11685 Y1.6986
N11690 X0.8221 Y1.9979
N11695 Y2.0006
N11700 Y2.0034
N11705 Y2.0061
N11710 X0.8223 Y2.0115
N11715 X0.8225 Y2.0142
N11720 X0.8226 Y2.017
N11725 X0.8228 Y2.0197
N11730 X0.8233 Y2.0251
N11735 X0.8235 Y2.0279
N11740 X0.8239 Y2.0311
N11745 X0.8242 Y2.0333
N11750 X0.8249 Y2.0387
N11755 X0.8253 Y2.0415
N11760 X0.8257 Y2.0442
N11765 X0.8262 Y2.0469
N11770 X0.8272 Y2.0523
N11775 X0.8278 Y2.0551
N11780 X0.8283 Y2.0578
N11785 X0.8289 Y2.0605
N11790 X0.8302 Y2.0659
N11795 X0.8309 Y2.0687
N11800 X0.8321 Y2.0731
N11805 X0.8324 Y2.0741
N11810 X0.8339 Y2.0796
N11815 X0.8346 Y2.0816
N11820 X0.836 Y2.0861
N11825 X0.8375 Y2.0906
N11830 X0.839 Y2.0949
N11835 X0.8406 Y2.0993 Z-0.4301
N11840 X0.8423 Y2.1038
N11845 X0.844 Y2.1081 Z-0.4302
N11850 X0.8457 Y2.1124 Z-0.4303
N11855 X0.8476 Y2.1168
N11860 X0.8495 Y2.1211 Z-0.4304
N11865 X0.8514 Y2.1252 Z-0.4305
N11870 X0.8535 Y2.1297 Z-0.4306
N11875 X0.8555 Y2.1338 Z-0.4307
N11880 X0.8576 Y2.1379 Z-0.4308
N11885 X0.8599 Y2.1423 Z-0.431
N11890 X0.8621 Y2.1464 Z-0.4311
N11895 X0.8644 Y2.1504 Z-0.4312
N11900 X0.8668 Y2.1545 Z-0.4314
N11905 X0.8693 Y2.1586 Z-0.4315
N11910 X0.8717 Y2.1625 Z-0.4317
N11915 X0.8744 Y2.1667 Z-0.4318
N11920 X0.877 Y2.1706 Z-0.432
N11925 X0.8796 Y2.1744 Z-0.4322
N11930 X0.8823 Y2.1782 Z-0.4323
N11935 X0.8853 Y2.1822 Z-0.4325
N11940 X0.8882 Y2.1859 Z-0.4327
N11945 X0.8911 Y2.1896 Z-0.4328
N11950 X0.8942 Y2.1934 Z-0.433
N11955 X0.8973 Y2.1969 Z-0.4332
N11960 X0.9004 Y2.2005 Z-0.4333
N11965 X0.9037 Y2.2042 Z-0.4335
N11970 X0.907 Y2.2076 Z-0.4337
N11975 X0.9102 Y2.211 Z-0.4338
N11980 X0.9138 Y2.2144 Z-0.434
N11985 X0.9172 Y2.2177 Z-0.4342
N11990 X0.9207 Y2.2209 Z-0.4343
N11995 X0.9243 Y2.2242 Z-0.4345
N12000 X0.928 Y2.2274 Z-0.4347
N12005 X0.9316 Y2.2304 Z-0.4348
N12010 X0.9354 Y2.2335 Z-0.435
N12015 X0.9392 Y2.2365 Z-0.4352
N12020 X0.943 Y2.2394 Z-0.4353
N12025 X0.947 Y2.2423 Z-0.4355
N12030 X0.951 Y2.245 Z-0.4357
N12035 X0.955 Y2.2477 Z-0.4358
N12040 X0.959 Y2.2504 Z-0.436
N12045 X0.9632 Y2.2529 Z-0.4362
N12050 X0.9674 Y2.2554 Z-0.4364
N12055 X0.9715 Y2.2578 Z-0.4365
N12060 X0.9758 Y2.2602 Z-0.4367
N12065 X0.9801 Y2.2625 Z-0.4369
N12070 X0.9845 Y2.2647 Z-0.437
N12075 X0.9888 Y2.2669 Z-0.4372
N12080 X0.9933 Y2.269 Z-0.4374
N12085 X0.9977 Y2.271 Z-0.4375
N12090 X1.0022 Y2.2729 Z-0.4377
N12095 X1.0068 Y2.2748 Z-0.4379
N12100 X1.0114 Y2.2766 Z-0.4381
N12105 X1.016 Y2.2783 Z-0.4382
N12110 X1.0206 Y2.2799 Z-0.4384
N12115 X1.0253 Y2.2814 Z-0.4385
N12120 X1.03 Y2.2829 Z-0.4387
N12125 X1.0347 Y2.2843 Z-0.4388
N12130 X1.0395 Y2.2855 Z-0.439
N12135 X1.0443 Y2.2867 Z-0.4391
N12140 X1.0491 Y2.2878 Z-0.4392
N12145 X1.054 Y2.2888 Z-0.4394
N12150 X1.0588 Y2.2897 Z-0.4395
N12155 X1.0637 Y2.2905 Z-0.4396
N12160 X1.0686 Y2.2912
N12165 X1.0735 Y2.2918 Z-0.4397
N12170 X1.0784 Y2.2924 Z-0.4398
N12175 X1.0833 Y2.2928 Z-0.4399
N12180 X1.0883 Y2.2931
N12185 X1.0932 Y2.2933
N12190 X1.0982 Y2.2934 Z-0.44
N12195 X1.1031 Y2.2935
N12200 X1.1076 Y2.2932
N12205 X1.3082
N12210 X1.5994
N12215 X1.8905
N12220 X2.0973
N12225 X2.1
N12230 X2.1027
N12235 X2.1055 Y2.2931
N12240 X2.1082 Y2.293
N12245 X2.1109 Y2.2929
N12250 X2.1136 Y2.2928
N12255 X2.1191 Y2.2925
N12260 X2.1218 Y2.2923
N12265 X2.1245 Y2.292
N12270 X2.1272 Y2.2918
N12275 X2.1327 Y2.2912
N12280 X2.1354 Y2.2909
N12285 X2.1408 Y2.2901
N12290 X2.1435 Y2.2897
N12295 X2.1475 Y2.2891
N12300 X2.149 Y2.2888
N12305 X2.1544 Y2.2878
N12310 X2.1571 Y2.2873
N12315 X2.1626 Y2.2861
N12320 X2.1653 Y2.2855
N12325 X2.168 Y2.2848
N12330 X2.1708 Y2.2841
N12335 X2.1762 Y2.2827
N12340 X2.1789 Y2.2819
N12345 X2.1825 Y2.2809
N12350 X2.1844 Y2.2803
N12355 X2.1898 Y2.2786
N12360 X2.1912 Y2.2782
N12365 X2.1952 Y2.2768
N12370 X2.198 Y2.2758
N12375 X2.2034 Y2.2738
N12380 X2.2061 Y2.2727
N12385 X2.2088 Y2.2716
N12390 X2.2116 Y2.2705
N12395 X2.217 Y2.2682
N12400 X2.2191 Y2.2673
N12405 X2.2225 Y2.2657
N12410 X2.2249 Y2.2646
N12415 X2.2305 Y2.2618
N12420 X2.2306
N12425 X2.2333 Y2.2604
N12430 X2.2361 Y2.259
N12435 X2.2388 Y2.2575
N12440 X2.2415 Y2.256
N12445 X2.2442 Y2.2545
N12450 X2.2469 Y2.2529
N12455 X2.2497 Y2.2513
N12460 X2.2551 Y2.248
N12465 X2.2578 Y2.2462
N12470 X2.2605 Y2.2444
N12475 X2.263 Y2.2428
N12480 X2.267 Y2.2401
N12485 X2.2687 Y2.2389
N12490 X2.2714 Y2.2369
N12495 X2.2741 Y2.2349
N12500 X2.2781 Y2.2319
N12505 X2.2796 Y2.2308
N12510 X2.2849 Y2.2265
N12515 X2.285 Y2.2264
N12520 X2.2905 Y2.2218
N12525 X2.2914 Y2.221
N12530 X2.2944 Y2.2183
N12535 X2.2959 Y2.217
N12540 X2.2974 Y2.2156
N12545 X2.3004 Y2.2129
N12550 X2.3014 Y2.212
N12555 X2.306 Y2.2074
N12560 X2.3068 Y2.2066
N12565 X2.3113 Y2.202
N12570 X2.3122 Y2.201
N12575 X2.315 Y2.1981
N12580 X2.3164 Y2.1965
N12585 X2.3204 Y2.192
N12590 X2.3212 Y2.1911
N12595 X2.3258 Y2.1857
N12600 Y2.1856
N12605 X2.3301 Y2.1802
N12610 X2.3313 Y2.1787
N12615 X2.3343 Y2.1748
N12620 X2.3363 Y2.1721
N12625 X2.3382 Y2.1693
N12630 X2.3394 Y2.1676
N12635 X2.3422 Y2.1636
N12640 X2.3438 Y2.1612
N12645 X2.3456 Y2.1585
N12650 X2.3473 Y2.1557
N12655 X2.3507 Y2.1503
N12660 X2.3523 Y2.1476
N12665 X2.3539 Y2.1449
N12670 X2.3554 Y2.1421
N12675 X2.3569 Y2.1394
N12680 X2.3583 Y2.1367
N12685 X2.3598 Y2.134
N12690 X2.3612 Y2.1312
N12695 Y2.1311
N12700 X2.3639 Y2.1256
N12705 X2.3651 Y2.1231
N12710 X2.3667 Y2.1197
N12715 X2.3676 Y2.1176
N12720 X2.3699 Y2.1122
N12725 X2.371 Y2.1095
N12730 X2.3721 Y2.1068
N12735 X2.3732 Y2.104
N12740 X2.3752 Y2.0986
N12745 X2.3761 Y2.0959
N12750 X2.3775 Y2.0918
N12755 X2.378 Y2.0904
N12760 X2.3797 Y2.085
N12765 X2.3803 Y2.0832
N12770 X2.3813 Y2.0796
N12775 X2.3821 Y2.0768
N12780 X2.3835 Y2.0714
N12785 X2.3842 Y2.0687
N12790 X2.3848 Y2.0659
N12795 X2.3855 Y2.0632
N12800 X2.3866 Y2.0578
N12805 X2.3872 Y2.0551
N12810 X2.3882 Y2.0496
N12815 X2.3884 Y2.0481
N12820 X2.3891 Y2.0442
N12825 X2.3895 Y2.0415
N12830 X2.3902 Y2.036
N12835 X2.3905 Y2.0333
N12840 X2.3911 Y2.0279
N12845 X2.3914 Y2.0251
N12850 X2.3916 Y2.0224
N12855 X2.3918 Y2.0197
N12860 X2.3922 Y2.0142
N12865 X2.3923 Y2.0115
N12870 X2.3924 Y2.0088
N12875 X2.3925 Y2.0061
N12880 Y2.0034
N12885 X2.3926 Y2.0006
N12890 Y1.9979
N12895 Y1.7911
N12900 Y1.5
N12905 Y1.2089
N12910 Y1.0021
N12915 Y0.9994
N12920 X2.3925 Y0.9966
N12925 Y0.9939
N12930 X2.3924 Y0.9912
N12935 X2.3923 Y0.9885
N12940 X2.3922 Y0.9858
N12945 X2.3918 Y0.9803
N12950 X2.3916 Y0.9776
N12955 X2.3914 Y0.9749
N12960 X2.3911 Y0.9721
N12965 X2.3905 Y0.9667
N12970 X2.3902 Y0.964
N12975 X2.3895 Y0.9585
N12980 X2.3891 Y0.9558
N12985 X2.3884 Y0.9519
N12990 X2.3882 Y0.9504
N12995 X2.3872 Y0.9449
N13000 X2.3866 Y0.9422
N13005 X2.3855 Y0.9368
N13010 X2.3848 Y0.9341
N13015 X2.3842 Y0.9313
N13020 X2.3835 Y0.9286
N13025 X2.3821 Y0.9232
N13030 X2.3813 Y0.9204
N13035 X2.3803 Y0.9168
N13040 X2.3797 Y0.915
N13045 X2.378 Y0.9096
N13050 X2.3775 Y0.9082
N13055 X2.3761 Y0.9041
N13060 X2.3752 Y0.9014
N13065 X2.3732 Y0.896
N13070 X2.3721 Y0.8932
N13075 X2.371 Y0.8905
N13080 X2.3699 Y0.8878
N13085 X2.3676 Y0.8824
N13090 X2.3667 Y0.8803
N13095 X2.3651 Y0.8769
N13100 X2.3639 Y0.8744
N13105 X2.3612 Y0.8689
N13110 Y0.8688
N13115 X2.3598 Y0.866
N13120 X2.3583 Y0.8633
N13125 X2.3569 Y0.8606
N13130 X2.3554 Y0.8579
N13135 X2.3539 Y0.8551
N13140 X2.3523 Y0.8524
N13145 X2.3507 Y0.8497
N13150 X2.3473 Y0.8443
N13155 X2.3456 Y0.8415
N13160 X2.3438 Y0.8388
N13165 X2.3422 Y0.8364
N13170 X2.3394 Y0.8324
N13175 X2.3382 Y0.8307
N13180 X2.3363 Y0.8279
N13185 X2.3343 Y0.8252
N13190 X2.3313 Y0.8213
N13195 X2.3301 Y0.8198
N13200 X2.3258 Y0.8144
N13205 Y0.8143
N13210 X2.3212 Y0.8089
N13215 X2.3204 Y0.808
N13220 X2.3177 Y0.8049
N13225 X2.3164 Y0.8035
N13230 X2.315 Y0.8019
N13235 X2.3122 Y0.799
N13240 X2.3113 Y0.798
N13245 X2.3068 Y0.7934
N13250 X2.306 Y0.7926
N13255 X2.3014 Y0.788
N13260 X2.3004 Y0.7871
N13265 X2.2974 Y0.7844
N13270 X2.2959 Y0.783
N13275 X2.2914 Y0.779
N13280 X2.2905 Y0.7782
N13285 X2.2878 Y0.7759
N13290 X2.285 Y0.7736
N13295 X2.2849 Y0.7735
N13300 X2.2796 Y0.7692
N13305 X2.2781 Y0.7681
N13310 X2.2741 Y0.7651
N13315 X2.2714 Y0.7631
N13320 X2.2687 Y0.7611
N13325 X2.267 Y0.7599
N13330 X2.263 Y0.7572
N13335 X2.2605 Y0.7556
N13340 X2.2578 Y0.7538
N13345 X2.2551 Y0.752
N13350 X2.2497 Y0.7487
N13355 X2.2469 Y0.7471
N13360 X2.2442 Y0.7455
N13365 X2.2415 Y0.744
N13370 X2.2388 Y0.7425
N13375 X2.2361 Y0.741
N13380 X2.2333 Y0.7396
N13385 X2.2306 Y0.7382
N13390 X2.2305
N13395 X2.2249 Y0.7354
N13400 X2.2225 Y0.7343
N13405 X2.2191 Y0.7327
N13410 X2.217 Y0.7318
N13415 X2.2116 Y0.7295
N13420 X2.2088 Y0.7284
N13425 X2.2061 Y0.7273
N13430 X2.2034 Y0.7262
N13435 X2.198 Y0.7242
N13440 X2.1952 Y0.7232
N13445 X2.1912 Y0.7218
N13450 X2.1898 Y0.7214
N13455 X2.1844 Y0.7197
N13460 X2.1825 Y0.7191
N13465 X2.1789 Y0.7181
N13470 X2.1762 Y0.7173
N13475 X2.1708 Y0.7159
N13480 X2.168 Y0.7152
N13485 X2.1653 Y0.7145
N13490 X2.1626 Y0.7139
N13495 X2.1571 Y0.7127
N13500 X2.1544 Y0.7122
N13505 X2.149 Y0.7112
N13510 X2.1475 Y0.7109
N13515 X2.1435 Y0.7103
N13520 X2.1408 Y0.7099
N13525 X2.1354 Y0.7091
N13530 X2.1327 Y0.7088
N13535 X2.1299 Y0.7085
N13540 X2.1272 Y0.7082
N13545 X2.1245 Y0.708
N13550 X2.1218 Y0.7077
N13555 X2.1191 Y0.7075
N13560 X2.1136 Y0.7072
N13565 X2.1109 Y0.7071
N13570 X2.1082 Y0.707
N13575 X2.1055 Y0.7069
N13580 X2.1027 Y0.7068
N13585 X2.1
N13590 X2.0973
N13595 X1.8905
N13600 X1.5994
N13605 X1.3082
N13610 X1.1014
N13615 X1.0987
N13620 X1.096
N13625 X1.0933 Y0.7069
N13630 X1.0906 Y0.707
N13635 X1.0878 Y0.7071
N13640 X1.0851 Y0.7072
N13645 X1.0797 Y0.7075
N13650 X1.077 Y0.7077
N13655 X1.0742 Y0.708
N13660 X1.0715 Y0.7082
N13665 X1.0688 Y0.7085
N13670 X1.0661 Y0.7088
N13675 X1.0634 Y0.7091
N13680 X1.0579 Y0.7099
N13685 X1.0552 Y0.7103
N13690 X1.0512 Y0.7109
N13695 X1.0497 Y0.7112
N13700 X1.0443 Y0.7122
N13705 X1.0416 Y0.7127
N13710 X1.0361 Y0.7139
N13715 X1.0334 Y0.7145
N13720 X1.0307 Y0.7152
N13725 X1.028 Y0.7159
N13730 X1.0225 Y0.7173
N13735 X1.0198 Y0.7181
N13740 X1.0162 Y0.7191
N13745 X1.0144 Y0.7197
N13750 X1.0089 Y0.7214
N13755 X1.0076 Y0.7218
N13760 X1.0035 Y0.7232
N13765 X1.0008 Y0.7242
N13770 X0.9953 Y0.7262
N13775 X0.9926 Y0.7273
N13780 X0.9899 Y0.7284
N13785 X0.9872 Y0.7295
N13790 X0.9817 Y0.7318
N13795 X0.9797 Y0.7327
N13800 X0.9763 Y0.7343
N13805 X0.9738 Y0.7354
N13810 X0.9682 Y0.7382
N13815 X0.9681
N13820 X0.9654 Y0.7396
N13825 X0.9627 Y0.741
N13830 X0.96 Y0.7425
N13835 X0.9572 Y0.744
N13840 X0.9545 Y0.7455
N13845 X0.9518 Y0.7471
N13850 X0.9491 Y0.7487
N13855 X0.9436 Y0.752
N13860 X0.9409 Y0.7538
N13865 X0.9382 Y0.7556
N13870 X0.9357 Y0.7572
N13875 X0.9318 Y0.7599
N13880 X0.93 Y0.7611
N13885 X0.9273 Y0.7631
N13890 X0.9246 Y0.7651
N13895 X0.9207 Y0.7681
N13900 X0.9191 Y0.7692
N13905 X0.9138 Y0.7735
N13910 X0.9137 Y0.7736
N13915 X0.9083 Y0.7782
N13920 X0.9074 Y0.779
N13925 X0.9043 Y0.7817
N13930 X0.9028 Y0.783
N13935 X0.9013 Y0.7844
N13940 X0.8984 Y0.7871
N13945 X0.8974 Y0.7881
N13950 X0.8927 Y0.7926
N13955 X0.8919 Y0.7934
N13960 X0.8874 Y0.798
N13965 X0.8865 Y0.799
N13970 X0.8838 Y0.8019
N13975 X0.8824 Y0.8035
N13980 X0.8783 Y0.808
N13985 X0.8775 Y0.8089
N13990 X0.873 Y0.8143
N13995 X0.8729 Y0.8144
N14000 X0.8686 Y0.8198
N14005 X0.8674 Y0.8213
N14010 X0.8645 Y0.8252
N14015 X0.8625 Y0.8279
N14020 X0.8605 Y0.8307
N14025 X0.8593 Y0.8324
N14030 X0.8566 Y0.8364
N14035 X0.8549 Y0.8388
N14040 X0.8532 Y0.8415
N14045 X0.8514 Y0.8443
N14050 X0.8481 Y0.8497
N14055 X0.8465 Y0.8524
N14060 X0.8449 Y0.8551
N14065 X0.8434 Y0.8579
N14070 X0.8419 Y0.8606
N14075 X0.8404 Y0.8633
N14080 X0.839 Y0.866
N14085 X0.8376 Y0.8688
N14090 X0.8375 Y0.8689
N14095 X0.8348 Y0.8744
N14100 X0.8336 Y0.8769
N14105 X0.8321 Y0.8803
N14110 X0.8312 Y0.8824
N14115 X0.8288 Y0.8878
N14120 X0.8277 Y0.8905
N14125 X0.8266 Y0.8932
N14130 X0.8256 Y0.896
N14135 X0.8235 Y0.9014
N14140 X0.8226 Y0.9041
N14145 X0.8212 Y0.9082
N14150 X0.8207 Y0.9096
N14155 X0.819 Y0.915
N14160 X0.8185 Y0.9169
N14165 X0.8174 Y0.9204
N14170 X0.8167 Y0.9232
N14175 X0.8152 Y0.9286
N14180 X0.8146 Y0.9313
N14185 X0.8139 Y0.9341
N14190 X0.8133 Y0.9368
N14195 X0.8121 Y0.9422
N14200 X0.8116 Y0.9449
N14205 X0.8106 Y0.9504
N14210 X0.8103 Y0.9519
N14215 X0.8097 Y0.9558
N14220 X0.8093 Y0.9585
N14225 X0.8085 Y0.964
N14230 X0.8082 Y0.9667
N14235 X0.8079 Y0.9694
N14240 X0.8076 Y0.9721
N14245 X0.8074 Y0.9749
N14250 X0.8071 Y0.9776
N14255 X0.8069 Y0.9803
N14260 X0.8066 Y0.9858
N14265 X0.8065 Y0.9885
N14270 X0.8064 Y0.9912
N14275 X0.8063 Y0.9939
N14280 X0.8062 Y0.9966
N14285 Y0.9994
N14290 Y1.0021
N14295 X0.8061 Y1.2089
N14300 X0.8062 Y1.5
N14305 X0.8061 Y1.7911
N14310 X0.8062 Y1.9979
N14315 Y2.0006
N14320 Y2.0034
N14325 X0.8063 Y2.0061
N14330 X0.8064 Y2.0088
N14335 X0.8065 Y2.0115
N14340 X0.8066 Y2.0142
N14345 X0.8069 Y2.0197
N14350 X0.8071 Y2.0224
N14355 X0.8074 Y2.0251
N14360 X0.8076 Y2.0279
N14365 X0.8082 Y2.0333
N14370 X0.8085 Y2.036
N14375 X0.8093 Y2.0415
N14380 X0.8097 Y2.0442
N14385 X0.8103 Y2.0481
N14390 X0.8106 Y2.0496
N14395 X0.8116 Y2.0551
N14400 X0.8121 Y2.0578
N14405 X0.8133 Y2.0632
N14410 X0.8139 Y2.0659
N14415 X0.8146 Y2.0687
N14420 X0.8152 Y2.0714
N14425 X0.8167 Y2.0768
N14430 X0.8174 Y2.0796
N14435 X0.8185 Y2.0831
N14440 X0.819 Y2.085
N14445 X0.8207 Y2.0904
N14450 X0.8212 Y2.0918
N14455 X0.8226 Y2.0959
N14460 X0.8235 Y2.0986
N14465 X0.8256 Y2.104
N14470 X0.8266 Y2.1068
N14475 X0.8277 Y2.1095
N14480 X0.8288 Y2.1122
N14485 X0.8312 Y2.1176
N14490 X0.8321 Y2.1197
N14495 X0.8336 Y2.1231
N14500 X0.8348 Y2.1256
N14505 X0.8375 Y2.1311
N14510 X0.8376 Y2.1312
N14515 X0.839 Y2.134
N14520 X0.8404 Y2.1367
N14525 X0.8419 Y2.1394
N14530 X0.8434 Y2.1421
N14535 X0.8449 Y2.1449
N14540 X0.8465 Y2.1476
N14545 X0.8481 Y2.1503
N14550 X0.8514 Y2.1557
N14555 X0.8532 Y2.1585
N14560 X0.8549 Y2.1612
N14565 X0.8566 Y2.1636
N14570 X0.8593 Y2.1676
N14575 X0.8605 Y2.1693
N14580 X0.8625 Y2.1721
N14585 X0.8645 Y2.1748
N14590 X0.8674 Y2.1787
N14595 X0.8686 Y2.1802
N14600 X0.8729 Y2.1856
N14605 X0.873 Y2.1857
N14610 X0.8775 Y2.1911
N14615 X0.8783 Y2.192
N14620 X0.8811 Y2.1951
N14625 X0.8824 Y2.1965
N14630 X0.8838 Y2.1981
N14635 X0.8865 Y2.201
N14640 X0.8874 Y2.202
N14645 X0.8919 Y2.2066
N14650 X0.8927 Y2.2074
N14655 X0.8974 Y2.2119
N14660 X0.8984 Y2.2129
N14665 X0.9013 Y2.2156
N14670 X0.9028 Y2.217
N14675 X0.9055 Y2.2194
N14680 X0.9074 Y2.221
N14685 X0.9083 Y2.2218
N14690 X0.9137 Y2.2264
N14695 X0.9138 Y2.2265
N14700 X0.9191 Y2.2308
N14705 X0.9207 Y2.2319
N14710 X0.9246 Y2.2349
N14715 X0.9273 Y2.2369
N14720 X0.93 Y2.2389
N14725 X0.9318 Y2.2401
N14730 X0.9357 Y2.2428
N14735 X0.9382 Y2.2444
N14740 X0.9409 Y2.2462
N14745 X0.9436 Y2.248
N14750 X0.9491 Y2.2513
N14755 X0.9518 Y2.2529
N14760 X0.9545 Y2.2545
N14765 X0.9572 Y2.256
N14770 X0.96 Y2.2575
N14775 X0.9627 Y2.259
N14780 X0.9654 Y2.2604
N14785 X0.9681 Y2.2618
N14790 X0.9682
N14795 X0.9738 Y2.2646
N14800 X0.9763 Y2.2657
N14805 X0.9797 Y2.2673
N14810 X0.9817 Y2.2682
N14815 X0.9872 Y2.2705
N14820 X0.9899 Y2.2716
N14825 X0.9926 Y2.2727
N14830 X0.9953 Y2.2738
N14835 X1.0008 Y2.2758
N14840 X1.0035 Y2.2768
N14845 X1.0076 Y2.2782
N14850 X1.0089 Y2.2786
N14855 X1.0144 Y2.2803
N14860 X1.0162 Y2.2809
N14865 X1.0198 Y2.2819
N14870 X1.0225 Y2.2827
N14875 X1.028 Y2.2841
N14880 X1.0307 Y2.2848
N14885 X1.0334 Y2.2855
N14890 X1.0361 Y2.2861
N14895 X1.0416 Y2.2873
N14900 X1.0443 Y2.2878
N14905 X1.0497 Y2.2888
N14910 X1.0512 Y2.2891
N14915 X1.0552 Y2.2897
N14920 X1.0579 Y2.2901
N14925 X1.0634 Y2.2909
N14930 X1.0661 Y2.2912
N14935 X1.0688 Y2.2915
N14940 X1.0715 Y2.2918
N14945 X1.0742 Y2.292
N14950 X1.077 Y2.2923
N14955 X1.0797 Y2.2925
N14960 X1.0851 Y2.2928
N14965 X1.0878 Y2.2929
N14970 X1.0906 Y2.293
N14975 X1.0933 Y2.2931
N14980 X1.096 Y2.2932
N14985 X1.0987
N14990 X1.1014
N14995 X1.1076
N15000 X1.1126 Y2.2935
N15005 X1.1175
N15010 X1.1225 Y2.2936 Z-0.4401
N15015 X1.1274
N15020 X1.1324 Y2.2937
N15025 X1.1373 Y2.2938 Z-0.4402
N15030 X1.1423 Y2.2939 Z-0.4403
N15035 X1.1472 Y2.2941 Z-0.4404
N15040 X1.1522 Y2.2942 Z-0.4405
N15045 X1.1571 Y2.2944 Z-0.4406
N15050 X1.1621 Y2.2945 Z-0.4407
N15055 X1.167 Y2.2947 Z-0.4408
N15060 X1.172 Y2.2949 Z-0.4409
N15065 X1.1769 Y2.2951 Z-0.441
N15070 X1.1819 Y2.2953 Z-0.4412
N15075 X1.1868 Y2.2956 Z-0.4413
N15080 X1.1918 Y2.2958 Z-0.4415
N15085 X1.1967 Y2.296 Z-0.4416
N15090 X1.2017 Y2.2963 Z-0.4418
N15095 X1.2066 Y2.2966 Z-0.442
N15100 X1.2314 Y2.2979 Z-0.4428
N15105 X1.2363 Y2.2982 Z-0.443
N15110 X1.2413 Y2.2984 Z-0.4432
N15115 X1.2462 Y2.2987 Z-0.4434
N15120 X1.3056 Y2.3016 Z-0.4454
N15125 X1.3551 Y2.3041 Z-0.4472
N15130 X1.365 Y2.3046 Z-0.4475
N15135 X1.3749 Y2.3051 Z-0.4479
N15140 X1.3799 Y2.3053 Z-0.448
N15145 X1.3848 Y2.3056 Z-0.4482
N15150 X1.3898 Y2.3058 Z-0.4484
N15155 X1.3947 Y2.306 Z-0.4485
N15160 X1.3997 Y2.3062 Z-0.4487
N15165 X1.4046 Y2.3064 Z-0.4488
N15170 X1.4096 Y2.3066 Z-0.449
N15175 X1.4145 Y2.3068 Z-0.4491
N15180 X1.4195 Y2.307 Z-0.4492
N15185 X1.4244 Y2.3072 Z-0.4494
N15190 X1.4294 Y2.3073 Z-0.4495
N15195 X1.4343 Y2.3075 Z-0.4496
N15200 X1.4393 Y2.3076
N15205 X1.4442 Y2.3077 Z-0.4497
N15210 X1.4492 Y2.3078 Z-0.4498
N15215 X1.4541 Y2.3079 Z-0.4499
N15220 X1.4591 Y2.308
N15225 X1.464 Z-0.45
N15230 X1.469 Y2.3081
N15235 X1.4739
N15240 X1.4782
N15245 X1.6075
N15250 X1.983
N15255 X2.0973
N15260 X2.1
N15265 X2.1027 Y2.308
N15270 X2.1055
N15275 X2.1082 Y2.3079
N15280 X2.1109 Y2.3078
N15285 X2.1136 Y2.3077
N15290 X2.1191 Y2.3074
N15295 X2.1218 Y2.3072
N15300 X2.1272 Y2.3067
N15305 X2.1299 Y2.3065
N15310 X2.1354 Y2.3059
N15315 X2.1381 Y2.3055
N15320 X2.1435 Y2.3048
N15325 X2.1463 Y2.3043
N15330 X2.149 Y2.3039
N15335 X2.1517 Y2.3035
N15340 X2.1571 Y2.3024
N15345 X2.1599 Y2.3019
N15350 X2.1653 Y2.3007
N15355 X2.168 Y2.3001
N15360 X2.1708 Y2.2995
N15365 X2.1735 Y2.2988
N15370 X2.1796 Y2.2972
N15375 X2.1816 Y2.2967
N15380 X2.1871 Y2.2951
N15385 X2.189 Y2.2945
N15390 X2.1952 Y2.2925
N15395 X2.1974 Y2.2918
N15400 X2.2007 Y2.2906
N15405 X2.2034 Y2.2897
N15410 X2.2088 Y2.2877
N15415 X2.2116 Y2.2866
N15420 X2.2143 Y2.2855
N15425 X2.217 Y2.2844
N15430 X2.2225 Y2.2821
N15435 X2.2251 Y2.2809
N15440 X2.2279 Y2.2796
N15445 X2.2306 Y2.2784
N15450 X2.2366 Y2.2755
N15455 X2.2388 Y2.2743
N15460 X2.2419 Y2.2727
N15465 X2.2442 Y2.2715
N15470 X2.2497 Y2.2685
N15475 X2.2518 Y2.2673
N15480 X2.2565 Y2.2646
N15485 X2.2578 Y2.2638
N15490 X2.2633 Y2.2604
N15495 X2.2653 Y2.2591
N15500 X2.2695 Y2.2564
N15505 X2.2714 Y2.2551
N15510 X2.2741 Y2.2532
N15515 X2.2769 Y2.2513
N15520 X2.2823 Y2.2474
N15525 X2.2848 Y2.2455
N15530 X2.2884 Y2.2428
N15535 X2.2905 Y2.2411
N15540 X2.2932 Y2.2389
N15545 X2.2951 Y2.2374
N15550 X2.2986 Y2.2344
N15555 X2.3014 Y2.2321
N15560 X2.3046 Y2.2292
N15565 X2.3068 Y2.2272
N15570 X2.3105 Y2.2238
N15575 X2.3122 Y2.2221
N15580 X2.3162 Y2.2183
N15585 X2.3177 Y2.2168
N15590 X2.3215 Y2.2129
N15595 X2.3231 Y2.2112
N15600 X2.3266 Y2.2074
N15605 X2.3286 Y2.2052
N15610 X2.3314 Y2.202
N15615 X2.3338 Y2.1993
N15620 X2.3367 Y2.1958
N15625 X2.3383 Y2.1938
N15630 X2.3405 Y2.1911
N15635 X2.3422 Y2.189
N15640 X2.3449 Y2.1854
N15645 X2.3468 Y2.1829
N15650 X2.3507 Y2.1775
N15655 X2.3526 Y2.1748
N15660 X2.3545 Y2.1721
N15665 X2.3558 Y2.1701
N15670 X2.3585 Y2.1659
N15675 X2.3598 Y2.1639
N15680 X2.3631 Y2.1585
N15685 X2.3639 Y2.1571
N15690 X2.3667 Y2.1525
N15695 X2.3679 Y2.1503
N15700 X2.3709 Y2.1449
N15705 X2.3721 Y2.1425
N15710 X2.3737 Y2.1394
N15715 X2.3748 Y2.1372
N15720 X2.3777 Y2.1312
N15725 X2.379 Y2.1285
N15730 X2.3803 Y2.1257
N15735 X2.3814 Y2.1231
N15740 X2.3838 Y2.1176
N15745 X2.3849 Y2.1149
N15750 X2.386 Y2.1122
N15755 X2.387 Y2.1095
N15760 X2.3891 Y2.104
N15765 X2.39 Y2.1013
N15770 X2.3911 Y2.098
N15775 X2.3919 Y2.0959
N15780 X2.3939 Y2.0896
N15785 X2.3944 Y2.0877
N15790 X2.396 Y2.0823
N15795 X2.3966 Y2.0802
N15800 X2.3975 Y2.0768
N15805 X2.3982 Y2.0741
N15810 X2.3988 Y2.0714
N15815 X2.3995 Y2.0687
N15820 X2.4001 Y2.0659
N15825 X2.4013 Y2.0605
N15830 X2.4018 Y2.0578
N15835 X2.4028 Y2.0523
N15840 X2.4033 Y2.0496
N15845 X2.4037 Y2.0469
N15850 X2.4041 Y2.0442
N15855 X2.4049 Y2.0387
N15860 X2.4052 Y2.036
N15865 X2.4058 Y2.0306
N15870 X2.4061 Y2.0279
N15875 X2.4066 Y2.0224
N15880 X2.4067 Y2.0197
N15885 X2.4071 Y2.0142
N15890 X2.4072 Y2.0115
N15895 X2.4073 Y2.0088
N15900 X2.4074 Y2.0061
N15905 Y2.0034
N15910 Y2.0006
N15915 X2.4075 Y1.9979
N15920 Y1.8836
N15925 Y1.4918
N15930 Y1.1164
N15935 Y1.0021
N15940 X2.4074 Y0.9994
N15945 Y0.9966
N15950 Y0.9939
N15955 X2.4073 Y0.9912
N15960 X2.4072 Y0.9885
N15965 X2.4071 Y0.9858
N15970 X2.4067 Y0.9803
N15975 X2.4066 Y0.9776
N15980 X2.4061 Y0.9721
N15985 X2.4058 Y0.9694
N15990 X2.4052 Y0.964
N15995 X2.4049 Y0.9613
N16000 X2.4041 Y0.9558
N16005 X2.4037 Y0.9531
N16010 X2.4033 Y0.9504
N16015 X2.4028 Y0.9477
N16020 X2.4018 Y0.9422
N16025 X2.4013 Y0.9395
N16030 X2.4001 Y0.9341
N16035 X2.3995 Y0.9313
N16040 X2.3988 Y0.9286
N16045 X2.3982 Y0.9259
N16050 X2.3966 Y0.9198
N16055 X2.396 Y0.9177
N16060 X2.3944 Y0.9123
N16065 X2.3939 Y0.9104
N16070 X2.3919 Y0.9041
N16075 X2.3911 Y0.902
N16080 X2.39 Y0.8987
N16085 X2.3891 Y0.896
N16090 X2.387 Y0.8905
N16095 X2.386 Y0.8878
N16100 X2.3849 Y0.8851
N16105 X2.3838 Y0.8824
N16110 X2.3814 Y0.8769
N16115 X2.3803 Y0.8743
N16120 X2.379 Y0.8715
N16125 X2.3777 Y0.8688
N16130 X2.3748 Y0.8628
N16135 X2.3737 Y0.8606
N16140 X2.3721 Y0.8575
N16145 X2.3709 Y0.8551
N16150 X2.3679 Y0.8497
N16155 X2.3667 Y0.8475
N16160 X2.3639 Y0.8429
N16165 X2.3631 Y0.8415
N16170 X2.3598 Y0.8361
N16175 X2.3585 Y0.8341
N16180 X2.3558 Y0.8299
N16185 X2.3545 Y0.8279
N16190 X2.3526 Y0.8252
N16195 X2.3507 Y0.8225
N16200 X2.3468 Y0.8171
N16205 X2.3449 Y0.8146
N16210 X2.3422 Y0.811
N16215 X2.3405 Y0.8089
N16220 X2.3383 Y0.8062
N16225 X2.3367 Y0.8042
N16230 X2.3338 Y0.8007
N16235 X2.3314 Y0.798
N16240 X2.3286 Y0.7948
N16245 X2.3266 Y0.7926
N16250 X2.3231 Y0.7888
N16255 X2.3215 Y0.7871
N16260 X2.3177 Y0.7832
N16265 X2.3162 Y0.7817
N16270 X2.3122 Y0.7779
N16275 X2.3105 Y0.7762
N16280 X2.3068 Y0.7728
N16285 X2.3046 Y0.7708
N16290 X2.3014 Y0.7679
N16295 X2.2986 Y0.7656
N16300 X2.2951 Y0.7626
N16305 X2.2932 Y0.7611
N16310 X2.2905 Y0.7589
N16315 X2.2884 Y0.7572
N16320 X2.2848 Y0.7545
N16325 X2.2823 Y0.7526
N16330 X2.2769 Y0.7487
N16335 X2.2741 Y0.7468
N16340 X2.2714 Y0.7449
N16345 X2.2695 Y0.7436
N16350 X2.2653 Y0.7409
N16355 X2.2633 Y0.7396
N16360 X2.2578 Y0.7362
N16365 X2.2565 Y0.7354
N16370 X2.2518 Y0.7327
N16375 X2.2497 Y0.7315
N16380 X2.2442 Y0.7285
N16385 X2.2419 Y0.7273
N16390 X2.2388 Y0.7257
N16395 X2.2366 Y0.7245
N16400 X2.2306 Y0.7216
N16405 X2.2279 Y0.7204
N16410 X2.2251 Y0.7191
N16415 X2.2225 Y0.7179
N16420 X2.217 Y0.7156
N16425 X2.2143 Y0.7145
N16430 X2.2116 Y0.7134
N16435 X2.2088 Y0.7123
N16440 X2.2034 Y0.7103
N16445 X2.2007 Y0.7094
N16450 X2.1974 Y0.7082
N16455 X2.1952 Y0.7075
N16460 X2.189 Y0.7055
N16465 X2.1871 Y0.7049
N16470 X2.1816 Y0.7033
N16475 X2.1796 Y0.7028
N16480 X2.1762 Y0.7019
N16485 X2.1735 Y0.7012
N16490 X2.1708 Y0.7005
N16495 X2.168 Y0.6999
N16500 X2.1653 Y0.6993
N16505 X2.1599 Y0.6981
N16510 X2.1571 Y0.6976
N16515 X2.1517 Y0.6965
N16520 X2.149 Y0.6961
N16525 X2.1463 Y0.6957
N16530 X2.1435 Y0.6952
N16535 X2.1381 Y0.6945
N16540 X2.1354 Y0.6941
N16545 X2.1299 Y0.6935
N16550 X2.1272 Y0.6933
N16555 X2.1218 Y0.6928
N16560 X2.1191 Y0.6926
N16565 X2.1136 Y0.6923
N16570 X2.1109 Y0.6922
N16575 X2.1082 Y0.6921
N16580 X2.1055 Y0.692
N16585 X2.1027
N16590 X2.1 Y0.6919
N16595 X2.0973
N16600 X1.983
N16605 X1.5912
N16610 X1.2157
N16615 X1.1014
N16620 X1.0987
N16625 X1.096 Y0.692
N16630 X1.0933
N16635 X1.0906 Y0.6921
N16640 X1.0878 Y0.6922
N16645 X1.0851 Y0.6923
N16650 X1.0797 Y0.6926
N16655 X1.077 Y0.6928
N16660 X1.0715 Y0.6933
N16665 X1.0688 Y0.6935
N16670 X1.0634 Y0.6941
N16675 X1.0606 Y0.6945
N16680 X1.0552 Y0.6952
N16685 X1.0525 Y0.6957
N16690 X1.0497 Y0.6961
N16695 X1.047 Y0.6965
N16700 X1.0416 Y0.6976
N16705 X1.0389 Y0.6981
N16710 X1.0334 Y0.6993
N16715 X1.0307 Y0.6999
N16720 X1.028 Y0.7005
N16725 X1.0253 Y0.7012
N16730 X1.0192 Y0.7028
N16735 X1.0171 Y0.7033
N16740 X1.0117 Y0.7049
N16745 X1.0097 Y0.7055
N16750 X1.0035 Y0.7075
N16755 X1.0013 Y0.7082
N16760 X0.998 Y0.7094
N16765 X0.9953 Y0.7103
N16770 X0.9899 Y0.7123
N16775 X0.9872 Y0.7134
N16780 X0.9844 Y0.7145
N16785 X0.9817 Y0.7156
N16790 X0.9763 Y0.7179
N16795 X0.9736 Y0.7191
N16800 X0.9708 Y0.7204
N16805 X0.9681 Y0.7216
N16810 X0.9621 Y0.7245
N16815 X0.96 Y0.7257
N16820 X0.9569 Y0.7273
N16825 X0.9545 Y0.7285
N16830 X0.9491 Y0.7315
N16835 X0.9469 Y0.7327
N16840 X0.9422 Y0.7354
N16845 X0.9409 Y0.7362
N16850 X0.9355 Y0.7396
N16855 X0.9335 Y0.7409
N16860 X0.9293 Y0.7436
N16865 X0.9273 Y0.7449
N16870 X0.9246 Y0.7468
N16875 X0.9219 Y0.7487
N16880 X0.9164 Y0.7526
N16885 X0.914 Y0.7545
N16890 X0.9104 Y0.7572
N16895 X0.9083 Y0.7589
N16900 X0.9055 Y0.7611
N16905 X0.9036 Y0.7626
N16910 X0.9001 Y0.7656
N16915 X0.8974 Y0.7679
N16920 X0.8941 Y0.7708
N16925 X0.8919 Y0.7728
N16930 X0.8882 Y0.7762
N16935 X0.8865 Y0.7779
N16940 X0.8826 Y0.7817
N16945 X0.8811 Y0.7832
N16950 X0.8772 Y0.7871
N16955 X0.8756 Y0.7888
N16960 X0.8721 Y0.7926
N16965 X0.8702 Y0.7948
N16970 X0.8673 Y0.798
N16975 X0.865 Y0.8007
N16980 X0.862 Y0.8042
N16985 X0.8604 Y0.8062
N16990 X0.8582 Y0.8089
N16995 X0.8566 Y0.811
N17000 X0.8538 Y0.8146
N17005 X0.852 Y0.8171
N17010 X0.848 Y0.8225
N17015 X0.8461 Y0.8252
N17020 X0.8443 Y0.8279
N17025 X0.843 Y0.8299
N17030 X0.8402 Y0.8341
N17035 X0.8389 Y0.8361
N17040 X0.8356 Y0.8415
N17045 X0.8348 Y0.8429
N17050 X0.8321 Y0.8475
N17055 X0.8308 Y0.8497
N17060 X0.8279 Y0.8551
N17065 X0.8266 Y0.8575
N17070 X0.825 Y0.8606
N17075 X0.8239 Y0.8628
N17080 X0.821 Y0.8688
N17085 X0.8197 Y0.8715
N17090 X0.8185 Y0.8743
N17095 X0.8173 Y0.8769
N17100 X0.815 Y0.8824
N17105 X0.8139 Y0.8851
N17110 X0.8128 Y0.8878
N17115 X0.8117 Y0.8905
N17120 X0.8097 Y0.896
N17125 X0.8087 Y0.8987
N17130 X0.8076 Y0.902
N17135 X0.8068 Y0.9041
N17140 X0.8049 Y0.9104
N17145 X0.8043 Y0.9123
N17150 X0.8027 Y0.9177
N17155 X0.8021 Y0.9198
N17160 X0.8013 Y0.9232
N17165 X0.8005 Y0.9259
N17170 X0.7999 Y0.9286
N17175 X0.7992 Y0.9313
N17180 X0.7986 Y0.9341
N17185 X0.7975 Y0.9395
N17190 X0.7969 Y0.9422
N17195 X0.7959 Y0.9477
N17200 X0.7955 Y0.9504
N17205 X0.795 Y0.9531
N17210 X0.7946 Y0.9558
N17215 X0.794 Y0.9603
N17220 X0.7939 Y0.9613
N17225 X0.7935 Y0.964
N17230 X0.7929 Y0.9694
N17235 X0.7926 Y0.9721
N17240 X0.7922 Y0.9776
N17245 X0.792 Y0.9803
N17250 X0.7917 Y0.9858
N17255 X0.7915 Y0.9885
N17260 X0.7914 Y0.9912
N17265 Y0.9939
N17270 X0.7913 Y0.9966
N17275 Y0.9994
N17280 Y1.0021
N17285 Y1.1164
N17290 Y1.5082
N17295 Y1.8836
N17300 Y1.9979
N17305 Y2.0006
N17310 Y2.0034
N17315 X0.7914 Y2.0061
N17320 Y2.0088
N17325 X0.7915 Y2.0115
N17330 X0.7917 Y2.0142
N17335 X0.792 Y2.0197
N17340 X0.7922 Y2.0224
N17345 X0.7926 Y2.0279
N17350 X0.7929 Y2.0306
N17355 X0.7935 Y2.036
N17360 X0.7939 Y2.0387
N17365 X0.7946 Y2.0442
N17370 X0.795 Y2.0469
N17375 X0.7955 Y2.0496
N17380 X0.7959 Y2.0523
N17385 X0.7969 Y2.0578
N17390 X0.7975 Y2.0605
N17395 X0.7986 Y2.0659
N17400 X0.7992 Y2.0687
N17405 X0.7999 Y2.0714
N17410 X0.8005 Y2.0741
N17415 X0.8021 Y2.0802
N17420 X0.8027 Y2.0823
N17425 X0.8043 Y2.0877
N17430 X0.8049 Y2.0896
N17435 X0.8068 Y2.0959
N17440 X0.8076 Y2.098
N17445 X0.8087 Y2.1013
N17450 X0.8097 Y2.104
N17455 X0.8117 Y2.1095
N17460 X0.8128 Y2.1122
N17465 X0.8139 Y2.1149
N17470 X0.815 Y2.1176
N17475 X0.8173 Y2.1231
N17480 X0.8185 Y2.1257
N17485 X0.8197 Y2.1285
N17490 X0.821 Y2.1312
N17495 X0.8239 Y2.1372
N17500 X0.825 Y2.1394
N17505 X0.8266 Y2.1425
N17510 X0.8279 Y2.1449
N17515 X0.8308 Y2.1503
N17520 X0.8321 Y2.1525
N17525 X0.8348 Y2.1571
N17530 X0.8356 Y2.1585
N17535 X0.8389 Y2.1639
N17540 X0.8402 Y2.1659
N17545 X0.843 Y2.1701
N17550 X0.8443 Y2.1721
N17555 X0.8461 Y2.1748
N17560 X0.848 Y2.1775
N17565 X0.852 Y2.1829
N17570 X0.8538 Y2.1854
N17575 X0.8566 Y2.189
N17580 X0.8582 Y2.1911
N17585 X0.8604 Y2.1938
N17590 X0.862 Y2.1958
N17595 X0.865 Y2.1993
N17600 X0.8673 Y2.202
N17605 X0.8702 Y2.2052
N17610 X0.8721 Y2.2074
N17615 X0.8756 Y2.2112
N17620 X0.8772 Y2.2129
N17625 X0.8811 Y2.2168
N17630 X0.8826 Y2.2183
N17635 X0.8865 Y2.2221
N17640 X0.8882 Y2.2238
N17645 X0.8919 Y2.2272
N17650 X0.8941 Y2.2292
N17655 X0.8974 Y2.2321
N17660 X0.9001 Y2.2344
N17665 X0.9036 Y2.2374
N17670 X0.9055 Y2.2389
N17675 X0.9083 Y2.2411
N17680 X0.9104 Y2.2428
N17685 X0.914 Y2.2455
N17690 X0.9164 Y2.2474
N17695 X0.9219 Y2.2513
N17700 X0.9246 Y2.2532
N17705 X0.9273 Y2.2551
N17710 X0.9293 Y2.2564
N17715 X0.9335 Y2.2591
N17720 X0.9355 Y2.2604
N17725 X0.9409 Y2.2638
N17730 X0.9422 Y2.2646
N17735 X0.9469 Y2.2673
N17740 X0.9491 Y2.2685
N17745 X0.9545 Y2.2715
N17750 X0.9569 Y2.2727
N17755 X0.96 Y2.2743
N17760 X0.9621 Y2.2755
N17765 X0.9681 Y2.2784
N17770 X0.9708 Y2.2796
N17775 X0.9736 Y2.2809
N17780 X0.9763 Y2.2821
N17785 X0.9817 Y2.2844
N17790 X0.9844 Y2.2855
N17795 X0.9872 Y2.2866
N17800 X0.9899 Y2.2877
N17805 X0.9953 Y2.2897
N17810 X0.998 Y2.2906
N17815 X1.0013 Y2.2918
N17820 X1.0035 Y2.2925
N17825 X1.0097 Y2.2945
N17830 X1.0117 Y2.2951
N17835 X1.0171 Y2.2967
N17840 X1.0192 Y2.2972
N17845 X1.0225 Y2.2981
N17850 X1.0253 Y2.2988
N17855 X1.028 Y2.2995
N17860 X1.0307 Y2.3001
N17865 X1.0334 Y2.3007
N17870 X1.0389 Y2.3019
N17875 X1.0416 Y2.3024
N17880 X1.047 Y2.3035
N17885 X1.0497 Y2.3039
N17890 X1.0525 Y2.3043
N17895 X1.0552 Y2.3048
N17900 X1.0606 Y2.3055
N17905 X1.0634 Y2.3059
N17910 X1.0688 Y2.3065
N17915 X1.0715 Y2.3067
N17920 X1.077 Y2.3072
N17925 X1.0797 Y2.3074
N17930 X1.0851 Y2.3077
N17935 X1.0878 Y2.3078
N17940 X1.0906 Y2.3079
N17945 X1.0933 Y2.308
N17950 X1.096
N17955 X1.0987 Y2.3081
N17960 X1.1014
N17965 X1.2157
N17970 X1.4782
N17975 X1.4832
N17980 X1.4881
N17985 X1.4931 Y2.3082 Z-0.4501
N17990 X1.498
N17995 X1.503 Y2.3083
N18000 X1.5079 Y2.3084 Z-0.4502
N18005 X1.5129 Y2.3085 Z-0.4503
N18010 X1.5178 Y2.3086 Z-0.4504
N18015 X1.5228 Y2.3087 Z-0.4505
N18020 X1.5277 Y2.3089 Z-0.4506
N18025 X1.5327 Y2.309 Z-0.4507
N18030 X1.5376 Y2.3092 Z-0.4508
N18035 X1.5426 Y2.3094 Z-0.4509
N18040 X1.5475 Y2.3096 Z-0.451
N18045 X1.5525 Y2.3098 Z-0.4512
N18050 X1.5574 Y2.31 Z-0.4513
N18055 X1.5624 Y2.3102 Z-0.4515
N18060 X1.5673 Y2.3104 Z-0.4516
N18065 X1.5723 Y2.3107 Z-0.4518
N18070 X1.5772 Y2.3109 Z-0.452
N18075 X1.5822 Y2.3111 Z-0.4522
N18080 X1.5871 Y2.3114 Z-0.4523
N18085 X1.6366 Y2.3137 Z-0.4541
N18090 X1.6564 Y2.3146 Z-0.4548
N18095 X1.7109 Y2.3171 Z-0.4567
N18100 X1.7505 Y2.3189 Z-0.458
N18105 X1.7554 Y2.3191 Z-0.4582
N18110 X1.7604 Y2.3194 Z-0.4584
N18115 X1.7653 Y2.3196 Z-0.4585
N18120 X1.7703 Y2.3198 Z-0.4587
N18125 X1.7752 Y2.32 Z-0.4588
N18130 X1.7802 Y2.3202 Z-0.459
N18135 X1.7851 Y2.3203 Z-0.4591
N18140 X1.7901 Y2.3205 Z-0.4592
N18145 X1.795 Y2.3206 Z-0.4594
N18150 X1.8 Y2.3208 Z-0.4595
N18155 X1.8049 Y2.3209 Z-0.4596
N18160 X1.8099 Y2.321
N18165 X1.8148 Y2.3211 Z-0.4597
N18170 X1.8198 Y2.3212 Z-0.4598
N18175 X1.8247 Y2.3213 Z-0.4599
N18180 X1.8297 Y2.3214
N18185 X1.8346 Z-0.46
N18190 X1.8396 Y2.3215
N18195 X1.8445
N18200 X1.8488
N18205 X2.0973
N18210 X2.1
N18215 X2.1055 Y2.3214
N18220 X2.1082 Y2.3213
N18225 X2.1136 Y2.3211
N18230 X2.1163 Y2.321
N18235 X2.1218 Y2.3207
N18240 X2.1245 Y2.3204
N18245 X2.1299 Y2.32
N18250 X2.1327 Y2.3197
N18255 X2.1354 Y2.3194
N18260 X2.1381 Y2.319
N18265 X2.1435 Y2.3183
N18270 X2.1463 Y2.3179
N18275 X2.1517 Y2.317
N18280 X2.1544 Y2.3166
N18285 X2.1599 Y2.3156
N18290 X2.1626 Y2.315
N18295 X2.168 Y2.3139
N18300 X2.1696 Y2.3135
N18305 X2.1762 Y2.312
N18310 X2.1789 Y2.3113
N18315 X2.1816 Y2.3105
N18320 X2.1844 Y2.3098
N18325 X2.1871 Y2.309
N18330 X2.1903 Y2.3081
N18335 X2.1925 Y2.3075
N18340 X2.199 Y2.3054
N18345 X2.2007 Y2.3048
N18350 X2.2061 Y2.303
N18355 X2.207 Y2.3027
N18360 X2.2088 Y2.302
N18365 X2.2143 Y2.2999
N18370 X2.217 Y2.2989
N18375 X2.2211 Y2.2972
N18380 X2.2225 Y2.2967
N18385 X2.2279 Y2.2943
N18390 X2.2306 Y2.2931
N18395 X2.2361 Y2.2906
N18400 X2.2388 Y2.2893
N18405 X2.2415 Y2.288
N18410 X2.2442 Y2.2866
N18415 X2.25 Y2.2836
N18420 X2.2524 Y2.2823
N18425 X2.2551 Y2.2808
N18430 X2.2578 Y2.2793
N18435 X2.2633 Y2.2762
N18440 X2.2644 Y2.2755
N18445 X2.2689 Y2.2727
N18450 X2.2714 Y2.2711
N18455 X2.2773 Y2.2673
N18460 X2.2796 Y2.2658
N18465 X2.2823 Y2.2639
N18470 X2.285 Y2.262
N18475 X2.289 Y2.2591
N18480 X2.2905 Y2.258
N18485 X2.2932 Y2.256
N18490 X2.2962 Y2.2537
N18495 X2.2986 Y2.2518
N18500 X2.3014 Y2.2496
N18505 X2.303 Y2.2482
N18510 X2.3068 Y2.2451
N18515 X2.3095 Y2.2428
N18520 X2.3126 Y2.2401
N18525 X2.315 Y2.238
N18530 X2.3156 Y2.2374
N18535 X2.3204 Y2.2329
N18540 X2.3214 Y2.2319
N18545 X2.3258 Y2.2276
N18550 X2.327 Y2.2265
N18555 X2.3313 Y2.2221
N18560 X2.3323 Y2.221
N18565 X2.3367 Y2.2162
N18570 X2.3373 Y2.2156
N18575 X2.3397 Y2.2129
N18580 X2.3422 Y2.2101
N18585 X2.3444 Y2.2074
N18590 X2.3476 Y2.2037
N18595 X2.349 Y2.202
N18600 X2.3511 Y2.1993
N18605 X2.3531 Y2.1968
N18610 X2.3558 Y2.1933
N18615 X2.3574 Y2.1911
N18620 X2.3585 Y2.1896
N18625 X2.3613 Y2.1857
N18630 X2.3633 Y2.1829
N18635 X2.3651 Y2.1802
N18640 X2.3667 Y2.178
N18645 X2.3705 Y2.1721
N18650 X2.3721 Y2.1695
N18655 X2.3748 Y2.1651
N18660 X2.3755 Y2.1639
N18665 X2.3787 Y2.1585
N18670 X2.3802 Y2.1557
N18675 X2.3817 Y2.153
N18680 X2.383 Y2.1507
N18685 X2.386 Y2.1449
N18690 X2.3874 Y2.1421
N18695 X2.3887 Y2.1394
N18700 X2.39 Y2.1367
N18705 X2.3925 Y2.1312
N18710 X2.3937 Y2.1285
N18715 X2.396 Y2.1231
N18720 X2.3966 Y2.1218
N18725 X2.3982 Y2.1176
N18730 X2.3993 Y2.1149
N18735 X2.4013 Y2.1095
N18740 X2.402 Y2.1076
N18745 X2.4023 Y2.1068
N18750 X2.4042 Y2.1013
N18755 X2.4048 Y2.0997
N18760 X2.4068 Y2.0932
N18765 X2.4075 Y2.0909
N18770 X2.4084 Y2.0877
N18775 X2.4092 Y2.085
N18780 X2.4102 Y2.0812
N18785 X2.4106 Y2.0796
N18790 X2.4113 Y2.0768
N18795 X2.4129 Y2.0702
N18800 X2.4132 Y2.0687
N18805 X2.4144 Y2.0632
N18810 X2.4149 Y2.0605
N18815 X2.416 Y2.0551
N18820 X2.4164 Y2.0523
N18825 X2.4173 Y2.0469
N18830 X2.4177 Y2.0442
N18835 X2.4184 Y2.0387
N18840 X2.4187 Y2.036
N18845 X2.419 Y2.0333
N18850 X2.4193 Y2.0306
N18855 X2.4198 Y2.0251
N18860 X2.42 Y2.0224
N18865 X2.4204 Y2.017
N18870 X2.4205 Y2.0142
N18875 X2.4207 Y2.0088
N18880 X2.4208 Y2.0061
N18885 Y2.0006
N18890 X2.4209 Y1.9979
N18895 Y1.5544
N18900 Y1.4918
N18905 Y1.4374
N18910 Y1.0021
N18915 X2.4208 Y0.9994
N18920 Y0.9939
N18925 X2.4207 Y0.9912
N18930 X2.4205 Y0.9858
N18935 X2.4204 Y0.983
N18940 X2.42 Y0.9776
N18945 X2.4198 Y0.9749
N18950 X2.4193 Y0.9694
N18955 X2.419 Y0.9667
N18960 X2.4187 Y0.964
N18965 X2.4184 Y0.9613
N18970 X2.4177 Y0.9558
N18975 X2.4173 Y0.9531
N18980 X2.4164 Y0.9477
N18985 X2.416 Y0.9449
N18990 X2.4149 Y0.9395
N18995 X2.4144 Y0.9368
N19000 X2.4132 Y0.9313
N19005 X2.4129 Y0.9298
N19010 X2.4113 Y0.9232
N19015 X2.4106 Y0.9204
N19020 X2.4099 Y0.9177
N19025 X2.4092 Y0.915
N19030 X2.4084 Y0.9123
N19035 X2.4075 Y0.9091
N19040 X2.4068 Y0.9068
N19045 X2.4048 Y0.9003
N19050 X2.4042 Y0.8987
N19055 X2.4023 Y0.8932
N19060 X2.402 Y0.8924
N19065 X2.4013 Y0.8905
N19070 X2.3993 Y0.8851
N19075 X2.3982 Y0.8824
N19080 X2.3966 Y0.8782
N19085 X2.396 Y0.8769
N19090 X2.3937 Y0.8715
N19095 X2.3925 Y0.8688
N19100 X2.39 Y0.8633
N19105 X2.3887 Y0.8606
N19110 X2.3874 Y0.8579
N19115 X2.386 Y0.8551
N19120 X2.383 Y0.8493
N19125 X2.3817 Y0.847
N19130 X2.3802 Y0.8443
N19135 X2.3787 Y0.8415
N19140 X2.3755 Y0.8361
N19145 X2.3748 Y0.8349
N19150 X2.3721 Y0.8305
N19155 X2.3705 Y0.8279
N19160 X2.3667 Y0.822
N19165 X2.3651 Y0.8198
N19170 X2.3633 Y0.8171
N19175 X2.3613 Y0.8143
N19180 X2.3585 Y0.8104
N19185 X2.3574 Y0.8089
N19190 X2.3553 Y0.8062
N19195 X2.3531 Y0.8032
N19200 X2.3511 Y0.8007
N19205 X2.349 Y0.798
N19210 X2.3476 Y0.7963
N19215 X2.3444 Y0.7926
N19220 X2.3422 Y0.7899
N19225 X2.3394 Y0.7868
N19230 X2.3373 Y0.7844
N19235 X2.3367 Y0.7838
N19240 X2.3323 Y0.779
N19245 X2.3313 Y0.7779
N19250 X2.327 Y0.7735
N19255 X2.3258 Y0.7724
N19260 X2.3214 Y0.7681
N19265 X2.3204 Y0.7671
N19270 X2.3156 Y0.7626
N19275 X2.315 Y0.762
N19280 X2.3122 Y0.7596
N19285 X2.3095 Y0.7572
N19290 X2.3068 Y0.7549
N19295 X2.303 Y0.7518
N19300 X2.3014 Y0.7504
N19305 X2.2986 Y0.7482
N19310 X2.2962 Y0.7463
N19315 X2.2926 Y0.7436
N19320 X2.2905 Y0.742
N19325 X2.289 Y0.7409
N19330 X2.285 Y0.738
N19335 X2.2823 Y0.7361
N19340 X2.2796 Y0.7342
N19345 X2.2773 Y0.7327
N19350 X2.2714 Y0.7289
N19355 X2.2689 Y0.7273
N19360 X2.2644 Y0.7245
N19365 X2.2633 Y0.7238
N19370 X2.2578 Y0.7207
N19375 X2.2551 Y0.7192
N19380 X2.2524 Y0.7177
N19385 X2.25 Y0.7164
N19390 X2.2442 Y0.7134
N19395 X2.2415 Y0.712
N19400 X2.2388 Y0.7107
N19405 X2.2361 Y0.7094
N19410 X2.2306 Y0.7069
N19415 X2.2279 Y0.7057
N19420 X2.2225 Y0.7033
N19425 X2.2211 Y0.7028
N19430 X2.217 Y0.7011
N19435 X2.2143 Y0.7001
N19440 X2.2088 Y0.698
N19445 X2.207 Y0.6973
N19450 X2.2061 Y0.697
N19455 X2.2007 Y0.6952
N19460 X2.199 Y0.6946
N19465 X2.1925 Y0.6925
N19470 X2.1903 Y0.6919
N19475 X2.1871 Y0.691
N19480 X2.1844 Y0.6902
N19485 X2.1806 Y0.6892
N19490 X2.1789 Y0.6887
N19495 X2.1762 Y0.688
N19500 X2.1696 Y0.6865
N19505 X2.168 Y0.6861
N19510 X2.1626 Y0.685
N19515 X2.1599 Y0.6844
N19520 X2.1544 Y0.6834
N19525 X2.1517 Y0.683
N19530 X2.1463 Y0.6821
N19535 X2.1435 Y0.6817
N19540 X2.1381 Y0.681
N19545 X2.1354 Y0.6806
N19550 X2.1327 Y0.6803
N19555 X2.1299 Y0.68
N19560 X2.1245 Y0.6796
N19565 X2.1218 Y0.6793
N19570 X2.1163 Y0.679
N19575 X2.1136 Y0.6789
N19580 X2.1082 Y0.6787
N19585 X2.1055 Y0.6786
N19590 X2.1 Y0.6785
N19595 X2.0973
N19600 X1.6538
N19605 X1.5912
N19610 X1.5368
N19615 X1.1014
N19620 X1.0987
N19625 X1.0933 Y0.6786
N19630 X1.0906 Y0.6787
N19635 X1.0851 Y0.6789
N19640 X1.0824 Y0.679
N19645 X1.077 Y0.6793
N19650 X1.0742 Y0.6796
N19655 X1.0688 Y0.68
N19660 X1.0661 Y0.6803
N19665 X1.0634 Y0.6806
N19670 X1.0606 Y0.681
N19675 X1.0552 Y0.6817
N19680 X1.0525 Y0.6821
N19685 X1.047 Y0.683
N19690 X1.0443 Y0.6834
N19695 X1.0389 Y0.6844
N19700 X1.0361 Y0.685
N19705 X1.0307 Y0.6861
N19710 X1.0292 Y0.6865
N19715 X1.0225 Y0.688
N19720 X1.0198 Y0.6887
N19725 X1.0171 Y0.6895
N19730 X1.0144 Y0.6902
N19735 X1.0117 Y0.691
N19740 X1.0084 Y0.6919
N19745 X1.0062 Y0.6925
N19750 X0.9997 Y0.6946
N19755 X0.998 Y0.6952
N19760 X0.9926 Y0.697
N19765 X0.9917 Y0.6973
N19770 X0.9899 Y0.698
N19775 X0.9844 Y0.7001
N19780 X0.9817 Y0.7011
N19785 X0.9776 Y0.7028
N19790 X0.9763 Y0.7033
N19795 X0.9708 Y0.7057
N19800 X0.9681 Y0.7069
N19805 X0.9627 Y0.7094
N19810 X0.96 Y0.7107
N19815 X0.9572 Y0.712
N19820 X0.9545 Y0.7134
N19825 X0.9487 Y0.7164
N19830 X0.9464 Y0.7177
N19835 X0.9436 Y0.7192
N19840 X0.9409 Y0.7207
N19845 X0.9355 Y0.7239
N19850 X0.9343 Y0.7245
N19855 X0.9299 Y0.7273
N19860 X0.9273 Y0.7289
N19865 X0.9214 Y0.7327
N19870 X0.9191 Y0.7343
N19875 X0.9164 Y0.7361
N19880 X0.9137 Y0.738
N19885 X0.9098 Y0.7409
N19890 X0.9083 Y0.742
N19895 X0.9055 Y0.744
N19900 X0.9025 Y0.7463
N19905 X0.9001 Y0.7482
N19910 X0.8974 Y0.7504
N19915 X0.8957 Y0.7518
N19920 X0.8919 Y0.7549
N19925 X0.8893 Y0.7572
N19930 X0.8862 Y0.7599
N19935 X0.8838 Y0.7621
N19940 X0.8831 Y0.7626
N19945 X0.8783 Y0.7671
N19950 X0.8773 Y0.7681
N19955 X0.8729 Y0.7724
N19960 X0.8718 Y0.7735
N19965 X0.8674 Y0.7779
N19970 X0.8665 Y0.779
N19975 X0.862 Y0.7838
N19980 X0.8614 Y0.7844
N19985 X0.859 Y0.7871
N19990 X0.8566 Y0.7899
N19995 X0.8543 Y0.7926
N20000 X0.8511 Y0.7963
N20005 X0.8498 Y0.798
N20010 X0.8476 Y0.8007
N20015 X0.8457 Y0.8032
N20020 X0.843 Y0.8067
N20025 X0.8413 Y0.8089
N20030 X0.8402 Y0.8104
N20035 X0.8374 Y0.8143
N20040 X0.8355 Y0.8171
N20045 X0.8336 Y0.8198
N20050 X0.8321 Y0.822
N20055 X0.8282 Y0.8279
N20060 X0.8266 Y0.8305
N20065 X0.8239 Y0.8349
N20070 X0.8232 Y0.8361
N20075 X0.82 Y0.8415
N20080 X0.8185 Y0.8443
N20085 X0.817 Y0.847
N20090 X0.8157 Y0.8493
N20095 X0.8127 Y0.8551
N20100 X0.8114 Y0.8579
N20105 X0.8101 Y0.8606
N20110 X0.8087 Y0.8633
N20115 X0.8062 Y0.8688
N20120 X0.805 Y0.8715
N20125 X0.8027 Y0.8769
N20130 X0.8021 Y0.8782
N20135 X0.8005 Y0.8824
N20140 X0.7994 Y0.8851
N20145 X0.7974 Y0.8905
N20150 X0.7967 Y0.8924
N20155 X0.7964 Y0.8932
N20160 X0.7945 Y0.8987
N20165 X0.794 Y0.9003
N20170 X0.7919 Y0.9068
N20175 X0.7913 Y0.9091
N20180 X0.7903 Y0.9123
N20185 X0.7895 Y0.915
N20190 X0.7885 Y0.9188
N20195 X0.7881 Y0.9204
N20200 X0.7874 Y0.9232
N20205 X0.7858 Y0.9298
N20210 X0.7855 Y0.9313
N20215 X0.7843 Y0.9368
N20220 X0.7838 Y0.9395
N20225 X0.7828 Y0.9449
N20230 X0.7823 Y0.9477
N20235 X0.7814 Y0.9531
N20240 X0.7811 Y0.9558
N20245 X0.7804 Y0.9608
N20250 X0.7803 Y0.9613
N20255 X0.78 Y0.964
N20260 X0.7797 Y0.9667
N20265 X0.7794 Y0.9694
N20270 X0.7789 Y0.9749
N20275 X0.7787 Y0.9776
N20280 X0.7784 Y0.983
N20285 X0.7782 Y0.9858
N20290 X0.778 Y0.9912
N20295 X0.7779 Y0.9939
N20300 Y0.9994
N20305 Y1.0021
N20310 Y1.4456
N20315 Y1.5082
N20320 Y1.5626
N20325 Y1.9979
N20330 Y2.0006
N20335 Y2.0061
N20340 X0.778 Y2.0088
N20345 X0.7782 Y2.0142
N20350 X0.7784 Y2.017
N20355 X0.7787 Y2.0224
N20360 X0.7789 Y2.0251
N20365 X0.7794 Y2.0306
N20370 X0.7797 Y2.0333
N20375 X0.78 Y2.036
N20380 X0.7803 Y2.0387
N20385 X0.7811 Y2.0442
N20390 X0.7814 Y2.0469
N20395 X0.7823 Y2.0523
N20400 X0.7828 Y2.0551
N20405 X0.7838 Y2.0605
N20410 X0.7843 Y2.0632
N20415 X0.7855 Y2.0687
N20420 X0.7858 Y2.0702
N20425 X0.7874 Y2.0768
N20430 X0.7881 Y2.0796
N20435 X0.7888 Y2.0823
N20440 X0.7895 Y2.085
N20445 X0.7903 Y2.0877
N20450 X0.7913 Y2.0909
N20455 X0.7919 Y2.0932
N20460 X0.794 Y2.0997
N20465 X0.7945 Y2.1013
N20470 X0.7964 Y2.1068
N20475 X0.7967 Y2.1076
N20480 X0.7974 Y2.1095
N20485 X0.7994 Y2.1149
N20490 X0.8005 Y2.1176
N20495 X0.8021 Y2.1218
N20500 X0.8027 Y2.1231
N20505 X0.805 Y2.1285
N20510 X0.8062 Y2.1312
N20515 X0.8087 Y2.1367
N20520 X0.8101 Y2.1394
N20525 X0.8114 Y2.1421
N20530 X0.8127 Y2.1449
N20535 X0.8157 Y2.1507
N20540 X0.817 Y2.153
N20545 X0.8185 Y2.1557
N20550 X0.82 Y2.1585
N20555 X0.8232 Y2.1639
N20560 X0.8239 Y2.1651
N20565 X0.8266 Y2.1695
N20570 X0.8282 Y2.1721
N20575 X0.8321 Y2.178
N20580 X0.8336 Y2.1802
N20585 X0.8355 Y2.1829
N20590 X0.8374 Y2.1857
N20595 X0.8402 Y2.1896
N20600 X0.8413 Y2.1911
N20605 X0.8434 Y2.1938
N20610 X0.8457 Y2.1968
N20615 X0.8476 Y2.1993
N20620 X0.8498 Y2.202
N20625 X0.8511 Y2.2037
N20630 X0.8543 Y2.2074
N20635 X0.8566 Y2.2101
N20640 X0.8593 Y2.2132
N20645 X0.8614 Y2.2156
N20650 X0.862 Y2.2162
N20655 X0.8665 Y2.221
N20660 X0.8674 Y2.2221
N20665 X0.8718 Y2.2265
N20670 X0.8729 Y2.2276
N20675 X0.8773 Y2.2319
N20680 X0.8783 Y2.2329
N20685 X0.8831 Y2.2374
N20690 X0.8838 Y2.2379
N20695 X0.8865 Y2.2404
N20700 X0.8893 Y2.2428
N20705 X0.8919 Y2.2451
N20710 X0.8957 Y2.2482
N20715 X0.8974 Y2.2496
N20720 X0.9001 Y2.2518
N20725 X0.9025 Y2.2537
N20730 X0.9061 Y2.2564
N20735 X0.9083 Y2.258
N20740 X0.9098 Y2.2591
N20745 X0.9137 Y2.262
N20750 X0.9164 Y2.2639
N20755 X0.9191 Y2.2657
N20760 X0.9214 Y2.2673
N20765 X0.9273 Y2.2711
N20770 X0.9299 Y2.2727
N20775 X0.9343 Y2.2755
N20780 X0.9355 Y2.2761
N20785 X0.9409 Y2.2793
N20790 X0.9436 Y2.2808
N20795 X0.9464 Y2.2823
N20800 X0.9487 Y2.2836
N20805 X0.9545 Y2.2866
N20810 X0.9572 Y2.288
N20815 X0.96 Y2.2893
N20820 X0.9627 Y2.2906
N20825 X0.9681 Y2.2931
N20830 X0.9708 Y2.2943
N20835 X0.9763 Y2.2967
N20840 X0.9776 Y2.2972
N20845 X0.9817 Y2.2989
N20850 X0.9844 Y2.2999
N20855 X0.9899 Y2.302
N20860 X0.9917 Y2.3027
N20865 X0.9926 Y2.303
N20870 X0.998 Y2.3048
N20875 X0.9997 Y2.3054
N20880 X1.0062 Y2.3075
N20885 X1.0084 Y2.3081
N20890 X1.0117 Y2.309
N20895 X1.0144 Y2.3098
N20900 X1.0181 Y2.3108
N20905 X1.0198 Y2.3113
N20910 X1.0225 Y2.312
N20915 X1.0292 Y2.3135
N20920 X1.0307 Y2.3139
N20925 X1.0361 Y2.315
N20930 X1.0389 Y2.3156
N20935 X1.0443 Y2.3166
N20940 X1.047 Y2.317
N20945 X1.0525 Y2.3179
N20950 X1.0552 Y2.3183
N20955 X1.0606 Y2.319
N20960 X1.0634 Y2.3194
N20965 X1.0661 Y2.3197
N20970 X1.0688 Y2.32
N20975 X1.0742 Y2.3204
N20980 X1.077 Y2.3207
N20985 X1.0824 Y2.321
N20990 X1.0851 Y2.3211
N20995 X1.0906 Y2.3213
N21000 X1.0933 Y2.3214
N21005 X1.0987 Y2.3215
N21010 X1.1014
N21015 X1.4782
N21020 X1.5449
N21025 X1.6075
N21030 X1.6619
N21035 X1.8488
N21040 X1.8538
N21045 X1.8587
N21050 X1.8637 Y2.3216 Z-0.4601
N21055 X1.8686
N21060 X1.8736 Y2.3217
N21065 X1.8785 Y2.3218 Z-0.4602
N21070 X1.8835 Y2.3219 Z-0.4603
N21075 X1.8884 Y2.322 Z-0.4604
N21080 X1.8934 Y2.3221 Z-0.4605
N21085 X1.8983 Y2.3222 Z-0.4606
N21090 X1.9033 Y2.3224 Z-0.4607
N21095 X1.9082 Y2.3225 Z-0.4608
N21100 X1.9132 Y2.3227 Z-0.4609
N21105 X1.9181 Y2.3229 Z-0.461
N21110 X1.9231 Y2.323 Z-0.4612
N21115 X1.928 Y2.3232 Z-0.4613
N21120 X1.933 Y2.3234 Z-0.4615
N21125 X1.9379 Y2.3237 Z-0.4616
N21130 X1.9429 Y2.3239 Z-0.4618
N21135 X1.9478 Y2.3241 Z-0.462
N21140 X1.9874 Y2.3258 Z-0.4634
N21145 X1.9973 Y2.3262 Z-0.4637
N21150 X2.0716 Y2.3294 Z-0.4663
N21155 X2.0963 Y2.3305 Z-0.4672
N21160 X2.1013 Y2.3307 Z-0.4673
N21165 X2.1062 Y2.3308 Z-0.4675
N21170 X2.1111 Z-0.4677
N21175 X2.116 Z-0.4679
N21180 X2.1209 Z-0.468
N21185 X2.1258 Y2.3306 Z-0.4682
N21190 X2.1307 Y2.3304 Z-0.4684
N21195 X2.1357 Y2.33 Z-0.4685
N21200 X2.1406 Y2.3296 Z-0.4687
N21205 X2.1455 Y2.3292 Z-0.4688
N21210 X2.1504 Y2.3286 Z-0.469
N21215 X2.1553 Y2.328 Z-0.4691
N21220 X2.1601 Y2.3272 Z-0.4692
N21225 X2.165 Y2.3264 Z-0.4693
N21230 X2.1699 Y2.3255 Z-0.4694
N21235 X2.1747 Y2.3246 Z-0.4695
N21240 X2.1796 Y2.3235 Z-0.4696
N21245 X2.1844 Y2.3224 Z-0.4697
N21250 X2.1892 Y2.3212 Z-0.4698
N21255 X2.1939 Y2.3198 Z-0.4699
N21260 X2.1987 Y2.3185
N21265 X2.2034 Y2.317
N21270 X2.2081 Y2.3154 Z-0.47
N21275 X2.2128 Y2.3138
N21280 X2.2174 Y2.3121
N21285 X2.2176 Y2.312
N21290 X2.2197 Y2.3112
N21295 X2.2252 Y2.309
N21300 X2.2274 Y2.3081
N21305 X2.2338 Y2.3054
N21310 X2.2361 Y2.3043
N21315 X2.2415 Y2.3019
N21320 X2.2442 Y2.3005
N21325 X2.2469 Y2.2992
N21330 X2.2497 Y2.2979
N21335 X2.2561 Y2.2945
N21340 X2.2578 Y2.2936
N21345 X2.2633 Y2.2906
N21350 X2.2659 Y2.2891
N21355 X2.2687 Y2.2874
N21360 X2.2705 Y2.2863
N21365 X2.2714 Y2.2858
N21370 X2.2769 Y2.2824
N21375 X2.2793 Y2.2809
N21380 X2.2835 Y2.2782
N21385 X2.285 Y2.2771
N21390 X2.2905 Y2.2734
N21395 X2.2914 Y2.2727
N21400 X2.2959 Y2.2695
N21405 X2.2986 Y2.2675
N21410 X2.3041 Y2.2634
N21415 X2.306 Y2.2618
