%
(1004)
(Bottom of workpiece)
(T4 D=0.25 CR=0 - ZMIN=0.1 - flat end mill)
N10 G90
N15 G28 G91 Z0
N20 G90

(Horizontal Pocket)
N25 M9
N30 T4 M6
N35 S1000 M3
N40 M9
N45 G0 X1.6394 Y1.3121
N50 Z1.1
N55 Z0.1663
N60 G1 X1.6395 Z0.1644 F40
N65 X1.6397 Y1.312 Z0.1625
N70 X1.6401 Z0.1606
N75 G3 X1.6406 Z0.1588 I0.0116 J0.1182
N80 X1.6413 Y1.3119 Z0.157 I0.0111 J0.1182
N85 X1.642 Y1.3118 Z0.1552 I0.0105 J0.1183
N90 X1.643 Z0.1535 I0.0097 J0.1184
N95 X1.644 Y1.3117 Z0.1519 I0.0088 J0.1184
N100 X1.6452 Y1.3116 Z0.1504 I0.0077 J0.1185
N105 X1.6464 Z0.149 I0.0066 J0.1186
N110 X1.6478 Y1.3115 Z0.1476 I0.0053 J0.1186
N115 X1.6493 Z0.1464 I0.0039 J0.1187
N120 X1.6509 Y1.3114 Z0.1453 I0.0024 J0.1187
N125 X1.6525 Z0.1443 I0.0008 J0.1187
N130 X1.6543 Y1.3115 Z0.1435 I-0.0008 J0.1187
N135 X1.656 Z0.1428 I-0.0025 J0.1187
N140 X1.6579 Y1.3116 Z0.1422 I-0.0043 J0.1187
N145 X1.6597 Y1.3117 Z0.1418 I-0.0061 J0.1186
N150 X1.6616 Y1.3118 Z0.1415 I-0.008 J0.1185
N155 X1.6635 Y1.312 Z0.1413 I-0.0099 J0.1183
N160 X1.6399 Y1.5483 Z0.1283 I-0.0118 J0.1182
N165 X1.6635 Y1.312 Z0.1153 I0.0118 J-0.1182
N170 X1.6399 Y1.5483 Z0.1023 I-0.0118 J0.1182
N175 X1.5805 Y1.5252 Z0.1 I0.0118 J-0.1182
N180 X1.6183 Y1.4748 I0.0189 J-0.0252
N185 X1.5805 Y1.5252 I-0.0189 J0.0252
N190 G2 X1.5167 Y1.5038 I-0.0642 J0.0857
N195 G3 X1.4692 Y1.4561 I0.0002 J-0.0477
N200 G1 Y1.4456
N205 G3 X1.545 Y1.3698 I0.0758
N210 G1 X1.6537
N215 G3 X1.7296 Y1.4456 J0.0758
N220 G1 Y1.5544
N225 G3 X1.6537 Y1.6302 I-0.0758
N230 G1 X1.545
N235 G3 X1.4692 Y1.5544 J-0.0758
N240 G1 Y1.4561
N245 G2 X1.3863 Y1.3319 I-0.1344
N250 G3 X1.4154 Y1.1855 I0.0292 J-0.0703
N255 G1 X1.838
N260 G3 X1.9139 Y1.2613 J0.0758
N265 G1 Y1.7387
N270 G3 X1.838 Y1.8145 I-0.0758
N275 G1 X1.3607
N280 G3 X1.2849 Y1.7387 J-0.0758
N285 G1 Y1.2613
N290 G3 X1.3607 Y1.1855 I0.0758
N295 G1 X1.4154
N300 G2 X1.5545 Y1.0927 J-0.1507
N305 G3 X1.6937 Y1 I0.1391 J0.058
N310 G1 X2.0915
N315 X2.0954
N320 X2.0986 Y1.0002
N325 X2.0989 Y1.0004
N330 X2.0991 Y1.0006
N335 X2.0992 Y1.001
N340 X2.0993 Y1.004
N345 X2.0994 Y1.0079
N350 Y1.9814
N355 X2.0808 Y2
N360 X1.1072
N365 X1.1033
N370 X1.1002 Y1.9998
N375 X1.0999 Y1.9996
N380 X1.0997 Y1.9994
N385 X1.0996 Y1.999
N390 X1.0994 Y1.996
N395 Y1.9921
N400 Y1.0079
N405 Y1.004
N410 X1.0996 Y1.0008
N415 X1.0997 Y1.0005
N420 X1.1 Y1.0003
N425 X1.1003 Y1.0002
N430 X1.1033 Y1
N435 X1.1072
N440 X1.6937
N445 G3 X1.7187 Y1.025 J0.025
N450 G1 Y1.0289 Z0.1003
N455 Y1.0327 Z0.1012
N460 Y1.0363 Z0.1027
N465 Y1.0397 Z0.1048
N470 Y1.0427 Z0.1073
N475 Y1.0452 Z0.1103
N480 Y1.0473 Z0.1137
N485 Y1.0488 Z0.1173
N490 Y1.0497 Z0.1211
N495 Y1.05 Z0.125
N500 G0 Z1.1

(2D Contour Cutout)
N505 M9
N510 X1.6244 Y0.4006
N515 Z1.1
N520 Z0.7
N525 G1 Z0.6394 F40
N530 Z0.425
N535 Y0.4009 Z0.4211
N540 Y0.4019 Z0.4173
N545 Y0.4034 Z0.4137
N550 Y0.4054 Z0.4103
N555 Y0.408 Z0.4073
N560 Y0.4109 Z0.4048
N565 Y0.4143 Z0.4027
N570 Y0.4179 Z0.4012
N575 Y0.4217 Z0.4003
N580 Y0.4256 Z0.4
N585 Y0.4506
N590 G3 X1.5994 Y0.4756 I-0.025
N595 G1 X1.1004
N600 G2 X1.0959 Y0.4757 J0.125
N605 G1 X1.0675 Y0.4767
N610 G2 X1.0586 Y0.4774 I0.0044 J0.1249
N615 G1 X1.0304 Y0.4804
N620 G2 X1.0216 Y0.4816 I0.0133 J0.1243
N625 G1 X0.9935 Y0.4867
N630 G2 X0.9848 Y0.4886 I0.0221 J0.123
N635 G1 X0.9573 Y0.4956
N640 G2 X0.9491 Y0.4979 I0.0308 J0.1211
N645 G1 X0.924 Y0.5062
N650 G2 X0.9162 Y0.509 I0.039 J0.1188
N655 G1 X0.8917 Y0.5189
N660 G2 X0.8842 Y0.5222 I0.0467 J0.1159
N665 G1 X0.8604 Y0.5337
N670 G2 X0.8531 Y0.5375 I0.0543 J0.1126
N675 G1 X0.8302 Y0.5505
N680 G2 X0.8234 Y0.5546 I0.0616 J0.1088
N685 G1 X0.8032 Y0.5678
N690 G2 X0.797 Y0.5721 I0.0683 J0.1047
N695 G1 X0.7777 Y0.5865
N700 G2 X0.7717 Y0.5912 I0.0745 J0.1004
N705 G1 X0.7532 Y0.6067
N710 G2 X0.7476 Y0.6117 I0.0804 J0.0957
N715 G1 X0.73 Y0.6284
N720 G2 X0.7248 Y0.6337 I0.0861 J0.0907
N725 G1 X0.7085 Y0.6512
N730 G2 X0.7035 Y0.6568 I0.0913 J0.0853
N735 G1 X0.6883 Y0.6751
N740 G2 X0.6837 Y0.681 I0.0963 J0.0798
N745 G1 X0.6697 Y0.7002
N750 G2 X0.6655 Y0.7063 I0.1008 J0.0739
N755 G1 X0.6526 Y0.7263
N760 G2 X0.6486 Y0.7329 I0.105 J0.0678
N765 G1 X0.6361 Y0.7553
N770 G2 X0.6324 Y0.7624 I0.109 J0.0611
N775 G1 X0.6213 Y0.7855
N780 G2 X0.618 Y0.7929 I0.1127 J0.0541
N785 G1 X0.6084 Y0.8167
N790 G2 X0.6057 Y0.8243 I0.116 J0.0467
N795 G1 X0.5976 Y0.8487
N800 G2 X0.5952 Y0.8568 I0.1187 J0.0392
N805 G1 X0.5881 Y0.8845
N810 G2 X0.5862 Y0.8933 I0.1211 J0.031
N815 G1 X0.5811 Y0.9215
N820 G2 X0.5798 Y0.9303 I0.123 J0.0223
N825 G1 X0.5768 Y0.9589
N830 G2 X0.5761 Y0.9678 I0.1243 J0.0134
N835 G1 X0.5751 Y0.9965
N840 G2 X0.575 Y1.001 I0.1249 J0.0045
N845 G1 Y1.999
N850 G2 X0.5751 Y2.0034 I0.125
N855 G1 X0.5761 Y2.0319
N860 G2 X0.5767 Y2.0407 I0.1249 J-0.0044
N865 G1 X0.5797 Y2.069
N870 G2 X0.581 Y2.0778 I0.1243 J-0.0133
N875 G1 X0.586 Y2.1058
N880 G2 X0.5879 Y2.1145 I0.123 J-0.0221
N885 G1 X0.5949 Y2.1421
N890 G2 X0.5973 Y2.1503 I0.1211 J-0.0308
N895 G1 X0.6056 Y2.1754
N900 G2 X0.6084 Y2.1832 I0.1188 J-0.039
N905 G1 X0.6183 Y2.2077
N910 G2 X0.6216 Y2.2152 I0.1159 J-0.0468
N915 G1 X0.6331 Y2.239
N920 G2 X0.6369 Y2.2463 I0.1126 J-0.0543
N925 G1 X0.6499 Y2.2692
N930 G2 X0.654 Y2.2759 I0.1088 J-0.0616
N935 G1 X0.6672 Y2.2961
N940 G2 X0.6715 Y2.3023 I0.1047 J-0.0683
N945 G1 X0.6859 Y2.3217
N950 G2 X0.6905 Y2.3276 I0.1004 J-0.0745
N955 G1 X0.7061 Y2.3461
N960 G2 X0.7111 Y2.3518 I0.0957 J-0.0804
N965 G1 X0.7278 Y2.3693
N970 G2 X0.7331 Y2.3746 I0.0907 J-0.086
N975 G1 X0.7506 Y2.3909
N980 G2 X0.7561 Y2.3958 I0.0853 J-0.0913
N985 G1 X0.7745 Y2.411
N990 G2 X0.7804 Y2.4156 I0.0797 J-0.0963
N995 G1 X0.7996 Y2.4297
N1000 G2 X0.8057 Y2.4339 I0.0739 J-0.1008
N1005 G1 X0.8257 Y2.4468
N1010 G2 X0.8323 Y2.4508 I0.0678 J-0.105
N1015 G1 X0.8547 Y2.4633
N1020 G2 X0.8618 Y2.467 I0.0611 J-0.109
N1025 G1 X0.8849 Y2.4781
N1030 G2 X0.8923 Y2.4813 I0.054 J-0.1127
N1035 G1 X0.9161 Y2.4909
N1040 G2 X0.9236 Y2.4937 I0.0467 J-0.1159
N1045 G1 X0.948 Y2.5017
N1050 G2 X0.9562 Y2.5041 I0.0392 J-0.1187
N1055 G1 X0.9839 Y2.5112
N1060 G2 X0.9926 Y2.5131 I0.031 J-0.1211
N1065 G1 X1.0208 Y2.5183
N1070 G2 X1.0297 Y2.5195 I0.0223 J-0.123
N1075 G1 X1.0582 Y2.5226
N1080 G2 X1.0672 Y2.5233 I0.0134 J-0.1243
N1085 G1 X1.0959 Y2.5243
N1090 G2 X1.1004 Y2.5244 I0.0045 J-0.1249
N1095 G1 X2.0984
N1100 G2 X2.1028 Y2.5243 J-0.125
N1105 G1 X2.1313 Y2.5233
N1110 G2 X2.1401 Y2.5226 I-0.0044 J-0.1249
N1115 G1 X2.1684 Y2.5196
N1120 G2 X2.1772 Y2.5184 I-0.0133 J-0.1243
N1125 G1 X2.2052 Y2.5133
N1130 G2 X2.2139 Y2.5114 I-0.0221 J-0.123
N1135 G1 X2.2415 Y2.5044
N1140 G2 X2.2497 Y2.5021 I-0.0308 J-0.1211
N1145 G1 X2.2748 Y2.4938
N1150 G2 X2.2825 Y2.491 I-0.039 J-0.1188
N1155 G1 X2.307 Y2.4811
N1160 G2 X2.3146 Y2.4778 I-0.0468 J-0.1159
N1165 G1 X2.3383 Y2.4663
N1170 G2 X2.3457 Y2.4625 I-0.0543 J-0.1126
N1175 G1 X2.3686 Y2.4495
N1180 G2 X2.3753 Y2.4454 I-0.0616 J-0.1088
N1185 G1 X2.3955 Y2.4322
N1190 G2 X2.4017 Y2.4279 I-0.0683 J-0.1047
N1195 G1 X2.4211 Y2.4135
N1200 G2 X2.427 Y2.4088 I-0.0745 J-0.1004
N1205 G1 X2.4455 Y2.3933
N1210 G2 X2.4511 Y2.3883 I-0.0804 J-0.0957
N1215 G1 X2.4687 Y2.3716
N1220 G2 X2.474 Y2.3663 I-0.0861 J-0.0907
N1225 G1 X2.4903 Y2.3488
N1230 G2 X2.4952 Y2.3432 I-0.0913 J-0.0853
N1235 G1 X2.5104 Y2.3249
N1240 G2 X2.515 Y2.319 I-0.0963 J-0.0797
N1245 G1 X2.529 Y2.2998
N1250 G2 X2.5333 Y2.2937 I-0.1008 J-0.0739
N1255 G1 X2.5462 Y2.2737
N1260 G2 X2.5501 Y2.2671 I-0.105 J-0.0678
N1265 G1 X2.5627 Y2.2447
N1270 G2 X2.5664 Y2.2376 I-0.109 J-0.0611
N1275 G1 X2.5775 Y2.2145
N1280 G2 X2.5807 Y2.2071 I-0.1127 J-0.054
N1285 G1 X2.5903 Y2.1833
N1290 G2 X2.5931 Y2.1757 I-0.116 J-0.0467
N1295 G1 X2.6011 Y2.1514
N1300 G2 X2.6035 Y2.1432 I-0.1187 J-0.0392
N1305 G1 X2.6106 Y2.1155
N1310 G2 X2.6125 Y2.1067 I-0.1211 J-0.031
N1315 G1 X2.6176 Y2.0785
N1320 G2 X2.6189 Y2.0697 I-0.123 J-0.0223
N1325 G1 X2.622 Y2.0411
N1330 G2 X2.6226 Y2.0322 I-0.1243 J-0.0134
N1335 G1 X2.6237 Y2.0035
N1340 G2 Y1.999 I-0.1249 J-0.0045
N1345 G1 Y1.5
N1350 Y1.001
N1355 G2 Y0.9966 I-0.125
N1360 G1 X2.6226 Y0.9681
N1365 G2 X2.622 Y0.9593 I-0.1249 J0.0044
N1370 G1 X2.619 Y0.931
N1375 G2 X2.6177 Y0.9222 I-0.1243 J0.0133
N1380 G1 X2.6127 Y0.8942
N1385 G2 X2.6108 Y0.8855 I-0.123 J0.0221
N1390 G1 X2.6038 Y0.8579
N1395 G2 X2.6014 Y0.8497 I-0.1212 J0.0308
N1400 G1 X2.5932 Y0.8246
N1405 G2 X2.5904 Y0.8169 I-0.1188 J0.039
N1410 G1 X2.5805 Y0.7923
N1415 G2 X2.5771 Y0.7848 I-0.1159 J0.0467
N1420 G1 X2.5657 Y0.761
N1425 G2 X2.5618 Y0.7537 I-0.1126 J0.0543
N1430 G1 X2.5489 Y0.7308
N1435 G2 X2.5448 Y0.7241 I-0.1088 J0.0616
N1440 G1 X2.5316 Y0.7039
N1445 G2 X2.5273 Y0.6977 I-0.1047 J0.0683
N1450 G1 X2.5129 Y0.6783
N1455 G2 X2.5082 Y0.6724 I-0.1004 J0.0745
N1460 G1 X2.4926 Y0.6539
N1465 G2 X2.4876 Y0.6482 I-0.0957 J0.0804
N1470 G1 X2.471 Y0.6307
N1475 G2 X2.4656 Y0.6254 I-0.0907 J0.086
N1480 G1 X2.4482 Y0.6091
N1485 G2 X2.4426 Y0.6042 I-0.0853 J0.0913
N1490 G1 X2.4242 Y0.589
N1495 G2 X2.4184 Y0.5844 I-0.0798 J0.0963
N1500 G1 X2.3992 Y0.5703
N1505 G2 X2.3931 Y0.5661 I-0.0739 J0.1008
N1510 G1 X2.3731 Y0.5532
N1515 G2 X2.3664 Y0.5492 I-0.0678 J0.105
N1520 G1 X2.3441 Y0.5367
N1525 G2 X2.337 Y0.533 I-0.0612 J0.109
N1530 G1 X2.3138 Y0.5219
N1535 G2 X2.3065 Y0.5187 I-0.054 J0.1127
N1540 G1 X2.2826 Y0.5091
N1545 G2 X2.2751 Y0.5063 I-0.0467 J0.116
N1550 G1 X2.2507 Y0.4983
N1555 G2 X2.2426 Y0.4959 I-0.0392 J0.1187
N1560 G1 X2.2148 Y0.4888
N1565 G2 X2.2061 Y0.4869 I-0.031 J0.1211
N1570 G1 X2.1779 Y0.4817
N1575 G2 X2.169 Y0.4805 I-0.0223 J0.123
N1580 G1 X2.1405 Y0.4774
N1585 G2 X2.1316 Y0.4767 I-0.0134 J0.1243
N1590 G1 X2.1029 Y0.4757
N1595 G2 X2.0984 Y0.4756 I-0.0045 J0.1249
N1600 G1 X1.5994
N1605 G3 X1.5744 Y0.4506 J-0.025
N1610 G1 Y0.4256
N1615 Y0.4217 Z0.4003
N1620 Y0.4179 Z0.4012
N1625 Y0.4143 Z0.4027
N1630 Y0.4109 Z0.4048
N1635 Y0.408 Z0.4073
N1640 Y0.4054 Z0.4103
N1645 Y0.4034 Z0.4137
N1650 Y0.4019 Z0.4173
N1655 Y0.4009 Z0.4211
N1660 Y0.4006 Z0.425
N1665 X1.6244
N1670 Z0.385
N1675 Y0.4009 Z0.3811
N1680 Y0.4019 Z0.3773
N1685 Y0.4034 Z0.3737
N1690 Y0.4054 Z0.3703
N1695 Y0.408 Z0.3673
N1700 Y0.4109 Z0.3648
N1705 Y0.4143 Z0.3627
N1710 Y0.4179 Z0.3612
N1715 Y0.4217 Z0.3603
N1720 Y0.4256 Z0.36
N1725 Y0.4506
N1730 G3 X1.5994 Y0.4756 I-0.025
N1735 G1 X1.1004
N1740 G2 X1.0959 Y0.4757 J0.125
N1745 G1 X1.0675 Y0.4767
N1750 G2 X1.0586 Y0.4774 I0.0044 J0.1249
N1755 G1 X1.0304 Y0.4804
N1760 G2 X1.0216 Y0.4816 I0.0133 J0.1243
N1765 G1 X0.9935 Y0.4867
N1770 G2 X0.9848 Y0.4886 I0.0221 J0.123
N1775 G1 X0.9573 Y0.4956
N1780 G2 X0.9491 Y0.4979 I0.0308 J0.1211
N1785 G1 X0.924 Y0.5062
N1790 G2 X0.9162 Y0.509 I0.039 J0.1188
N1795 G1 X0.8917 Y0.5189
N1800 G2 X0.8842 Y0.5222 I0.0467 J0.1159
N1805 G1 X0.8604 Y0.5337
N1810 G2 X0.8531 Y0.5375 I0.0543 J0.1126
N1815 G1 X0.8302 Y0.5505
N1820 G2 X0.8234 Y0.5546 I0.0616 J0.1088
N1825 G1 X0.8032 Y0.5678
N1830 G2 X0.797 Y0.5721 I0.0683 J0.1047
N1835 G1 X0.7777 Y0.5865
N1840 G2 X0.7717 Y0.5912 I0.0745 J0.1004
N1845 G1 X0.7532 Y0.6067
N1850 G2 X0.7476 Y0.6117 I0.0804 J0.0957
N1855 G1 X0.73 Y0.6284
N1860 G2 X0.7248 Y0.6337 I0.0861 J0.0907
N1865 G1 X0.7085 Y0.6512
N1870 G2 X0.7035 Y0.6568 I0.0913 J0.0853
N1875 G1 X0.6883 Y0.6751
N1880 G2 X0.6837 Y0.681 I0.0963 J0.0798
N1885 G1 X0.6697 Y0.7002
N1890 G2 X0.6655 Y0.7063 I0.1008 J0.0739
N1895 G1 X0.6526 Y0.7263
N1900 G2 X0.6486 Y0.7329 I0.105 J0.0678
N1905 G1 X0.6361 Y0.7553
N1910 G2 X0.6324 Y0.7624 I0.109 J0.0611
N1915 G1 X0.6213 Y0.7855
N1920 G2 X0.618 Y0.7929 I0.1127 J0.0541
N1925 G1 X0.6084 Y0.8167
N1930 G2 X0.6057 Y0.8243 I0.116 J0.0467
N1935 G1 X0.5976 Y0.8487
N1940 G2 X0.5952 Y0.8568 I0.1187 J0.0392
N1945 G1 X0.5881 Y0.8845
N1950 G2 X0.5862 Y0.8933 I0.1211 J0.031
N1955 G1 X0.5811 Y0.9215
N1960 G2 X0.5798 Y0.9303 I0.123 J0.0223
N1965 G1 X0.5768 Y0.9589
N1970 G2 X0.5761 Y0.9678 I0.1243 J0.0134
N1975 G1 X0.5751 Y0.9965
N1980 G2 X0.575 Y1.001 I0.1249 J0.0045
N1985 G1 Y1.999
N1990 G2 X0.5751 Y2.0034 I0.125
N1995 G1 X0.5761 Y2.0319
N2000 G2 X0.5767 Y2.0407 I0.1249 J-0.0044
N2005 G1 X0.5797 Y2.069
N2010 G2 X0.581 Y2.0778 I0.1243 J-0.0133
N2015 G1 X0.586 Y2.1058
N2020 G2 X0.5879 Y2.1145 I0.123 J-0.0221
N2025 G1 X0.5949 Y2.1421
N2030 G2 X0.5973 Y2.1503 I0.1211 J-0.0308
N2035 G1 X0.6056 Y2.1754
N2040 G2 X0.6084 Y2.1832 I0.1188 J-0.039
N2045 G1 X0.6183 Y2.2077
N2050 G2 X0.6216 Y2.2152 I0.1159 J-0.0468
N2055 G1 X0.6331 Y2.239
N2060 G2 X0.6369 Y2.2463 I0.1126 J-0.0543
N2065 G1 X0.6499 Y2.2692
N2070 G2 X0.654 Y2.2759 I0.1088 J-0.0616
N2075 G1 X0.6672 Y2.2961
N2080 G2 X0.6715 Y2.3023 I0.1047 J-0.0683
N2085 G1 X0.6859 Y2.3217
N2090 G2 X0.6905 Y2.3276 I0.1004 J-0.0745
N2095 G1 X0.7061 Y2.3461
N2100 G2 X0.7111 Y2.3518 I0.0957 J-0.0804
N2105 G1 X0.7278 Y2.3693
N2110 G2 X0.7331 Y2.3746 I0.0907 J-0.086
N2115 G1 X0.7506 Y2.3909
N2120 G2 X0.7561 Y2.3958 I0.0853 J-0.0913
N2125 G1 X0.7745 Y2.411
N2130 G2 X0.7804 Y2.4156 I0.0797 J-0.0963
N2135 G1 X0.7996 Y2.4297
N2140 G2 X0.8057 Y2.4339 I0.0739 J-0.1008
N2145 G1 X0.8257 Y2.4468
N2150 G2 X0.8323 Y2.4508 I0.0678 J-0.105
N2155 G1 X0.8547 Y2.4633
N2160 G2 X0.8618 Y2.467 I0.0611 J-0.109
N2165 G1 X0.8849 Y2.4781
N2170 G2 X0.8923 Y2.4813 I0.054 J-0.1127
N2175 G1 X0.9161 Y2.4909
N2180 G2 X0.9236 Y2.4937 I0.0467 J-0.1159
N2185 G1 X0.948 Y2.5017
N2190 G2 X0.9562 Y2.5041 I0.0392 J-0.1187
N2195 G1 X0.9839 Y2.5112
N2200 G2 X0.9926 Y2.5131 I0.031 J-0.1211
N2205 G1 X1.0208 Y2.5183
N2210 G2 X1.0297 Y2.5195 I0.0223 J-0.123
N2215 G1 X1.0582 Y2.5226
N2220 G2 X1.0672 Y2.5233 I0.0134 J-0.1243
N2225 G1 X1.0959 Y2.5243
N2230 G2 X1.1004 Y2.5244 I0.0045 J-0.1249
N2235 G1 X2.0984
N2240 G2 X2.1028 Y2.5243 J-0.125
N2245 G1 X2.1313 Y2.5233
N2250 G2 X2.1401 Y2.5226 I-0.0044 J-0.1249
N2255 G1 X2.1684 Y2.5196
N2260 G2 X2.1772 Y2.5184 I-0.0133 J-0.1243
N2265 G1 X2.2052 Y2.5133
N2270 G2 X2.2139 Y2.5114 I-0.0221 J-0.123
N2275 G1 X2.2415 Y2.5044
N2280 G2 X2.2497 Y2.5021 I-0.0308 J-0.1211
N2285 G1 X2.2748 Y2.4938
N2290 G2 X2.2825 Y2.491 I-0.039 J-0.1188
N2295 G1 X2.307 Y2.4811
N2300 G2 X2.3146 Y2.4778 I-0.0468 J-0.1159
N2305 G1 X2.3383 Y2.4663
N2310 G2 X2.3457 Y2.4625 I-0.0543 J-0.1126
N2315 G1 X2.3686 Y2.4495
N2320 G2 X2.3753 Y2.4454 I-0.0616 J-0.1088
N2325 G1 X2.3955 Y2.4322
N2330 G2 X2.4017 Y2.4279 I-0.0683 J-0.1047
N2335 G1 X2.4211 Y2.4135
N2340 G2 X2.427 Y2.4088 I-0.0745 J-0.1004
N2345 G1 X2.4455 Y2.3933
N2350 G2 X2.4511 Y2.3883 I-0.0804 J-0.0957
N2355 G1 X2.4687 Y2.3716
N2360 G2 X2.474 Y2.3663 I-0.0861 J-0.0907
N2365 G1 X2.4903 Y2.3488
N2370 G2 X2.4952 Y2.3432 I-0.0913 J-0.0853
N2375 G1 X2.5104 Y2.3249
N2380 G2 X2.515 Y2.319 I-0.0963 J-0.0797
N2385 G1 X2.529 Y2.2998
N2390 G2 X2.5333 Y2.2937 I-0.1008 J-0.0739
N2395 G1 X2.5462 Y2.2737
N2400 G2 X2.5501 Y2.2671 I-0.105 J-0.0678
N2405 G1 X2.5627 Y2.2447
N2410 G2 X2.5664 Y2.2376 I-0.109 J-0.0611
N2415 G1 X2.5775 Y2.2145
N2420 G2 X2.5807 Y2.2071 I-0.1127 J-0.054
N2425 G1 X2.5903 Y2.1833
N2430 G2 X2.5931 Y2.1757 I-0.116 J-0.0467
N2435 G1 X2.6011 Y2.1514
N2440 G2 X2.6035 Y2.1432 I-0.1187 J-0.0392
N2445 G1 X2.6106 Y2.1155
N2450 G2 X2.6125 Y2.1067 I-0.1211 J-0.031
N2455 G1 X2.6176 Y2.0785
N2460 G2 X2.6189 Y2.0697 I-0.123 J-0.0223
N2465 G1 X2.622 Y2.0411
N2470 G2 X2.6226 Y2.0322 I-0.1243 J-0.0134
N2475 G1 X2.6237 Y2.0035
N2480 G2 Y1.999 I-0.1249 J-0.0045
N2485 G1 Y1.5
N2490 Y1.001
N2495 G2 Y0.9966 I-0.125
N2500 G1 X2.6226 Y0.9681
N2505 G2 X2.622 Y0.9593 I-0.1249 J0.0044
N2510 G1 X2.619 Y0.931
N2515 G2 X2.6177 Y0.9222 I-0.1243 J0.0133
N2520 G1 X2.6127 Y0.8942
N2525 G2 X2.6108 Y0.8855 I-0.123 J0.0221
N2530 G1 X2.6038 Y0.8579
N2535 G2 X2.6014 Y0.8497 I-0.1212 J0.0308
N2540 G1 X2.5932 Y0.8246
N2545 G2 X2.5904 Y0.8169 I-0.1188 J0.039
N2550 G1 X2.5805 Y0.7923
N2555 G2 X2.5771 Y0.7848 I-0.1159 J0.0467
N2560 G1 X2.5657 Y0.761
N2565 G2 X2.5618 Y0.7537 I-0.1126 J0.0543
N2570 G1 X2.5489 Y0.7308
N2575 G2 X2.5448 Y0.7241 I-0.1088 J0.0616
N2580 G1 X2.5316 Y0.7039
N2585 G2 X2.5273 Y0.6977 I-0.1047 J0.0683
N2590 G1 X2.5129 Y0.6783
N2595 G2 X2.5082 Y0.6724 I-0.1004 J0.0745
N2600 G1 X2.4926 Y0.6539
N2605 G2 X2.4876 Y0.6482 I-0.0957 J0.0804
N2610 G1 X2.471 Y0.6307
N2615 G2 X2.4656 Y0.6254 I-0.0907 J0.086
N2620 G1 X2.4482 Y0.6091
N2625 G2 X2.4426 Y0.6042 I-0.0853 J0.0913
N2630 G1 X2.4242 Y0.589
N2635 G2 X2.4184 Y0.5844 I-0.0798 J0.0963
N2640 G1 X2.3992 Y0.5703
N2645 G2 X2.3931 Y0.5661 I-0.0739 J0.1008
N2650 G1 X2.3731 Y0.5532
N2655 G2 X2.3664 Y0.5492 I-0.0678 J0.105
N2660 G1 X2.3441 Y0.5367
N2665 G2 X2.337 Y0.533 I-0.0612 J0.109
N2670 G1 X2.3138 Y0.5219
N2675 G2 X2.3065 Y0.5187 I-0.054 J0.1127
N2680 G1 X2.2826 Y0.5091
N2685 G2 X2.2751 Y0.5063 I-0.0467 J0.116
N2690 G1 X2.2507 Y0.4983
N2695 G2 X2.2426 Y0.4959 I-0.0392 J0.1187
N2700 G1 X2.2148 Y0.4888
N2705 G2 X2.2061 Y0.4869 I-0.031 J0.1211
N2710 G1 X2.1779 Y0.4817
N2715 G2 X2.169 Y0.4805 I-0.0223 J0.123
N2720 G1 X2.1405 Y0.4774
N2725 G2 X2.1316 Y0.4767 I-0.0134 J0.1243
N2730 G1 X2.1029 Y0.4757
N2735 G2 X2.0984 Y0.4756 I-0.0045 J0.1249
N2740 G1 X1.5994
N2745 G3 X1.5744 Y0.4506 J-0.025
N2750 G1 Y0.4256
N2755 Y0.4217 Z0.3603
N2760 Y0.4179 Z0.3612
N2765 Y0.4143 Z0.3627
N2770 Y0.4109 Z0.3648
N2775 Y0.408 Z0.3673
N2780 Y0.4054 Z0.3703
N2785 Y0.4034 Z0.3737
N2790 Y0.4019 Z0.3773
N2795 Y0.4009 Z0.3811
N2800 Y0.4006 Z0.385
N2805 G0 Z1.1
N2810 M9
N2815 G28 G91 Z0
N2820 M30
%
