%
(1005)
(Bottom of workpiece)
(T5 D=0.0156 CR=0 - ZMIN=-0.42 - flat end mill)
N10 G90
N15 G28 G91 Z0
N20 G90

(Horizontal2)
N25 M9
N30 T5 M6
N35 S1000 M3
N40 M9
N45 G0 X1.8314 Y1.1276
N50 Z0.6
N55 Z-0.3471
N60 G1 Z-0.3476 F40
N65 X1.8312 Y1.1275 Z-0.348
N70 X1.8309 Y1.1274 Z-0.3483
N75 G3 X1.8305 Y1.1273 Z-0.3486 I0.0025 J-0.007
N80 X1.83 Y1.1271 Z-0.3487 I0.0029 J-0.0068
N85 X1.8367 Y1.1138 Z-0.3495 I0.0033 J-0.0066
N90 X1.83 Y1.1271 Z-0.3503 I-0.0033 J0.0066
N95 X1.8367 Y1.1138 Z-0.3511 I0.0033 J-0.0066
N100 X1.83 Y1.1271 Z-0.3519 I-0.0033 J0.0066
N105 X1.8367 Y1.1138 Z-0.3527 I0.0033 J-0.0066
N110 X1.83 Y1.1271 Z-0.3535 I-0.0033 J0.0066
N115 X1.8367 Y1.1138 Z-0.3544 I0.0033 J-0.0066
N120 X1.83 Y1.1271 Z-0.3552 I-0.0033 J0.0066
N125 X1.8367 Y1.1138 Z-0.356 I0.0033 J-0.0066
N130 X1.83 Y1.1271 Z-0.3568 I-0.0033 J0.0066
N135 X1.8367 Y1.1138 Z-0.3576 I0.0033 J-0.0066
N140 X1.83 Y1.1271 Z-0.3584 I-0.0033 J0.0066
N145 X1.8367 Y1.1138 Z-0.3592 I0.0033 J-0.0066
N150 X1.83 Y1.1271 Z-0.36 I-0.0033 J0.0066
N155 X1.8367 Y1.1138 Z-0.3609 I0.0033 J-0.0066
N160 X1.83 Y1.1271 Z-0.3617 I-0.0033 J0.0066
N165 X1.8367 Y1.1138 Z-0.3625 I0.0033 J-0.0066
N170 X1.83 Y1.1271 Z-0.3633 I-0.0033 J0.0066
N175 X1.8367 Y1.1138 Z-0.3641 I0.0033 J-0.0066
N180 X1.83 Y1.1271 Z-0.3649 I-0.0033 J0.0066
N185 X1.8367 Y1.1138 Z-0.3657 I0.0033 J-0.0066
N190 X1.83 Y1.1271 Z-0.3665 I-0.0033 J0.0066
N195 X1.8367 Y1.1138 Z-0.3674 I0.0033 J-0.0066
N200 X1.83 Y1.1271 Z-0.3682 I-0.0033 J0.0066
N205 X1.8367 Y1.1138 Z-0.369 I0.0033 J-0.0066
N210 X1.83 Y1.1271 Z-0.3698 I-0.0033 J0.0066
N215 X1.8367 Y1.1138 Z-0.3706 I0.0033 J-0.0066
N220 X1.83 Y1.1271 Z-0.3714 I-0.0033 J0.0066
N225 X1.8367 Y1.1138 Z-0.3722 I0.0033 J-0.0066
N230 X1.83 Y1.1271 Z-0.373 I-0.0033 J0.0066
N235 X1.8367 Y1.1138 Z-0.3739 I0.0033 J-0.0066
N240 X1.83 Y1.1271 Z-0.3747 I-0.0033 J0.0066
N245 X1.8367 Y1.1138 Z-0.3755 I0.0033 J-0.0066
N250 X1.83 Y1.1271 Z-0.3763 I-0.0033 J0.0066
N255 X1.8367 Y1.1138 Z-0.3771 I0.0033 J-0.0066
N260 X1.83 Y1.1271 Z-0.3779 I-0.0033 J0.0066
N265 X1.8367 Y1.1138 Z-0.3787 I0.0033 J-0.0066
N270 X1.83 Y1.1271 Z-0.3796 I-0.0033 J0.0066
N275 X1.8367 Y1.1138 Z-0.3804 I0.0033 J-0.0066
N280 X1.83 Y1.1271 Z-0.3812 I-0.0033 J0.0066
N285 X1.8367 Y1.1138 Z-0.382 I0.0033 J-0.0066
N290 X1.83 Y1.1271 Z-0.3828 I-0.0033 J0.0066
N295 X1.8367 Y1.1138 Z-0.3836 I0.0033 J-0.0066
N300 X1.83 Y1.1271 Z-0.3844 I-0.0033 J0.0066
N305 X1.8367 Y1.1138 Z-0.3852 I0.0033 J-0.0066
N310 X1.83 Y1.1271 Z-0.3861 I-0.0033 J0.0066
N315 X1.8367 Y1.1138 Z-0.3869 I0.0033 J-0.0066
N320 X1.83 Y1.1271 Z-0.3877 I-0.0033 J0.0066
N325 X1.8367 Y1.1138 Z-0.3885 I0.0033 J-0.0066
N330 X1.83 Y1.1271 Z-0.3893 I-0.0033 J0.0066
N335 X1.8334 Y1.113 Z-0.39 I0.0033 J-0.0066
N340 G1 X1.8453
N345 G3 X1.8467 Y1.1166 J0.0021
N350 G2 X1.8355 Y1.1309 I0.0358 J0.0394
N355 G3 X1.8312 I-0.0022 J-0.0011
N360 G2 X1.8201 Y1.1166 I-0.0466 J0.0248
N365 G3 X1.8215 Y1.113 I0.0014 J-0.0015
N370 G1 X1.8334
N375 G3 X1.8349 Y1.1146 J0.0016
N380 G1 Y1.1154 Z-0.3898
N385 Y1.116 Z-0.3892
N390 Y1.1162 Z-0.3884
N395 G0 Z0.2
N400 X2.1038 Y0.9906
N405 Z-0.3471
N410 G1 X2.1037 Z-0.3476 F40
N415 X2.1036 Y0.9904 Z-0.348
N420 X2.1035 Y0.9901 Z-0.3483
N425 G3 X2.1033 Y0.9897 Z-0.3486 I0.0066 J-0.0034
N430 X2.1031 Y0.9893 Z-0.3487 I0.0068 J-0.003
N435 X2.117 Y0.9842 Z-0.3495 I0.007 J-0.0025
N440 X2.1031 Y0.9893 Z-0.3503 I-0.007 J0.0025
N445 X2.117 Y0.9842 Z-0.3511 I0.007 J-0.0025
N450 X2.1031 Y0.9893 Z-0.3519 I-0.007 J0.0025
N455 X2.117 Y0.9842 Z-0.3527 I0.007 J-0.0025
N460 X2.1031 Y0.9893 Z-0.3535 I-0.007 J0.0025
N465 X2.117 Y0.9842 Z-0.3544 I0.007 J-0.0025
N470 X2.1031 Y0.9893 Z-0.3552 I-0.007 J0.0025
N475 X2.117 Y0.9842 Z-0.356 I0.007 J-0.0025
N480 X2.1031 Y0.9893 Z-0.3568 I-0.007 J0.0025
N485 X2.117 Y0.9842 Z-0.3576 I0.007 J-0.0025
N490 X2.1031 Y0.9893 Z-0.3584 I-0.007 J0.0025
N495 X2.117 Y0.9842 Z-0.3592 I0.007 J-0.0025
N500 X2.1031 Y0.9893 Z-0.36 I-0.007 J0.0025
N505 X2.117 Y0.9842 Z-0.3609 I0.007 J-0.0025
N510 X2.1031 Y0.9893 Z-0.3617 I-0.007 J0.0025
N515 X2.117 Y0.9842 Z-0.3625 I0.007 J-0.0025
N520 X2.1031 Y0.9893 Z-0.3633 I-0.007 J0.0025
N525 X2.117 Y0.9842 Z-0.3641 I0.007 J-0.0025
N530 X2.1031 Y0.9893 Z-0.3649 I-0.007 J0.0025
N535 X2.117 Y0.9842 Z-0.3657 I0.007 J-0.0025
N540 X2.1031 Y0.9893 Z-0.3665 I-0.007 J0.0025
N545 X2.117 Y0.9842 Z-0.3674 I0.007 J-0.0025
N550 X2.1031 Y0.9893 Z-0.3682 I-0.007 J0.0025
N555 X2.117 Y0.9842 Z-0.369 I0.007 J-0.0025
N560 X2.1031 Y0.9893 Z-0.3698 I-0.007 J0.0025
N565 X2.117 Y0.9842 Z-0.3706 I0.007 J-0.0025
N570 X2.1031 Y0.9893 Z-0.3714 I-0.007 J0.0025
N575 X2.117 Y0.9842 Z-0.3722 I0.007 J-0.0025
N580 X2.1031 Y0.9893 Z-0.373 I-0.007 J0.0025
N585 X2.117 Y0.9842 Z-0.3739 I0.007 J-0.0025
N590 X2.1031 Y0.9893 Z-0.3747 I-0.007 J0.0025
N595 X2.117 Y0.9842 Z-0.3755 I0.007 J-0.0025
N600 X2.1031 Y0.9893 Z-0.3763 I-0.007 J0.0025
N605 X2.117 Y0.9842 Z-0.3771 I0.007 J-0.0025
N610 X2.1031 Y0.9893 Z-0.3779 I-0.007 J0.0025
N615 X2.117 Y0.9842 Z-0.3787 I0.007 J-0.0025
N620 X2.1031 Y0.9893 Z-0.3796 I-0.007 J0.0025
N625 X2.117 Y0.9842 Z-0.3804 I0.007 J-0.0025
N630 X2.1031 Y0.9893 Z-0.3812 I-0.007 J0.0025
N635 X2.117 Y0.9842 Z-0.382 I0.007 J-0.0025
N640 X2.1031 Y0.9893 Z-0.3828 I-0.007 J0.0025
N645 X2.117 Y0.9842 Z-0.3836 I0.007 J-0.0025
N650 X2.1031 Y0.9893 Z-0.3844 I-0.007 J0.0025
N655 X2.117 Y0.9842 Z-0.3852 I0.007 J-0.0025
N660 X2.1031 Y0.9893 Z-0.3861 I-0.007 J0.0025
N665 X2.117 Y0.9842 Z-0.3869 I0.007 J-0.0025
N670 X2.1031 Y0.9893 Z-0.3877 I-0.007 J0.0025
N675 X2.117 Y0.9842 Z-0.3885 I0.007 J-0.0025
N680 X2.1031 Y0.9893 Z-0.3893 I-0.007 J0.0025
N685 X2.1151 Y0.9814 Z-0.39 I0.007 J-0.0025
N690 X2.1155 Y0.9917 I-0.005 J0.0053
N695 X2.1051 Y0.992 I-0.0053 J-0.005
N700 G2 X2.0969 Y0.9888 I-0.0082 J0.0087
N705 G1 X1.5694 Y0.9887
N710 G2 X1.5581 Y0.9982 J0.0116
N715 X1.5579 Y0.9993 I0.0202 J0.0037
N720 X1.5578 Y1.0005 I0.009 J0.0011
N725 G1 Y1.528
N730 G2 X1.5598 Y1.5343 I0.011
N735 X1.5647 Y1.5386 I0.0106 J-0.0073
N740 X1.5671 Y1.5394 I0.0046 J-0.0094
N745 X1.5697 Y1.5396 I0.0025 J-0.0119
N750 G1 X2.0972 Y1.5397
N755 G2 X2.1054 Y1.5362 J-0.0115
N760 X2.1088 Y1.5279 I-0.0085 J-0.0083
N765 G1 X2.1087 Y1.0004
N770 G2 X2.1052 Y0.9922 I-0.0115
N775 G1 X2.1051 Y0.992
N780 G2 X2.0933 Y0.9934 I-0.0053 J0.0057
N785 G3 X2.0829 Y0.999 I-0.0105 J-0.007
N790 G1 X1.5694 Y0.9989
N795 X1.5691 Y0.999
N800 X1.569 Y0.9991
N805 X1.5686 Y0.9993
N810 X1.5683 Y0.9996
N815 X1.5681 Y1.0001
N820 X1.568 Y1.0005
N825 Y1.528
N830 X1.5681 Y1.5285
N835 X1.5684 Y1.5288
N840 X1.5687 Y1.5292
N845 X1.5692 Y1.5294
N850 X1.5697 Y1.5295
N855 X2.0972
N860 X2.0975 Y1.5294
N865 X2.0979 Y1.5292
N870 X2.0983 Y1.5288
N875 X2.0985 Y1.5284
N880 X2.0986 Y1.5279
N885 X2.0985 Y1.0004
N890 X2.0984 Y1
N895 X2.0982 Y0.9996
N900 X2.0978 Y0.9993
N905 X2.0974 Y0.999
N910 X2.0969
N915 X2.0829
N920 G3 X2.0826 Y0.9975 J-0.0008
N925 G1 X2.1069 Y0.9884
N930 G3 X2.1076 Y0.9885 I0.0003 J0.0007
N935 X2.1084 Y0.9892 I-0.0037 J0.005
N940 X2.1102 Y0.9934 I-0.0048 J0.0046
N945 G1 X2.1103 Y1.5352
N950 G3 X2.1084 Y1.5394 I-0.0063 J-0.0004
N955 X2.1042 Y1.5412 I-0.0045 J-0.0047
N960 G1 X1.5621 Y1.5411
N965 G3 X1.558 Y1.5393 I0.0001 J-0.0055
N970 X1.5563 Y1.5352 I0.005 J-0.0045
N975 G1 Y0.9932
N980 G3 X1.5582 Y0.9891 I0.0063 J0.0004
N985 X1.5624 Y0.9872 I0.0045 J0.0047
N990 G1 X2.1043 Y0.9873
N995 G3 X2.1076 Y0.9885 I-0.0004 J0.0062
N1000 G2 X2.1146 Y0.9896 I0.0045 J-0.0061
N1005 G3 X2.1204 Y0.9937 I0.0014 J0.0041
N1010 G1 X2.1205 Y1.5358
N1015 X2.1201 Y1.5393
N1020 X2.1189 Y1.5426
N1025 X2.117 Y1.5455
N1030 X2.1145 Y1.548
N1035 X2.1116 Y1.5499
N1040 X2.1083 Y1.551
N1045 X2.1048 Y1.5514
N1050 X1.562 Y1.5513
N1055 X1.5599
N1060 X1.5568 Y1.5506
N1065 X1.5538 Y1.5492
N1070 X1.5512 Y1.5473
N1075 X1.5491 Y1.5448
N1080 X1.5475 Y1.542
N1085 X1.5465 Y1.5389
N1090 X1.5462 Y1.5357
N1095 Y0.9927
N1100 X1.5465 Y0.9892
N1105 X1.5477 Y0.9859
N1110 X1.5481 Y0.9852
N1115 X1.5496 Y0.9829
N1120 X1.5521 Y0.9804
N1125 X1.5551 Y0.9786
N1130 X1.5583 Y0.9774
N1135 X1.5619 Y0.9771
N1140 X2.1049
N1145 X2.1083 Y0.9775
N1150 X2.1116 Y0.9787
N1155 X2.1145 Y0.9805
N1160 X2.117 Y0.9831
N1165 X2.1189 Y0.986
N1170 X2.12 Y0.9893
N1175 X2.1204 Y0.9929
N1180 Y0.9937
N1185 G3 X2.1188 Y0.9953 I-0.0016
N1190 G1 X2.1181 Z-0.3898
N1195 X2.1175 Z-0.3892
N1200 X2.1173 Z-0.3884
N1205 G0 Z0.2
N1210 X1.9907 Y1.1093
N1215 Z-0.3471
N1220 G1 X1.9908 Y1.1094 Z-0.3476 F40
N1225 X1.9909 Y1.1096 Z-0.348
N1230 X1.991 Y1.1099 Z-0.3483
N1235 G3 X1.9912 Y1.1102 Z-0.3486 I-0.0067 J0.0032
N1240 X1.9913 Y1.1107 Z-0.3487 I-0.0069 J0.0028
N1245 X1.9773 Y1.1154 Z-0.3495 I-0.007 J0.0024
N1250 X1.9913 Y1.1107 Z-0.3503 I0.007 J-0.0024
N1255 X1.9773 Y1.1154 Z-0.3511 I-0.007 J0.0024
N1260 X1.9913 Y1.1107 Z-0.3519 I0.007 J-0.0024
N1265 X1.9773 Y1.1154 Z-0.3527 I-0.007 J0.0024
N1270 X1.9913 Y1.1107 Z-0.3535 I0.007 J-0.0024
N1275 X1.9773 Y1.1154 Z-0.3544 I-0.007 J0.0024
N1280 X1.9913 Y1.1107 Z-0.3552 I0.007 J-0.0024
N1285 X1.9773 Y1.1154 Z-0.356 I-0.007 J0.0024
N1290 X1.9913 Y1.1107 Z-0.3568 I0.007 J-0.0024
N1295 X1.9773 Y1.1154 Z-0.3576 I-0.007 J0.0024
N1300 X1.9913 Y1.1107 Z-0.3584 I0.007 J-0.0024
N1305 X1.9773 Y1.1154 Z-0.3592 I-0.007 J0.0024
N1310 X1.9913 Y1.1107 Z-0.36 I0.007 J-0.0024
N1315 X1.9773 Y1.1154 Z-0.3609 I-0.007 J0.0024
N1320 X1.9913 Y1.1107 Z-0.3617 I0.007 J-0.0024
N1325 X1.9773 Y1.1154 Z-0.3625 I-0.007 J0.0024
N1330 X1.9913 Y1.1107 Z-0.3633 I0.007 J-0.0024
N1335 X1.9773 Y1.1154 Z-0.3641 I-0.007 J0.0024
N1340 X1.9913 Y1.1107 Z-0.3649 I0.007 J-0.0024
N1345 X1.9773 Y1.1154 Z-0.3657 I-0.007 J0.0024
N1350 X1.9913 Y1.1107 Z-0.3665 I0.007 J-0.0024
N1355 X1.9773 Y1.1154 Z-0.3674 I-0.007 J0.0024
N1360 X1.9913 Y1.1107 Z-0.3682 I0.007 J-0.0024
N1365 X1.9773 Y1.1154 Z-0.369 I-0.007 J0.0024
N1370 X1.9913 Y1.1107 Z-0.3698 I0.007 J-0.0024
N1375 X1.9773 Y1.1154 Z-0.3706 I-0.007 J0.0024
N1380 X1.9913 Y1.1107 Z-0.3714 I0.007 J-0.0024
N1385 X1.9773 Y1.1154 Z-0.3722 I-0.007 J0.0024
N1390 X1.9913 Y1.1107 Z-0.373 I0.007 J-0.0024
N1395 X1.9773 Y1.1154 Z-0.3739 I-0.007 J0.0024
N1400 X1.9913 Y1.1107 Z-0.3747 I0.007 J-0.0024
N1405 X1.9773 Y1.1154 Z-0.3755 I-0.007 J0.0024
N1410 X1.9913 Y1.1107 Z-0.3763 I0.007 J-0.0024
N1415 X1.9773 Y1.1154 Z-0.3771 I-0.007 J0.0024
N1420 X1.9913 Y1.1107 Z-0.3779 I0.007 J-0.0024
N1425 X1.9773 Y1.1154 Z-0.3787 I-0.007 J0.0024
N1430 X1.9913 Y1.1107 Z-0.3796 I0.007 J-0.0024
N1435 X1.9773 Y1.1154 Z-0.3804 I-0.007 J0.0024
N1440 X1.9913 Y1.1107 Z-0.3812 I0.007 J-0.0024
N1445 X1.9773 Y1.1154 Z-0.382 I-0.007 J0.0024
N1450 X1.9913 Y1.1107 Z-0.3828 I0.007 J-0.0024
N1455 X1.9773 Y1.1154 Z-0.3836 I-0.007 J0.0024
N1460 X1.9913 Y1.1107 Z-0.3844 I0.007 J-0.0024
N1465 X1.9773 Y1.1154 Z-0.3852 I-0.007 J0.0024
N1470 X1.9913 Y1.1107 Z-0.3861 I0.007 J-0.0024
N1475 X1.9773 Y1.1154 Z-0.3869 I-0.007 J0.0024
N1480 X1.9913 Y1.1107 Z-0.3877 I0.007 J-0.0024
N1485 X1.9773 Y1.1154 Z-0.3885 I-0.007 J0.0024
N1490 X1.9913 Y1.1107 Z-0.3893 I0.007 J-0.0024
N1495 X1.9791 Y1.1183 Z-0.39 I-0.007 J0.0024
N1500 G2 X1.9774 Y1.1167 I-0.0354 J0.0358
N1505 G3 X1.9788 Y1.113 I0.0014 J-0.0016
N1510 G1 X1.9818
N1515 G3 X1.9844 Y1.1156 J0.0026
N1520 G1 Y1.1185
N1525 G3 X1.9807 Y1.12 I-0.0021
N1530 G2 X1.9791 Y1.1183 I-0.037 J0.0341
N1535 G3 Y1.1161 I0.0011 J-0.0011
N1540 G1 X1.9796 Y1.1156 Z-0.3898
N1545 X1.9801 Y1.1151 Z-0.3892
N1550 X1.9802 Y1.115 Z-0.3884
N1555 G0 Z0.2
N1560 X1.6786 Y1.1066
N1565 Z-0.3471
N1570 G1 X1.6787 Z-0.3476 F40
N1575 X1.6789 Y1.1065 Z-0.348
N1580 X1.6792 Y1.1063 Z-0.3483
N1585 G3 X1.6796 Y1.1062 Z-0.3486 I0.0031 J0.0067
N1590 X1.68 Y1.106 Z-0.3487 I0.0027 J0.0069
N1595 X1.6846 Y1.1201 Z-0.3495 I0.0023 J0.007
N1600 X1.68 Y1.106 Z-0.3503 I-0.0023 J-0.007
N1605 X1.6846 Y1.1201 Z-0.3511 I0.0023 J0.007
N1610 X1.68 Y1.106 Z-0.3519 I-0.0023 J-0.007
N1615 X1.6846 Y1.1201 Z-0.3527 I0.0023 J0.007
N1620 X1.68 Y1.106 Z-0.3535 I-0.0023 J-0.007
N1625 X1.6846 Y1.1201 Z-0.3544 I0.0023 J0.007
N1630 X1.68 Y1.106 Z-0.3552 I-0.0023 J-0.007
N1635 X1.6846 Y1.1201 Z-0.356 I0.0023 J0.007
N1640 X1.68 Y1.106 Z-0.3568 I-0.0023 J-0.007
N1645 X1.6846 Y1.1201 Z-0.3576 I0.0023 J0.007
N1650 X1.68 Y1.106 Z-0.3584 I-0.0023 J-0.007
N1655 X1.6846 Y1.1201 Z-0.3592 I0.0023 J0.007
N1660 X1.68 Y1.106 Z-0.36 I-0.0023 J-0.007
N1665 X1.6846 Y1.1201 Z-0.3609 I0.0023 J0.007
N1670 X1.68 Y1.106 Z-0.3617 I-0.0023 J-0.007
N1675 X1.6846 Y1.1201 Z-0.3625 I0.0023 J0.007
N1680 X1.68 Y1.106 Z-0.3633 I-0.0023 J-0.007
N1685 X1.6846 Y1.1201 Z-0.3641 I0.0023 J0.007
N1690 X1.68 Y1.106 Z-0.3649 I-0.0023 J-0.007
N1695 X1.6846 Y1.1201 Z-0.3657 I0.0023 J0.007
N1700 X1.68 Y1.106 Z-0.3665 I-0.0023 J-0.007
N1705 X1.6846 Y1.1201 Z-0.3674 I0.0023 J0.007
N1710 X1.68 Y1.106 Z-0.3682 I-0.0023 J-0.007
N1715 X1.6846 Y1.1201 Z-0.369 I0.0023 J0.007
N1720 X1.68 Y1.106 Z-0.3698 I-0.0023 J-0.007
N1725 X1.6846 Y1.1201 Z-0.3706 I0.0023 J0.007
N1730 X1.68 Y1.106 Z-0.3714 I-0.0023 J-0.007
N1735 X1.6846 Y1.1201 Z-0.3722 I0.0023 J0.007
N1740 X1.68 Y1.106 Z-0.373 I-0.0023 J-0.007
N1745 X1.6846 Y1.1201 Z-0.3739 I0.0023 J0.007
N1750 X1.68 Y1.106 Z-0.3747 I-0.0023 J-0.007
N1755 X1.6846 Y1.1201 Z-0.3755 I0.0023 J0.007
N1760 X1.68 Y1.106 Z-0.3763 I-0.0023 J-0.007
N1765 X1.6846 Y1.1201 Z-0.3771 I0.0023 J0.007
N1770 X1.68 Y1.106 Z-0.3779 I-0.0023 J-0.007
N1775 X1.6846 Y1.1201 Z-0.3787 I0.0023 J0.007
N1780 X1.68 Y1.106 Z-0.3796 I-0.0023 J-0.007
N1785 X1.6846 Y1.1201 Z-0.3804 I0.0023 J0.007
N1790 X1.68 Y1.106 Z-0.3812 I-0.0023 J-0.007
N1795 X1.6846 Y1.1201 Z-0.382 I0.0023 J0.007
N1800 X1.68 Y1.106 Z-0.3828 I-0.0023 J-0.007
N1805 X1.6846 Y1.1201 Z-0.3836 I0.0023 J0.007
N1810 X1.68 Y1.106 Z-0.3844 I-0.0023 J-0.007
N1815 X1.6846 Y1.1201 Z-0.3852 I0.0023 J0.007
N1820 X1.68 Y1.106 Z-0.3861 I-0.0023 J-0.007
N1825 X1.6846 Y1.1201 Z-0.3869 I0.0023 J0.007
N1830 X1.68 Y1.106 Z-0.3877 I-0.0023 J-0.007
N1835 X1.6846 Y1.1201 Z-0.3885 I0.0023 J0.007
N1840 X1.68 Y1.106 Z-0.3893 I-0.0023 J-0.007
N1845 X1.6875 Y1.1183 Z-0.39 I0.0023 J0.007
N1850 G2 X1.6856 Y1.1203 I0.0394 J0.0397
N1855 G3 X1.6822 Y1.119 I-0.0014 J-0.0013
N1860 G1 Y1.1156
N1865 G3 X1.6848 Y1.113 I0.0026
N1870 G1 X1.6878
N1875 G3 X1.6892 Y1.1167 J0.0021
N1880 G2 X1.6875 Y1.1183 I0.0377 J0.0413
N1885 G3 X1.6853 I-0.0011 J-0.0011
N1890 G1 X1.6848 Y1.1178 Z-0.3898
N1895 X1.6844 Y1.1174 Z-0.3892
N1900 X1.6842 Y1.1172 Z-0.3884
N1905 G0 Z0.2
N1910 X1.6757 Y1.4191
N1915 Z-0.3471
N1920 G1 Z-0.3476 F40
N1925 X1.6756 Y1.4189 Z-0.348
N1930 X1.6754 Y1.4186 Z-0.3483
N1935 G3 X1.6753 Y1.4182 Z-0.3486 I0.0067 J-0.0031
N1940 X1.6751 Y1.4178 Z-0.3487 I0.0069 J-0.0028
N1945 X1.6892 Y1.4131 Z-0.3495 I0.007 J-0.0023
N1950 X1.6751 Y1.4178 Z-0.3503 I-0.007 J0.0023
N1955 X1.6892 Y1.4131 Z-0.3511 I0.007 J-0.0023
N1960 X1.6751 Y1.4178 Z-0.3519 I-0.007 J0.0023
N1965 X1.6892 Y1.4131 Z-0.3527 I0.007 J-0.0023
N1970 X1.6751 Y1.4178 Z-0.3535 I-0.007 J0.0023
N1975 X1.6892 Y1.4131 Z-0.3544 I0.007 J-0.0023
N1980 X1.6751 Y1.4178 Z-0.3552 I-0.007 J0.0023
N1985 X1.6892 Y1.4131 Z-0.356 I0.007 J-0.0023
N1990 X1.6751 Y1.4178 Z-0.3568 I-0.007 J0.0023
N1995 X1.6892 Y1.4131 Z-0.3576 I0.007 J-0.0023
N2000 X1.6751 Y1.4178 Z-0.3584 I-0.007 J0.0023
N2005 X1.6892 Y1.4131 Z-0.3592 I0.007 J-0.0023
N2010 X1.6751 Y1.4178 Z-0.36 I-0.007 J0.0023
N2015 X1.6892 Y1.4131 Z-0.3609 I0.007 J-0.0023
N2020 X1.6751 Y1.4178 Z-0.3617 I-0.007 J0.0023
N2025 X1.6892 Y1.4131 Z-0.3625 I0.007 J-0.0023
N2030 X1.6751 Y1.4178 Z-0.3633 I-0.007 J0.0023
N2035 X1.6892 Y1.4131 Z-0.3641 I0.007 J-0.0023
N2040 X1.6751 Y1.4178 Z-0.3649 I-0.007 J0.0023
N2045 X1.6892 Y1.4131 Z-0.3657 I0.007 J-0.0023
N2050 X1.6751 Y1.4178 Z-0.3665 I-0.007 J0.0023
N2055 X1.6892 Y1.4131 Z-0.3674 I0.007 J-0.0023
N2060 X1.6751 Y1.4178 Z-0.3682 I-0.007 J0.0023
N2065 X1.6892 Y1.4131 Z-0.369 I0.007 J-0.0023
N2070 X1.6751 Y1.4178 Z-0.3698 I-0.007 J0.0023
N2075 X1.6892 Y1.4131 Z-0.3706 I0.007 J-0.0023
N2080 X1.6751 Y1.4178 Z-0.3714 I-0.007 J0.0023
N2085 X1.6892 Y1.4131 Z-0.3722 I0.007 J-0.0023
N2090 X1.6751 Y1.4178 Z-0.373 I-0.007 J0.0023
N2095 X1.6892 Y1.4131 Z-0.3739 I0.007 J-0.0023
N2100 X1.6751 Y1.4178 Z-0.3747 I-0.007 J0.0023
N2105 X1.6892 Y1.4131 Z-0.3755 I0.007 J-0.0023
N2110 X1.6751 Y1.4178 Z-0.3763 I-0.007 J0.0023
N2115 X1.6892 Y1.4131 Z-0.3771 I0.007 J-0.0023
N2120 X1.6751 Y1.4178 Z-0.3779 I-0.007 J0.0023
N2125 X1.6892 Y1.4131 Z-0.3787 I0.007 J-0.0023
N2130 X1.6751 Y1.4178 Z-0.3796 I-0.007 J0.0023
N2135 X1.6892 Y1.4131 Z-0.3804 I0.007 J-0.0023
N2140 X1.6751 Y1.4178 Z-0.3812 I-0.007 J0.0023
N2145 X1.6892 Y1.4131 Z-0.382 I0.007 J-0.0023
N2150 X1.6751 Y1.4178 Z-0.3828 I-0.007 J0.0023
N2155 X1.6892 Y1.4131 Z-0.3836 I0.007 J-0.0023
N2160 X1.6751 Y1.4178 Z-0.3844 I-0.007 J0.0023
N2165 X1.6892 Y1.4131 Z-0.3852 I0.007 J-0.0023
N2170 X1.6751 Y1.4178 Z-0.3861 I-0.007 J0.0023
N2175 X1.6892 Y1.4131 Z-0.3869 I0.007 J-0.0023
N2180 X1.6751 Y1.4178 Z-0.3877 I-0.007 J0.0023
N2185 X1.6892 Y1.4131 Z-0.3885 I0.007 J-0.0023
N2190 X1.6751 Y1.4178 Z-0.3893 I-0.007 J0.0023
N2195 X1.6874 Y1.4102 Z-0.39 I0.007 J-0.0023
N2200 G2 X1.689 Y1.4117 I0.0407 J-0.0407
N2205 G3 X1.6875 Y1.4154 I-0.0014 J0.0015
N2210 G1 X1.6848
N2215 G3 X1.6822 Y1.4128 J-0.0026
N2220 G1 Y1.4101
N2225 G3 X1.6859 Y1.4086 I0.0021
N2230 G2 X1.6874 Y1.4102 I0.0422 J-0.0391
N2235 G3 Y1.4124 I-0.0011 J0.0011
N2240 G1 X1.6868 Y1.413 Z-0.3898
N2245 X1.6864 Y1.4134 Z-0.3892
N2250 X1.6863 Y1.4135 Z-0.3884
N2255 G0 Z0.2
N2260 X1.8352 Y1.4008
N2265 Z-0.3471
N2270 G1 X1.8353 Z-0.3476 F40
N2275 X1.8355 Y1.4009 Z-0.348
N2280 X1.8358 Y1.401 Z-0.3483
N2285 G3 X1.8362 Y1.4012 Z-0.3486 I-0.0025 J0.007
N2290 X1.8367 Y1.4013 Z-0.3487 I-0.0029 J0.0068
N2295 X1.83 Y1.4146 Z-0.3495 I-0.0033 J0.0066
N2300 X1.8367 Y1.4013 Z-0.3503 I0.0033 J-0.0066
N2305 X1.83 Y1.4146 Z-0.3511 I-0.0033 J0.0066
N2310 X1.8367 Y1.4013 Z-0.3519 I0.0033 J-0.0066
N2315 X1.83 Y1.4146 Z-0.3527 I-0.0033 J0.0066
N2320 X1.8367 Y1.4013 Z-0.3535 I0.0033 J-0.0066
N2325 X1.83 Y1.4146 Z-0.3544 I-0.0033 J0.0066
N2330 X1.8367 Y1.4013 Z-0.3552 I0.0033 J-0.0066
N2335 X1.83 Y1.4146 Z-0.356 I-0.0033 J0.0066
N2340 X1.8367 Y1.4013 Z-0.3568 I0.0033 J-0.0066
N2345 X1.83 Y1.4146 Z-0.3576 I-0.0033 J0.0066
N2350 X1.8367 Y1.4013 Z-0.3584 I0.0033 J-0.0066
N2355 X1.83 Y1.4146 Z-0.3592 I-0.0033 J0.0066
N2360 X1.8367 Y1.4013 Z-0.36 I0.0033 J-0.0066
N2365 X1.83 Y1.4146 Z-0.3609 I-0.0033 J0.0066
N2370 X1.8367 Y1.4013 Z-0.3617 I0.0033 J-0.0066
N2375 X1.83 Y1.4146 Z-0.3625 I-0.0033 J0.0066
N2380 X1.8367 Y1.4013 Z-0.3633 I0.0033 J-0.0066
N2385 X1.83 Y1.4146 Z-0.3641 I-0.0033 J0.0066
N2390 X1.8367 Y1.4013 Z-0.3649 I0.0033 J-0.0066
N2395 X1.83 Y1.4146 Z-0.3657 I-0.0033 J0.0066
N2400 X1.8367 Y1.4013 Z-0.3665 I0.0033 J-0.0066
N2405 X1.83 Y1.4146 Z-0.3674 I-0.0033 J0.0066
N2410 X1.8367 Y1.4013 Z-0.3682 I0.0033 J-0.0066
N2415 X1.83 Y1.4146 Z-0.369 I-0.0033 J0.0066
N2420 X1.8367 Y1.4013 Z-0.3698 I0.0033 J-0.0066
N2425 X1.83 Y1.4146 Z-0.3706 I-0.0033 J0.0066
N2430 X1.8367 Y1.4013 Z-0.3714 I0.0033 J-0.0066
N2435 X1.83 Y1.4146 Z-0.3722 I-0.0033 J0.0066
N2440 X1.8367 Y1.4013 Z-0.373 I0.0033 J-0.0066
N2445 X1.83 Y1.4146 Z-0.3739 I-0.0033 J0.0066
N2450 X1.8367 Y1.4013 Z-0.3747 I0.0033 J-0.0066
N2455 X1.83 Y1.4146 Z-0.3755 I-0.0033 J0.0066
N2460 X1.8367 Y1.4013 Z-0.3763 I0.0033 J-0.0066
N2465 X1.83 Y1.4146 Z-0.3771 I-0.0033 J0.0066
N2470 X1.8367 Y1.4013 Z-0.3779 I0.0033 J-0.0066
N2475 X1.83 Y1.4146 Z-0.3787 I-0.0033 J0.0066
N2480 X1.8367 Y1.4013 Z-0.3796 I0.0033 J-0.0066
N2485 X1.83 Y1.4146 Z-0.3804 I-0.0033 J0.0066
N2490 X1.8367 Y1.4013 Z-0.3812 I0.0033 J-0.0066
N2495 X1.83 Y1.4146 Z-0.382 I-0.0033 J0.0066
N2500 X1.8367 Y1.4013 Z-0.3828 I0.0033 J-0.0066
N2505 X1.83 Y1.4146 Z-0.3836 I-0.0033 J0.0066
N2510 X1.8367 Y1.4013 Z-0.3844 I0.0033 J-0.0066
N2515 X1.83 Y1.4146 Z-0.3852 I-0.0033 J0.0066
N2520 X1.8367 Y1.4013 Z-0.3861 I0.0033 J-0.0066
N2525 X1.83 Y1.4146 Z-0.3869 I-0.0033 J0.0066
N2530 X1.8367 Y1.4013 Z-0.3877 I0.0033 J-0.0066
N2535 X1.83 Y1.4146 Z-0.3885 I-0.0033 J0.0066
N2540 X1.8367 Y1.4013 Z-0.3893 I0.0033 J-0.0066
N2545 X1.8333 Y1.4154 Z-0.39 I-0.0033 J0.0066
N2550 G1 X1.8217
N2555 G3 X1.8203 Y1.4118 J-0.0021
N2560 G2 X1.8312 Y1.3977 I-0.0354 J-0.0385
N2565 G3 X1.8354 I0.0021 J0.0011
N2570 G2 X1.8463 Y1.4118 I0.0463 J-0.0245
N2575 G3 X1.8449 Y1.4154 I-0.0014 J0.0015
N2580 G1 X1.8333
N2585 G3 X1.8318 Y1.4138 J-0.0016
N2590 G1 Y1.413 Z-0.3898
N2595 Y1.4125 Z-0.3892
N2600 Y1.4123 Z-0.3884
N2605 G0 Z0.2
N2610 X1.9833 Y1.4008
N2615 Z-0.3471
N2620 G1 Z-0.3476 F40
N2625 X1.9835 Y1.4009 Z-0.348
N2630 X1.9838 Y1.401 Z-0.3483
N2635 G3 X1.9842 Y1.4012 Z-0.3486 I-0.0025 J0.007
N2640 X1.9847 Y1.4014 Z-0.3487 I-0.0029 J0.0068
N2645 X1.978 Y1.4146 Z-0.3495 I-0.0033 J0.0066
N2650 X1.9847 Y1.4014 Z-0.3503 I0.0033 J-0.0066
N2655 X1.978 Y1.4146 Z-0.3511 I-0.0033 J0.0066
N2660 X1.9847 Y1.4014 Z-0.3519 I0.0033 J-0.0066
N2665 X1.978 Y1.4146 Z-0.3527 I-0.0033 J0.0066
N2670 X1.9847 Y1.4014 Z-0.3535 I0.0033 J-0.0066
N2675 X1.978 Y1.4146 Z-0.3544 I-0.0033 J0.0066
N2680 X1.9847 Y1.4014 Z-0.3552 I0.0033 J-0.0066
N2685 X1.978 Y1.4146 Z-0.356 I-0.0033 J0.0066
N2690 X1.9847 Y1.4014 Z-0.3568 I0.0033 J-0.0066
N2695 X1.978 Y1.4146 Z-0.3576 I-0.0033 J0.0066
N2700 X1.9847 Y1.4014 Z-0.3584 I0.0033 J-0.0066
N2705 X1.978 Y1.4146 Z-0.3592 I-0.0033 J0.0066
N2710 X1.9847 Y1.4014 Z-0.36 I0.0033 J-0.0066
N2715 X1.978 Y1.4146 Z-0.3609 I-0.0033 J0.0066
N2720 X1.9847 Y1.4014 Z-0.3617 I0.0033 J-0.0066
N2725 X1.978 Y1.4146 Z-0.3625 I-0.0033 J0.0066
N2730 X1.9847 Y1.4014 Z-0.3633 I0.0033 J-0.0066
N2735 X1.978 Y1.4146 Z-0.3641 I-0.0033 J0.0066
N2740 X1.9847 Y1.4014 Z-0.3649 I0.0033 J-0.0066
N2745 X1.978 Y1.4146 Z-0.3657 I-0.0033 J0.0066
N2750 X1.9847 Y1.4014 Z-0.3665 I0.0033 J-0.0066
N2755 X1.978 Y1.4146 Z-0.3674 I-0.0033 J0.0066
N2760 X1.9847 Y1.4014 Z-0.3682 I0.0033 J-0.0066
N2765 X1.978 Y1.4146 Z-0.369 I-0.0033 J0.0066
N2770 X1.9847 Y1.4014 Z-0.3698 I0.0033 J-0.0066
N2775 X1.978 Y1.4146 Z-0.3706 I-0.0033 J0.0066
N2780 X1.9847 Y1.4014 Z-0.3714 I0.0033 J-0.0066
N2785 X1.978 Y1.4146 Z-0.3722 I-0.0033 J0.0066
N2790 X1.9847 Y1.4014 Z-0.373 I0.0033 J-0.0066
N2795 X1.978 Y1.4146 Z-0.3739 I-0.0033 J0.0066
N2800 X1.9847 Y1.4014 Z-0.3747 I0.0033 J-0.0066
N2805 X1.978 Y1.4146 Z-0.3755 I-0.0033 J0.0066
N2810 X1.9847 Y1.4014 Z-0.3763 I0.0033 J-0.0066
N2815 X1.978 Y1.4146 Z-0.3771 I-0.0033 J0.0066
N2820 X1.9847 Y1.4014 Z-0.3779 I0.0033 J-0.0066
N2825 X1.978 Y1.4146 Z-0.3787 I-0.0033 J0.0066
N2830 X1.9847 Y1.4014 Z-0.3796 I0.0033 J-0.0066
N2835 X1.978 Y1.4146 Z-0.3804 I-0.0033 J0.0066
N2840 X1.9847 Y1.4014 Z-0.3812 I0.0033 J-0.0066
N2845 X1.978 Y1.4146 Z-0.382 I-0.0033 J0.0066
N2850 X1.9847 Y1.4014 Z-0.3828 I0.0033 J-0.0066
N2855 X1.978 Y1.4146 Z-0.3836 I-0.0033 J0.0066
N2860 X1.9847 Y1.4014 Z-0.3844 I0.0033 J-0.0066
N2865 X1.978 Y1.4146 Z-0.3852 I-0.0033 J0.0066
N2870 X1.9847 Y1.4014 Z-0.3861 I0.0033 J-0.0066
N2875 X1.978 Y1.4146 Z-0.3869 I-0.0033 J0.0066
N2880 X1.9847 Y1.4014 Z-0.3877 I0.0033 J-0.0066
N2885 X1.978 Y1.4146 Z-0.3885 I-0.0033 J0.0066
N2890 X1.9847 Y1.4014 Z-0.3893 I0.0033 J-0.0066
N2895 X1.9813 Y1.4154 Z-0.39 I-0.0033 J0.0066
N2900 G1 X1.979
N2905 G3 X1.9776 Y1.4117 J-0.0021
N2910 G2 X1.9807 Y1.4086 I-0.0341 J-0.037
N2915 G3 X1.9844 Y1.4101 I0.0016 J0.0014
N2920 G1 Y1.4128
N2925 G3 X1.9818 Y1.4154 I-0.0026
N2930 G1 X1.9813
N2935 G2 X1.9749 Y1.4196 J0.0069
N2940 G3 X1.9686 Y1.4239 I-0.0064 J-0.0027
N2945 G1 X1.6784
N2950 G3 X1.6737 Y1.4192 J-0.0047
N2955 G1 Y1.3416
N2960 G3 X1.6772 Y1.3381 I0.0035
N2965 X1.6807 Y1.3416 J0.0035
N2970 X1.6806 Y1.3743 I-5.2644 J-0.0042
N2975 G2 X1.6929 Y1.4046 I0.0427 J0.0003
N2980 X1.724 Y1.4176 I0.0311 J-0.0307
N2985 G1 X1.7854
N2990 G2 X1.8089 Y1.4107 J-0.0433
N2995 X1.8251 Y1.3924 I-0.0243 J-0.0378
N3000 X1.8293 Y1.3736 I-0.0389 J-0.0187
N3005 G1 X1.8294 Y1.155
N3010 G2 X1.7854 Y1.111 I-0.0439
N3015 G1 X1.7239 Y1.1111
N3020 G2 X1.7013 Y1.1174 J0.0434
N3025 X1.6851 Y1.1345 I0.0234 J0.0383
N3030 X1.6797 Y1.1604 I0.0416 J0.0223
N3035 G3 X1.6807 Y1.1868 I-0.3485 J0.0264
N3040 X1.6738 I-0.0035
N3045 G1 Y1.1093
N3050 G3 X1.6785 Y1.1045 I0.0047
N3055 G1 X1.9881
N3060 G3 X1.9929 Y1.1093 J0.0047
N3065 G1 Y1.1861
N3070 G3 X1.986 I-0.0035
N3075 X1.9867 Y1.1576 I0.5514 J-0.0002
N3080 G2 X1.9789 Y1.1302 I-0.044 J-0.0023
N3085 X1.963 Y1.1161 I-0.0368 J0.0256
N3090 X1.9425 Y1.111 I-0.0205 J0.0388
N3095 G1 X1.8813
N3100 G2 X1.86 Y1.1166 J0.0434
N3105 X1.8441 Y1.1318 I0.022 J0.0392
N3110 X1.8374 Y1.1549 I0.0366 J0.0231
N3115 G1 X1.8373 Y1.3737
N3120 G2 X1.8813 Y1.4176 I0.0439
N3125 G1 X1.9427
N3130 G2 X1.9661 Y1.4107 J-0.0434
N3135 X1.9823 Y1.3924 I-0.0242 J-0.0377
N3140 X1.9869 Y1.3676 I-0.0437 J-0.021
N3145 G3 X1.9859 Y1.3423 I0.3116 J-0.0249
N3150 X1.9894 Y1.3389 I0.0035
N3155 X1.9929 Y1.3423 J0.0035
N3160 G1 Y1.4192
N3165 G3 X1.9881 Y1.4239 I-0.0047
N3170 G1 X1.9686
N3175 G2 X1.9631 Y1.4275 J0.0059
N3180 G3 X1.9577 Y1.4312 I-0.0054 J-0.0023
N3185 G1 X1.6712
N3190 G3 X1.6664 Y1.4264 J-0.0047
N3195 G1 Y1.3356
N3200 G3 X1.6712 Y1.3309 I0.0047
N3205 G1 X1.6832
N3210 G3 X1.688 Y1.3356 J0.0047
N3215 G1 X1.6873 Y1.3736
N3220 G2 X1.6922 Y1.3919 I0.0362
N3225 X1.7056 Y1.4053 I0.0325 J-0.0191
N3230 X1.7239 Y1.4103 I0.0183 J-0.0311
N3235 G1 X1.7854
N3240 G2 X1.805 Y1.4045 J-0.0361
N3245 X1.8185 Y1.3892 I-0.0205 J-0.0317
N3250 X1.8221 Y1.3736 I-0.0323 J-0.0155
N3255 G1 Y1.155
N3260 G2 X1.8166 Y1.1358 I-0.0361
N3265 X1.802 Y1.1223 I-0.032 J0.02
N3270 X1.7854 Y1.1183 I-0.0166 J0.032
N3275 G1 X1.7239
N3280 G2 X1.705 Y1.1236 J0.0361
N3285 X1.6915 Y1.1379 I0.0197 J0.0321
N3290 X1.6873 Y1.155 I0.0317 J0.017
N3295 X1.6876 Y1.1739 I0.5363 J0.0001
N3300 G3 X1.6879 Y1.1928 I-0.536 J0.0188
N3305 X1.6832 Y1.1975 I-0.0047
N3310 G1 X1.6712 Y1.1976
N3315 G3 X1.6665 Y1.1929 J-0.0047
N3320 G1 Y1.102
N3325 G3 X1.6712 Y1.0973 I0.0047
N3330 G1 X1.9954
N3335 G3 X2.0001 Y1.102 J0.0047
N3340 G1 Y1.1928
N3345 G3 X1.9954 Y1.1975 I-0.0047
N3350 G1 X1.9834
N3355 G3 X1.9787 Y1.1928 J-0.0047
N3360 G1 X1.9794 Y1.1549
N3365 G2 X1.9685 Y1.1289 I-0.0364
N3370 X1.9425 Y1.1183 I-0.026 J0.0264
N3375 G1 X1.8813
N3380 G2 X1.8635 Y1.123 J0.0362
N3385 X1.8502 Y1.1357 I0.0185 J0.0328
N3390 X1.8446 Y1.1549 I0.0305 J0.0192
N3395 G1 Y1.3737
N3400 G2 X1.8813 Y1.4103 I0.0366
N3405 G1 X1.9427
N3410 G2 X1.9623 Y1.4046 J-0.0361
N3415 X1.9758 Y1.3892 I-0.0204 J-0.0316
N3420 X1.9793 Y1.3737 I-0.0325 J-0.0156
N3425 G1 X1.9787 Y1.3357
N3430 G3 X1.9834 Y1.3309 I0.0047
N3435 G1 X1.9954
N3440 G3 X2.0001 Y1.3357 J0.0047
N3445 G1 Y1.4264
N3450 G3 X1.9954 Y1.4312 I-0.0047
N3455 G1 X1.9577
N3460 G2 X1.9491 Y1.4369 J0.0093
N3465 G3 X1.9404 Y1.4427 I-0.0086 J-0.0036
N3470 G1 X1.6597
N3475 G3 X1.6549 Y1.4379 J-0.0047
N3480 G1 Y1.3241
N3485 G3 X1.6597 Y1.3194 I0.0047
N3490 G1 X1.6947
N3495 G3 X1.6995 Y1.3241 J0.0047
N3500 X1.6991 Y1.3489 I-0.9201 J-0.0007
N3505 G2 X1.6988 Y1.3736 I0.8685 J0.0248
N3510 X1.7022 Y1.3862 I0.0247
N3515 X1.7115 Y1.3954 I0.0226 J-0.0134
N3520 X1.7239 Y1.3988 I0.0125 J-0.0212
N3525 G1 X1.7854
N3530 G2 X1.7989 Y1.3948 J-0.0246
N3535 X1.8082 Y1.3842 I-0.0144 J-0.0219
N3540 X1.8106 Y1.3736 I-0.022 J-0.0106
N3545 G1 Y1.155
N3550 G2 X1.8068 Y1.1418 I-0.0246
N3555 X1.7967 Y1.1325 I-0.0222 J0.014
N3560 X1.7854 Y1.1298 I-0.0113 J0.0218
N3565 G1 X1.7239
N3570 G2 X1.7109 Y1.1335 J0.0246
N3575 X1.7017 Y1.1434 I0.0138 J0.0222
N3580 X1.6987 Y1.155 I0.0216 J0.0116
N3585 G1 X1.6994 Y1.2043
N3590 G3 X1.6947 Y1.209 I-0.0047
N3595 G1 X1.6597 Y1.2091
N3600 G3 X1.655 Y1.2044 J-0.0047
N3605 G1 Y1.0905
N3610 G3 X1.6597 Y1.0858 I0.0047
N3615 G1 X2.0069
N3620 G3 X2.0116 Y1.0905 J0.0047
N3625 G1 Y1.2043
N3630 G3 X2.0069 Y1.209 I-0.0047
N3635 G1 X1.9719
N3640 G3 X1.9672 Y1.2043 J-0.0047
N3645 G1 X1.9679 Y1.1549
N3650 G2 X1.9638 Y1.1414 I-0.0244
N3655 X1.9532 Y1.1322 I-0.022 J0.0146
N3660 X1.948 Y1.1304 I-0.0104 J0.0217
N3665 X1.9425 Y1.1298 I-0.0055 J0.025
N3670 G1 X1.8813
N3675 G2 X1.8691 Y1.1331 J0.0247
N3680 X1.8599 Y1.1418 I0.013 J0.0227
N3685 X1.8561 Y1.1549 I0.0208 J0.0131
N3690 G1 Y1.3737
N3695 G2 X1.86 Y1.387 I0.0245
N3700 X1.8704 Y1.3963 I0.0221 J-0.0144
N3705 X1.8813 Y1.3989 I0.0109 J-0.0218
N3710 G1 X1.9427 Y1.3988
N3715 G2 X1.9561 Y1.3948 J-0.0247
N3720 X1.9654 Y1.3843 I-0.0142 J-0.0218
N3725 X1.9678 Y1.3737 I-0.0221 J-0.0106
N3730 G1 X1.9672 Y1.3242
N3735 G3 X1.9719 Y1.3194 I0.0047
N3740 G1 X2.0069
N3745 G3 X2.0116 Y1.3242 J0.0047
N3750 G1 Y1.4379
N3755 G3 X2.0069 Y1.4427 I-0.0047
N3760 G1 X1.9404
N3765 G2 X1.9318 Y1.4484 J0.0093
N3770 G3 X1.9232 Y1.4541 I-0.0086 J-0.0036
N3775 G1 X1.6482
N3780 G3 X1.6434 Y1.4494 J-0.0047
N3785 G1 Y1.3191
N3790 G3 X1.6546 Y1.3079 I0.0112
N3795 G1 X1.7062
N3800 G3 X1.711 Y1.3126 J0.0047
N3805 G1 X1.7103 Y1.3736
N3810 G2 X1.7122 Y1.3805 I0.0132
N3815 X1.7173 Y1.3855 I0.0126 J-0.0077
N3820 X1.7239 Y1.3873 I0.0067 J-0.0113
N3825 G1 X1.7854
N3830 G2 X1.7928 Y1.3851 J-0.0131
N3835 X1.7978 Y1.3793 I-0.0083 J-0.0122
N3840 X1.7987 Y1.3765 I-0.0115 J-0.0055
N3845 X1.7991 Y1.3736 I-0.0131 J-0.0029
N3850 G1 Y1.155
N3855 G2 X1.797 Y1.1478 I-0.0131
N3860 X1.7914 Y1.1428 I-0.0124 J0.0081
N3865 X1.7854 Y1.1413 I-0.006 J0.0116
N3870 G1 X1.7239
N3875 G2 X1.7168 Y1.1434 J0.0132
N3880 X1.7118 Y1.1488 I0.0079 J0.0124
N3885 X1.7102 Y1.155 I0.0115 J0.0062
N3890 G1 X1.7109 Y1.2158
N3895 G3 X1.7062 Y1.2205 I-0.0047
N3900 G1 X1.6522 Y1.2198
N3905 G3 X1.6467 Y1.2171 I0.0007 J-0.0084
N3910 X1.6442 Y1.2115 I0.0073 J-0.0066
N3915 G1 X1.6435 Y1.079
N3920 G3 X1.6482 Y1.0743 I0.0047
N3925 G1 X2.0184
N3930 G3 X2.0231 Y1.079 J0.0047
N3935 G1 Y1.2093
N3940 G3 X2.0119 Y1.2205 I-0.0112
N3945 G1 X1.9604
N3950 G3 X1.9557 Y1.2158 J-0.0047
N3955 G1 X1.9564 Y1.1549
N3960 G2 X1.9541 Y1.1475 I-0.013
N3965 X1.9482 Y1.1426 I-0.0123 J0.0085
N3970 X1.9454 Y1.1416 I-0.0054 J0.0113
N3975 X1.9425 Y1.1413 I-0.0029 J0.0139
N3980 G1 X1.8813
N3985 G2 X1.8746 Y1.1431 J0.0132
N3990 X1.8696 Y1.148 I0.0075 J0.0127
N3995 X1.8676 Y1.1549 I0.011 J0.007
N4000 G1 Y1.3737
N4005 G2 X1.8698 Y1.381 I0.013
N4010 X1.8755 Y1.386 I0.0124 J-0.0084
N4015 X1.8783 Y1.387 I0.0057 J-0.0114
N4020 X1.8813 Y1.3874 I0.003 J-0.013
N4025 G1 X1.9427 Y1.3873
N4030 G2 X1.95 Y1.3851 J-0.0132
N4035 X1.955 Y1.3793 I-0.0081 J-0.0121
N4040 X1.9563 Y1.3736 I-0.0117 J-0.0056
N4045 G1 X1.9557 Y1.3127
N4050 G3 X1.9604 Y1.3079 I0.0047
N4055 G1 X2.0145 Y1.3087
N4060 G3 X2.0187 Y1.3102 I-0.0007 J0.0088
N4065 X2.0216 Y1.3136 I-0.0048 J0.007
N4070 X2.0222 Y1.3153 I-0.0076 J0.0035
N4075 X2.0224 Y1.3171 I-0.0112 J0.0025
N4080 G1 X2.0231 Y1.4494
N4085 G3 X2.0184 Y1.4541 I-0.0047
N4090 G1 X1.9232
N4095 G2 X1.9145 Y1.4599 J0.0094
N4100 G3 X1.9058 Y1.4657 I-0.0087 J-0.0036
N4105 G1 X1.6377
N4110 X1.6368 Y1.4656
N4115 X1.636 Y1.4653
N4120 X1.6353 Y1.465
N4125 X1.6347 Y1.4647
N4130 X1.6341 Y1.4642
N4135 X1.6335 Y1.4636
N4140 X1.6329 Y1.4628
N4145 X1.6325 Y1.4623
N4150 X1.6322 Y1.4615
N4155 X1.632 Y1.4608
N4160 X1.6319 Y1.4598
N4165 Y1.3167
N4170 Y1.3157
N4175 X1.6324 Y1.3127
N4180 X1.6326 Y1.3117
N4185 X1.6337 Y1.3088
N4190 X1.6339 Y1.3083
N4195 X1.6353 Y1.3058
N4200 X1.6356 Y1.3053
N4205 X1.6372 Y1.3033
N4210 X1.6381 Y1.3024
N4215 X1.6405 Y1.3004
N4220 X1.6412 Y1.2999
N4225 X1.6441 Y1.2982
N4230 X1.6474 Y1.297
N4235 X1.6491 Y1.2967
N4240 X1.6514 Y1.2963
N4245 X1.7165
N4250 X1.7175 Y1.2964
N4255 X1.7182 Y1.2966
N4260 X1.7189 Y1.2969
N4265 X1.7194 Y1.2971
N4270 X1.7202 Y1.2976
N4275 X1.7207 Y1.2981
N4280 X1.7214 Y1.2989
N4285 X1.7217 Y1.2994
N4290 X1.7221 Y1.3002
N4295 X1.7224 Y1.3012
N4300 X1.7225 Y1.3018
N4305 Y1.3028
N4310 Y1.3736
N4315 X1.7226 Y1.374
N4320 X1.7228 Y1.3744
N4325 X1.7231 Y1.3748
N4330 X1.7235 Y1.375
N4335 X1.7239 Y1.3751
N4340 X1.7854
N4345 X1.7858 Y1.375
N4350 X1.7863 Y1.3747
N4355 X1.7866 Y1.3744
N4360 X1.7868 Y1.374
N4365 Y1.3736
N4370 X1.7869 Y1.155
N4375 X1.7868 Y1.1546
N4380 X1.7866 Y1.1542
N4385 X1.7862 Y1.1538
N4390 X1.7858 Y1.1536
N4395 X1.7854 Y1.1535
N4400 X1.7239
N4405 X1.7236 Y1.1536
N4410 X1.7231 Y1.1539
N4415 X1.7228 Y1.1542
N4420 X1.7226 Y1.1546
N4425 X1.7225 Y1.155
N4430 Y1.2261
N4435 X1.7224 Y1.2268
N4440 X1.7222 Y1.2277
N4445 X1.7218 Y1.2286
N4450 X1.7216 Y1.229
N4455 X1.7211 Y1.2298
N4460 X1.7204 Y1.2305
N4465 X1.7196 Y1.2311
N4470 X1.7189 Y1.2315
N4475 X1.7182 Y1.2318
N4480 X1.7175 Y1.232
N4485 X1.7165 Y1.2321
N4490 X1.6531
N4495 X1.6511 Y1.232
N4500 X1.6491 Y1.2318
N4505 X1.6486 Y1.2317
N4510 X1.6452 Y1.2307
N4515 X1.644 Y1.2301
N4520 X1.6417 Y1.2289
N4525 X1.6412 Y1.2286
N4530 X1.6387 Y1.2266
N4535 X1.6379 Y1.2258
N4540 X1.636 Y1.2236
N4545 X1.6353 Y1.2224
N4550 X1.6342 Y1.2206
N4555 X1.6338 Y1.2199
N4560 X1.6326 Y1.2164
N4565 X1.6323 Y1.2147
N4570 X1.632 Y1.2127
N4575 X1.6319 Y1.2117
N4580 Y1.0687
N4585 X1.6321 Y1.0677
N4590 X1.6323 Y1.0669
N4595 X1.6326 Y1.0662
N4600 X1.6331 Y1.0653
N4605 X1.6333 Y1.0651
N4610 X1.6339 Y1.0644
N4615 X1.6347 Y1.0638
N4620 X1.6353 Y1.0634
N4625 X1.636 Y1.0631
N4630 X1.6368 Y1.0629
N4635 X1.6377 Y1.0627
N4640 X2.0289
N4645 X2.0299 Y1.0629
N4650 X2.0306 Y1.0631
N4655 X2.0314 Y1.0634
N4660 X2.0319 Y1.0638
N4665 X2.0327 Y1.0644
N4670 X2.0333 Y1.0651
N4675 X2.0337 Y1.0656
N4680 X2.034 Y1.0662
N4685 X2.0343 Y1.0669
N4690 X2.0346 Y1.0677
N4695 X2.0347 Y1.0687
N4700 Y1.2112
N4705 X2.0343 Y1.2147
N4710 Y1.2152
N4715 X2.0332 Y1.2187
N4720 X2.033 Y1.2192
N4725 X2.0316 Y1.222
N4730 X2.0312 Y1.2226
N4735 X2.0294 Y1.225
N4740 X2.0288 Y1.2257
N4745 X2.0262 Y1.228
N4750 X2.0253 Y1.2286
N4755 X2.0227 Y1.2301
N4760 X2.0215 Y1.2306
N4765 X2.019 Y1.2314
N4770 X2.0175 Y1.2317
N4775 X2.015 Y1.2321
N4780 X1.9502
N4785 X1.9492 Y1.232
N4790 X1.9484 Y1.2318
N4795 X1.9477 Y1.2315
N4800 X1.947 Y1.2311
N4805 X1.9462 Y1.2305
N4810 X1.9455 Y1.2298
N4815 X1.945 Y1.229
N4820 X1.9448 Y1.2286
N4825 X1.9444 Y1.2277
N4830 X1.9442 Y1.2268
N4835 X1.9441 Y1.2261
N4840 Y1.1549
N4845 X1.944 Y1.1544
N4850 X1.9437 Y1.1541
N4855 X1.9434 Y1.1538
N4860 X1.9429 Y1.1536
N4865 X1.9425 Y1.1535
N4870 X1.8813
N4875 X1.881 Y1.1536
N4880 X1.8805 Y1.1539
N4885 X1.8802 Y1.1541
N4890 X1.88 Y1.1545
N4895 X1.8799 Y1.1549
N4900 X1.8798 Y1.2464
N4905 Y1.3737
N4910 X1.8799 Y1.3742
N4915 X1.8802 Y1.3746
N4920 X1.8805 Y1.3748
N4925 X1.881 Y1.375
N4930 X1.8813 Y1.3751
N4935 X1.9427
N4940 X1.9431 Y1.375
N4945 X1.9435 Y1.3747
N4950 X1.9438 Y1.3743
N4955 X1.944 Y1.374
N4960 X1.9441 Y1.3736
N4965 Y1.3023
N4970 X1.9442 Y1.3017
N4975 X1.9444 Y1.3008
N4980 X1.9448 Y1.2999
N4985 X1.945 Y1.2994
N4990 X1.9455 Y1.2987
N4995 X1.9462 Y1.298
N5000 X1.947 Y1.2974
N5005 X1.9477 Y1.297
N5010 X1.9484 Y1.2967
N5015 X1.9492 Y1.2965
N5020 X1.9502 Y1.2964
N5025 X2.0135
N5030 X2.0155 Y1.2965
N5035 X2.0175 Y1.2967
N5040 X2.0185 Y1.2969
N5045 X2.0215 Y1.2978
N5050 X2.0234 Y1.2988
N5055 X2.0249 Y1.2996
N5060 X2.0254 Y1.2999
N5065 X2.0279 Y1.3018
N5070 X2.0283 Y1.3022
N5075 X2.0306 Y1.3048
N5080 X2.0312 Y1.3058
N5085 X2.0327 Y1.3083
N5090 X2.0329 Y1.3088
N5095 X2.0339 Y1.3117
N5100 X2.0341 Y1.3122
N5105 X2.0343 Y1.3137
N5110 X2.0347 Y1.3162
N5115 Y1.4598
N5120 X2.0346 Y1.4608
N5125 X2.0344 Y1.4615
N5130 X2.034 Y1.4623
N5135 X2.0335 Y1.4631
N5140 X2.033 Y1.4638
N5145 X2.0322 Y1.4645
N5150 X2.0319 Y1.4647
N5155 X2.0314 Y1.465
N5160 X2.0306 Y1.4653
N5165 X2.0299 Y1.4656
N5170 X2.0289 Y1.4657
N5175 X1.9058
N5180 G3 X1.9043 Y1.4642 J-0.0016
N5185 G1 Y1.4634 Z-0.3898
N5190 Y1.4628 Z-0.3892
N5195 Y1.4626 Z-0.3884
N5200 G0 Z0.2
N5205 X2.0672 Y1.5006
N5210 Z-0.3617
N5215 G1 Z-0.3771 F40
N5220 X2.0671 Y1.5007 Z-0.3776
N5225 X2.0669 Y1.5008 Z-0.378
N5230 X2.0666 Y1.5009 Z-0.3783
N5235 G3 X2.0662 Y1.5011 Z-0.3786 I-0.0032 J-0.0067
N5240 X2.0658 Y1.5013 Z-0.3787 I-0.0028 J-0.0069
N5245 X2.061 Y1.4872 Z-0.3795 I-0.0024 J-0.007
N5250 X2.0658 Y1.5013 Z-0.3803 I0.0024 J0.007
N5255 X2.061 Y1.4872 Z-0.3811 I-0.0024 J-0.007
N5260 X2.0658 Y1.5013 Z-0.3819 I0.0024 J0.007
N5265 X2.061 Y1.4872 Z-0.3827 I-0.0024 J-0.007
N5270 X2.0658 Y1.5013 Z-0.3835 I0.0024 J0.007
N5275 X2.061 Y1.4872 Z-0.3844 I-0.0024 J-0.007
N5280 X2.0658 Y1.5013 Z-0.3852 I0.0024 J0.007
N5285 X2.061 Y1.4872 Z-0.386 I-0.0024 J-0.007
N5290 X2.0658 Y1.5013 Z-0.3868 I0.0024 J0.007
N5295 X2.061 Y1.4872 Z-0.3876 I-0.0024 J-0.007
N5300 X2.0658 Y1.5013 Z-0.3884 I0.0024 J0.007
N5305 X2.061 Y1.4872 Z-0.3892 I-0.0024 J-0.007
N5310 X2.0658 Y1.5013 Z-0.39 I0.0024 J0.007
N5315 X2.061 Y1.4872 Z-0.3909 I-0.0024 J-0.007
N5320 X2.0658 Y1.5013 Z-0.3917 I0.0024 J0.007
N5325 X2.061 Y1.4872 Z-0.3925 I-0.0024 J-0.007
N5330 X2.0658 Y1.5013 Z-0.3933 I0.0024 J0.007
N5335 X2.061 Y1.4872 Z-0.3941 I-0.0024 J-0.007
N5340 X2.0658 Y1.5013 Z-0.3949 I0.0024 J0.007
N5345 X2.061 Y1.4872 Z-0.3957 I-0.0024 J-0.007
N5350 X2.0658 Y1.5013 Z-0.3965 I0.0024 J0.007
N5355 X2.061 Y1.4872 Z-0.3974 I-0.0024 J-0.007
N5360 X2.0658 Y1.5013 Z-0.3982 I0.0024 J0.007
N5365 X2.061 Y1.4872 Z-0.399 I-0.0024 J-0.007
N5370 X2.0658 Y1.5013 Z-0.3998 I0.0024 J0.007
N5375 X2.061 Y1.4872 Z-0.4006 I-0.0024 J-0.007
N5380 X2.0658 Y1.5013 Z-0.4014 I0.0024 J0.007
N5385 X2.061 Y1.4872 Z-0.4022 I-0.0024 J-0.007
N5390 X2.0658 Y1.5013 Z-0.403 I0.0024 J0.007
N5395 X2.061 Y1.4872 Z-0.4039 I-0.0024 J-0.007
N5400 X2.0658 Y1.5013 Z-0.4047 I0.0024 J0.007
N5405 X2.061 Y1.4872 Z-0.4055 I-0.0024 J-0.007
N5410 X2.0658 Y1.5013 Z-0.4063 I0.0024 J0.007
N5415 X2.061 Y1.4872 Z-0.4071 I-0.0024 J-0.007
N5420 X2.0658 Y1.5013 Z-0.4079 I0.0024 J0.007
N5425 X2.061 Y1.4872 Z-0.4087 I-0.0024 J-0.007
N5430 X2.0658 Y1.5013 Z-0.4096 I0.0024 J0.007
N5435 X2.061 Y1.4872 Z-0.4104 I-0.0024 J-0.007
N5440 X2.0658 Y1.5013 Z-0.4112 I0.0024 J0.007
N5445 X2.061 Y1.4872 Z-0.412 I-0.0024 J-0.007
N5450 X2.0658 Y1.5013 Z-0.4128 I0.0024 J0.007
N5455 X2.061 Y1.4872 Z-0.4136 I-0.0024 J-0.007
N5460 X2.0658 Y1.5013 Z-0.4144 I0.0024 J0.007
N5465 X2.061 Y1.4872 Z-0.4152 I-0.0024 J-0.007
N5470 X2.0658 Y1.5013 Z-0.4161 I0.0024 J0.007
N5475 X2.061 Y1.4872 Z-0.4169 I-0.0024 J-0.007
N5480 X2.0658 Y1.5013 Z-0.4177 I0.0024 J0.007
N5485 X2.061 Y1.4872 Z-0.4185 I-0.0024 J-0.007
N5490 X2.0658 Y1.5013 Z-0.4193 I0.0024 J0.007
N5495 X2.0581 Y1.489 Z-0.42 I-0.0024 J-0.007
N5500 G2 X2.0593 Y1.4878 I-0.0432 J-0.0425
N5505 G3 X2.063 Y1.4892 I0.0015 J0.0014
N5510 G1 Y1.4913
N5515 G3 X2.0604 Y1.4939 I-0.0026
N5520 G1 X2.0583
N5525 G3 X2.0569 Y1.4902 J-0.0021
N5530 G2 X2.0581 Y1.489 I-0.0262 J-0.0283
N5535 G3 X2.0585 Y1.4887 Z-0.4199 I0.0011 J0.0011
N5540 X2.0589 Y1.4886 Z-0.4197 I0.0007 J0.0014
N5545 G1 X2.0593 Z-0.4194
N5550 X2.0595 Z-0.4189
N5555 X2.0596 Z-0.4184
N5560 G0 Z0.2
N5565 X2.0561 Y1.2717
N5570 Z-0.3771
N5575 G1 X2.056 Z-0.3776 F40
N5580 X2.0558 Y1.2718 Z-0.378
N5585 X2.0555 Z-0.3783
N5590 G3 X2.0551 Y1.2719 Z-0.3786 I-0.0019 J-0.0072
N5595 X2.0546 Y1.272 Z-0.3787 I-0.0015 J-0.0073
N5600 X2.0526 Y1.2573 Z-0.3795 I-0.001 J-0.0073
N5605 X2.0546 Y1.272 Z-0.3803 I0.001 J0.0073
N5610 X2.0526 Y1.2573 Z-0.3811 I-0.001 J-0.0073
N5615 X2.0546 Y1.272 Z-0.3819 I0.001 J0.0073
N5620 X2.0526 Y1.2573 Z-0.3827 I-0.001 J-0.0073
N5625 X2.0546 Y1.272 Z-0.3835 I0.001 J0.0073
N5630 X2.0526 Y1.2573 Z-0.3844 I-0.001 J-0.0073
N5635 X2.0546 Y1.272 Z-0.3852 I0.001 J0.0073
N5640 X2.0526 Y1.2573 Z-0.386 I-0.001 J-0.0073
N5645 X2.0546 Y1.272 Z-0.3868 I0.001 J0.0073
N5650 X2.0526 Y1.2573 Z-0.3876 I-0.001 J-0.0073
N5655 X2.0546 Y1.272 Z-0.3884 I0.001 J0.0073
N5660 X2.0526 Y1.2573 Z-0.3892 I-0.001 J-0.0073
N5665 X2.0546 Y1.272 Z-0.39 I0.001 J0.0073
N5670 X2.0526 Y1.2573 Z-0.3909 I-0.001 J-0.0073
N5675 X2.0546 Y1.272 Z-0.3917 I0.001 J0.0073
N5680 X2.0526 Y1.2573 Z-0.3925 I-0.001 J-0.0073
N5685 X2.0546 Y1.272 Z-0.3933 I0.001 J0.0073
N5690 X2.0526 Y1.2573 Z-0.3941 I-0.001 J-0.0073
N5695 X2.0546 Y1.272 Z-0.3949 I0.001 J0.0073
N5700 X2.0526 Y1.2573 Z-0.3957 I-0.001 J-0.0073
N5705 X2.0546 Y1.272 Z-0.3965 I0.001 J0.0073
N5710 X2.0526 Y1.2573 Z-0.3974 I-0.001 J-0.0073
N5715 X2.0546 Y1.272 Z-0.3982 I0.001 J0.0073
N5720 X2.0526 Y1.2573 Z-0.399 I-0.001 J-0.0073
N5725 X2.0546 Y1.272 Z-0.3998 I0.001 J0.0073
N5730 X2.0526 Y1.2573 Z-0.4006 I-0.001 J-0.0073
N5735 X2.0546 Y1.272 Z-0.4014 I0.001 J0.0073
N5740 X2.0526 Y1.2573 Z-0.4022 I-0.001 J-0.0073
N5745 X2.0546 Y1.272 Z-0.403 I0.001 J0.0073
N5750 X2.0526 Y1.2573 Z-0.4039 I-0.001 J-0.0073
N5755 X2.0546 Y1.272 Z-0.4047 I0.001 J0.0073
N5760 X2.0526 Y1.2573 Z-0.4055 I-0.001 J-0.0073
N5765 X2.0546 Y1.272 Z-0.4063 I0.001 J0.0073
N5770 X2.0526 Y1.2573 Z-0.4071 I-0.001 J-0.0073
N5775 X2.0546 Y1.272 Z-0.4079 I0.001 J0.0073
N5780 X2.0526 Y1.2573 Z-0.4087 I-0.001 J-0.0073
N5785 X2.0546 Y1.272 Z-0.4096 I0.001 J0.0073
N5790 X2.0526 Y1.2573 Z-0.4104 I-0.001 J-0.0073
N5795 X2.0546 Y1.272 Z-0.4112 I0.001 J0.0073
N5800 X2.0526 Y1.2573 Z-0.412 I-0.001 J-0.0073
N5805 X2.0546 Y1.272 Z-0.4128 I0.001 J0.0073
N5810 X2.0526 Y1.2573 Z-0.4136 I-0.001 J-0.0073
N5815 X2.0546 Y1.272 Z-0.4144 I0.001 J0.0073
N5820 X2.0526 Y1.2573 Z-0.4152 I-0.001 J-0.0073
N5825 X2.0546 Y1.272 Z-0.4161 I0.001 J0.0073
N5830 X2.0526 Y1.2573 Z-0.4169 I-0.001 J-0.0073
N5835 X2.0546 Y1.272 Z-0.4177 I0.001 J0.0073
N5840 X2.0526 Y1.2573 Z-0.4185 I-0.001 J-0.0073
N5845 X2.0546 Y1.272 Z-0.4193 I0.001 J0.0073
N5850 X2.0494 Y1.2586 Z-0.42 I-0.001 J-0.0073
N5855 G2 X2.0532 Y1.2555 I-0.0188 J-0.0272
N5860 X2.0546 Y1.2541 I-0.0259 J-0.0276
N5865 G1 X2.0566 Y1.2521
N5870 G3 X2.0603 Y1.2535 I0.0015 J0.0015
N5875 G1 Y1.2749
N5880 G3 X2.0566 Y1.2763 I-0.0021
N5885 G2 X2.0507 Y1.2709 I-0.0355 J0.0323
N5890 X2.0442 Y1.2664 I-0.0376 J0.0478
N5895 G3 X2.0441 Y1.262 I0.0013 J-0.0022
N5900 G2 X2.0488 Y1.259 I-0.1157 J-0.1852
N5905 X2.0494 Y1.2586 I-0.0183 J-0.0276
N5910 G3 X2.0516 Y1.259 I0.0009 J0.0013
N5915 G1 X2.052 Y1.2596 Z-0.4198
N5920 X2.0523 Y1.2601 Z-0.4192
N5925 X2.0525 Y1.2603 Z-0.4184
N5930 G0 Z0.2
N5935 X1.9131 Y1.2723
N5940 Z-0.3667
N5945 G1 Z-0.3771 F40
N5950 X1.913 Y1.2722 Z-0.3776
N5955 X1.9129 Y1.2721 Z-0.378
N5960 X1.9127 Y1.2718 Z-0.3783
N5965 G3 X1.9125 Y1.2714 Z-0.3786 I0.0062 J-0.0041
N5970 X1.9123 Y1.271 Z-0.3787 I0.0064 J-0.0037
N5975 X1.9256 Y1.2644 Z-0.3795 I0.0066 J-0.0033
N5980 X1.9123 Y1.271 Z-0.3803 I-0.0066 J0.0033
N5985 X1.9256 Y1.2644 Z-0.3811 I0.0066 J-0.0033
N5990 X1.9123 Y1.271 Z-0.3819 I-0.0066 J0.0033
N5995 X1.9256 Y1.2644 Z-0.3827 I0.0066 J-0.0033
N6000 X1.9123 Y1.271 Z-0.3835 I-0.0066 J0.0033
N6005 X1.9256 Y1.2644 Z-0.3844 I0.0066 J-0.0033
N6010 X1.9123 Y1.271 Z-0.3852 I-0.0066 J0.0033
N6015 X1.9256 Y1.2644 Z-0.386 I0.0066 J-0.0033
N6020 X1.9123 Y1.271 Z-0.3868 I-0.0066 J0.0033
N6025 X1.9256 Y1.2644 Z-0.3876 I0.0066 J-0.0033
N6030 X1.9123 Y1.271 Z-0.3884 I-0.0066 J0.0033
N6035 X1.9256 Y1.2644 Z-0.3892 I0.0066 J-0.0033
N6040 X1.9123 Y1.271 Z-0.39 I-0.0066 J0.0033
N6045 X1.9256 Y1.2644 Z-0.3909 I0.0066 J-0.0033
N6050 X1.9123 Y1.271 Z-0.3917 I-0.0066 J0.0033
N6055 X1.9256 Y1.2644 Z-0.3925 I0.0066 J-0.0033
N6060 X1.9123 Y1.271 Z-0.3933 I-0.0066 J0.0033
N6065 X1.9256 Y1.2644 Z-0.3941 I0.0066 J-0.0033
N6070 X1.9123 Y1.271 Z-0.3949 I-0.0066 J0.0033
N6075 X1.9256 Y1.2644 Z-0.3957 I0.0066 J-0.0033
N6080 X1.9123 Y1.271 Z-0.3965 I-0.0066 J0.0033
N6085 X1.9256 Y1.2644 Z-0.3974 I0.0066 J-0.0033
N6090 X1.9123 Y1.271 Z-0.3982 I-0.0066 J0.0033
N6095 X1.9256 Y1.2644 Z-0.399 I0.0066 J-0.0033
N6100 X1.9123 Y1.271 Z-0.3998 I-0.0066 J0.0033
N6105 X1.9256 Y1.2644 Z-0.4006 I0.0066 J-0.0033
N6110 X1.9123 Y1.271 Z-0.4014 I-0.0066 J0.0033
N6115 X1.9256 Y1.2644 Z-0.4022 I0.0066 J-0.0033
N6120 X1.9123 Y1.271 Z-0.403 I-0.0066 J0.0033
N6125 X1.9256 Y1.2644 Z-0.4039 I0.0066 J-0.0033
N6130 X1.9123 Y1.271 Z-0.4047 I-0.0066 J0.0033
N6135 X1.9256 Y1.2644 Z-0.4055 I0.0066 J-0.0033
N6140 X1.9123 Y1.271 Z-0.4063 I-0.0066 J0.0033
N6145 X1.9256 Y1.2644 Z-0.4071 I0.0066 J-0.0033
N6150 X1.9123 Y1.271 Z-0.4079 I-0.0066 J0.0033
N6155 X1.9256 Y1.2644 Z-0.4087 I0.0066 J-0.0033
N6160 X1.9123 Y1.271 Z-0.4096 I-0.0066 J0.0033
N6165 X1.9256 Y1.2644 Z-0.4104 I0.0066 J-0.0033
N6170 X1.9123 Y1.271 Z-0.4112 I-0.0066 J0.0033
N6175 X1.9256 Y1.2644 Z-0.412 I0.0066 J-0.0033
N6180 X1.9123 Y1.271 Z-0.4128 I-0.0066 J0.0033
N6185 X1.9256 Y1.2644 Z-0.4136 I0.0066 J-0.0033
N6190 X1.9123 Y1.271 Z-0.4144 I-0.0066 J0.0033
N6195 X1.9256 Y1.2644 Z-0.4152 I0.0066 J-0.0033
N6200 X1.9123 Y1.271 Z-0.4161 I-0.0066 J0.0033
N6205 X1.9256 Y1.2644 Z-0.4169 I0.0066 J-0.0033
N6210 X1.9123 Y1.271 Z-0.4177 I-0.0066 J0.0033
N6215 X1.9256 Y1.2644 Z-0.4185 I0.0066 J-0.0033
N6220 X1.9123 Y1.271 Z-0.4193 I-0.0066 J0.0033
N6225 X1.9234 Y1.2618 Z-0.42 I0.0066 J-0.0033
N6230 G2 X1.9238 Y1.2621 I0.0223 J-0.0297
N6235 G3 Y1.2663 I-0.0015 J0.0021
N6240 G2 X1.9217 Y1.268 I0.0219 J0.03
N6245 G3 X1.9185 Y1.2665 I-0.0012 J-0.0015
N6250 G1 Y1.2629
N6255 G3 X1.9224 Y1.261 I0.0024
N6260 G2 X1.9234 Y1.2618 I0.0233 J-0.029
N6265 G3 X1.9237 Y1.264 I-0.0009 J0.0012
N6270 G1 X1.9232 Y1.2646 Z-0.4198
N6275 X1.9229 Y1.2651 Z-0.4192
N6280 X1.9228 Y1.2652 Z-0.4184
N6285 G0 Z0.2
N6290 X1.7536 Y1.2561
N6295 Z-0.3666
N6300 G1 Z-0.3771 F40
N6305 X1.7537 Y1.2562 Z-0.3776
N6310 X1.7538 Y1.2563 Z-0.378
N6315 X1.754 Y1.2566 Z-0.3783
N6320 G3 X1.7542 Y1.257 Z-0.3786 I-0.0062 J0.004
N6325 X1.7544 Y1.2574 Z-0.3787 I-0.0064 J0.0037
N6330 X1.7411 Y1.2639 Z-0.3795 I-0.0066 J0.0033
N6335 X1.7544 Y1.2574 Z-0.3803 I0.0066 J-0.0033
N6340 X1.7411 Y1.2639 Z-0.3811 I-0.0066 J0.0033
N6345 X1.7544 Y1.2574 Z-0.3819 I0.0066 J-0.0033
N6350 X1.7411 Y1.2639 Z-0.3827 I-0.0066 J0.0033
N6355 X1.7544 Y1.2574 Z-0.3835 I0.0066 J-0.0033
N6360 X1.7411 Y1.2639 Z-0.3844 I-0.0066 J0.0033
N6365 X1.7544 Y1.2574 Z-0.3852 I0.0066 J-0.0033
N6370 X1.7411 Y1.2639 Z-0.386 I-0.0066 J0.0033
N6375 X1.7544 Y1.2574 Z-0.3868 I0.0066 J-0.0033
N6380 X1.7411 Y1.2639 Z-0.3876 I-0.0066 J0.0033
N6385 X1.7544 Y1.2574 Z-0.3884 I0.0066 J-0.0033
N6390 X1.7411 Y1.2639 Z-0.3892 I-0.0066 J0.0033
N6395 X1.7544 Y1.2574 Z-0.39 I0.0066 J-0.0033
N6400 X1.7411 Y1.2639 Z-0.3909 I-0.0066 J0.0033
N6405 X1.7544 Y1.2574 Z-0.3917 I0.0066 J-0.0033
N6410 X1.7411 Y1.2639 Z-0.3925 I-0.0066 J0.0033
N6415 X1.7544 Y1.2574 Z-0.3933 I0.0066 J-0.0033
N6420 X1.7411 Y1.2639 Z-0.3941 I-0.0066 J0.0033
N6425 X1.7544 Y1.2574 Z-0.3949 I0.0066 J-0.0033
N6430 X1.7411 Y1.2639 Z-0.3957 I-0.0066 J0.0033
N6435 X1.7544 Y1.2574 Z-0.3965 I0.0066 J-0.0033
N6440 X1.7411 Y1.2639 Z-0.3974 I-0.0066 J0.0033
N6445 X1.7544 Y1.2574 Z-0.3982 I0.0066 J-0.0033
N6450 X1.7411 Y1.2639 Z-0.399 I-0.0066 J0.0033
N6455 X1.7544 Y1.2574 Z-0.3998 I0.0066 J-0.0033
N6460 X1.7411 Y1.2639 Z-0.4006 I-0.0066 J0.0033
N6465 X1.7544 Y1.2574 Z-0.4014 I0.0066 J-0.0033
N6470 X1.7411 Y1.2639 Z-0.4022 I-0.0066 J0.0033
N6475 X1.7544 Y1.2574 Z-0.403 I0.0066 J-0.0033
N6480 X1.7411 Y1.2639 Z-0.4039 I-0.0066 J0.0033
N6485 X1.7544 Y1.2574 Z-0.4047 I0.0066 J-0.0033
N6490 X1.7411 Y1.2639 Z-0.4055 I-0.0066 J0.0033
N6495 X1.7544 Y1.2574 Z-0.4063 I0.0066 J-0.0033
N6500 X1.7411 Y1.2639 Z-0.4071 I-0.0066 J0.0033
N6505 X1.7544 Y1.2574 Z-0.4079 I0.0066 J-0.0033
N6510 X1.7411 Y1.2639 Z-0.4087 I-0.0066 J0.0033
N6515 X1.7544 Y1.2574 Z-0.4096 I0.0066 J-0.0033
N6520 X1.7411 Y1.2639 Z-0.4104 I-0.0066 J0.0033
N6525 X1.7544 Y1.2574 Z-0.4112 I0.0066 J-0.0033
N6530 X1.7411 Y1.2639 Z-0.412 I-0.0066 J0.0033
N6535 X1.7544 Y1.2574 Z-0.4128 I0.0066 J-0.0033
N6540 X1.7411 Y1.2639 Z-0.4136 I-0.0066 J0.0033
N6545 X1.7544 Y1.2574 Z-0.4144 I0.0066 J-0.0033
N6550 X1.7411 Y1.2639 Z-0.4152 I-0.0066 J0.0033
N6555 X1.7544 Y1.2574 Z-0.4161 I0.0066 J-0.0033
N6560 X1.7411 Y1.2639 Z-0.4169 I-0.0066 J0.0033
N6565 X1.7544 Y1.2574 Z-0.4177 I0.0066 J-0.0033
N6570 X1.7411 Y1.2639 Z-0.4185 I-0.0066 J0.0033
N6575 X1.7544 Y1.2574 Z-0.4193 I0.0066 J-0.0033
N6580 X1.7433 Y1.2666 Z-0.42 I-0.0066 J0.0033
N6585 G2 X1.7429 Y1.2663 I-0.0224 J0.0297
N6590 G3 Y1.2621 I0.0015 J-0.0021
N6595 G2 X1.7443 Y1.261 I-0.022 J-0.03
N6600 G3 X1.7481 Y1.2628 I0.0015 J0.0018
N6605 G1 Y1.2655
N6610 G3 X1.7443 Y1.2673 I-0.0024
N6615 G2 X1.7433 Y1.2666 I-0.0234 J0.0289
N6620 G3 X1.743 Y1.2644 I0.0009 J-0.0012
N6625 G1 X1.7435 Y1.2638 Z-0.4198
N6630 X1.7438 Y1.2633 Z-0.4192
N6635 X1.7439 Y1.2631 Z-0.4184
N6640 G0 Z0.2
N6645 X1.6071 Y1.2692
N6650 Z-0.3771
N6655 G1 Z-0.3776 F40
N6660 X1.607 Y1.269 Z-0.378
N6665 X1.6068 Y1.2687 Z-0.3783
N6670 G3 X1.6065 Y1.2684 Z-0.3786 I0.0062 J-0.0041
N6675 X1.6063 Y1.268 Z-0.3787 I0.0064 J-0.0038
N6680 X1.6195 Y1.2613 Z-0.3795 I0.0066 J-0.0033
N6685 X1.6063 Y1.268 Z-0.3803 I-0.0066 J0.0033
N6690 X1.6195 Y1.2613 Z-0.3811 I0.0066 J-0.0033
N6695 X1.6063 Y1.268 Z-0.3819 I-0.0066 J0.0033
N6700 X1.6195 Y1.2613 Z-0.3827 I0.0066 J-0.0033
N6705 X1.6063 Y1.268 Z-0.3835 I-0.0066 J0.0033
N6710 X1.6195 Y1.2613 Z-0.3844 I0.0066 J-0.0033
N6715 X1.6063 Y1.268 Z-0.3852 I-0.0066 J0.0033
N6720 X1.6195 Y1.2613 Z-0.386 I0.0066 J-0.0033
N6725 X1.6063 Y1.268 Z-0.3868 I-0.0066 J0.0033
N6730 X1.6195 Y1.2613 Z-0.3876 I0.0066 J-0.0033
N6735 X1.6063 Y1.268 Z-0.3884 I-0.0066 J0.0033
N6740 X1.6195 Y1.2613 Z-0.3892 I0.0066 J-0.0033
N6745 X1.6063 Y1.268 Z-0.39 I-0.0066 J0.0033
N6750 X1.6195 Y1.2613 Z-0.3909 I0.0066 J-0.0033
N6755 X1.6063 Y1.268 Z-0.3917 I-0.0066 J0.0033
N6760 X1.6195 Y1.2613 Z-0.3925 I0.0066 J-0.0033
N6765 X1.6063 Y1.268 Z-0.3933 I-0.0066 J0.0033
N6770 X1.6195 Y1.2613 Z-0.3941 I0.0066 J-0.0033
N6775 X1.6063 Y1.268 Z-0.3949 I-0.0066 J0.0033
N6780 X1.6195 Y1.2613 Z-0.3957 I0.0066 J-0.0033
N6785 X1.6063 Y1.268 Z-0.3965 I-0.0066 J0.0033
N6790 X1.6195 Y1.2613 Z-0.3974 I0.0066 J-0.0033
N6795 X1.6063 Y1.268 Z-0.3982 I-0.0066 J0.0033
N6800 X1.6195 Y1.2613 Z-0.399 I0.0066 J-0.0033
N6805 X1.6063 Y1.268 Z-0.3998 I-0.0066 J0.0033
N6810 X1.6195 Y1.2613 Z-0.4006 I0.0066 J-0.0033
N6815 X1.6063 Y1.268 Z-0.4014 I-0.0066 J0.0033
N6820 X1.6195 Y1.2613 Z-0.4022 I0.0066 J-0.0033
N6825 X1.6063 Y1.268 Z-0.403 I-0.0066 J0.0033
N6830 X1.6195 Y1.2613 Z-0.4039 I0.0066 J-0.0033
N6835 X1.6063 Y1.268 Z-0.4047 I-0.0066 J0.0033
N6840 X1.6195 Y1.2613 Z-0.4055 I0.0066 J-0.0033
N6845 X1.6063 Y1.268 Z-0.4063 I-0.0066 J0.0033
N6850 X1.6195 Y1.2613 Z-0.4071 I0.0066 J-0.0033
N6855 X1.6063 Y1.268 Z-0.4079 I-0.0066 J0.0033
N6860 X1.6195 Y1.2613 Z-0.4087 I0.0066 J-0.0033
N6865 X1.6063 Y1.268 Z-0.4096 I-0.0066 J0.0033
N6870 X1.6195 Y1.2613 Z-0.4104 I0.0066 J-0.0033
N6875 X1.6063 Y1.268 Z-0.4112 I-0.0066 J0.0033
N6880 X1.6195 Y1.2613 Z-0.412 I0.0066 J-0.0033
N6885 X1.6063 Y1.268 Z-0.4128 I-0.0066 J0.0033
N6890 X1.6195 Y1.2613 Z-0.4136 I0.0066 J-0.0033
N6895 X1.6063 Y1.268 Z-0.4144 I-0.0066 J0.0033
N6900 X1.6195 Y1.2613 Z-0.4152 I0.0066 J-0.0033
N6905 X1.6063 Y1.268 Z-0.4161 I-0.0066 J0.0033
N6910 X1.6195 Y1.2613 Z-0.4169 I0.0066 J-0.0033
N6915 X1.6063 Y1.268 Z-0.4177 I-0.0066 J0.0033
N6920 X1.6195 Y1.2613 Z-0.4185 I0.0066 J-0.0033
N6925 X1.6063 Y1.268 Z-0.4193 I-0.0066 J0.0033
N6930 X1.6173 Y1.2587 Z-0.42 I0.0066 J-0.0033
N6935 G2 X1.6221 Y1.2619 I0.0409 J-0.0554
N6940 G3 Y1.2666 I-0.0015 J0.0024
N6945 G2 X1.6158 Y1.2709 I0.0316 J0.0525
N6950 X1.6101 Y1.2761 I0.0327 J0.0415
N6955 G1 X1.61 Y1.2762
N6960 G3 X1.6064 Y1.2747 I-0.0015 J-0.0015
N6965 G1 Y1.2536
N6970 G3 X1.6101 Y1.2522 I0.0021
N6975 G2 X1.6157 Y1.2574 I0.0345 J-0.0315
N6980 X1.6173 Y1.2587 I0.0425 J-0.0542
N6985 G3 X1.6177 Y1.2608 I-0.0009 J0.0013
N6990 G1 X1.6172 Y1.2615 Z-0.4198
N6995 X1.6169 Y1.2619 Z-0.4192
N7000 X1.6167 Y1.2621 Z-0.4184
N7005 G0 Z0.2
N7010 X1.5995 Y1.0278
N7015 Z-0.3616
N7020 G1 Z-0.3771 F40
N7025 X1.5996 Y1.0277 Z-0.3776
N7030 X1.5998 Y1.0276 Z-0.378
N7035 X1.6001 Y1.0275 Z-0.3783
N7040 G3 X1.6005 Y1.0273 Z-0.3786 I0.0032 J0.0067
N7045 X1.6009 Y1.0271 Z-0.3787 I0.0028 J0.0069
N7050 X1.6056 Y1.0412 Z-0.3795 I0.0023 J0.007
N7055 X1.6009 Y1.0271 Z-0.3803 I-0.0023 J-0.007
N7060 X1.6056 Y1.0412 Z-0.3811 I0.0023 J0.007
N7065 X1.6009 Y1.0271 Z-0.3819 I-0.0023 J-0.007
N7070 X1.6056 Y1.0412 Z-0.3827 I0.0023 J0.007
N7075 X1.6009 Y1.0271 Z-0.3835 I-0.0023 J-0.007
N7080 X1.6056 Y1.0412 Z-0.3844 I0.0023 J0.007
N7085 X1.6009 Y1.0271 Z-0.3852 I-0.0023 J-0.007
N7090 X1.6056 Y1.0412 Z-0.386 I0.0023 J0.007
N7095 X1.6009 Y1.0271 Z-0.3868 I-0.0023 J-0.007
N7100 X1.6056 Y1.0412 Z-0.3876 I0.0023 J0.007
N7105 X1.6009 Y1.0271 Z-0.3884 I-0.0023 J-0.007
N7110 X1.6056 Y1.0412 Z-0.3892 I0.0023 J0.007
N7115 X1.6009 Y1.0271 Z-0.39 I-0.0023 J-0.007
N7120 X1.6056 Y1.0412 Z-0.3909 I0.0023 J0.007
N7125 X1.6009 Y1.0271 Z-0.3917 I-0.0023 J-0.007
N7130 X1.6056 Y1.0412 Z-0.3925 I0.0023 J0.007
N7135 X1.6009 Y1.0271 Z-0.3933 I-0.0023 J-0.007
N7140 X1.6056 Y1.0412 Z-0.3941 I0.0023 J0.007
N7145 X1.6009 Y1.0271 Z-0.3949 I-0.0023 J-0.007
N7150 X1.6056 Y1.0412 Z-0.3957 I0.0023 J0.007
N7155 X1.6009 Y1.0271 Z-0.3965 I-0.0023 J-0.007
N7160 X1.6056 Y1.0412 Z-0.3974 I0.0023 J0.007
N7165 X1.6009 Y1.0271 Z-0.3982 I-0.0023 J-0.007
N7170 X1.6056 Y1.0412 Z-0.399 I0.0023 J0.007
N7175 X1.6009 Y1.0271 Z-0.3998 I-0.0023 J-0.007
N7180 X1.6056 Y1.0412 Z-0.4006 I0.0023 J0.007
N7185 X1.6009 Y1.0271 Z-0.4014 I-0.0023 J-0.007
N7190 X1.6056 Y1.0412 Z-0.4022 I0.0023 J0.007
N7195 X1.6009 Y1.0271 Z-0.403 I-0.0023 J-0.007
N7200 X1.6056 Y1.0412 Z-0.4039 I0.0023 J0.007
N7205 X1.6009 Y1.0271 Z-0.4047 I-0.0023 J-0.007
N7210 X1.6056 Y1.0412 Z-0.4055 I0.0023 J0.007
N7215 X1.6009 Y1.0271 Z-0.4063 I-0.0023 J-0.007
N7220 X1.6056 Y1.0412 Z-0.4071 I0.0023 J0.007
N7225 X1.6009 Y1.0271 Z-0.4079 I-0.0023 J-0.007
N7230 X1.6056 Y1.0412 Z-0.4087 I0.0023 J0.007
N7235 X1.6009 Y1.0271 Z-0.4096 I-0.0023 J-0.007
N7240 X1.6056 Y1.0412 Z-0.4104 I0.0023 J0.007
N7245 X1.6009 Y1.0271 Z-0.4112 I-0.0023 J-0.007
N7250 X1.6056 Y1.0412 Z-0.412 I0.0023 J0.007
N7255 X1.6009 Y1.0271 Z-0.4128 I-0.0023 J-0.007
N7260 X1.6056 Y1.0412 Z-0.4136 I0.0023 J0.007
N7265 X1.6009 Y1.0271 Z-0.4144 I-0.0023 J-0.007
N7270 X1.6056 Y1.0412 Z-0.4152 I0.0023 J0.007
N7275 X1.6009 Y1.0271 Z-0.4161 I-0.0023 J-0.007
N7280 X1.6056 Y1.0412 Z-0.4169 I0.0023 J0.007
N7285 X1.6009 Y1.0271 Z-0.4177 I-0.0023 J-0.007
N7290 X1.6056 Y1.0412 Z-0.4185 I0.0023 J0.007
N7295 X1.6009 Y1.0271 Z-0.4193 I-0.0023 J-0.007
N7300 X1.6085 Y1.0394 Z-0.42 I0.0023 J0.007
N7305 G2 X1.607 Y1.041 I0.0306 J0.0304
N7310 G3 X1.6036 Y1.0397 I-0.0014 J-0.0013
N7315 G1 Y1.0371
N7320 G3 X1.6062 Y1.0346 I0.0026
N7325 G1 X1.6083
N7330 G3 X1.6097 Y1.0382 J0.0021
N7335 G2 X1.6085 Y1.0394 I0.0294 J0.0316
N7340 G3 X1.6081 Y1.0397 Z-0.4199 I-0.0011 J-0.0011
N7345 X1.6077 Y1.0398 Z-0.4197 I-0.0007 J-0.0014
N7350 G1 X1.6074 Y1.0399 Z-0.4194
N7355 X1.6071 Y1.0398 Z-0.4189
N7360 Z-0.4184
N7365 G0 Z0.2
N7370 X1.5968 Y1.4979
N7375 Z-0.3616
N7380 G1 Z-0.3771 F40
N7385 X1.5967 Z-0.3776
N7390 X1.5966 Y1.4977 Z-0.378
N7395 X1.5965 Y1.4974 Z-0.3783
N7400 G3 X1.5963 Y1.497 Z-0.3786 I0.0067 J-0.0031
N7405 X1.5962 Y1.4965 Z-0.3787 I0.0069 J-0.0027
N7410 X1.6103 Y1.4919 Z-0.3795 I0.007 J-0.0023
N7415 X1.5962 Y1.4965 Z-0.3803 I-0.007 J0.0023
N7420 X1.6103 Y1.4919 Z-0.3811 I0.007 J-0.0023
N7425 X1.5962 Y1.4965 Z-0.3819 I-0.007 J0.0023
N7430 X1.6103 Y1.4919 Z-0.3827 I0.007 J-0.0023
N7435 X1.5962 Y1.4965 Z-0.3835 I-0.007 J0.0023
N7440 X1.6103 Y1.4919 Z-0.3844 I0.007 J-0.0023
N7445 X1.5962 Y1.4965 Z-0.3852 I-0.007 J0.0023
N7450 X1.6103 Y1.4919 Z-0.386 I0.007 J-0.0023
N7455 X1.5962 Y1.4965 Z-0.3868 I-0.007 J0.0023
N7460 X1.6103 Y1.4919 Z-0.3876 I0.007 J-0.0023
N7465 X1.5962 Y1.4965 Z-0.3884 I-0.007 J0.0023
N7470 X1.6103 Y1.4919 Z-0.3892 I0.007 J-0.0023
N7475 X1.5962 Y1.4965 Z-0.39 I-0.007 J0.0023
N7480 X1.6103 Y1.4919 Z-0.3909 I0.007 J-0.0023
N7485 X1.5962 Y1.4965 Z-0.3917 I-0.007 J0.0023
N7490 X1.6103 Y1.4919 Z-0.3925 I0.007 J-0.0023
N7495 X1.5962 Y1.4965 Z-0.3933 I-0.007 J0.0023
N7500 X1.6103 Y1.4919 Z-0.3941 I0.007 J-0.0023
N7505 X1.5962 Y1.4965 Z-0.3949 I-0.007 J0.0023
N7510 X1.6103 Y1.4919 Z-0.3957 I0.007 J-0.0023
N7515 X1.5962 Y1.4965 Z-0.3965 I-0.007 J0.0023
N7520 X1.6103 Y1.4919 Z-0.3974 I0.007 J-0.0023
N7525 X1.5962 Y1.4965 Z-0.3982 I-0.007 J0.0023
N7530 X1.6103 Y1.4919 Z-0.399 I0.007 J-0.0023
N7535 X1.5962 Y1.4965 Z-0.3998 I-0.007 J0.0023
N7540 X1.6103 Y1.4919 Z-0.4006 I0.007 J-0.0023
N7545 X1.5962 Y1.4965 Z-0.4014 I-0.007 J0.0023
N7550 X1.6103 Y1.4919 Z-0.4022 I0.007 J-0.0023
N7555 X1.5962 Y1.4965 Z-0.403 I-0.007 J0.0023
N7560 X1.6103 Y1.4919 Z-0.4039 I0.007 J-0.0023
N7565 X1.5962 Y1.4965 Z-0.4047 I-0.007 J0.0023
N7570 X1.6103 Y1.4919 Z-0.4055 I0.007 J-0.0023
N7575 X1.5962 Y1.4965 Z-0.4063 I-0.007 J0.0023
N7580 X1.6103 Y1.4919 Z-0.4071 I0.007 J-0.0023
N7585 X1.5962 Y1.4965 Z-0.4079 I-0.007 J0.0023
N7590 X1.6103 Y1.4919 Z-0.4087 I0.007 J-0.0023
N7595 X1.5962 Y1.4965 Z-0.4096 I-0.007 J0.0023
N7600 X1.6103 Y1.4919 Z-0.4104 I0.007 J-0.0023
N7605 X1.5962 Y1.4965 Z-0.4112 I-0.007 J0.0023
N7610 X1.6103 Y1.4919 Z-0.412 I0.007 J-0.0023
N7615 X1.5962 Y1.4965 Z-0.4128 I-0.007 J0.0023
N7620 X1.6103 Y1.4919 Z-0.4136 I0.007 J-0.0023
N7625 X1.5962 Y1.4965 Z-0.4144 I-0.007 J0.0023
N7630 X1.6103 Y1.4919 Z-0.4152 I0.007 J-0.0023
N7635 X1.5962 Y1.4965 Z-0.4161 I-0.007 J0.0023
N7640 X1.6103 Y1.4919 Z-0.4169 I0.007 J-0.0023
N7645 X1.5962 Y1.4965 Z-0.4177 I-0.007 J0.0023
N7650 X1.6103 Y1.4919 Z-0.4185 I0.007 J-0.0023
N7655 X1.5962 Y1.4965 Z-0.4193 I-0.007 J0.0023
N7660 X1.6085 Y1.489 Z-0.42 I0.007 J-0.0023
N7665 G2 X1.6097 Y1.4902 I0.0355 J-0.0354
N7670 G3 X1.6083 Y1.4938 I-0.0014 J0.0015
N7675 G1 X1.6062
N7680 G3 X1.6036 Y1.4912 J-0.0026
N7685 G1 Y1.4892
N7690 G3 X1.6073 Y1.4878 I0.0021
N7695 G2 X1.6085 Y1.489 I0.0367 J-0.0341
N7700 G3 X1.6088 Y1.4894 Z-0.4199 I-0.0011 J0.0011
N7705 X1.6089 Y1.4898 Z-0.4197 I-0.0014 J0.0007
N7710 G1 Y1.4902 Z-0.4194
N7715 Y1.4904 Z-0.4189
N7720 Z-0.4184
N7725 G0 Z0.2
N7730 X2.0699 Y1.0306
N7735 Z-0.3615
N7740 G1 Z-0.3771 F40
N7745 Z-0.3776
N7750 X2.07 Y1.0308 Z-0.378
N7755 X2.0701 Y1.0311 Z-0.3783
N7760 G3 X2.0703 Y1.0315 Z-0.3786 I-0.0067 J0.0031
N7765 X2.0705 Y1.032 Z-0.3787 I-0.0069 J0.0027
N7770 X2.0563 Y1.0365 Z-0.3795 I-0.0071 J0.0023
N7775 X2.0705 Y1.032 Z-0.3803 I0.0071 J-0.0023
N7780 X2.0563 Y1.0365 Z-0.3811 I-0.0071 J0.0023
N7785 X2.0705 Y1.032 Z-0.3819 I0.0071 J-0.0023
N7790 X2.0563 Y1.0365 Z-0.3827 I-0.0071 J0.0023
N7795 X2.0705 Y1.032 Z-0.3835 I0.0071 J-0.0023
N7800 X2.0563 Y1.0365 Z-0.3844 I-0.0071 J0.0023
N7805 X2.0705 Y1.032 Z-0.3852 I0.0071 J-0.0023
N7810 X2.0563 Y1.0365 Z-0.386 I-0.0071 J0.0023
N7815 X2.0705 Y1.032 Z-0.3868 I0.0071 J-0.0023
N7820 X2.0563 Y1.0365 Z-0.3876 I-0.0071 J0.0023
N7825 X2.0705 Y1.032 Z-0.3884 I0.0071 J-0.0023
N7830 X2.0563 Y1.0365 Z-0.3892 I-0.0071 J0.0023
N7835 X2.0705 Y1.032 Z-0.39 I0.0071 J-0.0023
N7840 X2.0563 Y1.0365 Z-0.3909 I-0.0071 J0.0023
N7845 X2.0705 Y1.032 Z-0.3917 I0.0071 J-0.0023
N7850 X2.0563 Y1.0365 Z-0.3925 I-0.0071 J0.0023
N7855 X2.0705 Y1.032 Z-0.3933 I0.0071 J-0.0023
N7860 X2.0563 Y1.0365 Z-0.3941 I-0.0071 J0.0023
N7865 X2.0705 Y1.032 Z-0.3949 I0.0071 J-0.0023
N7870 X2.0563 Y1.0365 Z-0.3957 I-0.0071 J0.0023
N7875 X2.0705 Y1.032 Z-0.3965 I0.0071 J-0.0023
N7880 X2.0563 Y1.0365 Z-0.3974 I-0.0071 J0.0023
N7885 X2.0705 Y1.032 Z-0.3982 I0.0071 J-0.0023
N7890 X2.0563 Y1.0365 Z-0.399 I-0.0071 J0.0023
N7895 X2.0705 Y1.032 Z-0.3998 I0.0071 J-0.0023
N7900 X2.0563 Y1.0365 Z-0.4006 I-0.0071 J0.0023
N7905 X2.0705 Y1.032 Z-0.4014 I0.0071 J-0.0023
N7910 X2.0563 Y1.0365 Z-0.4022 I-0.0071 J0.0023
N7915 X2.0705 Y1.032 Z-0.403 I0.0071 J-0.0023
N7920 X2.0563 Y1.0365 Z-0.4039 I-0.0071 J0.0023
N7925 X2.0705 Y1.032 Z-0.4047 I0.0071 J-0.0023
N7930 X2.0563 Y1.0365 Z-0.4055 I-0.0071 J0.0023
N7935 X2.0705 Y1.032 Z-0.4063 I0.0071 J-0.0023
N7940 X2.0563 Y1.0365 Z-0.4071 I-0.0071 J0.0023
N7945 X2.0705 Y1.032 Z-0.4079 I0.0071 J-0.0023
N7950 X2.0563 Y1.0365 Z-0.4087 I-0.0071 J0.0023
N7955 X2.0705 Y1.032 Z-0.4096 I0.0071 J-0.0023
N7960 X2.0563 Y1.0365 Z-0.4104 I-0.0071 J0.0023
N7965 X2.0705 Y1.032 Z-0.4112 I0.0071 J-0.0023
N7970 X2.0563 Y1.0365 Z-0.412 I-0.0071 J0.0023
N7975 X2.0705 Y1.032 Z-0.4128 I0.0071 J-0.0023
N7980 X2.0563 Y1.0365 Z-0.4136 I-0.0071 J0.0023
N7985 X2.0705 Y1.032 Z-0.4144 I0.0071 J-0.0023
N7990 X2.0563 Y1.0365 Z-0.4152 I-0.0071 J0.0023
N7995 X2.0705 Y1.032 Z-0.4161 I0.0071 J-0.0023
N8000 X2.0563 Y1.0365 Z-0.4169 I-0.0071 J0.0023
N8005 X2.0705 Y1.032 Z-0.4177 I0.0071 J-0.0023
N8010 X2.0563 Y1.0365 Z-0.4185 I-0.0071 J0.0023
N8015 X2.0705 Y1.032 Z-0.4193 I0.0071 J-0.0023
N8020 X2.0581 Y1.0394 Z-0.42 I-0.0071 J0.0023
N8025 G2 X2.0569 Y1.0382 I-0.0276 J0.0271
N8030 G3 X2.0583 Y1.0346 I0.0014 J-0.0015
N8035 G1 X2.0603
N8040 G3 X2.0629 Y1.0372 J0.0026
N8045 G1 Y1.0392
N8050 G3 X2.0593 Y1.0407 I-0.0021
N8055 G2 X2.0581 Y1.0394 I-0.0447 J0.0416
N8060 X2.0532 Y1.0385 I-0.0031 J0.003
N8065 G3 X2.0483 Y1.0382 I-0.0022 J-0.0047
N8070 G2 X2.0323 Y1.0325 I-0.0205 J0.0321
N8075 G1 X1.6377 Y1.0323
N8080 G2 X1.6142 Y1.0413 J0.0354
N8085 X1.602 Y1.0634 I0.0253 J0.0284
N8090 X1.6016 Y1.0663 I0.0292 J0.0049
N8095 X1.6015 Y1.0691 I0.0422 J0.0029
N8100 G1 X1.6016 Y1.2145
N8105 G2 X1.6146 Y1.2452 I0.0505 J-0.0032
N8110 X1.6435 Y1.2617 I0.0392 J-0.0354
N8115 X1.6481 Y1.2623 I0.0086 J-0.0433
N8120 X1.6526 Y1.2625 I0.0045 J-0.0491
N8125 G1 X1.7201 Y1.2622
N8130 G2 X1.7432 Y1.2506 I-0.0033 J-0.0352
N8135 X1.7529 Y1.2267 I-0.0284 J-0.0254
N8140 G1 X1.7522 Y1.1852
N8145 G3 X1.7541 Y1.1832 I0.0019
N8150 G1 X1.7552
N8155 G3 X1.7572 Y1.1852 J0.0019
N8160 G1 X1.7571 Y1.3435
N8165 G3 X1.7552 Y1.3454 I-0.0019
N8170 G1 X1.7542
N8175 G3 X1.7522 Y1.3435 J-0.0019
N8180 X1.753 Y1.3211 I0.3422 J0.0003
N8185 G2 X1.7527 Y1.2988 I-0.1447 J-0.0096
N8190 X1.7426 Y1.2771 I-0.0351 J0.0031
N8195 X1.7212 Y1.2662 I-0.027 J0.0269
N8200 X1.7165 Y1.2659 I-0.0046 J0.0309
N8205 G1 X1.6494 Y1.266
N8210 G2 X1.6209 Y1.2773 I0.0028 J0.0489
N8215 X1.6036 Y1.3027 I0.036 J0.0431
N8220 X1.6018 Y1.312 I0.0352 J0.0117
N8225 X1.6015 Y1.3215 I0.1621 J0.0103
N8230 G1 X1.6018 Y1.4639
N8235 G2 X1.6125 Y1.4856 I0.0351 J-0.0039
N8240 X1.6343 Y1.4959 I0.0264 J-0.0276
N8245 G1 X2.0289 Y1.4961
N8250 G2 X2.0525 Y1.4871 J-0.0354
N8255 X2.0647 Y1.465 I-0.0253 J-0.0283
N8260 X2.065 Y1.4622 I-0.0292 J-0.0049
N8265 X2.0651 Y1.4593 I-0.0423 J-0.0029
N8270 G1 X2.0649 Y1.3134
N8275 G2 X2.049 Y1.2805 I-0.0503 J0.0041
N8280 X2.0154 Y1.266 I-0.0371 J0.0399
N8285 G1 X1.9502
N8290 G2 X1.9264 Y1.275 J0.0358
N8295 X1.9142 Y1.2972 I0.0251 J0.0283
N8300 X1.9134 Y1.3195 I0.0876 J0.0142
N8305 G3 X1.9144 Y1.3418 I-0.242 J0.0221
N8310 X1.912 Y1.3442 I-0.0024
N8315 X1.9095 Y1.3418 J-0.0024
N8320 G1 Y1.1868
N8325 G3 X1.912 Y1.1844 I0.0024
N8330 X1.9144 Y1.1868 J0.0024
N8335 G1 X1.914 Y1.2299
N8340 G2 X1.9249 Y1.2521 I0.0351 J-0.0034
N8345 X1.9475 Y1.2623 I0.0261 J-0.0277
N8350 G1 X2.015 Y1.2625
N8355 G2 X2.0473 Y1.2501 J-0.0485
N8360 X2.0643 Y1.2199 I-0.0357 J-0.0399
N8365 X2.0651 Y1.2112 I-0.0473 J-0.0087
N8370 G1 X2.0648 Y1.0648
N8375 G2 X2.0542 Y1.0429 I-0.0351 J0.0036
N8380 X2.0483 Y1.0382 I-0.0264 J0.0274
N8385 X2.0434 Y1.0384 I-0.0023 J0.0036
N8390 G3 X2.0387 Y1.0392 I-0.0031 J-0.004
N8395 G2 X2.0317 Y1.0376 I-0.0109 J0.0312
N8400 G1 X1.6377 Y1.0374
N8405 G2 X1.6175 Y1.0452 J0.0304
N8410 X1.607 Y1.0642 I0.022 J0.0245
N8415 X1.6067 Y1.0667 I0.0243 J0.0041
N8420 X1.6066 Y1.0691 I0.0375 J0.0025
N8425 G1 X1.6067 Y1.2142
N8430 G2 X1.6184 Y1.2419 I0.0454 J-0.0029
N8435 X1.6445 Y1.2567 I0.0354 J-0.0321
N8440 X1.6486 Y1.2573 I0.0076 J-0.0384
N8445 X1.6526 Y1.2574 I0.004 J-0.044
N8450 G1 X1.7197 Y1.2572
N8455 G2 X1.7478 Y1.2253 I-0.0029 J-0.0309
N8460 G3 X1.7471 Y1.1829 I1.3674 J-0.0425
N8465 X1.7518 Y1.1782 I0.0047
N8470 G1 X1.7575
N8475 G3 X1.7623 Y1.1829 J0.0047
N8480 G1 X1.7622 Y1.3458
N8485 G3 X1.7575 Y1.3505 I-0.0047
N8490 G1 X1.7519
N8495 G3 X1.7471 Y1.3458 J-0.0047
N8500 X1.7479 Y1.3225 I0.3561 J0.0003
N8505 G2 X1.7477 Y1.2993 I-0.1506 J-0.01
N8510 X1.7389 Y1.2806 I-0.03 J0.0027
N8515 X1.7205 Y1.2713 I-0.0233 J0.0234
N8520 X1.7185 Y1.2711 I-0.0037 J0.025
N8525 X1.7165 Y1.271 I-0.002 J0.0292
N8530 G1 X1.6497 Y1.2711
N8535 G2 X1.624 Y1.2813 I0.0026 J0.0438
N8540 X1.6084 Y1.3043 I0.0329 J0.039
N8545 X1.6068 Y1.3128 I0.0311 J0.0103
N8550 X1.6066 Y1.3215 I0.176 J0.0096
N8555 G1 X1.6068 Y1.4634
N8560 G2 X1.6161 Y1.482 I0.0301 J-0.0033
N8565 X1.6349 Y1.4909 I0.0228 J-0.024
N8570 G1 X2.0289 Y1.491
N8575 G2 X2.0492 Y1.4832 J-0.0304
N8580 X2.0596 Y1.4642 I-0.022 J-0.0245
N8585 X2.0599 Y1.4617 I-0.0243 J-0.004
N8590 X2.06 Y1.4593 I-0.0375 J-0.0024
N8595 G1 X2.0599 Y1.3138
N8600 G2 X2.0454 Y1.2841 I-0.0452 J0.0037
N8605 X2.015 Y1.2711 I-0.0335 J0.0363
N8610 G1 X1.9502
N8615 G2 X1.9194 Y1.3021 J0.0308
N8620 G3 X1.9195 Y1.3458 I-6.1863 J0.0383
N8625 X1.9147 Y1.3505 I-0.0047
N8630 G1 X1.9092
N8635 G3 X1.9044 Y1.3458 J-0.0047
N8640 G1 X1.9045 Y1.1829
N8645 G3 X1.9092 Y1.1782 I0.0047
N8650 G1 X1.9148
N8655 G3 X1.9195 Y1.1829 J0.0047
N8660 G1 X1.9191 Y1.2294
N8665 G2 X1.9285 Y1.2485 I0.0301 J-0.0029
N8670 X1.948 Y1.2573 I0.0225 J-0.0241
N8675 G1 X2.015 Y1.2574
N8680 G2 X2.0441 Y1.2462 J-0.0434
N8685 X2.0593 Y1.219 I-0.0324 J-0.036
N8690 X2.06 Y1.2112 I-0.0423 J-0.0078
N8695 G1 X2.0598 Y1.0653
N8700 G2 X2.0506 Y1.0465 I-0.03 J0.003
N8705 X2.0387 Y1.0392 I-0.0228 J0.0239
N8710 X2.0278 Y1.0432 I-0.003 J0.0086
N8715 G3 X2.0178 Y1.049 I-0.01 J-0.0058
N8720 G1 X1.6377 Y1.0489
N8725 G2 X1.6249 Y1.054 J0.0189
N8730 X1.6183 Y1.0661 I0.0146 J0.0157
N8735 X1.6182 Y1.0676 I0.0134 J0.0022
N8740 X1.6181 Y1.0691 I0.0275 J0.0015
N8745 G1 X1.6182 Y1.2135
N8750 G2 X1.627 Y1.2343 I0.0339 J-0.0021
N8755 X1.6468 Y1.2454 I0.0267 J-0.0245
N8760 X1.6497 Y1.2458 I0.0054 J-0.0271
N8765 X1.6526 Y1.2459 I0.0029 J-0.0326
N8770 G1 X1.7186 Y1.2457
N8775 G2 X1.7311 Y1.2392 I-0.0017 J-0.0187
N8780 X1.7363 Y1.226 I-0.0164 J-0.014
N8785 G1 X1.7356 Y1.1714
N8790 G3 X1.7403 Y1.1667 I0.0047
N8795 G1 X1.769
N8800 G3 X1.7738 Y1.1714 J0.0047
N8805 G1 X1.7737 Y1.3573
N8810 G3 X1.769 Y1.362 I-0.0047
N8815 G1 X1.7404
N8820 G3 X1.7356 Y1.3573 J-0.0047
N8825 X1.7366 Y1.3288 I0.452 J0.0004
N8830 G2 X1.7362 Y1.3003 I-0.1873 J-0.012
N8835 X1.7305 Y1.2884 I-0.0186 J0.0016
N8840 X1.7188 Y1.2827 I-0.015 J0.0156
N8845 X1.7176 Y1.2825 I-0.002 J0.0137
N8850 X1.7165 I-0.0012 J0.0179
N8855 G1 X1.6504
N8860 G2 X1.631 Y1.2905 I0.0019 J0.0324
N8865 X1.6194 Y1.3079 I0.026 J0.0299
N8870 X1.6182 Y1.3147 I0.0223 J0.0074
N8875 X1.6181 Y1.3216 I0.3296 J0.0085
N8880 G1 X1.6183 Y1.4621
N8885 G2 X1.6243 Y1.4739 I0.0187 J-0.0021
N8890 X1.6363 Y1.4794 I0.0146 J-0.016
N8895 G1 X2.0289 Y1.4795
N8900 G2 X2.0417 Y1.4745 J-0.0189
N8905 X2.0483 Y1.4623 I-0.0146 J-0.0157
N8910 X2.0484 Y1.4608 I-0.0134 J-0.0022
N8915 X2.0485 Y1.4593 I-0.0276 J-0.0015
N8920 G1 X2.0484 Y1.3147
N8925 G2 X2.0373 Y1.2923 I-0.0338 J0.0027
N8930 X2.0143 Y1.2826 I-0.0254 J0.0281
N8935 G1 X1.9502
N8940 G2 X1.9372 Y1.2876 J0.0192
N8945 X1.9305 Y1.2999 I0.0144 J0.0157
N8950 X1.9304 Y1.3014 I0.0133 J0.0022
N8955 X1.9303 Y1.3028 I0.0292 J0.0015
N8960 G1 X1.931 Y1.3573
N8965 G3 X1.9262 Y1.362 I-0.0047
N8970 G1 X1.8977
N8975 G3 X1.8929 Y1.3573 J-0.0047
N8980 G1 X1.893 Y1.1714
N8985 G3 X1.8977 Y1.1667 I0.0047
N8990 G1 X1.9263
N8995 G3 X1.931 Y1.1714 J0.0047
N9000 G1 X1.9305 Y1.2283
N9005 G2 X1.9366 Y1.2404 I0.0187 J-0.0018
N9010 X1.949 Y1.2458 I0.0144 J-0.016
N9015 G1 X2.015 Y1.2459
N9020 G2 X2.0367 Y1.2374 J-0.032
N9025 X2.048 Y1.2169 I-0.0251 J-0.0271
N9030 X2.0485 Y1.2112 I-0.031 J-0.0057
N9035 G1 X2.0483 Y1.0664
N9040 G2 X2.0424 Y1.0546 I-0.0186 J0.0019
N9045 X2.0303 Y1.049 I-0.0146 J0.0159
N9050 G1 X2.0178
N9055 G2 X2.0086 Y1.0551 J0.0099
N9060 G3 X1.9995 Y1.0612 I-0.0091 J-0.0038
N9065 G1 X1.6377
N9070 X1.6368 Y1.0613
N9075 X1.6358 Y1.0615
N9080 X1.6347 Y1.0619
N9085 X1.6342 Y1.0622
N9090 X1.6338 Y1.0625
N9095 X1.6329 Y1.0632
N9100 X1.6323 Y1.0639
N9105 X1.6316 Y1.0647
N9110 X1.6313 Y1.0652
N9115 X1.6309 Y1.0662
N9120 X1.6306 Y1.0672
N9125 X1.6304 Y1.0682
N9130 Y1.0691
N9135 Y1.2122
N9140 Y1.2127
N9145 X1.6307 Y1.2147
N9150 X1.631 Y1.2167
N9155 X1.6313 Y1.2176
N9160 X1.6325 Y1.2206
N9165 X1.6328 Y1.2214
N9170 X1.6345 Y1.2241
N9175 X1.6353 Y1.2252
N9180 X1.6372 Y1.2274
N9185 X1.6386 Y1.2286
N9190 X1.6392 Y1.2291
N9195 X1.6414 Y1.2306
N9200 X1.6423 Y1.231
N9205 X1.6442 Y1.2319
N9210 X1.6452 Y1.2323
N9215 X1.6481 Y1.2332
N9220 X1.6491 Y1.2334
N9225 X1.6526 Y1.2337
N9230 X1.7165 Y1.2336
N9235 X1.7175 Y1.2335
N9240 X1.7184 Y1.2333
N9245 X1.7193 Y1.233
N9250 X1.7202 Y1.2325
N9255 X1.7209 Y1.2321
N9260 X1.7217 Y1.2314
N9265 X1.7225 Y1.2306
N9270 X1.7228 Y1.2301
N9275 X1.7231 Y1.2296
N9280 X1.7235 Y1.2286
N9285 X1.7238 Y1.2276
N9290 X1.724 Y1.2266
N9295 Y1.2256
N9300 Y1.1551
N9305 X1.7241
N9310 X1.7852
N9315 X1.7853
N9320 Y1.3735
N9325 X1.7852 Y1.3736
N9330 X1.7241
N9335 X1.724 Y1.3735
N9340 X1.7241 Y1.3023
N9345 X1.724 Y1.3014
N9350 X1.7238 Y1.3004
N9355 X1.7234 Y1.2994
N9360 X1.7232 Y1.2989
N9365 X1.7229 Y1.2984
N9370 X1.7224 Y1.2977
N9375 X1.7217 Y1.2969
N9380 X1.7209 Y1.2962
N9385 X1.7204 Y1.2959
N9390 X1.7199 Y1.2956
N9395 X1.7189 Y1.2952
N9400 X1.718 Y1.2949
N9405 X1.717 Y1.2948
N9410 X1.7165 Y1.2947
N9415 X1.6516
N9420 X1.6511 Y1.2948
N9425 X1.6491 Y1.2951
N9430 X1.6472 Y1.2955
N9435 X1.6465 Y1.2957
N9440 X1.6437 Y1.2967
N9445 X1.6423 Y1.2974
N9450 X1.6402 Y1.2986
N9455 X1.6392 Y1.2993
N9460 X1.6386 Y1.2999
N9465 X1.6368 Y1.3014
N9470 X1.6364 Y1.3018
N9475 X1.6353 Y1.3032
N9480 X1.6341 Y1.3048
N9485 X1.6335 Y1.3058
N9490 X1.6324 Y1.3078
N9495 X1.632 Y1.3088
N9500 X1.631 Y1.3117
N9505 X1.6308 Y1.3127
N9510 X1.6303 Y1.3157
N9515 Y1.3217
N9520 Y1.4598
N9525 X1.6304 Y1.4608
N9530 X1.6307 Y1.4618
N9535 X1.631 Y1.4628
N9540 X1.6313 Y1.4633
N9545 X1.6316 Y1.4638
N9550 X1.6322 Y1.4646
N9555 X1.6329 Y1.4653
N9560 X1.6338 Y1.4659
N9565 X1.6342 Y1.4662
N9570 X1.6347 Y1.4665
N9575 X1.6358 Y1.4669
N9580 X1.6368 Y1.4672
N9585 X1.6377 Y1.4673
N9590 X2.0289
N9595 X2.0299 Y1.4672
N9600 X2.0309 Y1.4669
N9605 X2.0319 Y1.4665
N9610 X2.0324 Y1.4662
N9615 X2.0329 Y1.4659
N9620 X2.0337 Y1.4653
N9625 X2.0344 Y1.4646
N9630 X2.035 Y1.4637
N9635 X2.0353 Y1.4632
N9640 X2.0357 Y1.4623
N9645 X2.036 Y1.4613
N9650 X2.0362 Y1.4603
N9655 X2.0363 Y1.4593
N9660 X2.0362 Y1.3162
N9665 Y1.3157
N9670 X2.0357 Y1.3122
N9675 X2.0353 Y1.3109
N9680 X2.0341 Y1.3078
N9685 X2.0338 Y1.307
N9690 X2.0321 Y1.3043
N9695 X2.0314 Y1.3033
N9700 X2.0294 Y1.3011
N9705 X2.028 Y1.2999
N9710 X2.0254 Y1.2981
N9715 X2.0247 Y1.2976
N9720 X2.0224 Y1.2965
N9725 X2.0215 Y1.2961
N9730 X2.0185 Y1.2953
N9735 X2.0175 Y1.2951
N9740 X2.0155 Y1.2949
N9745 X2.0135 Y1.2948
N9750 X1.9502
N9755 X1.9492 Y1.2949
N9760 X1.9482 Y1.2951
N9765 X1.9473 Y1.2954
N9770 X1.9464 Y1.2959
N9775 X1.9457 Y1.2964
N9780 X1.9449 Y1.297
N9785 X1.9442 Y1.2979
N9790 X1.9438 Y1.2984
N9795 X1.9435 Y1.2989
N9800 X1.9431 Y1.2999
N9805 X1.9428 Y1.3009
N9810 X1.9426 Y1.3018
N9815 Y1.3028
N9820 X1.9425 Y1.3735
N9825 X1.9424 Y1.3736
N9830 X1.8814
N9835 Y1.3735
N9840 Y1.1989
N9845 Y1.1551
N9850 X1.8815
N9855 X1.9425
N9860 X1.9426
N9865 Y1.2261
N9870 X1.9427 Y1.2271
N9875 X1.9429 Y1.2281
N9880 X1.9433 Y1.2291
N9885 X1.9435 Y1.2296
N9890 X1.9438 Y1.2301
N9895 X1.9444 Y1.2309
N9900 X1.9452 Y1.2317
N9905 X1.9457 Y1.2321
N9910 X1.9464 Y1.2325
N9915 X1.9473 Y1.233
N9920 X1.9482 Y1.2333
N9925 X1.9492 Y1.2335
N9930 X1.9502 Y1.2336
N9935 X2.015
N9940 X2.0155
N9945 X2.019 Y1.2331
N9950 X2.0201 Y1.2328
N9955 X2.0229 Y1.2317
N9960 X2.0243 Y1.2311
N9965 X2.0269 Y1.2294
N9970 X2.028 Y1.2286
N9975 X2.0301 Y1.2266
N9980 X2.0311 Y1.2255
N9985 X2.0317 Y1.2246
N9990 X2.033 Y1.2226
N9995 X2.0333 Y1.2221
N10000 X2.0345 Y1.2197
N10005 X2.0349 Y1.2187
N10010 X2.0357 Y1.2157
N10015 X2.0359 Y1.2147
N10020 X2.0362 Y1.2112
N10025 Y1.0687
N10030 X2.0361 Y1.0677
N10035 X2.0359 Y1.0667
N10040 X2.0355 Y1.0657
N10045 X2.0353 Y1.0652
N10050 X2.035 Y1.0647
N10055 X2.0344 Y1.0639
N10060 X2.0337 Y1.0632
N10065 X2.0329 Y1.0625
N10070 X2.0324 Y1.0622
N10075 X2.0319 Y1.0619
N10080 X2.0309 Y1.0615
N10085 X2.0299 Y1.0613
N10090 X2.0289 Y1.0612
N10095 X1.9995
N10100 G3 X1.999 Y1.0611 Z-0.4199 J-0.0016
N10105 X1.9986 Y1.0609 Z-0.4197 I0.0005 J-0.0015
N10110 G1 X1.9984 Y1.0607 Z-0.4194
N10115 X1.9982 Y1.0605 Z-0.4189
N10120 Y1.0604 Z-0.4184
N10125 G0 Z0.2
N10130 X1.9966 Y1.0466
N10135 Z-0.3534
N10140 G1 Z-0.3806 F40
N10145 Z-0.4184
N10150 Y1.0464 Z-0.4192
N10155 Y1.0458 Z-0.4198
N10160 Y1.0451 Z-0.42
N10165 Y1.031
N10170 G3 X1.9982 Y1.0294 I0.0016
N10175 G1 X2.0553
N10180 X2.0634
N10185 G3 X2.0681 Y1.0341 J0.0046
N10190 G1 Y1.4944
N10195 G3 X2.0635 Y1.499 I-0.0046
N10200 G1 X1.6031
N10205 G3 X1.5985 Y1.4944 J-0.0046
N10210 G1 Y1.034
N10215 G3 X1.6031 Y1.0294 I0.0046
N10220 G1 X1.9982
N10225 G2 X2.0026 Y1.0265 J-0.0048
N10230 G3 X2.007 Y1.0236 I0.0044 J0.0018
N10235 G1 X2.0692
N10240 G3 X2.0739 Y1.0283 J0.0047
N10245 G1 X2.074 Y1.5002
N10250 G3 X2.0693 Y1.5049 I-0.0047
N10255 G1 X1.5974 Y1.5048
N10260 G3 X1.5926 Y1.5001 J-0.0047
N10265 G1 Y1.0283
N10270 G3 X1.5974 Y1.0235 I0.0047
N10275 G1 X2.007 Y1.0236
N10280 G2 X2.0156 Y1.0178 J-0.0093
N10285 G3 X2.0242 Y1.0121 I0.0086 J0.0036
N10290 G1 X2.0807
N10295 G3 X2.0854 Y1.0168 J0.0047
N10300 G1 X2.0855 Y1.5117
N10305 G3 X2.0808 Y1.5164 I-0.0047
N10310 G1 X1.5859 Y1.5163
N10315 G3 X1.5811 Y1.5116 J-0.0047
N10320 G1 Y1.0168
N10325 G3 X1.5859 Y1.012 I0.0047
N10330 G1 X2.0242 Y1.0121
N10335 G2 X2.0329 Y1.0063 J-0.0094
N10340 G3 X2.0416 Y1.0005 I0.0087 J0.0036
N10345 G1 X2.0969
N10350 X2.097 Y1.0006
N10355 X2.0971 Y1.5279
N10360 X2.097 Y1.528
N10365 X1.5696 Y1.5279
N10370 Y1.5278
N10375 Y1.0006
N10380 Y1.0005
N10385 X1.5697
N10390 X2.0416
N10395 G3 X2.0421 Y1.0006 Z-0.4199 J0.0016
N10400 X2.0425 Y1.0008 Z-0.4197 I-0.0005 J0.0015
N10405 G1 X2.0427 Y1.001 Z-0.4194
N10410 X2.0429 Y1.0012 Z-0.4189
N10415 Z-0.4184
N10420 G0 Z0.6

(Horizontal2 3)
N10425 M9
N10430 X1.4662 Y1.6385
N10435 Z0.6
N10440 Z-0.3506
N10445 G1 Z-0.3771 F40
N10450 X1.4663 Y1.6384 Z-0.3779
N10455 X1.4667 Y1.638 Z-0.3784
N10460 X1.4672 Y1.6374 Z-0.3787
N10465 X1.4829 Y1.6218 Z-0.3794
N10470 X1.4832 Y1.6214 Z-0.3795
N10475 X1.4838 Y1.6204
N10480 X1.4842 Y1.6197
N10485 X1.4845 Y1.6189 Z-0.3796
N10490 X1.4847 Y1.6179
N10495 X1.4848 Y1.6169
N10500 Y1.6159 Z-0.3797
N10505 X1.4847 Y1.6149
N10510 X1.4844 Y1.6139
N10515 X1.4839 Y1.6129 Z-0.3798
N10520 X1.4836 Y1.6124
N10525 X1.4833 Y1.6119
N10530 X1.4826 Y1.6111
N10535 X1.4604 Y1.5889 Z-0.3809
N10540 X1.4603 Y1.5887
N10545 X1.4604 Y1.5886 Z-0.381
N10550 X1.4605 Y1.5884
N10555 X1.4617 Y1.5873
N10560 X1.4619 Y1.5871
N10565 X1.4622 Y1.5874
N10570 X1.5206 Y1.6458 Z-0.3839
N10575 X1.5208 Y1.646
N10580 X1.5206 Y1.6463
N10585 X1.5194 Y1.6475 Z-0.384
N10590 X1.5192 Y1.6476
N10595 X1.519 Y1.6475
N10600 X1.4968 Y1.6253 Z-0.3851
N10605 X1.4962 Y1.6248 Z-0.3852
N10610 X1.4955 Y1.6244
N10615 X1.4945 Y1.6239
N10620 X1.4935 Y1.6235 Z-0.3853
N10625 X1.4928 Y1.6233
N10630 X1.4922
N10635 X1.4912 Y1.6232
N10640 X1.4902 Y1.6233 Z-0.3854
N10645 X1.4896 Y1.6235
N10650 X1.4886 Y1.6238
N10655 X1.4876 Y1.6243 Z-0.3855
N10660 X1.4869 Y1.6247
N10665 X1.486 Y1.6255
N10670 X1.4234 Y1.6881 Z-0.3886
N10675 X1.4231 Y1.6883
N10680 X1.4227 Y1.688 Z-0.3887
N10685 X1.4199 Y1.6852 Z-0.3888
N10690 X1.4198 Y1.685
N10695 X1.42 Y1.6847
N10700 X1.4201 Y1.6845
N10705 X1.4829 Y1.6218 Z-0.3919
N10710 X1.4832 Y1.6214
N10715 X1.4838 Y1.6204 Z-0.392
N10720 X1.4842 Y1.6197
N10725 X1.4845 Y1.6189
N10730 X1.4847 Y1.6179 Z-0.3921
N10735 X1.4848 Y1.6169
N10740 Y1.6159
N10745 X1.4847 Y1.6149 Z-0.3922
N10750 X1.4844 Y1.6139
N10755 X1.4839 Y1.6129 Z-0.3923
N10760 X1.4836 Y1.6124
N10765 X1.4833 Y1.6119
N10770 X1.4826 Y1.6111
N10775 X1.4604 Y1.5889 Z-0.3934
N10780 X1.4603 Y1.5887
N10785 X1.4604 Y1.5886
N10790 X1.4605 Y1.5884 Z-0.3935
N10795 X1.4617 Y1.5873
N10800 X1.4619 Y1.5871
N10805 X1.4622 Y1.5874
N10810 X1.5206 Y1.6458 Z-0.3964
N10815 X1.5208 Y1.646
N10820 X1.5206 Y1.6463
N10825 X1.5194 Y1.6475 Z-0.3965
N10830 X1.5192 Y1.6476
N10835 X1.519 Y1.6475
N10840 X1.4968 Y1.6253 Z-0.3976
N10845 X1.4962 Y1.6248
N10850 X1.4955 Y1.6244 Z-0.3977
N10855 X1.4945 Y1.6239
N10860 X1.4935 Y1.6235
N10865 X1.4928 Y1.6233 Z-0.3978
N10870 X1.4922
N10875 X1.4912 Y1.6232
N10880 X1.4902 Y1.6233 Z-0.3979
N10885 X1.4896 Y1.6235
N10890 X1.4886 Y1.6238
N10895 X1.4876 Y1.6243 Z-0.398
N10900 X1.4869 Y1.6247
N10905 X1.486 Y1.6255
N10910 X1.4234 Y1.6881 Z-0.4011
N10915 X1.4231 Y1.6883
N10920 X1.4227 Y1.688
N10925 X1.4199 Y1.6852 Z-0.4013
N10930 X1.4198 Y1.685
N10935 X1.42 Y1.6847
N10940 X1.4201 Y1.6845
N10945 X1.4829 Y1.6218 Z-0.4044
N10950 X1.4832 Y1.6214
N10955 X1.4838 Y1.6204 Z-0.4045
N10960 X1.4842 Y1.6197
N10965 X1.4845 Y1.6189
N10970 X1.4847 Y1.6179 Z-0.4046
N10975 X1.4848 Y1.6169
N10980 Y1.6159
N10985 X1.4847 Y1.6149 Z-0.4047
N10990 X1.4844 Y1.6139
N10995 X1.4839 Y1.6129
N11000 X1.4836 Y1.6124 Z-0.4048
N11005 X1.4833 Y1.6119
N11010 X1.4826 Y1.6111
N11015 X1.4604 Y1.5889 Z-0.4059
N11020 X1.4603 Y1.5887
N11025 X1.4604 Y1.5886
N11030 X1.4605 Y1.5884
N11035 X1.4617 Y1.5873 Z-0.406
N11040 X1.4619 Y1.5871
N11045 X1.4622 Y1.5874
N11050 X1.5206 Y1.6458 Z-0.4089
N11055 X1.5208 Y1.646
N11060 X1.5206 Y1.6463
N11065 X1.5194 Y1.6475 Z-0.409
N11070 X1.5192 Y1.6476
N11075 X1.519 Y1.6475
N11080 X1.4968 Y1.6253 Z-0.4101
N11085 X1.4962 Y1.6248
N11090 X1.4955 Y1.6244 Z-0.4102
N11095 X1.4945 Y1.6239
N11100 X1.4935 Y1.6235
N11105 X1.4928 Y1.6233 Z-0.4103
N11110 X1.4922
N11115 X1.4912 Y1.6232
N11120 X1.4902 Y1.6233
N11125 X1.4896 Y1.6235 Z-0.4104
N11130 X1.4886 Y1.6238
N11135 X1.4876 Y1.6243
N11140 X1.4869 Y1.6247 Z-0.4105
N11145 X1.486 Y1.6255
N11150 X1.4234 Y1.6881 Z-0.4136
N11155 X1.4231 Y1.6883
N11160 X1.4227 Y1.688
N11165 X1.4199 Y1.6852 Z-0.4138
N11170 X1.4198 Y1.685
N11175 X1.42 Y1.6847
N11180 X1.4201 Y1.6845
N11185 X1.4829 Y1.6218 Z-0.4169
N11190 X1.4832 Y1.6214
N11195 X1.4838 Y1.6204 Z-0.417
N11200 X1.4842 Y1.6197
N11205 X1.4845 Y1.6189
N11210 X1.4847 Y1.6179
N11215 X1.4848 Y1.6169 Z-0.4171
N11220 Y1.6159
N11225 X1.4847 Y1.6149 Z-0.4172
N11230 X1.4844 Y1.6139
N11235 X1.4839 Y1.6129
N11240 X1.4836 Y1.6124
N11245 X1.4833 Y1.6119 Z-0.4173
N11250 X1.4826 Y1.6111
N11255 X1.4604 Y1.5889 Z-0.4184
N11260 X1.4603 Y1.5887
N11265 X1.4604 Y1.5886
N11270 X1.4605 Y1.5884
N11275 X1.4617 Y1.5873 Z-0.4185
N11280 X1.4619 Y1.5871
N11285 X1.4622 Y1.5874
N11290 X1.4925 Y1.6176 Z-0.42
N11295 X1.5206 Y1.6458
N11300 X1.5208 Y1.646
N11305 X1.5206 Y1.6463
N11310 X1.5194 Y1.6475
N11315 X1.5192 Y1.6476
N11320 X1.519 Y1.6475
N11325 X1.4968 Y1.6253
N11330 X1.4962 Y1.6248
N11335 X1.4955 Y1.6244
N11340 X1.4945 Y1.6239
N11345 X1.4935 Y1.6235
N11350 X1.4928 Y1.6233
N11355 X1.4922
N11360 X1.4912 Y1.6232
N11365 X1.4902 Y1.6233
N11370 X1.4896 Y1.6235
N11375 X1.4886 Y1.6238
N11380 X1.4876 Y1.6243
N11385 X1.4869 Y1.6247
N11390 X1.486 Y1.6255
N11395 X1.4234 Y1.6881
N11400 X1.4231 Y1.6883
N11405 X1.4227 Y1.688
N11410 X1.4199 Y1.6852
N11415 X1.4198 Y1.685
N11420 X1.42 Y1.6847
N11425 X1.4201 Y1.6845
N11430 X1.4829 Y1.6218
N11435 X1.4832 Y1.6214
N11440 X1.4838 Y1.6204
N11445 X1.4842 Y1.6197
N11450 X1.4845 Y1.6189
N11455 X1.4847 Y1.6179
N11460 X1.4848 Y1.6169
N11465 Y1.6159
N11470 X1.4847 Y1.6149
N11475 X1.4844 Y1.6139
N11480 X1.4839 Y1.6129
N11485 X1.4836 Y1.6124
N11490 X1.4833 Y1.6119
N11495 X1.4826 Y1.6111
N11500 X1.4604 Y1.5889
N11505 X1.4603 Y1.5887
N11510 X1.4604 Y1.5886
N11515 X1.4605 Y1.5884
N11520 X1.4617 Y1.5873
N11525 X1.4619 Y1.5871
N11530 X1.4622 Y1.5874
N11535 X1.4925 Y1.6176
N11540 G3 X1.4928 Y1.618 Z-0.4199 I-0.0011 J0.0011
N11545 X1.4929 Y1.6184 Z-0.4197 I-0.0014 J0.0007
N11550 G1 X1.493 Y1.6188 Z-0.4194
N11555 X1.4929 Y1.619 Z-0.4189
N11560 Y1.6191 Z-0.4184
N11565 G0 Z0.2
N11570 X1.4126 Y1.5964
N11575 Z-0.3506
N11580 G1 Z-0.3771 F40
N11585 X1.4127 Y1.5962 Z-0.3779
N11590 X1.413 Y1.5958 Z-0.3784
N11595 X1.4135 Y1.5952 Z-0.3787
N11600 X1.4142 Y1.5943
N11605 X1.4162 Y1.5915 Z-0.3788
N11610 X1.4174 Y1.5896 Z-0.3789
N11615 X1.4186 Y1.5876 Z-0.379
N11620 X1.4196 Y1.5856 Z-0.3791
N11625 X1.4206 Y1.5837
N11630 X1.4214 Y1.5817 Z-0.3792
N11635 X1.4222 Y1.5797 Z-0.3793
N11640 X1.4228 Y1.5777 Z-0.3794
N11645 X1.4234 Y1.5757
N11650 X1.4238 Y1.5737 Z-0.3795
N11655 X1.4241 Y1.572 Z-0.3796
N11660 X1.4244 Y1.5693 Z-0.3797
N11665 X1.4245 Y1.5658 Z-0.3798
N11670 Y1.5638
N11675 X1.4243 Y1.5618 Z-0.3799
N11680 X1.424 Y1.5599 Z-0.38
N11685 X1.4236 Y1.5579 Z-0.3801
N11690 X1.4231 Y1.5559
N11695 X1.4221 Y1.5531 Z-0.3802
N11700 X1.4217 Y1.5519 Z-0.3803
N11705 X1.4201 Y1.5486 Z-0.3804
N11710 X1.4198 Y1.548
N11715 X1.4182 Y1.5452 Z-0.3805
N11720 X1.4174 Y1.544 Z-0.3806
N11725 X1.4159 Y1.542 Z-0.3807
N11730 X1.4142 Y1.5399 Z-0.3808
N11735 X1.4122 Y1.5377 Z-0.3809
N11740 X1.4102 Y1.5357 Z-0.381
N11745 X1.4082 Y1.5339 Z-0.3811
N11750 X1.4061 Y1.5321 Z-0.3812
N11755 X1.4043 Y1.5307
N11760 X1.4023 Y1.5294 Z-0.3813
N11765 X1.4001 Y1.5281 Z-0.3814
N11770 X1.3992 Y1.5276 Z-0.3815
N11775 X1.396 Y1.5261 Z-0.3816
N11780 X1.3924 Y1.5248 Z-0.3817
N11785 X1.3898 Y1.5242 Z-0.3818
N11790 X1.3884 Y1.5238 Z-0.3819
N11795 X1.3864 Y1.5235
N11800 X1.3844 Y1.5233 Z-0.382
N11805 X1.3825 Y1.5232 Z-0.3821
N11810 X1.3805
N11815 X1.3785 Y1.5233 Z-0.3822
N11820 X1.3765 Y1.5235 Z-0.3823
N11825 X1.3745 Y1.5238
N11830 X1.3725 Y1.5242 Z-0.3824
N11835 X1.3706 Y1.5247 Z-0.3825
N11840 X1.3686 Y1.5253 Z-0.3826
N11845 X1.3664 Y1.5261
N11850 X1.3646 Y1.5269 Z-0.3827
N11855 X1.362 Y1.5281 Z-0.3828
N11860 X1.3606 Y1.5289 Z-0.3829
N11865 X1.3585 Y1.5301
N11870 X1.3567 Y1.5312 Z-0.383
N11875 X1.3547 Y1.5326 Z-0.3831
N11880 X1.3527 Y1.5341 Z-0.3832
N11885 X1.3503 Y1.5361 Z-0.3833
N11890 X1.3487 Y1.5374 Z-0.3834
N11895 X1.3459 Y1.54 Z-0.3835
N11900 X1.3448 Y1.5411 Z-0.3836
N11905 X1.3421 Y1.544 Z-0.3837
N11910 X1.3404 Y1.546 Z-0.3838
N11915 X1.3388 Y1.548 Z-0.3839
N11920 X1.3373 Y1.5499 Z-0.384
N11925 X1.336 Y1.5519 Z-0.3841
N11930 X1.3347 Y1.5539
N11935 X1.3336 Y1.5559 Z-0.3842
N11940 X1.3326 Y1.5579 Z-0.3843
N11945 X1.3316 Y1.5599 Z-0.3844
N11950 X1.3308 Y1.5618
N11955 X1.3301 Y1.5638 Z-0.3845
N11960 X1.3295 Y1.5658 Z-0.3846
N11965 X1.3289 Y1.5683 Z-0.3847
N11970 X1.3286 Y1.5698
N11975 X1.3283 Y1.5718 Z-0.3848
N11980 X1.3281 Y1.5737 Z-0.3849
N11985 Y1.5757
N11990 Y1.5777 Z-0.385
N11995 X1.3282 Y1.5797 Z-0.3851
N12000 X1.3284 Y1.5817
N12005 X1.3289 Y1.5844 Z-0.3852
N12010 X1.3298 Y1.5876 Z-0.3854
N12015 X1.3311 Y1.5911 Z-0.3855
N12020 X1.3322 Y1.5936 Z-0.3856
N12025 X1.3329 Y1.5948
N12030 X1.3345 Y1.5976 Z-0.3857
N12035 X1.3358 Y1.5995 Z-0.3858
N12040 X1.3374 Y1.6015 Z-0.3859
N12045 X1.339 Y1.6035 Z-0.386
N12050 X1.3409 Y1.6055 Z-0.3861
N12055 X1.3429 Y1.6075 Z-0.3862
N12060 X1.3451 Y1.6095 Z-0.3863
N12065 X1.3476 Y1.6114 Z-0.3864
N12070 X1.3487 Y1.6123 Z-0.3865
N12075 X1.3507 Y1.6136
N12080 X1.3527 Y1.6148 Z-0.3866
N12085 X1.354 Y1.6154 Z-0.3867
N12090 X1.3567 Y1.6167 Z-0.3868
N12095 X1.3587 Y1.6174 Z-0.3869
N12100 X1.3606 Y1.6181
N12105 X1.3626 Y1.6186 Z-0.387
N12110 X1.3646 Y1.6191 Z-0.3871
N12115 X1.3666 Y1.6194
N12120 X1.3686 Y1.6196 Z-0.3872
N12125 X1.3706 Y1.6197 Z-0.3873
N12130 X1.374 Y1.6196 Z-0.3874
N12135 X1.3775 Y1.6192 Z-0.3875
N12140 X1.3785 Y1.619 Z-0.3876
N12145 X1.3805 Y1.6186
N12150 X1.3825 Y1.6181 Z-0.3877
N12155 X1.3846 Y1.6174 Z-0.3878
N12160 X1.3864 Y1.6167
N12165 X1.3884 Y1.6159 Z-0.3879
N12170 X1.3904 Y1.6149 Z-0.388
N12175 X1.3931 Y1.6134 Z-0.3881
N12180 X1.3944 Y1.6127 Z-0.3882
N12185 X1.3963 Y1.6114
N12190 X1.3991 Y1.6095 Z-0.3884
N12195 X1.4016 Y1.6075 Z-0.3885
N12200 X1.4043 Y1.6052 Z-0.3886
N12205 X1.4063 Y1.6033 Z-0.3887
N12210 X1.4082 Y1.6013 Z-0.3888
N12215 X1.4102 Y1.5992 Z-0.3889
N12220 X1.4122 Y1.5968 Z-0.389
N12225 X1.4142 Y1.5943 Z-0.3891
N12230 X1.4162 Y1.5915 Z-0.3892
N12235 X1.4174 Y1.5896 Z-0.3893
N12240 X1.4186 Y1.5876 Z-0.3894
N12245 X1.4196 Y1.5856 Z-0.3895
N12250 X1.4206 Y1.5837
N12255 X1.4214 Y1.5817 Z-0.3896
N12260 X1.4222 Y1.5797 Z-0.3897
N12265 X1.4228 Y1.5777 Z-0.3898
N12270 X1.4234 Y1.5757
N12275 X1.4238 Y1.5737 Z-0.3899
N12280 X1.4241 Y1.572 Z-0.39
N12285 X1.4244 Y1.5693 Z-0.3901
N12290 X1.4245 Y1.5658 Z-0.3902
N12295 Y1.5638 Z-0.3903
N12300 X1.4243 Y1.5618
N12305 X1.424 Y1.5599 Z-0.3904
N12310 X1.4236 Y1.5579 Z-0.3905
N12315 X1.4231 Y1.5559
N12320 X1.4221 Y1.5531 Z-0.3906
N12325 X1.4217 Y1.5519 Z-0.3907
N12330 X1.4201 Y1.5486 Z-0.3908
N12335 X1.4198 Y1.548
N12340 X1.4182 Y1.5452 Z-0.3909
N12345 X1.4174 Y1.544 Z-0.391
N12350 X1.4159 Y1.542 Z-0.3911
N12355 X1.4142 Y1.5399 Z-0.3912
N12360 X1.4122 Y1.5377 Z-0.3913
N12365 X1.4102 Y1.5357 Z-0.3914
N12370 X1.4082 Y1.5339 Z-0.3915
N12375 X1.4061 Y1.5321 Z-0.3916
N12380 X1.4043 Y1.5307 Z-0.3917
N12385 X1.4023 Y1.5294
N12390 X1.4001 Y1.5281 Z-0.3918
N12395 X1.3992 Y1.5276 Z-0.3919
N12400 X1.396 Y1.5261 Z-0.392
N12405 X1.3924 Y1.5248 Z-0.3921
N12410 X1.3898 Y1.5242 Z-0.3922
N12415 X1.3884 Y1.5238 Z-0.3923
N12420 X1.3864 Y1.5235
N12425 X1.3844 Y1.5233 Z-0.3924
N12430 X1.3825 Y1.5232 Z-0.3925
N12435 X1.3805
N12440 X1.3785 Y1.5233 Z-0.3926
N12445 X1.3765 Y1.5235 Z-0.3927
N12450 X1.3745 Y1.5238
N12455 X1.3725 Y1.5242 Z-0.3928
N12460 X1.3706 Y1.5247 Z-0.3929
N12465 X1.3686 Y1.5253 Z-0.393
N12470 X1.3664 Y1.5261
N12475 X1.3646 Y1.5269 Z-0.3931
N12480 X1.362 Y1.5281 Z-0.3932
N12485 X1.3606 Y1.5289 Z-0.3933
N12490 X1.3585 Y1.5301 Z-0.3934
N12495 X1.3567 Y1.5312
N12500 X1.3547 Y1.5326 Z-0.3935
N12505 X1.3527 Y1.5341 Z-0.3936
N12510 X1.3503 Y1.5361 Z-0.3937
N12515 X1.3487 Y1.5374 Z-0.3938
N12520 X1.3459 Y1.54 Z-0.3939
N12525 X1.3448 Y1.5411 Z-0.394
N12530 X1.3421 Y1.544 Z-0.3941
N12535 X1.3404 Y1.546 Z-0.3942
N12540 X1.3388 Y1.548 Z-0.3943
N12545 X1.3373 Y1.5499 Z-0.3944
N12550 X1.336 Y1.5519 Z-0.3945
N12555 X1.3347 Y1.5539
N12560 X1.3336 Y1.5559 Z-0.3946
N12565 X1.3326 Y1.5579 Z-0.3947
N12570 X1.3316 Y1.5599 Z-0.3948
N12575 X1.3308 Y1.5618
N12580 X1.3301 Y1.5638 Z-0.3949
N12585 X1.3295 Y1.5658 Z-0.395
N12590 X1.3289 Y1.5683 Z-0.3951
N12595 X1.3286 Y1.5698
N12600 X1.3283 Y1.5718 Z-0.3952
N12605 X1.3281 Y1.5737 Z-0.3953
N12610 Y1.5757
N12615 Y1.5777 Z-0.3954
N12620 X1.3282 Y1.5797 Z-0.3955
N12625 X1.3284 Y1.5817 Z-0.3956
N12630 X1.3289 Y1.5844
N12635 X1.3298 Y1.5876 Z-0.3958
N12640 X1.3311 Y1.5911 Z-0.3959
N12645 X1.3322 Y1.5936 Z-0.396
N12650 X1.3329 Y1.5948
N12655 X1.3345 Y1.5976 Z-0.3962
N12660 X1.3358 Y1.5995
N12665 X1.3374 Y1.6015 Z-0.3963
N12670 X1.339 Y1.6035 Z-0.3964
N12675 X1.3409 Y1.6055 Z-0.3965
N12680 X1.3429 Y1.6075 Z-0.3966
N12685 X1.3451 Y1.6095 Z-0.3967
N12690 X1.3476 Y1.6114 Z-0.3968
N12695 X1.3487 Y1.6123 Z-0.3969
N12700 X1.3507 Y1.6136 Z-0.397
N12705 X1.3527 Y1.6148
N12710 X1.354 Y1.6154 Z-0.3971
N12715 X1.3567 Y1.6167 Z-0.3972
N12720 X1.3587 Y1.6174 Z-0.3973
N12725 X1.3606 Y1.6181
N12730 X1.3626 Y1.6186 Z-0.3974
N12735 X1.3646 Y1.6191 Z-0.3975
N12740 X1.3666 Y1.6194
N12745 X1.3686 Y1.6196 Z-0.3976
N12750 X1.3706 Y1.6197 Z-0.3977
N12755 X1.374 Y1.6196 Z-0.3978
N12760 X1.3775 Y1.6192 Z-0.3979
N12765 X1.3785 Y1.619 Z-0.398
N12770 X1.3805 Y1.6186
N12775 X1.3825 Y1.6181 Z-0.3981
N12780 X1.3846 Y1.6174 Z-0.3982
N12785 X1.3864 Y1.6167 Z-0.3983
N12790 X1.3884 Y1.6159
N12795 X1.3904 Y1.6149 Z-0.3984
N12800 X1.3931 Y1.6134 Z-0.3985
N12805 X1.3944 Y1.6127 Z-0.3986
N12810 X1.3963 Y1.6114
N12815 X1.3991 Y1.6095 Z-0.3988
N12820 X1.4016 Y1.6075 Z-0.3989
N12825 X1.4043 Y1.6052 Z-0.399
N12830 X1.4063 Y1.6033 Z-0.3991
N12835 X1.4082 Y1.6013 Z-0.3992
N12840 X1.4102 Y1.5992 Z-0.3993
N12845 X1.4122 Y1.5968 Z-0.3994
N12850 X1.4142 Y1.5943 Z-0.3995
N12855 X1.4162 Y1.5915 Z-0.3996
N12860 X1.4174 Y1.5896 Z-0.3997
N12865 X1.4186 Y1.5876 Z-0.3998
N12870 X1.4196 Y1.5856 Z-0.3999
N12875 X1.4206 Y1.5837 Z-0.4
N12880 X1.4214 Y1.5817
N12885 X1.4222 Y1.5797 Z-0.4001
N12890 X1.4228 Y1.5777 Z-0.4002
N12895 X1.4234 Y1.5757
N12900 X1.4238 Y1.5737 Z-0.4003
N12905 X1.4241 Y1.572 Z-0.4004
N12910 X1.4244 Y1.5693 Z-0.4005
N12915 X1.4245 Y1.5658 Z-0.4006
N12920 Y1.5638 Z-0.4007
N12925 X1.4243 Y1.5618
N12930 X1.424 Y1.5599 Z-0.4008
N12935 X1.4236 Y1.5579 Z-0.4009
N12940 X1.4231 Y1.5559
N12945 X1.4221 Y1.5531 Z-0.401
N12950 X1.4217 Y1.5519 Z-0.4011
N12955 X1.4201 Y1.5486 Z-0.4012
N12960 X1.4198 Y1.548
N12965 X1.4182 Y1.5452 Z-0.4014
N12970 X1.4174 Y1.544
N12975 X1.4159 Y1.542 Z-0.4015
N12980 X1.4142 Y1.5399 Z-0.4016
N12985 X1.4122 Y1.5377 Z-0.4017
N12990 X1.4102 Y1.5357 Z-0.4018
N12995 X1.4082 Y1.5339 Z-0.4019
N13000 X1.4061 Y1.5321 Z-0.402
N13005 X1.4043 Y1.5307 Z-0.4021
N13010 X1.4023 Y1.5294
N13015 X1.4001 Y1.5281 Z-0.4022
N13020 X1.3992 Y1.5276 Z-0.4023
N13025 X1.396 Y1.5261 Z-0.4024
N13030 X1.3924 Y1.5248 Z-0.4025
N13035 X1.3898 Y1.5242 Z-0.4026
N13040 X1.3884 Y1.5238 Z-0.4027
N13045 X1.3864 Y1.5235
N13050 X1.3844 Y1.5233 Z-0.4028
N13055 X1.3825 Y1.5232 Z-0.4029
N13060 X1.3805
N13065 X1.3785 Y1.5233 Z-0.403
N13070 X1.3765 Y1.5235 Z-0.4031
N13075 X1.3745 Y1.5238 Z-0.4032
N13080 X1.3725 Y1.5242
N13085 X1.3706 Y1.5247 Z-0.4033
N13090 X1.3686 Y1.5253 Z-0.4034
N13095 X1.3664 Y1.5261 Z-0.4035
N13100 X1.3646 Y1.5269
N13105 X1.362 Y1.5281 Z-0.4036
N13110 X1.3606 Y1.5289 Z-0.4037
N13115 X1.3585 Y1.5301 Z-0.4038
N13120 X1.3567 Y1.5312
N13125 X1.3547 Y1.5326 Z-0.4039
N13130 X1.3527 Y1.5341 Z-0.404
N13135 X1.3503 Y1.5361 Z-0.4041
N13140 X1.3487 Y1.5374 Z-0.4042
N13145 X1.3459 Y1.54 Z-0.4043
N13150 X1.3448 Y1.5411 Z-0.4044
N13155 X1.3421 Y1.544 Z-0.4045
N13160 X1.3404 Y1.546 Z-0.4046
N13165 X1.3388 Y1.548 Z-0.4047
N13170 X1.3373 Y1.5499 Z-0.4048
N13175 X1.336 Y1.5519 Z-0.4049
N13180 X1.3347 Y1.5539
N13185 X1.3336 Y1.5559 Z-0.405
N13190 X1.3326 Y1.5579 Z-0.4051
N13195 X1.3316 Y1.5599 Z-0.4052
N13200 X1.3308 Y1.5618 Z-0.4053
N13205 X1.3301 Y1.5638
N13210 X1.3295 Y1.5658 Z-0.4054
N13215 X1.3289 Y1.5683 Z-0.4055
N13220 X1.3286 Y1.5698
N13225 X1.3283 Y1.5718 Z-0.4056
N13230 X1.3281 Y1.5737 Z-0.4057
N13235 Y1.5757 Z-0.4058
N13240 Y1.5777
N13245 X1.3282 Y1.5797 Z-0.4059
N13250 X1.3284 Y1.5817 Z-0.406
N13255 X1.3289 Y1.5844 Z-0.4061
N13260 X1.3298 Y1.5876 Z-0.4062
N13265 X1.3311 Y1.5911 Z-0.4063
N13270 X1.3322 Y1.5936 Z-0.4064
N13275 X1.3329 Y1.5948
N13280 X1.3345 Y1.5976 Z-0.4066
N13285 X1.3358 Y1.5995
N13290 X1.3374 Y1.6015 Z-0.4067
N13295 X1.339 Y1.6035 Z-0.4068
N13300 X1.3409 Y1.6055 Z-0.4069
N13305 X1.3429 Y1.6075 Z-0.407
N13310 X1.3451 Y1.6095 Z-0.4071
N13315 X1.3476 Y1.6114 Z-0.4072
N13320 X1.3487 Y1.6123 Z-0.4073
N13325 X1.3507 Y1.6136 Z-0.4074
N13330 X1.3527 Y1.6148
N13335 X1.354 Y1.6154 Z-0.4075
N13340 X1.3567 Y1.6167 Z-0.4076
N13345 X1.3587 Y1.6174 Z-0.4077
N13350 X1.3606 Y1.6181
N13355 X1.3626 Y1.6186 Z-0.4078
N13360 X1.3646 Y1.6191 Z-0.4079
N13365 X1.3666 Y1.6194 Z-0.408
N13370 X1.3686 Y1.6196
N13375 X1.3706 Y1.6197 Z-0.4081
N13380 X1.374 Y1.6196 Z-0.4082
N13385 X1.3775 Y1.6192 Z-0.4083
N13390 X1.3785 Y1.619 Z-0.4084
N13395 X1.3805 Y1.6186
N13400 X1.3825 Y1.6181 Z-0.4085
N13405 X1.3846 Y1.6174 Z-0.4086
N13410 X1.3864 Y1.6167 Z-0.4087
N13415 X1.3884 Y1.6159
N13420 X1.3904 Y1.6149 Z-0.4088
N13425 X1.3931 Y1.6134 Z-0.4089
N13430 X1.3944 Y1.6127 Z-0.409
N13435 X1.3963 Y1.6114 Z-0.4091
N13440 X1.3991 Y1.6095 Z-0.4092
N13445 X1.4016 Y1.6075 Z-0.4093
N13450 X1.4043 Y1.6052 Z-0.4094
N13455 X1.4063 Y1.6033 Z-0.4095
N13460 X1.4082 Y1.6013 Z-0.4096
N13465 X1.4102 Y1.5992 Z-0.4097
N13470 X1.4122 Y1.5968 Z-0.4098
N13475 X1.4142 Y1.5943 Z-0.4099
N13480 X1.4162 Y1.5915 Z-0.41
N13485 X1.4174 Y1.5896 Z-0.4101
N13490 X1.4186 Y1.5876 Z-0.4102
N13495 X1.4196 Y1.5856 Z-0.4103
N13500 X1.4206 Y1.5837 Z-0.4104
N13505 X1.4214 Y1.5817
N13510 X1.4222 Y1.5797 Z-0.4105
N13515 X1.4228 Y1.5777 Z-0.4106
N13520 X1.4234 Y1.5757 Z-0.4107
N13525 X1.4238 Y1.5737
N13530 X1.4241 Y1.572 Z-0.4108
N13535 X1.4244 Y1.5693 Z-0.4109
N13540 X1.4245 Y1.5658 Z-0.411
N13545 Y1.5638 Z-0.4111
N13550 X1.4243 Y1.5618
N13555 X1.424 Y1.5599 Z-0.4112
N13560 X1.4236 Y1.5579 Z-0.4113
N13565 X1.4231 Y1.5559 Z-0.4114
N13570 X1.4221 Y1.5531 Z-0.4115
N13575 X1.4217 Y1.5519
N13580 X1.4201 Y1.5486 Z-0.4116
N13585 X1.4198 Y1.548 Z-0.4117
N13590 X1.4182 Y1.5452 Z-0.4118
N13595 X1.4174 Y1.544
N13600 X1.4159 Y1.542 Z-0.4119
N13605 X1.4142 Y1.5399 Z-0.412
N13610 X1.4122 Y1.5377 Z-0.4121
N13615 X1.4102 Y1.5357 Z-0.4122
N13620 X1.4082 Y1.5339 Z-0.4123
N13625 X1.4061 Y1.5321 Z-0.4124
N13630 X1.4043 Y1.5307 Z-0.4125
N13635 X1.4023 Y1.5294 Z-0.4126
N13640 X1.4001 Y1.5281
N13645 X1.3992 Y1.5276 Z-0.4127
N13650 X1.396 Y1.5261 Z-0.4128
N13655 X1.3924 Y1.5248 Z-0.4129
N13660 X1.3898 Y1.5242 Z-0.413
N13665 X1.3884 Y1.5238 Z-0.4131
N13670 X1.3864 Y1.5235
N13675 X1.3844 Y1.5233 Z-0.4132
N13680 X1.3825 Y1.5232 Z-0.4133
N13685 X1.3805 Z-0.4134
N13690 X1.3785 Y1.5233
N13695 X1.3765 Y1.5235 Z-0.4135
N13700 X1.3745 Y1.5238 Z-0.4136
N13705 X1.3725 Y1.5242
N13710 X1.3706 Y1.5247 Z-0.4137
N13715 X1.3686 Y1.5253 Z-0.4138
N13720 X1.3664 Y1.5261 Z-0.4139
N13725 X1.3646 Y1.5269
N13730 X1.362 Y1.5281 Z-0.414
N13735 X1.3606 Y1.5289 Z-0.4141
N13740 X1.3585 Y1.5301 Z-0.4142
N13745 X1.3567 Y1.5312
N13750 X1.3547 Y1.5326 Z-0.4143
N13755 X1.3527 Y1.5341 Z-0.4144
N13760 X1.3503 Y1.5361 Z-0.4145
N13765 X1.3487 Y1.5374 Z-0.4146
N13770 X1.3459 Y1.54 Z-0.4147
N13775 X1.3448 Y1.5411 Z-0.4148
N13780 X1.3421 Y1.544 Z-0.4149
N13785 X1.3404 Y1.546 Z-0.415
N13790 X1.3388 Y1.548 Z-0.4151
N13795 X1.3373 Y1.5499 Z-0.4152
N13800 X1.336 Y1.5519 Z-0.4153
N13805 X1.3347 Y1.5539 Z-0.4154
N13810 X1.3336 Y1.5559
N13815 X1.3326 Y1.5579 Z-0.4155
N13820 X1.3316 Y1.5599 Z-0.4156
N13825 X1.3308 Y1.5618 Z-0.4157
N13830 X1.3301 Y1.5638
N13835 X1.3295 Y1.5658 Z-0.4158
N13840 X1.3289 Y1.5683 Z-0.4159
N13845 X1.3286 Y1.5698 Z-0.416
N13850 X1.3283 Y1.5718
N13855 X1.3281 Y1.5737 Z-0.4161
N13860 Y1.5757 Z-0.4162
N13865 Y1.5777
N13870 X1.3282 Y1.5797 Z-0.4163
N13875 X1.3284 Y1.5817 Z-0.4164
N13880 X1.3289 Y1.5844 Z-0.4165
N13885 X1.3298 Y1.5876 Z-0.4166
N13890 X1.3311 Y1.5911 Z-0.4167
N13895 X1.3322 Y1.5936 Z-0.4168
N13900 X1.3329 Y1.5948 Z-0.4169
N13905 X1.3345 Y1.5976 Z-0.417
N13910 X1.3358 Y1.5995 Z-0.4171
N13915 X1.3374 Y1.6015
N13920 X1.339 Y1.6035 Z-0.4172
N13925 X1.3409 Y1.6055 Z-0.4173
N13930 X1.3429 Y1.6075 Z-0.4174
N13935 X1.3451 Y1.6095 Z-0.4175
N13940 X1.3476 Y1.6114 Z-0.4176
N13945 X1.3487 Y1.6123 Z-0.4177
N13950 X1.3507 Y1.6136 Z-0.4178
N13955 X1.3527 Y1.6148 Z-0.4179
N13960 X1.354 Y1.6154
N13965 X1.3567 Y1.6167 Z-0.418
N13970 X1.3587 Y1.6174 Z-0.4181
N13975 X1.3606 Y1.6181 Z-0.4182
N13980 X1.3626 Y1.6186
N13985 X1.3646 Y1.6191 Z-0.4183
N13990 X1.3666 Y1.6194 Z-0.4184
N13995 X1.3686 Y1.6196
N14000 X1.3706 Y1.6197 Z-0.4185
N14005 X1.374 Y1.6196 Z-0.4186
N14010 X1.3775 Y1.6192 Z-0.4187
N14015 X1.3785 Y1.619 Z-0.4188
N14020 X1.3805 Y1.6186 Z-0.4189
N14025 X1.3825 Y1.6181
N14030 X1.3846 Y1.6174 Z-0.419
N14035 X1.3864 Y1.6167 Z-0.4191
N14040 X1.3884 Y1.6159
N14045 X1.3904 Y1.6149 Z-0.4192
N14050 X1.3931 Y1.6134 Z-0.4193
N14055 X1.3944 Y1.6127 Z-0.4194
N14060 X1.3963 Y1.6114 Z-0.4195
N14065 X1.3991 Y1.6095 Z-0.4196
N14070 X1.4016 Y1.6075 Z-0.4197
N14075 X1.4043 Y1.6052 Z-0.4198
N14080 X1.4063 Y1.6033 Z-0.4199
N14085 X1.408 Y1.6015 Z-0.42
N14090 X1.4082 Y1.6013
N14095 X1.4102 Y1.5992
N14100 X1.4122 Y1.5968
N14105 X1.4142 Y1.5943
N14110 X1.4162 Y1.5915
N14115 X1.4174 Y1.5896
N14120 X1.4186 Y1.5876
N14125 X1.4196 Y1.5856
N14130 X1.4206 Y1.5837
N14135 X1.4214 Y1.5817
N14140 X1.4222 Y1.5797
N14145 X1.4228 Y1.5777
N14150 X1.4234 Y1.5757
N14155 X1.4238 Y1.5737
N14160 X1.4241 Y1.572
N14165 X1.4244 Y1.5693
N14170 X1.4245 Y1.5658
N14175 Y1.5638
N14180 X1.4243 Y1.5618
N14185 X1.424 Y1.5599
N14190 X1.4236 Y1.5579
N14195 X1.4231 Y1.5559
N14200 X1.4221 Y1.5531
N14205 X1.4217 Y1.5519
N14210 X1.4201 Y1.5486
N14215 X1.4198 Y1.548
N14220 X1.4182 Y1.5452
N14225 X1.4174 Y1.544
N14230 X1.4159 Y1.542
N14235 X1.4142 Y1.5399
N14240 X1.4122 Y1.5377
N14245 X1.4102 Y1.5357
N14250 X1.4082 Y1.5339
N14255 X1.4061 Y1.5321
N14260 X1.4043 Y1.5307
N14265 X1.4023 Y1.5294
N14270 X1.4001 Y1.5281
N14275 X1.3992 Y1.5276
N14280 X1.396 Y1.5261
N14285 X1.3924 Y1.5248
N14290 X1.3898 Y1.5242
N14295 X1.3884 Y1.5238
N14300 X1.3864 Y1.5235
N14305 X1.3844 Y1.5233
N14310 X1.3825 Y1.5232
N14315 X1.3805
N14320 X1.3785 Y1.5233
N14325 X1.3765 Y1.5235
N14330 X1.3745 Y1.5238
N14335 X1.3725 Y1.5242
N14340 X1.3706 Y1.5247
N14345 X1.3686 Y1.5253
N14350 X1.3664 Y1.5261
N14355 X1.3646 Y1.5269
N14360 X1.362 Y1.5281
N14365 X1.3606 Y1.5289
N14370 X1.3585 Y1.5301
N14375 X1.3567 Y1.5312
N14380 X1.3547 Y1.5326
N14385 X1.3527 Y1.5341
N14390 X1.3503 Y1.5361
N14395 X1.3487 Y1.5374
N14400 X1.3459 Y1.54
N14405 X1.3448 Y1.5411
N14410 X1.3421 Y1.544
N14415 X1.3404 Y1.546
N14420 X1.3388 Y1.548
N14425 X1.3373 Y1.5499
N14430 X1.336 Y1.5519
N14435 X1.3347 Y1.5539
N14440 X1.3336 Y1.5559
N14445 X1.3326 Y1.5579
N14450 X1.3316 Y1.5599
N14455 X1.3308 Y1.5618
N14460 X1.3301 Y1.5638
N14465 X1.3295 Y1.5658
N14470 X1.3289 Y1.5683
N14475 X1.3286 Y1.5698
N14480 X1.3283 Y1.5718
N14485 X1.3281 Y1.5737
N14490 Y1.5757
N14495 Y1.5777
N14500 X1.3282 Y1.5797
N14505 X1.3284 Y1.5817
N14510 X1.3289 Y1.5844
N14515 X1.3298 Y1.5876
N14520 X1.3311 Y1.5911
N14525 X1.3322 Y1.5936
N14530 X1.3329 Y1.5948
N14535 X1.3345 Y1.5976
N14540 X1.3358 Y1.5995
N14545 X1.3374 Y1.6015
N14550 X1.339 Y1.6035
N14555 X1.3409 Y1.6055
N14560 X1.3429 Y1.6075
N14565 X1.3451 Y1.6095
N14570 X1.3476 Y1.6114
N14575 X1.3487 Y1.6123
N14580 X1.3507 Y1.6136
N14585 X1.3527 Y1.6148
N14590 X1.354 Y1.6154
N14595 X1.3567 Y1.6167
N14600 X1.3587 Y1.6174
N14605 X1.3606 Y1.6181
N14610 X1.3626 Y1.6186
N14615 X1.3646 Y1.6191
N14620 X1.3666 Y1.6194
N14625 X1.3686 Y1.6196
N14630 X1.3706 Y1.6197
N14635 X1.374 Y1.6196
N14640 X1.3775 Y1.6192
N14645 X1.3785 Y1.619
N14650 X1.3805 Y1.6186
N14655 X1.3825 Y1.6181
N14660 X1.3846 Y1.6174
N14665 X1.3864 Y1.6167
N14670 X1.3884 Y1.6159
N14675 X1.3904 Y1.6149
N14680 X1.3931 Y1.6134
N14685 X1.3944 Y1.6127
N14690 X1.3963 Y1.6114
N14695 X1.3991 Y1.6095
N14700 X1.4016 Y1.6075
N14705 X1.4043 Y1.6052
N14710 X1.4063 Y1.6033
N14715 X1.408 Y1.6015
N14720 G3 X1.4084 Y1.6012 Z-0.4199 I0.0011 J0.0011
N14725 X1.4088 Y1.6011 Z-0.4197 I0.0007 J0.0014
N14730 G1 X1.4091 Y1.601 Z-0.4194
N14735 X1.4094 Y1.6011 Z-0.4189
N14740 Z-0.4184
N14745 G0 Z0.2
N14750 X1.3243 Y1.5808
N14755 Z-0.3506
N14760 G1 Z-0.3771 F40
N14765 Y1.5806 Z-0.3779
N14770 X1.3242 Y1.5801 Z-0.3784
N14775 X1.3241 Y1.5793 Z-0.3787
N14780 X1.3235 Y1.5728 Z-0.3789
N14785 X1.3247 Y1.564 Z-0.3792
N14790 X1.3249 Y1.5632
N14795 X1.328 Y1.5551 Z-0.3795
N14800 X1.3334 Y1.5461 Z-0.3799
N14805 X1.3404 Y1.538 Z-0.3803
N14810 X1.3415 Y1.5368
N14815 X1.3505 Y1.529 Z-0.3807
N14820 X1.3513 Y1.5285 Z-0.3808
N14825 X1.3599 Y1.5232 Z-0.3811
N14830 X1.3689 Y1.5199 Z-0.3815
N14835 X1.3777 Y1.5186 Z-0.3818
N14840 X1.3864 Y1.5195 Z-0.3821
N14845 X1.3952 Y1.5224 Z-0.3824
N14850 X1.404 Y1.5276 Z-0.3828
N14855 X1.4127 Y1.5351 Z-0.3832
N14860 X1.4202 Y1.5439 Z-0.3836
N14865 X1.4254 Y1.5527 Z-0.3839
N14870 X1.4283 Y1.5615 Z-0.3842
N14875 X1.4291 Y1.5701 Z-0.3846
N14880 X1.4278 Y1.579 Z-0.3849
N14885 X1.4245 Y1.5879 Z-0.3852
N14890 X1.4189 Y1.5971 Z-0.3856
N14895 X1.4108 Y1.6064 Z-0.386
N14900 X1.4018 Y1.6142 Z-0.3864
N14905 X1.4013 Y1.6145
N14910 X1.3926 Y1.6198 Z-0.3868
N14915 X1.3836 Y1.6231 Z-0.3871
N14920 X1.3749 Y1.6242 Z-0.3874
N14925 X1.3662 Y1.6234 Z-0.3877
N14930 X1.3575 Y1.6204 Z-0.3881
N14935 X1.3487 Y1.6152 Z-0.3884
N14940 X1.3399 Y1.6077 Z-0.3888
N14945 X1.3325 Y1.599 Z-0.3892
N14950 X1.3273 Y1.5901 Z-0.3896
N14955 X1.3243 Y1.5814 Z-0.3899
