%
(1005)
(Bottom of workpiece)
(T5 D=0.0156 CR=0 - ZMIN=-0.42 - flat end mill)
N10 G90
N15 G28 G91 Z0
N20 G90

(Pocket1 3)
N25 M9
N30 T5 M6
N35 S1000 M3
N40 M9
N45 G0 X1.7706 Y1.2657
N50 Z0.6
N55 Z0.0794
N60 G1 Z0.0436 F40
N65 G2 X1.7707 Y1.2662 Z0.0425 I0.0073 J-0.0015
N70 X1.7711 Y1.2672 Z0.042 I0.0072 J-0.0019
N75 X1.7847 Y1.2613 Z0.0412 I0.0068 J-0.0029
N80 X1.7711 Y1.2672 Z0.0404 I-0.0068 J0.0029
N85 X1.7847 Y1.2613 Z0.0396 I0.0068 J-0.0029
N90 X1.7711 Y1.2672 Z0.0387 I-0.0068 J0.0029
N95 X1.7847 Y1.2613 Z0.0379 I0.0068 J-0.0029
N100 X1.7711 Y1.2672 Z0.0371 I-0.0068 J0.0029
N105 X1.7847 Y1.2613 Z0.0363 I0.0068 J-0.0029
N110 X1.7711 Y1.2672 Z0.0355 I-0.0068 J0.0029
N115 X1.7847 Y1.2613 Z0.0347 I0.0068 J-0.0029
N120 X1.7711 Y1.2672 Z0.0339 I-0.0068 J0.0029
N125 X1.7847 Y1.2613 Z0.0331 I0.0068 J-0.0029
N130 X1.7711 Y1.2672 Z0.0322 I-0.0068 J0.0029
N135 X1.7847 Y1.2613 Z0.0314 I0.0068 J-0.0029
N140 X1.7711 Y1.2672 Z0.0306 I-0.0068 J0.0029
N145 X1.7847 Y1.2613 Z0.0298 I0.0068 J-0.0029
N150 X1.7711 Y1.2672 Z0.029 I-0.0068 J0.0029
N155 X1.7847 Y1.2613 Z0.0282 I0.0068 J-0.0029
N160 X1.7711 Y1.2672 Z0.0274 I-0.0068 J0.0029
N165 X1.7847 Y1.2613 Z0.0266 I0.0068 J-0.0029
N170 X1.7711 Y1.2672 Z0.0257 I-0.0068 J0.0029
N175 X1.7847 Y1.2613 Z0.0249 I0.0068 J-0.0029
N180 X1.7711 Y1.2672 Z0.0241 I-0.0068 J0.0029
N185 X1.7847 Y1.2613 Z0.0233 I0.0068 J-0.0029
N190 X1.7711 Y1.2672 Z0.0225 I-0.0068 J0.0029
N195 X1.7847 Y1.2613 Z0.0217 I0.0068 J-0.0029
N200 X1.7711 Y1.2672 Z0.0209 I-0.0068 J0.0029
N205 X1.7847 Y1.2613 Z0.0201 I0.0068 J-0.0029
N210 X1.7711 Y1.2672 Z0.0192 I-0.0068 J0.0029
N215 X1.7847 Y1.2613 Z0.0184 I0.0068 J-0.0029
N220 X1.7711 Y1.2672 Z0.0176 I-0.0068 J0.0029
N225 X1.7847 Y1.2613 Z0.0168 I0.0068 J-0.0029
N230 X1.7711 Y1.2672 Z0.016 I-0.0068 J0.0029
N235 X1.7847 Y1.2613 Z0.0152 I0.0068 J-0.0029
N240 X1.7711 Y1.2672 Z0.0144 I-0.0068 J0.0029
N245 X1.7847 Y1.2613 Z0.0135 I0.0068 J-0.0029
N250 X1.7711 Y1.2672 Z0.0127 I-0.0068 J0.0029
N255 X1.7847 Y1.2613 Z0.0119 I0.0068 J-0.0029
N260 X1.7711 Y1.2672 Z0.0111 I-0.0068 J0.0029
N265 X1.7847 Y1.2613 Z0.0103 I0.0068 J-0.0029
N270 X1.7711 Y1.2672 Z0.0095 I-0.0068 J0.0029
N275 X1.7847 Y1.2613 Z0.0087 I0.0068 J-0.0029
N280 X1.7711 Y1.2672 Z0.0079 I-0.0068 J0.0029
N285 X1.7847 Y1.2613 Z0.007 I0.0068 J-0.0029
N290 X1.7711 Y1.2672 Z0.0062 I-0.0068 J0.0029
N295 X1.7847 Y1.2613 Z0.0054 I0.0068 J-0.0029
N300 X1.7711 Y1.2672 Z0.0046 I-0.0068 J0.0029
N305 X1.7847 Y1.2613 Z0.0038 I0.0068 J-0.0029
N310 X1.7711 Y1.2672 Z0.003 I-0.0068 J0.0029
N315 X1.7847 Y1.2613 Z0.0022 I0.0068 J-0.0029
N320 X1.7711 Y1.2672 Z0.0014 I-0.0068 J0.0029
N325 X1.7847 Y1.2613 Z0.0005 I0.0068 J-0.0029
N330 X1.7711 Y1.2672 Z-0.0003 I-0.0068 J0.0029
N335 X1.7847 Y1.2613 Z-0.0011 I0.0068 J-0.0029
N340 X1.7711 Y1.2672 Z-0.0019 I-0.0068 J0.0029
N345 X1.7847 Y1.2613 Z-0.0027 I0.0068 J-0.0029
N350 X1.7711 Y1.2672 Z-0.0035 I-0.0068 J0.0029
N355 X1.7847 Y1.2613 Z-0.0043 I0.0068 J-0.0029
N360 X1.7711 Y1.2672 Z-0.0051 I-0.0068 J0.0029
N365 X1.7847 Y1.2613 Z-0.006 I0.0068 J-0.0029
N370 X1.7711 Y1.2672 Z-0.0068 I-0.0068 J0.0029
N375 X1.7847 Y1.2613 Z-0.0076 I0.0068 J-0.0029
N380 X1.7711 Y1.2672 Z-0.0084 I-0.0068 J0.0029
N385 X1.7847 Y1.2613 Z-0.0092 I0.0068 J-0.0029
N390 X1.7711 Y1.2672 Z-0.01 I-0.0068 J0.0029
N395 X1.7847 Y1.2613 Z-0.0108 I0.0068 J-0.0029
N400 X1.7711 Y1.2672 Z-0.0117 I-0.0068 J0.0029
N405 X1.7847 Y1.2613 Z-0.0125 I0.0068 J-0.0029
N410 X1.7711 Y1.2672 Z-0.0133 I-0.0068 J0.0029
N415 X1.7847 Y1.2613 Z-0.0141 I0.0068 J-0.0029
N420 X1.7711 Y1.2672 Z-0.0149 I-0.0068 J0.0029
N425 X1.7847 Y1.2613 Z-0.0157 I0.0068 J-0.0029
N430 X1.7711 Y1.2672 Z-0.0165 I-0.0068 J0.0029
N435 X1.7847 Y1.2613 Z-0.0173 I0.0068 J-0.0029
N440 X1.7711 Y1.2672 Z-0.0182 I-0.0068 J0.0029
N445 X1.7847 Y1.2613 Z-0.019 I0.0068 J-0.0029
N450 X1.7711 Y1.2672 Z-0.0198 I-0.0068 J0.0029
N455 X1.7847 Y1.2613 Z-0.0206 I0.0068 J-0.0029
N460 X1.7711 Y1.2672 Z-0.0214 I-0.0068 J0.0029
N465 X1.7847 Y1.2613 Z-0.0222 I0.0068 J-0.0029
N470 X1.7711 Y1.2672 Z-0.023 I-0.0068 J0.0029
N475 X1.7847 Y1.2613 Z-0.0238 I0.0068 J-0.0029
N480 X1.7711 Y1.2672 Z-0.0247 I-0.0068 J0.0029
N485 X1.7847 Y1.2613 Z-0.0255 I0.0068 J-0.0029
N490 X1.7711 Y1.2672 Z-0.0263 I-0.0068 J0.0029
N495 X1.7847 Y1.2613 Z-0.0271 I0.0068 J-0.0029
N500 X1.7711 Y1.2672 Z-0.0279 I-0.0068 J0.0029
N505 X1.7847 Y1.2613 Z-0.0287 I0.0068 J-0.0029
N510 X1.7711 Y1.2672 Z-0.0295 I-0.0068 J0.0029
N515 X1.7847 Y1.2613 Z-0.0304 I0.0068 J-0.0029
N520 X1.7711 Y1.2672 Z-0.0312 I-0.0068 J0.0029
N525 X1.7847 Y1.2613 Z-0.032 I0.0068 J-0.0029
N530 X1.7711 Y1.2672 Z-0.0328 I-0.0068 J0.0029
N535 X1.7847 Y1.2613 Z-0.0336 I0.0068 J-0.0029
N540 X1.7711 Y1.2672 Z-0.0344 I-0.0068 J0.0029
N545 X1.7847 Y1.2613 Z-0.0352 I0.0068 J-0.0029
N550 X1.7711 Y1.2672 Z-0.036 I-0.0068 J0.0029
N555 X1.7847 Y1.2613 Z-0.0369 I0.0068 J-0.0029
N560 X1.7711 Y1.2672 Z-0.0377 I-0.0068 J0.0029
N565 X1.7847 Y1.2613 Z-0.0385 I0.0068 J-0.0029
N570 X1.7711 Y1.2672 Z-0.0393 I-0.0068 J0.0029
N575 X1.7853 Y1.2642 Z-0.04 I0.0068 J-0.0029
N580 G1 Y1.1551
N585 X1.724
N590 Y1.226
N595 G3 X1.7239 Y1.2269 I-0.0039
N600 G1 X1.7236 Y1.2284
N605 G3 X1.7228 Y1.2299 I-0.0038 J-0.0009
N610 G1 X1.7216 Y1.2314
N615 G3 X1.7202 Y1.2325 I-0.003 J-0.0024
N620 G1 X1.7188 Y1.2332
N625 G3 X1.7171 Y1.2335 I-0.0017 J-0.0035
N630 G1 X1.6539 Y1.2337
N635 G3 X1.6533 J-0.0039
N640 G1 X1.6459 Y1.2325
N645 G3 X1.6445 Y1.232 I0.0006 J-0.0039
N650 G1 X1.6384 Y1.2283
N655 G3 X1.6373 Y1.2273 I0.002 J-0.0033
N660 G1 X1.6331 Y1.2218
N665 G3 X1.6325 Y1.2205 I0.0031 J-0.0024
N670 G1 X1.6306 Y1.2138
N675 G3 X1.6304 Y1.2127 I0.0038 J-0.0011
N680 G1 Y1.0686
N685 G3 X1.6305 Y1.0675 I0.0039
N690 G1 X1.631 Y1.0661
N695 G3 X1.6319 Y1.0644 I0.0037 J0.0011
N700 G1 X1.6334 Y1.0629
N705 G3 X1.6347 Y1.062 I0.0028 J0.0027
N710 G1 X1.6354 Y1.0617
N715 G3 X1.637 Y1.0613 I0.0016 J0.0036
N720 G1 X2.0297
N725 G3 X2.0318 Y1.062 J0.0039
N730 G1 X2.0335 Y1.0631
N735 G3 X2.0348 Y1.0645 I-0.0021 J0.0033
N740 G1 X2.0356 Y1.066
N745 G3 X2.0361 Y1.0679 I-0.0034 J0.0019
N750 G1 X2.0362 Y1.2113
N755 G3 Y1.212 I-0.0039
N760 G1 X2.0349 Y1.2186
N765 G3 X2.0343 Y1.22 I-0.0038 J-0.0008
N770 G1 X2.0306 Y1.226
N775 G3 X2.0296 Y1.227 I-0.0033 J-0.0021
N780 G1 X2.0239 Y1.2312
N785 G3 X2.0226 Y1.2318 I-0.0023 J-0.0032
N790 G1 X2.0167 Y1.2334
N795 G3 X2.0157 Y1.2335 I-0.001 J-0.0038
N800 G1 X1.951 Y1.2336
N805 G3 X1.9504 J-0.0039
N810 G1 X1.9481 Y1.2332
N815 G3 X1.9463 Y1.2324 I0.0006 J-0.0039
N820 G1 X1.9449 Y1.2313
N825 G3 X1.9438 Y1.2299 I0.0024 J-0.003
N830 G1 X1.9431 Y1.2284
N835 G3 X1.9427 Y1.2267 I0.0035 J-0.0017
N840 G1 X1.9426 Y1.1551
N845 X1.8814
N850 Y1.3736
N855 X1.9425
N860 X1.9426 Y1.3025
N865 G3 X1.9427 Y1.3016 I0.0039
N870 G1 X1.943 Y1.3001
N875 G3 X1.9438 Y1.2985 I0.0038 J0.0009
N880 G1 X1.945 Y1.297
N885 G3 X1.9464 Y1.296 I0.003 J0.0024
N890 G1 X1.9478 Y1.2953
N895 G3 X1.9495 Y1.2949 I0.0017 J0.0035
N900 G1 X2.0127 Y1.2948
N905 G3 X2.0133 J0.0039
N910 G1 X2.0207 Y1.296
N915 G3 X2.0221 Y1.2965 I-0.0006 J0.0039
N920 G1 X2.0282 Y1.3001
N925 G3 X2.0293 Y1.3011 I-0.002 J0.0033
N930 G1 X2.0335 Y1.3067
N935 G3 X2.0341 Y1.308 I-0.0031 J0.0024
N940 G1 X2.036 Y1.3146
N945 G3 X2.0361 Y1.3157 I-0.0038 J0.001
N950 G1 X2.0362 Y1.4598
N955 G3 X2.0359 Y1.4614 I-0.0039
N960 G1 X2.035 Y1.4636
N965 G3 X2.0335 Y1.4654 I-0.0036 J-0.0015
N970 G1 X2.0318 Y1.4665
N975 G3 X2.0297 Y1.4671 I-0.0021 J-0.0033
N980 G1 X1.637
N985 G3 X1.6348 Y1.4665 J-0.0039
N990 G1 X1.6331 Y1.4654
N995 G3 X1.6319 Y1.464 I0.0021 J-0.0033
N1000 G1 X1.631 Y1.4625
N1005 G3 X1.6305 Y1.4606 I0.0034 J-0.0019
N1010 G1 X1.6303 Y1.3164
N1015 G3 X1.6304 Y1.3155 I0.0039
N1020 G1 X1.6321 Y1.3087
N1025 G3 X1.6326 Y1.3074 I0.0038 J0.0009
N1030 G1 X1.6361 Y1.3023
N1035 G3 X1.637 Y1.3013 I0.0032 J0.0022
N1040 G1 X1.6428 Y1.2972
N1045 G3 X1.644 Y1.2966 I0.0023 J0.0032
N1050 G1 X1.6499 Y1.295
N1055 G3 X1.6509 Y1.2948 I0.001 J0.0038
N1060 G1 X1.7156 Y1.2947
N1065 G3 X1.7162 Y1.2948 J0.0039
N1070 G1 X1.7184 Y1.2951
N1075 G3 X1.7202 Y1.2959 I-0.0006 J0.0039
N1080 G1 X1.7218 Y1.2971
N1085 G3 X1.7229 Y1.2985 I-0.0024 J0.0031
N1090 G1 X1.7236 Y1.3
N1095 G3 X1.724 Y1.3017 I-0.0035 J0.0017
N1100 G1 Y1.3736
N1105 X1.7853
N1110 Y1.2642
N1115 G2 X1.7788 Y1.2545 I-0.0105
N1120 G3 X1.7723 Y1.2448 I0.0041 J-0.0097
N1125 G1 Y1.1681
N1130 X1.737
N1135 Y1.226
N1140 G3 X1.7366 Y1.2299 I-0.0169
N1145 G1 X1.7362 Y1.2314
N1150 G3 X1.733 Y1.238 I-0.0164 J-0.0039
N1155 G1 X1.7318 Y1.2395
N1160 G3 X1.7258 Y1.2442 I-0.0132 J-0.0106
N1165 G1 X1.7243 Y1.2449
N1170 G3 X1.7172 Y1.2465 I-0.0072 J-0.0153
N1175 G1 X1.6539 Y1.2467
N1180 G3 X1.6512 Y1.2465 J-0.0169
N1185 G1 X1.6439 Y1.2453
N1190 G3 X1.6378 Y1.2431 I0.0026 J-0.0167
N1195 G1 X1.6317 Y1.2394
N1200 G3 X1.6269 Y1.2351 I0.0087 J-0.0145
N1205 G1 X1.6228 Y1.2296
N1210 G3 X1.62 Y1.224 I0.0135 J-0.0102
N1215 G1 X1.6181 Y1.2173
N1220 G3 X1.6175 Y1.2127 I0.0163 J-0.0046
N1225 G1 X1.6174 Y1.0686
N1230 G3 X1.6181 Y1.0639 I0.0169
N1235 G1 X1.6185 Y1.0624
N1240 G3 X1.6225 Y1.0554 I0.0162 J0.0047
N1245 G1 X1.6241 Y1.0539
N1250 G3 X1.6294 Y1.0501 I0.0122 J0.0117
N1255 G1 X1.6301 Y1.0498
N1260 G3 X1.637 Y1.0483 I0.0068 J0.0154
N1265 G1 X2.0297
N1270 G3 X2.0389 Y1.0511 J0.0169
N1275 G1 X2.0406 Y1.0522
N1280 G3 X2.0462 Y1.0582 I-0.0092 J0.0141
N1285 G1 X2.047 Y1.0597
N1290 G3 X2.0491 Y1.0679 I-0.0148 J0.0081
N1295 G1 X2.0492 Y1.2113
N1300 G3 X2.0489 Y1.2146 I-0.0169
N1305 G1 X2.0476 Y1.2212
N1310 G3 X2.0453 Y1.2269 I-0.0166 J-0.0033
N1315 G1 X2.0416 Y1.2329
N1320 G3 X2.0372 Y1.2375 I-0.0143 J-0.009
N1325 G1 X2.0315 Y1.2417
N1330 G3 X2.0259 Y1.2444 I-0.0099 J-0.0136
N1335 G1 X2.02 Y1.2459
N1340 G3 X2.0157 Y1.2465 I-0.0043 J-0.0163
N1345 G1 X1.951 Y1.2466
N1350 G3 X1.9483 Y1.2464 J-0.0169
N1355 G1 X1.9461 Y1.2461
N1360 G3 X1.9382 Y1.2426 I0.0027 J-0.0167
N1365 G1 X1.9368 Y1.2414
N1370 G3 X1.932 Y1.2354 I0.0105 J-0.0132
N1375 G1 X1.9313 Y1.2339
N1380 G3 X1.9297 Y1.2267 I0.0153 J-0.0072
N1385 G1 X1.9296 Y1.1681
N1390 X1.8944
N1395 X1.8943 Y1.3606
N1400 X1.9295
N1405 X1.9296 Y1.3024
N1410 G3 X1.9301 Y1.2986 I0.0169
N1415 G1 X1.9304 Y1.2971
N1420 G3 X1.9337 Y1.2904 I0.0164 J0.0039
N1425 G1 X1.9349 Y1.2889
N1430 G3 X1.9409 Y1.2842 I0.0132 J0.0106
N1435 G1 X1.9423 Y1.2835
N1440 G3 X1.9495 Y1.2819 I0.0072 J0.0153
N1445 G1 X2.0127 Y1.2818
N1450 G3 X2.0153 Y1.282 J0.0169
N1455 G1 X2.0227 Y1.2832
N1460 G3 X2.0288 Y1.2854 I-0.0026 J0.0167
N1465 G1 X2.0349 Y1.289
N1470 G3 X2.0396 Y1.2933 I-0.0087 J0.0145
N1475 G1 X2.0438 Y1.2988
N1480 G3 X2.0466 Y1.3045 I-0.0134 J0.0102
N1485 G1 X2.0485 Y1.3112
N1490 G3 X2.0491 Y1.3157 I-0.0163 J0.0045
N1495 G1 X2.0492 Y1.4598
N1500 G3 X2.0479 Y1.4665 I-0.0169
N1505 G1 X2.0469 Y1.4687
N1510 G3 X2.0406 Y1.4762 I-0.0155 J-0.0067
N1515 G1 X2.0389 Y1.4773
N1520 G3 X2.0297 Y1.4801 I-0.0092 J-0.0141
N1525 G1 X1.637
N1530 G3 X1.6277 Y1.4774 J-0.0169
N1535 G1 X1.626 Y1.4762
N1540 G3 X1.6206 Y1.4705 I0.0092 J-0.0141
N1545 G1 X1.6197 Y1.469
N1550 G3 X1.6175 Y1.4606 I0.0146 J-0.0084
N1555 G1 X1.6173 Y1.3164
N1560 G3 X1.6178 Y1.3125 I0.0169
N1565 G1 X1.6194 Y1.3056
N1570 G3 X1.6219 Y1.3001 I0.0164 J0.004
N1575 G1 X1.6254 Y1.295
N1580 G3 X1.6294 Y1.2908 I0.014 J0.0095
N1585 G1 X1.6352 Y1.2867
N1590 G3 X1.6406 Y1.2841 I0.0099 J0.0137
N1595 G1 X1.6465 Y1.2825
N1600 G3 X1.6509 Y1.2818 I0.0045 J0.0163
N1605 G1 X1.7156 Y1.2817
N1610 G3 X1.7181 Y1.2819 J0.0169
N1615 G1 X1.7203 Y1.2822
N1620 G3 X1.7282 Y1.2856 I-0.0024 J0.0167
N1625 G1 X1.7297 Y1.2868
N1630 G3 X1.7347 Y1.293 I-0.0103 J0.0133
N1635 G1 X1.7354 Y1.2945
N1640 G3 X1.737 Y1.3017 I-0.0153 J0.0072
N1645 G1 Y1.3606
N1650 X1.7723
N1655 Y1.2448
N1660 G2 X1.7658 Y1.235 I-0.0105
N1665 G3 X1.7593 Y1.2253 I0.0041 J-0.0097
N1670 G1 Y1.181
N1675 X1.75
N1680 Y1.226
N1685 G3 X1.7492 Y1.2329 I-0.0299
N1690 G1 X1.7488 Y1.2344
N1695 G3 X1.7431 Y1.2462 I-0.0291 J-0.0069
N1700 G1 X1.7419 Y1.2476
N1705 G3 X1.7313 Y1.256 I-0.0233 J-0.0187
N1710 G1 X1.7298 Y1.2567
N1715 G3 X1.7172 Y1.2595 I-0.0127 J-0.027
N1720 G1 X1.654 Y1.2597
N1725 G3 X1.6492 Y1.2593 I-0.0001 J-0.0299
N1730 G1 X1.6418 Y1.2581
N1735 G3 X1.6311 Y1.2542 I0.0047 J-0.0295
N1740 G1 X1.625 Y1.2505
N1745 G3 X1.6166 Y1.243 I0.0154 J-0.0256
N1750 G1 X1.6124 Y1.2375
N1755 G3 X1.6075 Y1.2275 I0.0238 J-0.018
N1760 G1 X1.6056 Y1.2208
N1765 G3 X1.6045 Y1.2128 I0.0287 J-0.0081
N1770 G1 X1.6044 Y1.0686
N1775 G3 X1.6056 Y1.0603 I0.0299
N1780 G1 X1.606 Y1.0588
N1785 G3 X1.6132 Y1.0464 I0.0287 J0.0083
N1790 G1 X1.6147 Y1.0449
N1795 G3 X1.6242 Y1.0382 I0.0215 J0.0207
N1800 G1 X1.6249 Y1.0379
N1805 G3 X1.637 Y1.0354 I0.0121 J0.0273
N1810 G1 X2.0297
N1815 G3 X2.046 Y1.0402 J0.0299
N1820 G1 X2.0477 Y1.0413
N1825 G3 X2.0575 Y1.052 I-0.0163 J0.025
N1830 G1 X2.0584 Y1.0535
N1835 G3 X2.0621 Y1.0678 I-0.0262 J0.0144
N1840 G1 X2.0622 Y1.2112
N1845 G3 X2.0616 Y1.2171 I-0.0299
N1850 G1 X2.0603 Y1.2237
N1855 G3 X2.0563 Y1.2338 I-0.0293 J-0.0058
N1860 G1 X2.0526 Y1.2398
N1865 G3 X2.0448 Y1.248 I-0.0253 J-0.0159
N1870 G1 X2.0391 Y1.2522
N1875 G3 X2.0292 Y1.2569 I-0.0176 J-0.0241
N1880 G1 X2.0233 Y1.2585
N1885 G3 X2.0158 Y1.2595 I-0.0076 J-0.0289
N1890 G1 X1.951 Y1.2596
N1895 G3 X1.9463 Y1.2592 I-0.0001 J-0.0299
N1900 G1 X1.9441 Y1.2589
N1905 G3 X1.9301 Y1.2527 I0.0047 J-0.0295
N1910 G1 X1.9287 Y1.2516
N1915 G3 X1.9203 Y1.2409 I0.0186 J-0.0233
N1920 G1 X1.9196 Y1.2394
N1925 G3 X1.9167 Y1.2268 I0.027 J-0.0127
N1930 G1 Y1.1811
N1935 X1.9074
N1940 X1.9073 Y1.3476
N1945 X1.9166
N1950 Y1.3024
N1955 G3 X1.9174 Y1.2956 I0.0299
N1960 G1 X1.9178 Y1.2941
N1965 G3 X1.9235 Y1.2823 I0.0291 J0.0069
N1970 G1 X1.9247 Y1.2808
N1975 G3 X1.9354 Y1.2724 I0.0233 J0.0187
N1980 G1 X1.9368 Y1.2718
N1985 G3 X1.9495 Y1.2689 I0.0127 J0.027
N1990 G1 X2.0127 Y1.2688
N1995 G3 X2.0173 Y1.2692 J0.0299
N2000 G1 X2.0247 Y1.2703
N2005 G3 X2.0354 Y1.2742 I-0.0046 J0.0295
N2010 G1 X2.0415 Y1.2779
N2015 G3 X2.05 Y1.2854 I-0.0153 J0.0256
N2020 G1 X2.0542 Y1.291
N2025 G3 X2.0592 Y1.301 I-0.0238 J0.0181
N2030 G1 X2.061 Y1.3077
N2035 G3 X2.0621 Y1.3157 I-0.0288 J0.008
N2040 G1 X2.0622 Y1.4598
N2045 G3 X2.0598 Y1.4716 I-0.0299
N2050 G1 X2.0588 Y1.4739
N2055 G3 X2.0477 Y1.4871 I-0.0274 J-0.0118
N2060 G1 X2.046 Y1.4882
N2065 G3 X2.0297 Y1.4931 I-0.0163 J-0.025
N2070 G1 X1.637
N2075 G3 X1.6207 Y1.4882 J-0.0299
N2080 G1 X1.6189 Y1.4871
N2085 G3 X1.6094 Y1.477 I0.0163 J-0.025
N2090 G1 X1.6085 Y1.4755
N2095 G3 X1.6045 Y1.4606 I0.0259 J-0.0149
N2100 G1 X1.6043 Y1.3165
N2105 G3 X1.6052 Y1.3094 I0.0299
N2110 G1 X1.6068 Y1.3026
N2115 G3 X1.6112 Y1.2928 I0.029 J0.007
N2120 G1 X1.6146 Y1.2877
N2125 G3 X1.6218 Y1.2803 I0.0247 J0.0168
N2130 G1 X1.6276 Y1.2762
N2135 G3 X1.6371 Y1.2716 I0.0175 J0.0242
N2140 G1 X1.643 Y1.2699
N2145 G3 X1.6509 Y1.2689 I0.0079 J0.0288
N2150 G1 X1.7156 Y1.2688
N2155 G3 X1.7199 Y1.2691 J0.0299
N2160 G1 X1.7221 Y1.2694
N2165 G3 X1.7362 Y1.2754 I-0.0043 J0.0296
N2170 G1 X1.7377 Y1.2765
N2175 G3 X1.7464 Y1.2874 I-0.0183 J0.0236
N2180 G1 X1.7471 Y1.289
N2185 G3 X1.75 Y1.3017 I-0.027 J0.0127
N2190 G1 Y1.3476
N2195 X1.7593
N2200 Y1.2253
N2205 G3 X1.7609 I0.0008
N2210 X1.7608 Y1.2256 I-0.0008
N2215 G1 X1.7494 Y1.2542
N2220 G3 X1.7372 Y1.2641 I-0.0308 J-0.0252
N2225 X1.7423 Y1.2675 I-0.0193 J0.0348
N2230 G1 X1.7438 Y1.2687
N2235 G3 X1.7494 Y1.2739 I-0.0244 J0.0315
N2240 G1 Y1.2542
N2245 G3 X1.7487 Y1.255 Z-0.0395 I-0.0308 J-0.0252
N2250 X1.7484 Y1.2554 Z-0.0384 I-0.0301 J-0.0261
N2255 G0 Z0.0794
N2260 X1.9164 Y1.2732
N2265 Z0.0436
N2270 G2 X1.9168 Y1.2734 Z0.0425 I0.0033 J-0.0066 F40
N2275 X1.9178 Y1.2738 Z0.042 I0.0029 J-0.0068
N2280 X1.9216 Y1.2594 Z0.0412 I0.0019 J-0.0072
N2285 X1.9178 Y1.2738 Z0.0404 I-0.0019 J0.0072
N2290 X1.9216 Y1.2594 Z0.0396 I0.0019 J-0.0072
N2295 X1.9178 Y1.2738 Z0.0387 I-0.0019 J0.0072
N2300 X1.9216 Y1.2594 Z0.0379 I0.0019 J-0.0072
N2305 X1.9178 Y1.2738 Z0.0371 I-0.0019 J0.0072
N2310 X1.9216 Y1.2594 Z0.0363 I0.0019 J-0.0072
N2315 X1.9178 Y1.2738 Z0.0355 I-0.0019 J0.0072
N2320 X1.9216 Y1.2594 Z0.0347 I0.0019 J-0.0072
N2325 X1.9178 Y1.2738 Z0.0339 I-0.0019 J0.0072
N2330 X1.9216 Y1.2594 Z0.0331 I0.0019 J-0.0072
N2335 X1.9178 Y1.2738 Z0.0322 I-0.0019 J0.0072
N2340 X1.9216 Y1.2594 Z0.0314 I0.0019 J-0.0072
N2345 X1.9178 Y1.2738 Z0.0306 I-0.0019 J0.0072
N2350 X1.9216 Y1.2594 Z0.0298 I0.0019 J-0.0072
N2355 X1.9178 Y1.2738 Z0.029 I-0.0019 J0.0072
N2360 X1.9216 Y1.2594 Z0.0282 I0.0019 J-0.0072
N2365 X1.9178 Y1.2738 Z0.0274 I-0.0019 J0.0072
N2370 X1.9216 Y1.2594 Z0.0266 I0.0019 J-0.0072
N2375 X1.9178 Y1.2738 Z0.0257 I-0.0019 J0.0072
N2380 X1.9216 Y1.2594 Z0.0249 I0.0019 J-0.0072
N2385 X1.9178 Y1.2738 Z0.0241 I-0.0019 J0.0072
N2390 X1.9216 Y1.2594 Z0.0233 I0.0019 J-0.0072
N2395 X1.9178 Y1.2738 Z0.0225 I-0.0019 J0.0072
N2400 X1.9216 Y1.2594 Z0.0217 I0.0019 J-0.0072
N2405 X1.9178 Y1.2738 Z0.0209 I-0.0019 J0.0072
N2410 X1.9216 Y1.2594 Z0.0201 I0.0019 J-0.0072
N2415 X1.9178 Y1.2738 Z0.0192 I-0.0019 J0.0072
N2420 X1.9216 Y1.2594 Z0.0184 I0.0019 J-0.0072
N2425 X1.9178 Y1.2738 Z0.0176 I-0.0019 J0.0072
N2430 X1.9216 Y1.2594 Z0.0168 I0.0019 J-0.0072
N2435 X1.9178 Y1.2738 Z0.016 I-0.0019 J0.0072
N2440 X1.9216 Y1.2594 Z0.0152 I0.0019 J-0.0072
N2445 X1.9178 Y1.2738 Z0.0144 I-0.0019 J0.0072
N2450 X1.9216 Y1.2594 Z0.0135 I0.0019 J-0.0072
N2455 X1.9178 Y1.2738 Z0.0127 I-0.0019 J0.0072
N2460 X1.9216 Y1.2594 Z0.0119 I0.0019 J-0.0072
N2465 X1.9178 Y1.2738 Z0.0111 I-0.0019 J0.0072
N2470 X1.9216 Y1.2594 Z0.0103 I0.0019 J-0.0072
N2475 X1.9178 Y1.2738 Z0.0095 I-0.0019 J0.0072
N2480 X1.9216 Y1.2594 Z0.0087 I0.0019 J-0.0072
N2485 X1.9178 Y1.2738 Z0.0079 I-0.0019 J0.0072
N2490 X1.9216 Y1.2594 Z0.007 I0.0019 J-0.0072
N2495 X1.9178 Y1.2738 Z0.0062 I-0.0019 J0.0072
N2500 X1.9216 Y1.2594 Z0.0054 I0.0019 J-0.0072
N2505 X1.9178 Y1.2738 Z0.0046 I-0.0019 J0.0072
N2510 X1.9216 Y1.2594 Z0.0038 I0.0019 J-0.0072
N2515 X1.9178 Y1.2738 Z0.003 I-0.0019 J0.0072
N2520 X1.9216 Y1.2594 Z0.0022 I0.0019 J-0.0072
N2525 X1.9178 Y1.2738 Z0.0014 I-0.0019 J0.0072
N2530 X1.9216 Y1.2594 Z0.0005 I0.0019 J-0.0072
N2535 X1.9178 Y1.2738 Z-0.0003 I-0.0019 J0.0072
N2540 X1.9216 Y1.2594 Z-0.0011 I0.0019 J-0.0072
N2545 X1.9178 Y1.2738 Z-0.0019 I-0.0019 J0.0072
N2550 X1.9216 Y1.2594 Z-0.0027 I0.0019 J-0.0072
N2555 X1.9178 Y1.2738 Z-0.0035 I-0.0019 J0.0072
N2560 X1.9216 Y1.2594 Z-0.0043 I0.0019 J-0.0072
N2565 X1.9178 Y1.2738 Z-0.0051 I-0.0019 J0.0072
N2570 X1.9216 Y1.2594 Z-0.006 I0.0019 J-0.0072
N2575 X1.9178 Y1.2738 Z-0.0068 I-0.0019 J0.0072
N2580 X1.9216 Y1.2594 Z-0.0076 I0.0019 J-0.0072
N2585 X1.9178 Y1.2738 Z-0.0084 I-0.0019 J0.0072
N2590 X1.9216 Y1.2594 Z-0.0092 I0.0019 J-0.0072
N2595 X1.9178 Y1.2738 Z-0.01 I-0.0019 J0.0072
N2600 X1.9216 Y1.2594 Z-0.0108 I0.0019 J-0.0072
N2605 X1.9178 Y1.2738 Z-0.0117 I-0.0019 J0.0072
N2610 X1.9216 Y1.2594 Z-0.0125 I0.0019 J-0.0072
N2615 X1.9178 Y1.2738 Z-0.0133 I-0.0019 J0.0072
N2620 X1.9216 Y1.2594 Z-0.0141 I0.0019 J-0.0072
N2625 X1.9178 Y1.2738 Z-0.0149 I-0.0019 J0.0072
N2630 X1.9216 Y1.2594 Z-0.0157 I0.0019 J-0.0072
N2635 X1.9178 Y1.2738 Z-0.0165 I-0.0019 J0.0072
N2640 X1.9216 Y1.2594 Z-0.0173 I0.0019 J-0.0072
N2645 X1.9178 Y1.2738 Z-0.0182 I-0.0019 J0.0072
N2650 X1.9216 Y1.2594 Z-0.019 I0.0019 J-0.0072
N2655 X1.9178 Y1.2738 Z-0.0198 I-0.0019 J0.0072
N2660 X1.9216 Y1.2594 Z-0.0206 I0.0019 J-0.0072
N2665 X1.9178 Y1.2738 Z-0.0214 I-0.0019 J0.0072
N2670 X1.9216 Y1.2594 Z-0.0222 I0.0019 J-0.0072
N2675 X1.9178 Y1.2738 Z-0.023 I-0.0019 J0.0072
N2680 X1.9216 Y1.2594 Z-0.0238 I0.0019 J-0.0072
N2685 X1.9178 Y1.2738 Z-0.0247 I-0.0019 J0.0072
N2690 X1.9216 Y1.2594 Z-0.0255 I0.0019 J-0.0072
N2695 X1.9178 Y1.2738 Z-0.0263 I-0.0019 J0.0072
N2700 X1.9216 Y1.2594 Z-0.0271 I0.0019 J-0.0072
N2705 X1.9178 Y1.2738 Z-0.0279 I-0.0019 J0.0072
N2710 X1.9216 Y1.2594 Z-0.0287 I0.0019 J-0.0072
N2715 X1.9178 Y1.2738 Z-0.0295 I-0.0019 J0.0072
N2720 X1.9216 Y1.2594 Z-0.0304 I0.0019 J-0.0072
N2725 X1.9178 Y1.2738 Z-0.0312 I-0.0019 J0.0072
N2730 X1.9216 Y1.2594 Z-0.032 I0.0019 J-0.0072
N2735 X1.9178 Y1.2738 Z-0.0328 I-0.0019 J0.0072
N2740 X1.9216 Y1.2594 Z-0.0336 I0.0019 J-0.0072
N2745 X1.9178 Y1.2738 Z-0.0344 I-0.0019 J0.0072
N2750 X1.9216 Y1.2594 Z-0.0352 I0.0019 J-0.0072
N2755 X1.9178 Y1.2738 Z-0.036 I-0.0019 J0.0072
N2760 X1.9216 Y1.2594 Z-0.0369 I0.0019 J-0.0072
N2765 X1.9178 Y1.2738 Z-0.0377 I-0.0019 J0.0072
N2770 X1.9216 Y1.2594 Z-0.0385 I0.0019 J-0.0072
N2775 X1.9178 Y1.2738 Z-0.0393 I-0.0019 J0.0072
N2780 X1.9243 Y1.2608 Z-0.04 I0.0019 J-0.0072
N2785 G3 X1.9239 Y1.2605 I0.0245 J-0.0314
N2790 G1 X1.9225 Y1.2593
N2795 G3 X1.9173 Y1.2544 I0.0248 J-0.0311
N2800 G1 Y1.2742
N2805 G3 X1.9295 Y1.2642 I0.0307 J0.0253
N2810 X1.9243 Y1.2608 I0.0192 J-0.0349
N2815 G2 X1.9232 Y1.2604 Z-0.0395 I-0.001 J0.0012
N2820 X1.9228 Y1.2605 Z-0.0384 I0.0001 J0.0016
N2825 G0 Z0.0794
N2830 X2.0824 Y1.2656
N2835 Z0.0436
N2840 G2 X2.0825 Y1.266 Z0.0425 I0.0073 J-0.0015 F40
N2845 X2.0828 Y1.267 Z0.042 I0.0072 J-0.0019
N2850 X2.0964 Y1.2611 Z0.0412 I0.0068 J-0.0029
N2855 X2.0828 Y1.267 Z0.0404 I-0.0068 J0.0029
N2860 X2.0964 Y1.2611 Z0.0396 I0.0068 J-0.0029
N2865 X2.0828 Y1.267 Z0.0387 I-0.0068 J0.0029
N2870 X2.0964 Y1.2611 Z0.0379 I0.0068 J-0.0029
N2875 X2.0828 Y1.267 Z0.0371 I-0.0068 J0.0029
N2880 X2.0964 Y1.2611 Z0.0363 I0.0068 J-0.0029
N2885 X2.0828 Y1.267 Z0.0355 I-0.0068 J0.0029
N2890 X2.0964 Y1.2611 Z0.0347 I0.0068 J-0.0029
N2895 X2.0828 Y1.267 Z0.0339 I-0.0068 J0.0029
N2900 X2.0964 Y1.2611 Z0.0331 I0.0068 J-0.0029
N2905 X2.0828 Y1.267 Z0.0322 I-0.0068 J0.0029
N2910 X2.0964 Y1.2611 Z0.0314 I0.0068 J-0.0029
N2915 X2.0828 Y1.267 Z0.0306 I-0.0068 J0.0029
N2920 X2.0964 Y1.2611 Z0.0298 I0.0068 J-0.0029
N2925 X2.0828 Y1.267 Z0.029 I-0.0068 J0.0029
N2930 X2.0964 Y1.2611 Z0.0282 I0.0068 J-0.0029
N2935 X2.0828 Y1.267 Z0.0274 I-0.0068 J0.0029
N2940 X2.0964 Y1.2611 Z0.0266 I0.0068 J-0.0029
N2945 X2.0828 Y1.267 Z0.0257 I-0.0068 J0.0029
N2950 X2.0964 Y1.2611 Z0.0249 I0.0068 J-0.0029
N2955 X2.0828 Y1.267 Z0.0241 I-0.0068 J0.0029
N2960 X2.0964 Y1.2611 Z0.0233 I0.0068 J-0.0029
N2965 X2.0828 Y1.267 Z0.0225 I-0.0068 J0.0029
N2970 X2.0964 Y1.2611 Z0.0217 I0.0068 J-0.0029
N2975 X2.0828 Y1.267 Z0.0209 I-0.0068 J0.0029
N2980 X2.0964 Y1.2611 Z0.0201 I0.0068 J-0.0029
N2985 X2.0828 Y1.267 Z0.0192 I-0.0068 J0.0029
N2990 X2.0964 Y1.2611 Z0.0184 I0.0068 J-0.0029
N2995 X2.0828 Y1.267 Z0.0176 I-0.0068 J0.0029
N3000 X2.0964 Y1.2611 Z0.0168 I0.0068 J-0.0029
N3005 X2.0828 Y1.267 Z0.016 I-0.0068 J0.0029
N3010 X2.0964 Y1.2611 Z0.0152 I0.0068 J-0.0029
N3015 X2.0828 Y1.267 Z0.0144 I-0.0068 J0.0029
N3020 X2.0964 Y1.2611 Z0.0135 I0.0068 J-0.0029
N3025 X2.0828 Y1.267 Z0.0127 I-0.0068 J0.0029
N3030 X2.0964 Y1.2611 Z0.0119 I0.0068 J-0.0029
N3035 X2.0828 Y1.267 Z0.0111 I-0.0068 J0.0029
N3040 X2.0964 Y1.2611 Z0.0103 I0.0068 J-0.0029
N3045 X2.0828 Y1.267 Z0.0095 I-0.0068 J0.0029
N3050 X2.0964 Y1.2611 Z0.0087 I0.0068 J-0.0029
N3055 X2.0828 Y1.267 Z0.0079 I-0.0068 J0.0029
N3060 X2.0964 Y1.2611 Z0.007 I0.0068 J-0.0029
N3065 X2.0828 Y1.267 Z0.0062 I-0.0068 J0.0029
N3070 X2.0964 Y1.2611 Z0.0054 I0.0068 J-0.0029
N3075 X2.0828 Y1.267 Z0.0046 I-0.0068 J0.0029
N3080 X2.0964 Y1.2611 Z0.0038 I0.0068 J-0.0029
N3085 X2.0828 Y1.267 Z0.003 I-0.0068 J0.0029
N3090 X2.0964 Y1.2611 Z0.0022 I0.0068 J-0.0029
N3095 X2.0828 Y1.267 Z0.0014 I-0.0068 J0.0029
N3100 X2.0964 Y1.2611 Z0.0005 I0.0068 J-0.0029
N3105 X2.0828 Y1.267 Z-0.0003 I-0.0068 J0.0029
N3110 X2.0964 Y1.2611 Z-0.0011 I0.0068 J-0.0029
N3115 X2.0828 Y1.267 Z-0.0019 I-0.0068 J0.0029
N3120 X2.0964 Y1.2611 Z-0.0027 I0.0068 J-0.0029
N3125 X2.0828 Y1.267 Z-0.0035 I-0.0068 J0.0029
N3130 X2.0964 Y1.2611 Z-0.0043 I0.0068 J-0.0029
N3135 X2.0828 Y1.267 Z-0.0051 I-0.0068 J0.0029
N3140 X2.0964 Y1.2611 Z-0.006 I0.0068 J-0.0029
N3145 X2.0828 Y1.267 Z-0.0068 I-0.0068 J0.0029
N3150 X2.0964 Y1.2611 Z-0.0076 I0.0068 J-0.0029
N3155 X2.0828 Y1.267 Z-0.0084 I-0.0068 J0.0029
N3160 X2.0964 Y1.2611 Z-0.0092 I0.0068 J-0.0029
N3165 X2.0828 Y1.267 Z-0.01 I-0.0068 J0.0029
N3170 X2.0964 Y1.2611 Z-0.0108 I0.0068 J-0.0029
N3175 X2.0828 Y1.267 Z-0.0117 I-0.0068 J0.0029
N3180 X2.0964 Y1.2611 Z-0.0125 I0.0068 J-0.0029
N3185 X2.0828 Y1.267 Z-0.0133 I-0.0068 J0.0029
N3190 X2.0964 Y1.2611 Z-0.0141 I0.0068 J-0.0029
N3195 X2.0828 Y1.267 Z-0.0149 I-0.0068 J0.0029
N3200 X2.0964 Y1.2611 Z-0.0157 I0.0068 J-0.0029
N3205 X2.0828 Y1.267 Z-0.0165 I-0.0068 J0.0029
N3210 X2.0964 Y1.2611 Z-0.0173 I0.0068 J-0.0029
N3215 X2.0828 Y1.267 Z-0.0182 I-0.0068 J0.0029
N3220 X2.0964 Y1.2611 Z-0.019 I0.0068 J-0.0029
N3225 X2.0828 Y1.267 Z-0.0198 I-0.0068 J0.0029
N3230 X2.0964 Y1.2611 Z-0.0206 I0.0068 J-0.0029
N3235 X2.0828 Y1.267 Z-0.0214 I-0.0068 J0.0029
N3240 X2.0964 Y1.2611 Z-0.0222 I0.0068 J-0.0029
N3245 X2.0828 Y1.267 Z-0.023 I-0.0068 J0.0029
N3250 X2.0964 Y1.2611 Z-0.0238 I0.0068 J-0.0029
N3255 X2.0828 Y1.267 Z-0.0247 I-0.0068 J0.0029
N3260 X2.0964 Y1.2611 Z-0.0255 I0.0068 J-0.0029
N3265 X2.0828 Y1.267 Z-0.0263 I-0.0068 J0.0029
N3270 X2.0964 Y1.2611 Z-0.0271 I0.0068 J-0.0029
N3275 X2.0828 Y1.267 Z-0.0279 I-0.0068 J0.0029
N3280 X2.0964 Y1.2611 Z-0.0287 I0.0068 J-0.0029
N3285 X2.0828 Y1.267 Z-0.0295 I-0.0068 J0.0029
N3290 X2.0964 Y1.2611 Z-0.0304 I0.0068 J-0.0029
N3295 X2.0828 Y1.267 Z-0.0312 I-0.0068 J0.0029
N3300 X2.0964 Y1.2611 Z-0.032 I0.0068 J-0.0029
N3305 X2.0828 Y1.267 Z-0.0328 I-0.0068 J0.0029
N3310 X2.0964 Y1.2611 Z-0.0336 I0.0068 J-0.0029
N3315 X2.0828 Y1.267 Z-0.0344 I-0.0068 J0.0029
N3320 X2.0964 Y1.2611 Z-0.0352 I0.0068 J-0.0029
N3325 X2.0828 Y1.267 Z-0.036 I-0.0068 J0.0029
N3330 X2.0964 Y1.2611 Z-0.0369 I0.0068 J-0.0029
N3335 X2.0828 Y1.267 Z-0.0377 I-0.0068 J0.0029
N3340 X2.0964 Y1.2611 Z-0.0385 I0.0068 J-0.0029
N3345 X2.0828 Y1.267 Z-0.0393 I-0.0068 J0.0029
N3350 X2.097 Y1.2641 Z-0.04 I0.0068 J-0.0029
N3355 G1 Y1.0005
N3360 X1.5696
N3365 Y1.5279
N3370 X2.0971 Y1.528
N3375 X2.097 Y1.2641
N3380 G2 X2.0905 Y1.2544 I-0.0105
N3385 G3 X2.084 Y1.2446 I0.0041 J-0.0097
N3390 G1 Y1.0135
N3395 X1.5825 Y1.0134
N3400 Y1.5149
N3405 X2.0841 Y1.515
N3410 X2.084 Y1.2446
N3415 G2 X2.0776 Y1.2349 I-0.0105
N3420 G3 X2.0711 Y1.2251 I0.0041 J-0.0097
N3425 G1 X2.071 Y1.0265
N3430 X1.5955 Y1.0264
N3435 Y1.5019
N3440 X2.0711 Y1.502
N3445 Y1.2251
N3450 G3 X2.0726 I0.0008
N3455 X2.0725 Y1.2256 I-0.0008
N3460 G1 X2.0614 Y1.244
N3465 X2.0608 Y1.2449
N3470 G3 X2.0505 Y1.2559 I-0.0335 J-0.021
N3475 G1 X2.0449 Y1.26
N3480 G3 X2.0374 Y1.2643 I-0.0233 J-0.032
N3485 X2.0404 Y1.2659 I-0.0173 J0.0356
N3490 G1 X2.0465 Y1.2695
N3495 G3 X2.0577 Y1.2796 I-0.0203 J0.0339
N3500 G1 X2.0614 Y1.2844
N3505 Y1.244
N3510 G3 X2.0629 I0.0008
N3515 X2.0628 Y1.2443 I-0.0008
N3520 G1 X2.0556 Y1.2591
N3525 X2.0553 Y1.2592
N3530 G3 X2.0521 Y1.2615 I-0.0469 J-0.0592
N3535 G2 X2.049 Y1.2638 I0.2097 J0.2946
N3540 G1 Y1.2646
N3545 G3 X2.0522 Y1.2667 I-0.027 J0.0451
N3550 X2.0553 Y1.2691 I-0.0248 J0.0353
N3555 G1 X2.0559 Y1.2688
N3560 Y1.2595
N3565 X2.0556 Y1.2591
N3570 X2.0553 Y1.2592 Z-0.0399
N3575 G3 X2.0546 Y1.2597 Z-0.0394 I-0.0469 J-0.0592
N3580 G1 X2.0543 Y1.2599 Z-0.0384
N3585 G0 Z0.0794
N3590 X2.0685 Y1.0268
N3595 Z0.0436
N3600 G2 X2.0681 Y1.0266 Z0.0425 I-0.004 J0.0062 F40
N3605 X2.0672 Y1.0261 Z0.042 I-0.0037 J0.0064
N3610 X2.0618 Y1.0399 Z0.0412 I-0.0027 J0.0069
N3615 X2.0672 Y1.0261 Z0.0404 I0.0027 J-0.0069
N3620 X2.0618 Y1.0399 Z0.0396 I-0.0027 J0.0069
N3625 X2.0672 Y1.0261 Z0.0387 I0.0027 J-0.0069
N3630 X2.0618 Y1.0399 Z0.0379 I-0.0027 J0.0069
N3635 X2.0672 Y1.0261 Z0.0371 I0.0027 J-0.0069
N3640 X2.0618 Y1.0399 Z0.0363 I-0.0027 J0.0069
N3645 X2.0672 Y1.0261 Z0.0355 I0.0027 J-0.0069
N3650 X2.0618 Y1.0399 Z0.0347 I-0.0027 J0.0069
N3655 X2.0672 Y1.0261 Z0.0339 I0.0027 J-0.0069
N3660 X2.0618 Y1.0399 Z0.0331 I-0.0027 J0.0069
N3665 X2.0672 Y1.0261 Z0.0322 I0.0027 J-0.0069
N3670 X2.0618 Y1.0399 Z0.0314 I-0.0027 J0.0069
N3675 X2.0672 Y1.0261 Z0.0306 I0.0027 J-0.0069
N3680 X2.0618 Y1.0399 Z0.0298 I-0.0027 J0.0069
N3685 X2.0672 Y1.0261 Z0.029 I0.0027 J-0.0069
N3690 X2.0618 Y1.0399 Z0.0282 I-0.0027 J0.0069
N3695 X2.0672 Y1.0261 Z0.0274 I0.0027 J-0.0069
N3700 X2.0618 Y1.0399 Z0.0266 I-0.0027 J0.0069
N3705 X2.0672 Y1.0261 Z0.0257 I0.0027 J-0.0069
N3710 X2.0618 Y1.0399 Z0.0249 I-0.0027 J0.0069
N3715 X2.0672 Y1.0261 Z0.0241 I0.0027 J-0.0069
N3720 X2.0618 Y1.0399 Z0.0233 I-0.0027 J0.0069
N3725 X2.0672 Y1.0261 Z0.0225 I0.0027 J-0.0069
N3730 X2.0618 Y1.0399 Z0.0217 I-0.0027 J0.0069
N3735 X2.0672 Y1.0261 Z0.0209 I0.0027 J-0.0069
N3740 X2.0618 Y1.0399 Z0.0201 I-0.0027 J0.0069
N3745 X2.0672 Y1.0261 Z0.0192 I0.0027 J-0.0069
N3750 X2.0618 Y1.0399 Z0.0184 I-0.0027 J0.0069
N3755 X2.0672 Y1.0261 Z0.0176 I0.0027 J-0.0069
N3760 X2.0618 Y1.0399 Z0.0168 I-0.0027 J0.0069
N3765 X2.0672 Y1.0261 Z0.016 I0.0027 J-0.0069
N3770 X2.0618 Y1.0399 Z0.0152 I-0.0027 J0.0069
N3775 X2.0672 Y1.0261 Z0.0144 I0.0027 J-0.0069
N3780 X2.0618 Y1.0399 Z0.0135 I-0.0027 J0.0069
N3785 X2.0672 Y1.0261 Z0.0127 I0.0027 J-0.0069
N3790 X2.0618 Y1.0399 Z0.0119 I-0.0027 J0.0069
N3795 X2.0672 Y1.0261 Z0.0111 I0.0027 J-0.0069
N3800 X2.0618 Y1.0399 Z0.0103 I-0.0027 J0.0069
N3805 X2.0672 Y1.0261 Z0.0095 I0.0027 J-0.0069
N3810 X2.0618 Y1.0399 Z0.0087 I-0.0027 J0.0069
N3815 X2.0672 Y1.0261 Z0.0079 I0.0027 J-0.0069
N3820 X2.0618 Y1.0399 Z0.007 I-0.0027 J0.0069
N3825 X2.0672 Y1.0261 Z0.0062 I0.0027 J-0.0069
N3830 X2.0618 Y1.0399 Z0.0054 I-0.0027 J0.0069
N3835 X2.0672 Y1.0261 Z0.0046 I0.0027 J-0.0069
N3840 X2.0618 Y1.0399 Z0.0038 I-0.0027 J0.0069
N3845 X2.0672 Y1.0261 Z0.003 I0.0027 J-0.0069
N3850 X2.0618 Y1.0399 Z0.0022 I-0.0027 J0.0069
N3855 X2.0672 Y1.0261 Z0.0014 I0.0027 J-0.0069
N3860 X2.0618 Y1.0399 Z0.0005 I-0.0027 J0.0069
N3865 X2.0672 Y1.0261 Z-0.0003 I0.0027 J-0.0069
N3870 X2.0618 Y1.0399 Z-0.0011 I-0.0027 J0.0069
N3875 X2.0672 Y1.0261 Z-0.0019 I0.0027 J-0.0069
N3880 X2.0618 Y1.0399 Z-0.0027 I-0.0027 J0.0069
N3885 X2.0672 Y1.0261 Z-0.0035 I0.0027 J-0.0069
N3890 X2.0618 Y1.0399 Z-0.0043 I-0.0027 J0.0069
N3895 X2.0672 Y1.0261 Z-0.0051 I0.0027 J-0.0069
N3900 X2.0618 Y1.0399 Z-0.006 I-0.0027 J0.0069
N3905 X2.0672 Y1.0261 Z-0.0068 I0.0027 J-0.0069
N3910 X2.0618 Y1.0399 Z-0.0076 I-0.0027 J0.0069
N3915 X2.0672 Y1.0261 Z-0.0084 I0.0027 J-0.0069
N3920 X2.0618 Y1.0399 Z-0.0092 I-0.0027 J0.0069
N3925 X2.0672 Y1.0261 Z-0.01 I0.0027 J-0.0069
N3930 X2.0618 Y1.0399 Z-0.0108 I-0.0027 J0.0069
N3935 X2.0672 Y1.0261 Z-0.0117 I0.0027 J-0.0069
N3940 X2.0618 Y1.0399 Z-0.0125 I-0.0027 J0.0069
N3945 X2.0672 Y1.0261 Z-0.0133 I0.0027 J-0.0069
N3950 X2.0618 Y1.0399 Z-0.0141 I-0.0027 J0.0069
N3955 X2.0672 Y1.0261 Z-0.0149 I0.0027 J-0.0069
N3960 X2.0618 Y1.0399 Z-0.0157 I-0.0027 J0.0069
N3965 X2.0672 Y1.0261 Z-0.0165 I0.0027 J-0.0069
N3970 X2.0618 Y1.0399 Z-0.0173 I-0.0027 J0.0069
N3975 X2.0672 Y1.0261 Z-0.0182 I0.0027 J-0.0069
N3980 X2.0618 Y1.0399 Z-0.019 I-0.0027 J0.0069
N3985 X2.0672 Y1.0261 Z-0.0198 I0.0027 J-0.0069
N3990 X2.0618 Y1.0399 Z-0.0206 I-0.0027 J0.0069
N3995 X2.0672 Y1.0261 Z-0.0214 I0.0027 J-0.0069
N4000 X2.0618 Y1.0399 Z-0.0222 I-0.0027 J0.0069
N4005 X2.0672 Y1.0261 Z-0.023 I0.0027 J-0.0069
N4010 X2.0618 Y1.0399 Z-0.0238 I-0.0027 J0.0069
N4015 X2.0672 Y1.0261 Z-0.0247 I0.0027 J-0.0069
N4020 X2.0618 Y1.0399 Z-0.0255 I-0.0027 J0.0069
N4025 X2.0672 Y1.0261 Z-0.0263 I0.0027 J-0.0069
N4030 X2.0618 Y1.0399 Z-0.0271 I-0.0027 J0.0069
N4035 X2.0672 Y1.0261 Z-0.0279 I0.0027 J-0.0069
N4040 X2.0618 Y1.0399 Z-0.0287 I-0.0027 J0.0069
N4045 X2.0672 Y1.0261 Z-0.0295 I0.0027 J-0.0069
N4050 X2.0618 Y1.0399 Z-0.0304 I-0.0027 J0.0069
N4055 X2.0672 Y1.0261 Z-0.0312 I0.0027 J-0.0069
N4060 X2.0618 Y1.0399 Z-0.032 I-0.0027 J0.0069
N4065 X2.0672 Y1.0261 Z-0.0328 I0.0027 J-0.0069
N4070 X2.0618 Y1.0399 Z-0.0336 I-0.0027 J0.0069
N4075 X2.0672 Y1.0261 Z-0.0344 I0.0027 J-0.0069
N4080 X2.0618 Y1.0399 Z-0.0352 I-0.0027 J0.0069
N4085 X2.0672 Y1.0261 Z-0.036 I0.0027 J-0.0069
N4090 X2.0618 Y1.0399 Z-0.0369 I-0.0027 J0.0069
N4095 X2.0672 Y1.0261 Z-0.0377 I0.0027 J-0.0069
N4100 X2.0618 Y1.0399 Z-0.0385 I-0.0027 J0.0069
N4105 X2.0672 Y1.0261 Z-0.0393 I0.0027 J-0.0069
N4110 X2.0593 Y1.0383 Z-0.04 I-0.0027 J0.0069
N4115 G3 X2.0613 Y1.0405 I-0.0279 J0.0281
N4120 G1 Y1.0362
N4125 X2.057
N4130 G3 X2.0593 Y1.0383 I-0.0256 J0.0302
N4135 X2.06 Y1.0391 Z-0.0395 I-0.0279 J0.0281
N4140 X2.0603 Y1.0394 Z-0.0384 I-0.0287 J0.0273
N4145 G0 Z0.0794
N4150 X1.5958 Y1.0292
N4155 Z0.0436
N4160 G2 X1.5956 Y1.0296 Z0.0425 I0.0063 J0.0039 F40
N4165 X1.5951 Y1.0306 Z0.042 I0.0065 J0.0036
N4170 X1.609 Y1.0358 Z0.0412 I0.0069 J0.0026
N4175 X1.5951 Y1.0306 Z0.0404 I-0.0069 J-0.0026
N4180 X1.609 Y1.0358 Z0.0396 I0.0069 J0.0026
N4185 X1.5951 Y1.0306 Z0.0387 I-0.0069 J-0.0026
N4190 X1.609 Y1.0358 Z0.0379 I0.0069 J0.0026
N4195 X1.5951 Y1.0306 Z0.0371 I-0.0069 J-0.0026
N4200 X1.609 Y1.0358 Z0.0363 I0.0069 J0.0026
N4205 X1.5951 Y1.0306 Z0.0355 I-0.0069 J-0.0026
N4210 X1.609 Y1.0358 Z0.0347 I0.0069 J0.0026
N4215 X1.5951 Y1.0306 Z0.0339 I-0.0069 J-0.0026
N4220 X1.609 Y1.0358 Z0.0331 I0.0069 J0.0026
N4225 X1.5951 Y1.0306 Z0.0322 I-0.0069 J-0.0026
N4230 X1.609 Y1.0358 Z0.0314 I0.0069 J0.0026
N4235 X1.5951 Y1.0306 Z0.0306 I-0.0069 J-0.0026
N4240 X1.609 Y1.0358 Z0.0298 I0.0069 J0.0026
N4245 X1.5951 Y1.0306 Z0.029 I-0.0069 J-0.0026
N4250 X1.609 Y1.0358 Z0.0282 I0.0069 J0.0026
N4255 X1.5951 Y1.0306 Z0.0274 I-0.0069 J-0.0026
N4260 X1.609 Y1.0358 Z0.0266 I0.0069 J0.0026
N4265 X1.5951 Y1.0306 Z0.0257 I-0.0069 J-0.0026
N4270 X1.609 Y1.0358 Z0.0249 I0.0069 J0.0026
N4275 X1.5951 Y1.0306 Z0.0241 I-0.0069 J-0.0026
N4280 X1.609 Y1.0358 Z0.0233 I0.0069 J0.0026
N4285 X1.5951 Y1.0306 Z0.0225 I-0.0069 J-0.0026
N4290 X1.609 Y1.0358 Z0.0217 I0.0069 J0.0026
N4295 X1.5951 Y1.0306 Z0.0209 I-0.0069 J-0.0026
N4300 X1.609 Y1.0358 Z0.0201 I0.0069 J0.0026
N4305 X1.5951 Y1.0306 Z0.0192 I-0.0069 J-0.0026
N4310 X1.609 Y1.0358 Z0.0184 I0.0069 J0.0026
N4315 X1.5951 Y1.0306 Z0.0176 I-0.0069 J-0.0026
N4320 X1.609 Y1.0358 Z0.0168 I0.0069 J0.0026
N4325 X1.5951 Y1.0306 Z0.016 I-0.0069 J-0.0026
N4330 X1.609 Y1.0358 Z0.0152 I0.0069 J0.0026
N4335 X1.5951 Y1.0306 Z0.0144 I-0.0069 J-0.0026
N4340 X1.609 Y1.0358 Z0.0135 I0.0069 J0.0026
N4345 X1.5951 Y1.0306 Z0.0127 I-0.0069 J-0.0026
N4350 X1.609 Y1.0358 Z0.0119 I0.0069 J0.0026
N4355 X1.5951 Y1.0306 Z0.0111 I-0.0069 J-0.0026
N4360 X1.609 Y1.0358 Z0.0103 I0.0069 J0.0026
N4365 X1.5951 Y1.0306 Z0.0095 I-0.0069 J-0.0026
N4370 X1.609 Y1.0358 Z0.0087 I0.0069 J0.0026
N4375 X1.5951 Y1.0306 Z0.0079 I-0.0069 J-0.0026
N4380 X1.609 Y1.0358 Z0.007 I0.0069 J0.0026
N4385 X1.5951 Y1.0306 Z0.0062 I-0.0069 J-0.0026
N4390 X1.609 Y1.0358 Z0.0054 I0.0069 J0.0026
N4395 X1.5951 Y1.0306 Z0.0046 I-0.0069 J-0.0026
N4400 X1.609 Y1.0358 Z0.0038 I0.0069 J0.0026
N4405 X1.5951 Y1.0306 Z0.003 I-0.0069 J-0.0026
N4410 X1.609 Y1.0358 Z0.0022 I0.0069 J0.0026
N4415 X1.5951 Y1.0306 Z0.0014 I-0.0069 J-0.0026
N4420 X1.609 Y1.0358 Z0.0005 I0.0069 J0.0026
N4425 X1.5951 Y1.0306 Z-0.0003 I-0.0069 J-0.0026
N4430 X1.609 Y1.0358 Z-0.0011 I0.0069 J0.0026
N4435 X1.5951 Y1.0306 Z-0.0019 I-0.0069 J-0.0026
N4440 X1.609 Y1.0358 Z-0.0027 I0.0069 J0.0026
N4445 X1.5951 Y1.0306 Z-0.0035 I-0.0069 J-0.0026
N4450 X1.609 Y1.0358 Z-0.0043 I0.0069 J0.0026
N4455 X1.5951 Y1.0306 Z-0.0051 I-0.0069 J-0.0026
N4460 X1.609 Y1.0358 Z-0.006 I0.0069 J0.0026
N4465 X1.5951 Y1.0306 Z-0.0068 I-0.0069 J-0.0026
N4470 X1.609 Y1.0358 Z-0.0076 I0.0069 J0.0026
N4475 X1.5951 Y1.0306 Z-0.0084 I-0.0069 J-0.0026
N4480 X1.609 Y1.0358 Z-0.0092 I0.0069 J0.0026
N4485 X1.5951 Y1.0306 Z-0.01 I-0.0069 J-0.0026
N4490 X1.609 Y1.0358 Z-0.0108 I0.0069 J0.0026
N4495 X1.5951 Y1.0306 Z-0.0117 I-0.0069 J-0.0026
N4500 X1.609 Y1.0358 Z-0.0125 I0.0069 J0.0026
N4505 X1.5951 Y1.0306 Z-0.0133 I-0.0069 J-0.0026
N4510 X1.609 Y1.0358 Z-0.0141 I0.0069 J0.0026
N4515 X1.5951 Y1.0306 Z-0.0149 I-0.0069 J-0.0026
N4520 X1.609 Y1.0358 Z-0.0157 I0.0069 J0.0026
N4525 X1.5951 Y1.0306 Z-0.0165 I-0.0069 J-0.0026
N4530 X1.609 Y1.0358 Z-0.0173 I0.0069 J0.0026
N4535 X1.5951 Y1.0306 Z-0.0182 I-0.0069 J-0.0026
N4540 X1.609 Y1.0358 Z-0.019 I0.0069 J0.0026
N4545 X1.5951 Y1.0306 Z-0.0198 I-0.0069 J-0.0026
N4550 X1.609 Y1.0358 Z-0.0206 I0.0069 J0.0026
N4555 X1.5951 Y1.0306 Z-0.0214 I-0.0069 J-0.0026
N4560 X1.609 Y1.0358 Z-0.0222 I0.0069 J0.0026
N4565 X1.5951 Y1.0306 Z-0.023 I-0.0069 J-0.0026
N4570 X1.609 Y1.0358 Z-0.0238 I0.0069 J0.0026
N4575 X1.5951 Y1.0306 Z-0.0247 I-0.0069 J-0.0026
N4580 X1.609 Y1.0358 Z-0.0255 I0.0069 J0.0026
N4585 X1.5951 Y1.0306 Z-0.0263 I-0.0069 J-0.0026
N4590 X1.609 Y1.0358 Z-0.0271 I0.0069 J0.0026
N4595 X1.5951 Y1.0306 Z-0.0279 I-0.0069 J-0.0026
N4600 X1.609 Y1.0358 Z-0.0287 I0.0069 J0.0026
N4605 X1.5951 Y1.0306 Z-0.0295 I-0.0069 J-0.0026
N4610 X1.609 Y1.0358 Z-0.0304 I0.0069 J0.0026
N4615 X1.5951 Y1.0306 Z-0.0312 I-0.0069 J-0.0026
N4620 X1.609 Y1.0358 Z-0.032 I0.0069 J0.0026
N4625 X1.5951 Y1.0306 Z-0.0328 I-0.0069 J-0.0026
N4630 X1.609 Y1.0358 Z-0.0336 I0.0069 J0.0026
N4635 X1.5951 Y1.0306 Z-0.0344 I-0.0069 J-0.0026
N4640 X1.609 Y1.0358 Z-0.0352 I0.0069 J0.0026
N4645 X1.5951 Y1.0306 Z-0.036 I-0.0069 J-0.0026
N4650 X1.609 Y1.0358 Z-0.0369 I0.0069 J0.0026
N4655 X1.5951 Y1.0306 Z-0.0377 I-0.0069 J-0.0026
N4660 X1.609 Y1.0358 Z-0.0385 I0.0069 J0.0026
N4665 X1.5951 Y1.0306 Z-0.0393 I-0.0069 J-0.0026
N4670 X1.6074 Y1.0383 Z-0.04 I0.0069 J0.0026
N4675 G1 X1.6077 Y1.0381
N4680 G3 X1.6096 Y1.0362 I0.0286 J0.0275
N4685 G1 X1.6053
N4690 Y1.0406
N4695 G3 X1.6061 Y1.0397 I0.0294 J0.0266
N4700 G1 X1.6074 Y1.0383
N4705 X1.6077 Y1.0381
N4710 G3 X1.6083 Y1.0374 Z-0.0394 I0.0286 J0.0275
N4715 G1 X1.6085 Y1.0372 Z-0.0384
N4720 G0 Z0.0794
N4725 X1.6109 Y1.2706
N4730 Z0.0436
N4735 G2 X1.6113 Y1.2707 Z0.0425 I0.0029 J-0.0068 F40
N4740 X1.6124 Y1.271 Z0.042 I0.0024 J-0.007
N4745 X1.6152 Y1.2565 Z0.0412 I0.0014 J-0.0073
N4750 X1.6124 Y1.271 Z0.0404 I-0.0014 J0.0073
N4755 X1.6152 Y1.2565 Z0.0396 I0.0014 J-0.0073
N4760 X1.6124 Y1.271 Z0.0387 I-0.0014 J0.0073
N4765 X1.6152 Y1.2565 Z0.0379 I0.0014 J-0.0073
N4770 X1.6124 Y1.271 Z0.0371 I-0.0014 J0.0073
N4775 X1.6152 Y1.2565 Z0.0363 I0.0014 J-0.0073
N4780 X1.6124 Y1.271 Z0.0355 I-0.0014 J0.0073
N4785 X1.6152 Y1.2565 Z0.0347 I0.0014 J-0.0073
N4790 X1.6124 Y1.271 Z0.0339 I-0.0014 J0.0073
N4795 X1.6152 Y1.2565 Z0.0331 I0.0014 J-0.0073
N4800 X1.6124 Y1.271 Z0.0322 I-0.0014 J0.0073
N4805 X1.6152 Y1.2565 Z0.0314 I0.0014 J-0.0073
N4810 X1.6124 Y1.271 Z0.0306 I-0.0014 J0.0073
N4815 X1.6152 Y1.2565 Z0.0298 I0.0014 J-0.0073
N4820 X1.6124 Y1.271 Z0.029 I-0.0014 J0.0073
N4825 X1.6152 Y1.2565 Z0.0282 I0.0014 J-0.0073
N4830 X1.6124 Y1.271 Z0.0274 I-0.0014 J0.0073
N4835 X1.6152 Y1.2565 Z0.0266 I0.0014 J-0.0073
N4840 X1.6124 Y1.271 Z0.0257 I-0.0014 J0.0073
N4845 X1.6152 Y1.2565 Z0.0249 I0.0014 J-0.0073
N4850 X1.6124 Y1.271 Z0.0241 I-0.0014 J0.0073
N4855 X1.6152 Y1.2565 Z0.0233 I0.0014 J-0.0073
N4860 X1.6124 Y1.271 Z0.0225 I-0.0014 J0.0073
N4865 X1.6152 Y1.2565 Z0.0217 I0.0014 J-0.0073
N4870 X1.6124 Y1.271 Z0.0209 I-0.0014 J0.0073
N4875 X1.6152 Y1.2565 Z0.0201 I0.0014 J-0.0073
N4880 X1.6124 Y1.271 Z0.0192 I-0.0014 J0.0073
N4885 X1.6152 Y1.2565 Z0.0184 I0.0014 J-0.0073
N4890 X1.6124 Y1.271 Z0.0176 I-0.0014 J0.0073
N4895 X1.6152 Y1.2565 Z0.0168 I0.0014 J-0.0073
N4900 X1.6124 Y1.271 Z0.016 I-0.0014 J0.0073
N4905 X1.6152 Y1.2565 Z0.0152 I0.0014 J-0.0073
N4910 X1.6124 Y1.271 Z0.0144 I-0.0014 J0.0073
N4915 X1.6152 Y1.2565 Z0.0135 I0.0014 J-0.0073
N4920 X1.6124 Y1.271 Z0.0127 I-0.0014 J0.0073
N4925 X1.6152 Y1.2565 Z0.0119 I0.0014 J-0.0073
N4930 X1.6124 Y1.271 Z0.0111 I-0.0014 J0.0073
N4935 X1.6152 Y1.2565 Z0.0103 I0.0014 J-0.0073
N4940 X1.6124 Y1.271 Z0.0095 I-0.0014 J0.0073
N4945 X1.6152 Y1.2565 Z0.0087 I0.0014 J-0.0073
N4950 X1.6124 Y1.271 Z0.0079 I-0.0014 J0.0073
N4955 X1.6152 Y1.2565 Z0.007 I0.0014 J-0.0073
N4960 X1.6124 Y1.271 Z0.0062 I-0.0014 J0.0073
N4965 X1.6152 Y1.2565 Z0.0054 I0.0014 J-0.0073
N4970 X1.6124 Y1.271 Z0.0046 I-0.0014 J0.0073
N4975 X1.6152 Y1.2565 Z0.0038 I0.0014 J-0.0073
N4980 X1.6124 Y1.271 Z0.003 I-0.0014 J0.0073
N4985 X1.6152 Y1.2565 Z0.0022 I0.0014 J-0.0073
N4990 X1.6124 Y1.271 Z0.0014 I-0.0014 J0.0073
N4995 X1.6152 Y1.2565 Z0.0005 I0.0014 J-0.0073
N5000 X1.6124 Y1.271 Z-0.0003 I-0.0014 J0.0073
N5005 X1.6152 Y1.2565 Z-0.0011 I0.0014 J-0.0073
N5010 X1.6124 Y1.271 Z-0.0019 I-0.0014 J0.0073
N5015 X1.6152 Y1.2565 Z-0.0027 I0.0014 J-0.0073
N5020 X1.6124 Y1.271 Z-0.0035 I-0.0014 J0.0073
N5025 X1.6152 Y1.2565 Z-0.0043 I0.0014 J-0.0073
N5030 X1.6124 Y1.271 Z-0.0051 I-0.0014 J0.0073
N5035 X1.6152 Y1.2565 Z-0.006 I0.0014 J-0.0073
N5040 X1.6124 Y1.271 Z-0.0068 I-0.0014 J0.0073
N5045 X1.6152 Y1.2565 Z-0.0076 I0.0014 J-0.0073
N5050 X1.6124 Y1.271 Z-0.0084 I-0.0014 J0.0073
N5055 X1.6152 Y1.2565 Z-0.0092 I0.0014 J-0.0073
N5060 X1.6124 Y1.271 Z-0.01 I-0.0014 J0.0073
N5065 X1.6152 Y1.2565 Z-0.0108 I0.0014 J-0.0073
N5070 X1.6124 Y1.271 Z-0.0117 I-0.0014 J0.0073
N5075 X1.6152 Y1.2565 Z-0.0125 I0.0014 J-0.0073
N5080 X1.6124 Y1.271 Z-0.0133 I-0.0014 J0.0073
N5085 X1.6152 Y1.2565 Z-0.0141 I0.0014 J-0.0073
N5090 X1.6124 Y1.271 Z-0.0149 I-0.0014 J0.0073
N5095 X1.6152 Y1.2565 Z-0.0157 I0.0014 J-0.0073
N5100 X1.6124 Y1.271 Z-0.0165 I-0.0014 J0.0073
N5105 X1.6152 Y1.2565 Z-0.0173 I0.0014 J-0.0073
N5110 X1.6124 Y1.271 Z-0.0182 I-0.0014 J0.0073
N5115 X1.6152 Y1.2565 Z-0.019 I0.0014 J-0.0073
N5120 X1.6124 Y1.271 Z-0.0198 I-0.0014 J0.0073
N5125 X1.6152 Y1.2565 Z-0.0206 I0.0014 J-0.0073
N5130 X1.6124 Y1.271 Z-0.0214 I-0.0014 J0.0073
N5135 X1.6152 Y1.2565 Z-0.0222 I0.0014 J-0.0073
N5140 X1.6124 Y1.271 Z-0.023 I-0.0014 J0.0073
N5145 X1.6152 Y1.2565 Z-0.0238 I0.0014 J-0.0073
N5150 X1.6124 Y1.271 Z-0.0247 I-0.0014 J0.0073
N5155 X1.6152 Y1.2565 Z-0.0255 I0.0014 J-0.0073
N5160 X1.6124 Y1.271 Z-0.0263 I-0.0014 J0.0073
N5165 X1.6152 Y1.2565 Z-0.0271 I0.0014 J-0.0073
N5170 X1.6124 Y1.271 Z-0.0279 I-0.0014 J0.0073
N5175 X1.6152 Y1.2565 Z-0.0287 I0.0014 J-0.0073
N5180 X1.6124 Y1.271 Z-0.0295 I-0.0014 J0.0073
N5185 X1.6152 Y1.2565 Z-0.0304 I0.0014 J-0.0073
N5190 X1.6124 Y1.271 Z-0.0312 I-0.0014 J0.0073
N5195 X1.6152 Y1.2565 Z-0.032 I0.0014 J-0.0073
N5200 X1.6124 Y1.271 Z-0.0328 I-0.0014 J0.0073
N5205 X1.6152 Y1.2565 Z-0.0336 I0.0014 J-0.0073
N5210 X1.6124 Y1.271 Z-0.0344 I-0.0014 J0.0073
N5215 X1.6152 Y1.2565 Z-0.0352 I0.0014 J-0.0073
N5220 X1.6124 Y1.271 Z-0.036 I-0.0014 J0.0073
N5225 X1.6152 Y1.2565 Z-0.0369 I0.0014 J-0.0073
N5230 X1.6124 Y1.271 Z-0.0377 I-0.0014 J0.0073
N5235 X1.6152 Y1.2565 Z-0.0385 I0.0014 J-0.0073
N5240 X1.6124 Y1.271 Z-0.0393 I-0.0014 J0.0073
N5245 X1.618 Y1.2576 Z-0.04 I0.0014 J-0.0073
N5250 G3 X1.6088 Y1.2489 I0.0224 J-0.0327
N5255 G1 X1.6053 Y1.2442
N5260 Y1.2841
N5265 X1.6066 Y1.2822
N5270 G3 X1.6161 Y1.2724 I0.0328 J0.0223
N5275 G1 X1.6218 Y1.2682
N5280 G3 X1.6289 Y1.2642 I0.0232 J0.0321
N5285 X1.6261 Y1.2626 I0.0176 J-0.0355
N5290 G1 X1.62 Y1.2589
N5295 G3 X1.618 Y1.2576 I0.0204 J-0.034
N5300 G2 X1.6159 Y1.2595 I-0.0008 J0.0012
N5305 G3 X1.6138 Y1.2614 I-0.0012 J0.0007
N5310 X1.6113 Y1.2594 I0.0252 J-0.0348
N5315 G1 X1.6107 Y1.2597
N5320 Y1.269
N5325 X1.6112 Y1.2692
N5330 G3 X1.6144 Y1.2669 I0.0425 J0.0534
N5335 G2 X1.6176 Y1.2646 I-0.2092 J-0.296
N5340 G1 X1.6175 Y1.2638
N5345 G3 X1.6143 Y1.2617 I0.0277 J-0.0461
N5350 X1.6138 Y1.2614 I0.0247 J-0.0352
N5355 G2 X1.6128 Y1.2611 Z-0.0395 I-0.0009 J0.0013
N5360 X1.6123 Y1.2612 Z-0.0384 I0.0001 J0.0016
N5365 G0 Z0.0794
N5370 X1.62 Y1.4895
N5375 Z0.0436
N5380 G2 X1.6199 Y1.4891 Z0.0425 I-0.0073 J0.0015 F40
N5385 X1.6195 Y1.4881 Z0.042 I-0.0072 J0.0019
N5390 X1.6059 Y1.494 Z0.0412 I-0.0068 J0.0029
N5395 X1.6195 Y1.4881 Z0.0404 I0.0068 J-0.0029
N5400 X1.6059 Y1.494 Z0.0396 I-0.0068 J0.0029
N5405 X1.6195 Y1.4881 Z0.0387 I0.0068 J-0.0029
N5410 X1.6059 Y1.494 Z0.0379 I-0.0068 J0.0029
N5415 X1.6195 Y1.4881 Z0.0371 I0.0068 J-0.0029
N5420 X1.6059 Y1.494 Z0.0363 I-0.0068 J0.0029
N5425 X1.6195 Y1.4881 Z0.0355 I0.0068 J-0.0029
N5430 X1.6059 Y1.494 Z0.0347 I-0.0068 J0.0029
N5435 X1.6195 Y1.4881 Z0.0339 I0.0068 J-0.0029
N5440 X1.6059 Y1.494 Z0.0331 I-0.0068 J0.0029
N5445 X1.6195 Y1.4881 Z0.0322 I0.0068 J-0.0029
N5450 X1.6059 Y1.494 Z0.0314 I-0.0068 J0.0029
N5455 X1.6195 Y1.4881 Z0.0306 I0.0068 J-0.0029
N5460 X1.6059 Y1.494 Z0.0298 I-0.0068 J0.0029
N5465 X1.6195 Y1.4881 Z0.029 I0.0068 J-0.0029
N5470 X1.6059 Y1.494 Z0.0282 I-0.0068 J0.0029
N5475 X1.6195 Y1.4881 Z0.0274 I0.0068 J-0.0029
N5480 X1.6059 Y1.494 Z0.0266 I-0.0068 J0.0029
N5485 X1.6195 Y1.4881 Z0.0257 I0.0068 J-0.0029
N5490 X1.6059 Y1.494 Z0.0249 I-0.0068 J0.0029
N5495 X1.6195 Y1.4881 Z0.0241 I0.0068 J-0.0029
N5500 X1.6059 Y1.494 Z0.0233 I-0.0068 J0.0029
N5505 X1.6195 Y1.4881 Z0.0225 I0.0068 J-0.0029
N5510 X1.6059 Y1.494 Z0.0217 I-0.0068 J0.0029
N5515 X1.6195 Y1.4881 Z0.0209 I0.0068 J-0.0029
N5520 X1.6059 Y1.494 Z0.0201 I-0.0068 J0.0029
N5525 X1.6195 Y1.4881 Z0.0192 I0.0068 J-0.0029
N5530 X1.6059 Y1.494 Z0.0184 I-0.0068 J0.0029
N5535 X1.6195 Y1.4881 Z0.0176 I0.0068 J-0.0029
N5540 X1.6059 Y1.494 Z0.0168 I-0.0068 J0.0029
N5545 X1.6195 Y1.4881 Z0.016 I0.0068 J-0.0029
N5550 X1.6059 Y1.494 Z0.0152 I-0.0068 J0.0029
N5555 X1.6195 Y1.4881 Z0.0144 I0.0068 J-0.0029
N5560 X1.6059 Y1.494 Z0.0135 I-0.0068 J0.0029
N5565 X1.6195 Y1.4881 Z0.0127 I0.0068 J-0.0029
N5570 X1.6059 Y1.494 Z0.0119 I-0.0068 J0.0029
N5575 X1.6195 Y1.4881 Z0.0111 I0.0068 J-0.0029
N5580 X1.6059 Y1.494 Z0.0103 I-0.0068 J0.0029
N5585 X1.6195 Y1.4881 Z0.0095 I0.0068 J-0.0029
N5590 X1.6059 Y1.494 Z0.0087 I-0.0068 J0.0029
N5595 X1.6195 Y1.4881 Z0.0079 I0.0068 J-0.0029
N5600 X1.6059 Y1.494 Z0.007 I-0.0068 J0.0029
N5605 X1.6195 Y1.4881 Z0.0062 I0.0068 J-0.0029
N5610 X1.6059 Y1.494 Z0.0054 I-0.0068 J0.0029
N5615 X1.6195 Y1.4881 Z0.0046 I0.0068 J-0.0029
N5620 X1.6059 Y1.494 Z0.0038 I-0.0068 J0.0029
N5625 X1.6195 Y1.4881 Z0.003 I0.0068 J-0.0029
N5630 X1.6059 Y1.494 Z0.0022 I-0.0068 J0.0029
N5635 X1.6195 Y1.4881 Z0.0014 I0.0068 J-0.0029
N5640 X1.6059 Y1.494 Z0.0005 I-0.0068 J0.0029
N5645 X1.6195 Y1.4881 Z-0.0003 I0.0068 J-0.0029
N5650 X1.6059 Y1.494 Z-0.0011 I-0.0068 J0.0029
N5655 X1.6195 Y1.4881 Z-0.0019 I0.0068 J-0.0029
N5660 X1.6059 Y1.494 Z-0.0027 I-0.0068 J0.0029
N5665 X1.6195 Y1.4881 Z-0.0035 I0.0068 J-0.0029
N5670 X1.6059 Y1.494 Z-0.0043 I-0.0068 J0.0029
N5675 X1.6195 Y1.4881 Z-0.0051 I0.0068 J-0.0029
N5680 X1.6059 Y1.494 Z-0.006 I-0.0068 J0.0029
N5685 X1.6195 Y1.4881 Z-0.0068 I0.0068 J-0.0029
N5690 X1.6059 Y1.494 Z-0.0076 I-0.0068 J0.0029
N5695 X1.6195 Y1.4881 Z-0.0084 I0.0068 J-0.0029
N5700 X1.6059 Y1.494 Z-0.0092 I-0.0068 J0.0029
N5705 X1.6195 Y1.4881 Z-0.01 I0.0068 J-0.0029
N5710 X1.6059 Y1.494 Z-0.0108 I-0.0068 J0.0029
N5715 X1.6195 Y1.4881 Z-0.0117 I0.0068 J-0.0029
N5720 X1.6059 Y1.494 Z-0.0125 I-0.0068 J0.0029
N5725 X1.6195 Y1.4881 Z-0.0133 I0.0068 J-0.0029
N5730 X1.6059 Y1.494 Z-0.0141 I-0.0068 J0.0029
N5735 X1.6195 Y1.4881 Z-0.0149 I0.0068 J-0.0029
N5740 X1.6059 Y1.494 Z-0.0157 I-0.0068 J0.0029
N5745 X1.6195 Y1.4881 Z-0.0165 I0.0068 J-0.0029
N5750 X1.6059 Y1.494 Z-0.0173 I-0.0068 J0.0029
N5755 X1.6195 Y1.4881 Z-0.0182 I0.0068 J-0.0029
N5760 X1.6059 Y1.494 Z-0.019 I-0.0068 J0.0029
N5765 X1.6195 Y1.4881 Z-0.0198 I0.0068 J-0.0029
N5770 X1.6059 Y1.494 Z-0.0206 I-0.0068 J0.0029
N5775 X1.6195 Y1.4881 Z-0.0214 I0.0068 J-0.0029
N5780 X1.6059 Y1.494 Z-0.0222 I-0.0068 J0.0029
N5785 X1.6195 Y1.4881 Z-0.023 I0.0068 J-0.0029
N5790 X1.6059 Y1.494 Z-0.0238 I-0.0068 J0.0029
N5795 X1.6195 Y1.4881 Z-0.0247 I0.0068 J-0.0029
N5800 X1.6059 Y1.494 Z-0.0255 I-0.0068 J0.0029
N5805 X1.6195 Y1.4881 Z-0.0263 I0.0068 J-0.0029
N5810 X1.6059 Y1.494 Z-0.0271 I-0.0068 J0.0029
N5815 X1.6195 Y1.4881 Z-0.0279 I0.0068 J-0.0029
N5820 X1.6059 Y1.494 Z-0.0287 I-0.0068 J0.0029
N5825 X1.6195 Y1.4881 Z-0.0295 I0.0068 J-0.0029
N5830 X1.6059 Y1.494 Z-0.0304 I-0.0068 J0.0029
N5835 X1.6195 Y1.4881 Z-0.0312 I0.0068 J-0.0029
N5840 X1.6059 Y1.494 Z-0.032 I-0.0068 J0.0029
N5845 X1.6195 Y1.4881 Z-0.0328 I0.0068 J-0.0029
N5850 X1.6059 Y1.494 Z-0.0336 I-0.0068 J0.0029
N5855 X1.6195 Y1.4881 Z-0.0344 I0.0068 J-0.0029
N5860 X1.6059 Y1.494 Z-0.0352 I-0.0068 J0.0029
N5865 X1.6195 Y1.4881 Z-0.036 I0.0068 J-0.0029
N5870 X1.6059 Y1.494 Z-0.0369 I-0.0068 J0.0029
N5875 X1.6195 Y1.4881 Z-0.0377 I0.0068 J-0.0029
N5880 X1.6059 Y1.494 Z-0.0385 I-0.0068 J0.0029
N5885 X1.6195 Y1.4881 Z-0.0393 I0.0068 J-0.0029
N5890 X1.6053 Y1.491 Z-0.04 I-0.0068 J0.0029
N5895 G1 Y1.4922
N5900 X1.6095
N5905 G3 X1.6053 Y1.488 I0.0258 J-0.0301
N5910 G1 Y1.491
N5915 Y1.4917 Z-0.0399
N5920 Y1.4922 Z-0.0395
N5925 X1.6056 Z-0.039
N5930 X1.6057 Z-0.0384
N5935 G0 Z0.0794
N5940 X2.0707 Y1.4996
N5945 Z0.0436
N5950 G2 X2.071 Y1.4992 Z0.0425 I-0.0062 J-0.0041 F40
N5955 X2.0714 Y1.4982 Z0.042 I-0.0064 J-0.0037
N5960 X2.0577 Y1.4927 Z0.0412 I-0.0069 J-0.0027
N5965 X2.0714 Y1.4982 Z0.0404 I0.0069 J0.0027
N5970 X2.0577 Y1.4927 Z0.0396 I-0.0069 J-0.0027
N5975 X2.0714 Y1.4982 Z0.0387 I0.0069 J0.0027
N5980 X2.0577 Y1.4927 Z0.0379 I-0.0069 J-0.0027
N5985 X2.0714 Y1.4982 Z0.0371 I0.0069 J0.0027
N5990 X2.0577 Y1.4927 Z0.0363 I-0.0069 J-0.0027
N5995 X2.0714 Y1.4982 Z0.0355 I0.0069 J0.0027
N6000 X2.0577 Y1.4927 Z0.0347 I-0.0069 J-0.0027
N6005 X2.0714 Y1.4982 Z0.0339 I0.0069 J0.0027
N6010 X2.0577 Y1.4927 Z0.0331 I-0.0069 J-0.0027
N6015 X2.0714 Y1.4982 Z0.0322 I0.0069 J0.0027
N6020 X2.0577 Y1.4927 Z0.0314 I-0.0069 J-0.0027
N6025 X2.0714 Y1.4982 Z0.0306 I0.0069 J0.0027
N6030 X2.0577 Y1.4927 Z0.0298 I-0.0069 J-0.0027
N6035 X2.0714 Y1.4982 Z0.029 I0.0069 J0.0027
N6040 X2.0577 Y1.4927 Z0.0282 I-0.0069 J-0.0027
N6045 X2.0714 Y1.4982 Z0.0274 I0.0069 J0.0027
N6050 X2.0577 Y1.4927 Z0.0266 I-0.0069 J-0.0027
N6055 X2.0714 Y1.4982 Z0.0257 I0.0069 J0.0027
N6060 X2.0577 Y1.4927 Z0.0249 I-0.0069 J-0.0027
N6065 X2.0714 Y1.4982 Z0.0241 I0.0069 J0.0027
N6070 X2.0577 Y1.4927 Z0.0233 I-0.0069 J-0.0027
N6075 X2.0714 Y1.4982 Z0.0225 I0.0069 J0.0027
N6080 X2.0577 Y1.4927 Z0.0217 I-0.0069 J-0.0027
N6085 X2.0714 Y1.4982 Z0.0209 I0.0069 J0.0027
N6090 X2.0577 Y1.4927 Z0.0201 I-0.0069 J-0.0027
N6095 X2.0714 Y1.4982 Z0.0192 I0.0069 J0.0027
N6100 X2.0577 Y1.4927 Z0.0184 I-0.0069 J-0.0027
N6105 X2.0714 Y1.4982 Z0.0176 I0.0069 J0.0027
N6110 X2.0577 Y1.4927 Z0.0168 I-0.0069 J-0.0027
N6115 X2.0714 Y1.4982 Z0.016 I0.0069 J0.0027
N6120 X2.0577 Y1.4927 Z0.0152 I-0.0069 J-0.0027
N6125 X2.0714 Y1.4982 Z0.0144 I0.0069 J0.0027
N6130 X2.0577 Y1.4927 Z0.0135 I-0.0069 J-0.0027
N6135 X2.0714 Y1.4982 Z0.0127 I0.0069 J0.0027
N6140 X2.0577 Y1.4927 Z0.0119 I-0.0069 J-0.0027
N6145 X2.0714 Y1.4982 Z0.0111 I0.0069 J0.0027
N6150 X2.0577 Y1.4927 Z0.0103 I-0.0069 J-0.0027
N6155 X2.0714 Y1.4982 Z0.0095 I0.0069 J0.0027
N6160 X2.0577 Y1.4927 Z0.0087 I-0.0069 J-0.0027
N6165 X2.0714 Y1.4982 Z0.0079 I0.0069 J0.0027
N6170 X2.0577 Y1.4927 Z0.007 I-0.0069 J-0.0027
N6175 X2.0714 Y1.4982 Z0.0062 I0.0069 J0.0027
N6180 X2.0577 Y1.4927 Z0.0054 I-0.0069 J-0.0027
N6185 X2.0714 Y1.4982 Z0.0046 I0.0069 J0.0027
N6190 X2.0577 Y1.4927 Z0.0038 I-0.0069 J-0.0027
N6195 X2.0714 Y1.4982 Z0.003 I0.0069 J0.0027
N6200 X2.0577 Y1.4927 Z0.0022 I-0.0069 J-0.0027
N6205 X2.0714 Y1.4982 Z0.0014 I0.0069 J0.0027
N6210 X2.0577 Y1.4927 Z0.0005 I-0.0069 J-0.0027
N6215 X2.0714 Y1.4982 Z-0.0003 I0.0069 J0.0027
N6220 X2.0577 Y1.4927 Z-0.0011 I-0.0069 J-0.0027
N6225 X2.0714 Y1.4982 Z-0.0019 I0.0069 J0.0027
N6230 X2.0577 Y1.4927 Z-0.0027 I-0.0069 J-0.0027
N6235 X2.0714 Y1.4982 Z-0.0035 I0.0069 J0.0027
N6240 X2.0577 Y1.4927 Z-0.0043 I-0.0069 J-0.0027
N6245 X2.0714 Y1.4982 Z-0.0051 I0.0069 J0.0027
N6250 X2.0577 Y1.4927 Z-0.006 I-0.0069 J-0.0027
N6255 X2.0714 Y1.4982 Z-0.0068 I0.0069 J0.0027
N6260 X2.0577 Y1.4927 Z-0.0076 I-0.0069 J-0.0027
N6265 X2.0714 Y1.4982 Z-0.0084 I0.0069 J0.0027
N6270 X2.0577 Y1.4927 Z-0.0092 I-0.0069 J-0.0027
N6275 X2.0714 Y1.4982 Z-0.01 I0.0069 J0.0027
N6280 X2.0577 Y1.4927 Z-0.0108 I-0.0069 J-0.0027
N6285 X2.0714 Y1.4982 Z-0.0117 I0.0069 J0.0027
N6290 X2.0577 Y1.4927 Z-0.0125 I-0.0069 J-0.0027
N6295 X2.0714 Y1.4982 Z-0.0133 I0.0069 J0.0027
N6300 X2.0577 Y1.4927 Z-0.0141 I-0.0069 J-0.0027
N6305 X2.0714 Y1.4982 Z-0.0149 I0.0069 J0.0027
N6310 X2.0577 Y1.4927 Z-0.0157 I-0.0069 J-0.0027
N6315 X2.0714 Y1.4982 Z-0.0165 I0.0069 J0.0027
N6320 X2.0577 Y1.4927 Z-0.0173 I-0.0069 J-0.0027
N6325 X2.0714 Y1.4982 Z-0.0182 I0.0069 J0.0027
N6330 X2.0577 Y1.4927 Z-0.019 I-0.0069 J-0.0027
N6335 X2.0714 Y1.4982 Z-0.0198 I0.0069 J0.0027
N6340 X2.0577 Y1.4927 Z-0.0206 I-0.0069 J-0.0027
N6345 X2.0714 Y1.4982 Z-0.0214 I0.0069 J0.0027
N6350 X2.0577 Y1.4927 Z-0.0222 I-0.0069 J-0.0027
N6355 X2.0714 Y1.4982 Z-0.023 I0.0069 J0.0027
N6360 X2.0577 Y1.4927 Z-0.0238 I-0.0069 J-0.0027
N6365 X2.0714 Y1.4982 Z-0.0247 I0.0069 J0.0027
N6370 X2.0577 Y1.4927 Z-0.0255 I-0.0069 J-0.0027
N6375 X2.0714 Y1.4982 Z-0.0263 I0.0069 J0.0027
N6380 X2.0577 Y1.4927 Z-0.0271 I-0.0069 J-0.0027
N6385 X2.0714 Y1.4982 Z-0.0279 I0.0069 J0.0027
N6390 X2.0577 Y1.4927 Z-0.0287 I-0.0069 J-0.0027
N6395 X2.0714 Y1.4982 Z-0.0295 I0.0069 J0.0027
N6400 X2.0577 Y1.4927 Z-0.0304 I-0.0069 J-0.0027
N6405 X2.0714 Y1.4982 Z-0.0312 I0.0069 J0.0027
N6410 X2.0577 Y1.4927 Z-0.032 I-0.0069 J-0.0027
N6415 X2.0714 Y1.4982 Z-0.0328 I0.0069 J0.0027
N6420 X2.0577 Y1.4927 Z-0.0336 I-0.0069 J-0.0027
N6425 X2.0714 Y1.4982 Z-0.0344 I0.0069 J0.0027
N6430 X2.0577 Y1.4927 Z-0.0352 I-0.0069 J-0.0027
N6435 X2.0714 Y1.4982 Z-0.036 I0.0069 J0.0027
N6440 X2.0577 Y1.4927 Z-0.0369 I-0.0069 J-0.0027
N6445 X2.0714 Y1.4982 Z-0.0377 I0.0069 J0.0027
N6450 X2.0577 Y1.4927 Z-0.0385 I-0.0069 J-0.0027
N6455 X2.0714 Y1.4982 Z-0.0393 I0.0069 J0.0027
N6460 X2.0593 Y1.4902 Z-0.04 I-0.0069 J-0.0027
N6465 G3 X2.0571 Y1.4922 I-0.0279 J-0.0281
N6470 G1 X2.0613
N6475 Y1.4881
N6480 G3 X2.0593 Y1.4902 I-0.0299 J-0.026
N6485 X2.0551 Y1.4911 I-0.0028 J-0.0028
N6490 G1 X2.0395 Y1.4852
N6495 G3 X2.0404 Y1.4775 I0.0014 J-0.0037
N6500 G2 X2.0383 Y1.4628 Z-0.0408 I-0.001 J-0.0073
N6505 X2.0404 Y1.4775 Z-0.0416 I0.001 J0.0073
N6510 X2.0383 Y1.4628 Z-0.0424 I-0.001 J-0.0073
N6515 X2.0404 Y1.4775 Z-0.0433 I0.001 J0.0073
N6520 X2.0383 Y1.4628 Z-0.0441 I-0.001 J-0.0073
N6525 X2.0404 Y1.4775 Z-0.0449 I0.001 J0.0073
N6530 X2.0383 Y1.4628 Z-0.0457 I-0.001 J-0.0073
N6535 X2.0404 Y1.4775 Z-0.0465 I0.001 J0.0073
N6540 X2.0383 Y1.4628 Z-0.0473 I-0.001 J-0.0073
N6545 X2.0404 Y1.4775 Z-0.0481 I0.001 J0.0073
N6550 X2.0383 Y1.4628 Z-0.0489 I-0.001 J-0.0073
N6555 X2.0404 Y1.4775 Z-0.0498 I0.001 J0.0073
N6560 X2.0383 Y1.4628 Z-0.0506 I-0.001 J-0.0073
N6565 X2.0404 Y1.4775 Z-0.0514 I0.001 J0.0073
N6570 X2.0383 Y1.4628 Z-0.0522 I-0.001 J-0.0073
N6575 X2.0404 Y1.4775 Z-0.053 I0.001 J0.0073
N6580 X2.0383 Y1.4628 Z-0.0538 I-0.001 J-0.0073
N6585 X2.0404 Y1.4775 Z-0.0546 I0.001 J0.0073
N6590 X2.0383 Y1.4628 Z-0.0554 I-0.001 J-0.0073
N6595 X2.0404 Y1.4775 Z-0.0563 I0.001 J0.0073
N6600 X2.0383 Y1.4628 Z-0.0571 I-0.001 J-0.0073
N6605 X2.0404 Y1.4775 Z-0.0579 I0.001 J0.0073
N6610 X2.0383 Y1.4628 Z-0.0587 I-0.001 J-0.0073
N6615 X2.0404 Y1.4775 Z-0.0595 I0.001 J0.0073
N6620 X2.0383 Y1.4628 Z-0.0603 I-0.001 J-0.0073
N6625 X2.0404 Y1.4775 Z-0.0611 I0.001 J0.0073
N6630 X2.0383 Y1.4628 Z-0.0619 I-0.001 J-0.0073
N6635 X2.0404 Y1.4775 Z-0.0628 I0.001 J0.0073
N6640 X2.0383 Y1.4628 Z-0.0636 I-0.001 J-0.0073
N6645 X2.0404 Y1.4775 Z-0.0644 I0.001 J0.0073
N6650 X2.0383 Y1.4628 Z-0.0652 I-0.001 J-0.0073
N6655 X2.0404 Y1.4775 Z-0.066 I0.001 J0.0073
N6660 X2.0383 Y1.4628 Z-0.0668 I-0.001 J-0.0073
N6665 X2.0404 Y1.4775 Z-0.0676 I0.001 J0.0073
N6670 X2.0383 Y1.4628 Z-0.0685 I-0.001 J-0.0073
N6675 X2.0404 Y1.4775 Z-0.0693 I0.001 J0.0073
N6680 X2.0383 Y1.4628 Z-0.0701 I-0.001 J-0.0073
N6685 X2.0404 Y1.4775 Z-0.0709 I0.001 J0.0073
N6690 X2.0383 Y1.4628 Z-0.0717 I-0.001 J-0.0073
N6695 X2.0404 Y1.4775 Z-0.0725 I0.001 J0.0073
N6700 X2.0383 Y1.4628 Z-0.0733 I-0.001 J-0.0073
N6705 X2.0404 Y1.4775 Z-0.0741 I0.001 J0.0073
N6710 X2.0383 Y1.4628 Z-0.075 I-0.001 J-0.0073
N6715 X2.0404 Y1.4775 Z-0.0758 I0.001 J0.0073
N6720 X2.0383 Y1.4628 Z-0.0766 I-0.001 J-0.0073
N6725 X2.0404 Y1.4775 Z-0.0774 I0.001 J0.0073
N6730 X2.0383 Y1.4628 Z-0.0782 I-0.001 J-0.0073
N6735 X2.0404 Y1.4775 Z-0.079 I0.001 J0.0073
N6740 X2.0383 Y1.4628 Z-0.0798 I-0.001 J-0.0073
N6745 X2.0341 Y1.4649 Z-0.08 I0.001 J0.0073
N6750 G3 X2.0335 Y1.4654 I-0.0027 J-0.0028
N6755 G1 X2.0318 Y1.4665
N6760 G3 X2.0297 Y1.4671 I-0.0021 J-0.0033
N6765 G1 X1.637
N6770 G3 X1.6348 Y1.4665 J-0.0039
N6775 G1 X1.6331 Y1.4654
N6780 G3 X1.6319 Y1.464 I0.0021 J-0.0033
N6785 G1 X1.631 Y1.4625
N6790 G3 X1.6305 Y1.4606 I0.0034 J-0.0019
N6795 G1 X1.6303 Y1.3164
N6800 G3 X1.6304 Y1.3155 I0.0039
N6805 G1 X1.6321 Y1.3087
N6810 G3 X1.6326 Y1.3074 I0.0038 J0.0009
N6815 G1 X1.6361 Y1.3023
N6820 G3 X1.637 Y1.3013 I0.0032 J0.0022
N6825 G1 X1.6428 Y1.2972
N6830 G3 X1.644 Y1.2966 I0.0023 J0.0032
N6835 G1 X1.6499 Y1.295
N6840 G3 X1.6509 Y1.2948 I0.001 J0.0038
N6845 G1 X1.7156 Y1.2947
N6850 G3 X1.7162 Y1.2948 J0.0039
N6855 G1 X1.7184 Y1.2951
N6860 G3 X1.7202 Y1.2959 I-0.0006 J0.0039
N6865 G1 X1.7218 Y1.2971
N6870 G3 X1.7229 Y1.2985 I-0.0024 J0.0031
N6875 G1 X1.7236 Y1.3
N6880 G3 X1.724 Y1.3017 I-0.0035 J0.0017
N6885 G1 Y1.3736
N6890 X1.7853
N6895 Y1.1551
N6900 X1.724
N6905 Y1.226
N6910 G3 X1.7239 Y1.2269 I-0.0039
N6915 G1 X1.7236 Y1.2284
N6920 G3 X1.7228 Y1.2299 I-0.0038 J-0.0009
N6925 G1 X1.7216 Y1.2314
N6930 G3 X1.7202 Y1.2325 I-0.003 J-0.0024
N6935 G1 X1.7188 Y1.2332
N6940 G3 X1.7171 Y1.2335 I-0.0017 J-0.0035
N6945 G1 X1.6539 Y1.2337
N6950 G3 X1.6533 J-0.0039
N6955 G1 X1.6459 Y1.2325
N6960 G3 X1.6445 Y1.232 I0.0006 J-0.0039
N6965 G1 X1.6384 Y1.2283
N6970 G3 X1.6373 Y1.2273 I0.002 J-0.0033
N6975 G1 X1.6331 Y1.2218
N6980 G3 X1.6325 Y1.2205 I0.0031 J-0.0024
N6985 G1 X1.6306 Y1.2138
N6990 G3 X1.6304 Y1.2127 I0.0038 J-0.0011
N6995 G1 Y1.0686
N7000 G3 X1.6305 Y1.0675 I0.0039
N7005 G1 X1.631 Y1.0661
N7010 G3 X1.6319 Y1.0644 I0.0037 J0.0011
N7015 G1 X1.6334 Y1.0629
N7020 G3 X1.6347 Y1.062 I0.0028 J0.0027
N7025 G1 X1.6354 Y1.0617
N7030 G3 X1.637 Y1.0613 I0.0016 J0.0036
N7035 G1 X2.0297
N7040 G3 X2.0318 Y1.062 J0.0039
N7045 G1 X2.0335 Y1.0631
N7050 G3 X2.0348 Y1.0645 I-0.0021 J0.0033
N7055 G1 X2.0356 Y1.066
N7060 G3 X2.0361 Y1.0679 I-0.0034 J0.0019
N7065 G1 X2.0362 Y1.2113
N7070 G3 Y1.212 I-0.0039
N7075 G1 X2.0349 Y1.2186
N7080 G3 X2.0343 Y1.22 I-0.0038 J-0.0008
N7085 G1 X2.0306 Y1.226
N7090 G3 X2.0296 Y1.227 I-0.0033 J-0.0021
N7095 G1 X2.0239 Y1.2312
N7100 G3 X2.0226 Y1.2318 I-0.0023 J-0.0032
N7105 G1 X2.0167 Y1.2334
N7110 G3 X2.0157 Y1.2335 I-0.001 J-0.0038
N7115 G1 X1.951 Y1.2336
N7120 G3 X1.9504 J-0.0039
N7125 G1 X1.9481 Y1.2332
N7130 G3 X1.9463 Y1.2324 I0.0006 J-0.0039
N7135 G1 X1.9449 Y1.2313
N7140 G3 X1.9438 Y1.2299 I0.0024 J-0.003
N7145 G1 X1.9431 Y1.2284
N7150 G3 X1.9427 Y1.2267 I0.0035 J-0.0017
N7155 G1 X1.9426 Y1.1551
N7160 X1.8814
N7165 Y1.3736
N7170 X1.9425
N7175 X1.9426 Y1.3025
N7180 G3 X1.9427 Y1.3016 I0.0039
N7185 G1 X1.943 Y1.3001
N7190 G3 X1.9438 Y1.2985 I0.0038 J0.0009
N7195 G1 X1.945 Y1.297
N7200 G3 X1.9464 Y1.296 I0.003 J0.0024
N7205 G1 X1.9478 Y1.2953
N7210 G3 X1.9495 Y1.2949 I0.0017 J0.0035
N7215 G1 X2.0127 Y1.2948
N7220 G3 X2.0133 J0.0039
N7225 G1 X2.0207 Y1.296
N7230 G3 X2.0221 Y1.2965 I-0.0006 J0.0039
N7235 G1 X2.0282 Y1.3001
N7240 G3 X2.0293 Y1.3011 I-0.002 J0.0033
N7245 G1 X2.0335 Y1.3067
N7250 G3 X2.0341 Y1.308 I-0.0031 J0.0024
N7255 G1 X2.036 Y1.3146
N7260 G3 X2.0361 Y1.3157 I-0.0038 J0.001
N7265 G1 X2.0362 Y1.4598
N7270 G3 X2.0359 Y1.4614 I-0.0039
N7275 G1 X2.035 Y1.4636
N7280 G3 X2.0341 Y1.4649 I-0.0036 J-0.0015
N7285 G2 X2.0313 Y1.4733 I0.007 J0.0071
N7290 G3 X2.0254 Y1.4801 I-0.0059 J0.0008
N7295 G1 X1.637
N7300 G3 X1.6277 Y1.4774 J-0.0169
N7305 G1 X1.626 Y1.4762
N7310 G3 X1.6206 Y1.4705 I0.0092 J-0.0141
N7315 G1 X1.6197 Y1.469
N7320 G3 X1.6175 Y1.4606 I0.0146 J-0.0084
N7325 G1 X1.6173 Y1.3164
N7330 G3 X1.6178 Y1.3125 I0.0169
N7335 G1 X1.6194 Y1.3056
N7340 G3 X1.6219 Y1.3001 I0.0164 J0.004
N7345 G1 X1.6254 Y1.295
N7350 G3 X1.6294 Y1.2908 I0.014 J0.0095
N7355 G1 X1.6352 Y1.2867
N7360 G3 X1.6406 Y1.2841 I0.0099 J0.0137
N7365 G1 X1.6465 Y1.2825
N7370 G3 X1.6509 Y1.2818 I0.0045 J0.0163
N7375 G1 X1.7156 Y1.2817
N7380 G3 X1.7181 Y1.2819 J0.0169
N7385 G1 X1.7203 Y1.2822
N7390 G3 X1.7282 Y1.2856 I-0.0024 J0.0167
N7395 G1 X1.7297 Y1.2868
N7400 G3 X1.7347 Y1.293 I-0.0103 J0.0133
N7405 G1 X1.7354 Y1.2945
N7410 G3 X1.737 Y1.3017 I-0.0153 J0.0072
N7415 G1 Y1.3606
N7420 X1.7723
N7425 Y1.1681
N7430 X1.737
N7435 Y1.226
N7440 G3 X1.7366 Y1.2299 I-0.0169
N7445 G1 X1.7362 Y1.2314
N7450 G3 X1.733 Y1.238 I-0.0164 J-0.0039
N7455 G1 X1.7318 Y1.2395
N7460 G3 X1.7258 Y1.2442 I-0.0132 J-0.0106
N7465 G1 X1.7243 Y1.2449
N7470 G3 X1.7172 Y1.2465 I-0.0072 J-0.0153
N7475 G1 X1.6539 Y1.2467
N7480 G3 X1.6512 Y1.2465 J-0.0169
N7485 G1 X1.6439 Y1.2453
N7490 G3 X1.6378 Y1.2431 I0.0026 J-0.0167
N7495 G1 X1.6317 Y1.2394
N7500 G3 X1.6269 Y1.2351 I0.0087 J-0.0145
N7505 G1 X1.6228 Y1.2296
N7510 G3 X1.62 Y1.224 I0.0135 J-0.0102
N7515 G1 X1.6181 Y1.2173
N7520 G3 X1.6175 Y1.2127 I0.0163 J-0.0046
N7525 G1 X1.6174 Y1.0686
N7530 G3 X1.6181 Y1.0639 I0.0169
N7535 G1 X1.6185 Y1.0624
N7540 G3 X1.6225 Y1.0554 I0.0162 J0.0047
N7545 G1 X1.6241 Y1.0539
N7550 G3 X1.6294 Y1.0501 I0.0122 J0.0117
N7555 G1 X1.6301 Y1.0498
N7560 G3 X1.637 Y1.0483 I0.0068 J0.0154
N7565 G1 X2.0297
N7570 G3 X2.0389 Y1.0511 J0.0169
N7575 G1 X2.0406 Y1.0522
N7580 G3 X2.0462 Y1.0582 I-0.0092 J0.0141
N7585 G1 X2.047 Y1.0597
N7590 G3 X2.0491 Y1.0679 I-0.0148 J0.0081
N7595 G1 X2.0492 Y1.2113
N7600 G3 X2.0489 Y1.2146 I-0.0169
N7605 G1 X2.0476 Y1.2212
N7610 G3 X2.0453 Y1.2269 I-0.0166 J-0.0033
N7615 G1 X2.0416 Y1.2329
N7620 G3 X2.0372 Y1.2375 I-0.0143 J-0.009
N7625 G1 X2.0315 Y1.2417
N7630 G3 X2.0259 Y1.2444 I-0.0099 J-0.0136
N7635 G1 X2.02 Y1.2459
N7640 G3 X2.0157 Y1.2465 I-0.0043 J-0.0163
N7645 G1 X1.951 Y1.2466
N7650 G3 X1.9483 Y1.2464 J-0.0169
N7655 G1 X1.9461 Y1.2461
N7660 G3 X1.9382 Y1.2426 I0.0027 J-0.0167
N7665 G1 X1.9368 Y1.2414
N7670 G3 X1.932 Y1.2354 I0.0105 J-0.0132
N7675 G1 X1.9313 Y1.2339
N7680 G3 X1.9297 Y1.2267 I0.0153 J-0.0072
N7685 G1 X1.9296 Y1.1681
N7690 X1.8944
N7695 X1.8943 Y1.3606
N7700 X1.9295
N7705 X1.9296 Y1.3024
N7710 G3 X1.9301 Y1.2986 I0.0169
N7715 G1 X1.9304 Y1.2971
N7720 G3 X1.9337 Y1.2904 I0.0164 J0.0039
N7725 G1 X1.9349 Y1.2889
N7730 G3 X1.9409 Y1.2842 I0.0132 J0.0106
N7735 G1 X1.9423 Y1.2835
N7740 G3 X1.9495 Y1.2819 I0.0072 J0.0153
N7745 G1 X2.0127 Y1.2818
N7750 G3 X2.0153 Y1.282 J0.0169
N7755 G1 X2.0227 Y1.2832
N7760 G3 X2.0288 Y1.2854 I-0.0026 J0.0167
N7765 G1 X2.0349 Y1.289
N7770 G3 X2.0396 Y1.2933 I-0.0087 J0.0145
N7775 G1 X2.0438 Y1.2988
N7780 G3 X2.0466 Y1.3045 I-0.0134 J0.0102
N7785 G1 X2.0485 Y1.3112
N7790 G3 X2.0491 Y1.3157 I-0.0163 J0.0045
N7795 G1 X2.0492 Y1.4598
N7800 G3 X2.0479 Y1.4665 I-0.0169
N7805 G1 X2.0469 Y1.4687
N7810 G3 X2.0406 Y1.4762 I-0.0155 J-0.0067
N7815 G1 X2.0389 Y1.4773
N7820 G3 X2.0297 Y1.4801 I-0.0092 J-0.0141
N7825 G1 X2.0254
N7830 G2 X2.0157 Y1.4866 J0.0105
N7835 G3 X2.006 Y1.4931 I-0.0097 J-0.0041
N7840 G1 X1.637
N7845 G3 X1.6207 Y1.4882 J-0.0299
N7850 G1 X1.6189 Y1.4871
N7855 G3 X1.6094 Y1.477 I0.0163 J-0.025
N7860 G1 X1.6085 Y1.4755
N7865 G3 X1.6045 Y1.4606 I0.0259 J-0.0149
N7870 G1 X1.6043 Y1.3165
N7875 G3 X1.6052 Y1.3094 I0.0299
N7880 G1 X1.6068 Y1.3026
N7885 G3 X1.6112 Y1.2928 I0.029 J0.007
N7890 G1 X1.6146 Y1.2877
N7895 G3 X1.6218 Y1.2803 I0.0247 J0.0168
N7900 G1 X1.6276 Y1.2762
N7905 G3 X1.6371 Y1.2716 I0.0175 J0.0242
N7910 G1 X1.643 Y1.2699
N7915 G3 X1.6509 Y1.2689 I0.0079 J0.0288
N7920 G1 X1.7156 Y1.2688
N7925 G3 X1.7199 Y1.2691 J0.0299
N7930 G1 X1.7221 Y1.2694
N7935 G3 X1.7362 Y1.2754 I-0.0043 J0.0296
N7940 G1 X1.7377 Y1.2765
N7945 G3 X1.7464 Y1.2874 I-0.0183 J0.0236
N7950 G1 X1.7471 Y1.289
N7955 G3 X1.75 Y1.3017 I-0.027 J0.0127
N7960 G1 Y1.3476
N7965 X1.7593
N7970 Y1.181
N7975 X1.75
N7980 Y1.226
N7985 G3 X1.7492 Y1.2329 I-0.0299
N7990 G1 X1.7488 Y1.2344
N7995 G3 X1.7431 Y1.2462 I-0.0291 J-0.0069
N8000 G1 X1.7419 Y1.2476
N8005 G3 X1.7313 Y1.256 I-0.0233 J-0.0187
N8010 G1 X1.7298 Y1.2567
N8015 G3 X1.7172 Y1.2595 I-0.0127 J-0.027
N8020 G1 X1.654 Y1.2597
N8025 G3 X1.6492 Y1.2593 I-0.0001 J-0.0299
N8030 G1 X1.6418 Y1.2581
N8035 G3 X1.6311 Y1.2542 I0.0047 J-0.0295
N8040 G1 X1.625 Y1.2505
N8045 G3 X1.6166 Y1.243 I0.0154 J-0.0256
N8050 G1 X1.6124 Y1.2375
N8055 G3 X1.6075 Y1.2275 I0.0238 J-0.018
N8060 G1 X1.6056 Y1.2208
N8065 G3 X1.6045 Y1.2128 I0.0287 J-0.0081
N8070 G1 X1.6044 Y1.0686
N8075 G3 X1.6056 Y1.0603 I0.0299
N8080 G1 X1.606 Y1.0588
N8085 G3 X1.6132 Y1.0464 I0.0287 J0.0083
N8090 G1 X1.6147 Y1.0449
N8095 G3 X1.6242 Y1.0382 I0.0215 J0.0207
N8100 G1 X1.6249 Y1.0379
N8105 G3 X1.637 Y1.0354 I0.0121 J0.0273
N8110 G1 X2.0297
N8115 G3 X2.046 Y1.0402 J0.0299
N8120 G1 X2.0477 Y1.0413
N8125 G3 X2.0575 Y1.052 I-0.0163 J0.025
N8130 G1 X2.0584 Y1.0535
N8135 G3 X2.0621 Y1.0678 I-0.0262 J0.0144
N8140 G1 X2.0622 Y1.2112
N8145 G3 X2.0616 Y1.2171 I-0.0299
N8150 G1 X2.0603 Y1.2237
N8155 G3 X2.0563 Y1.2338 I-0.0293 J-0.0058
N8160 G1 X2.0526 Y1.2398
N8165 G3 X2.0448 Y1.248 I-0.0253 J-0.0159
N8170 G1 X2.0391 Y1.2522
N8175 G3 X2.0292 Y1.2569 I-0.0176 J-0.0241
N8180 G1 X2.0233 Y1.2585
N8185 G3 X2.0158 Y1.2595 I-0.0076 J-0.0289
N8190 G1 X1.951 Y1.2596
N8195 G3 X1.9463 Y1.2592 I-0.0001 J-0.0299
N8200 G1 X1.9441 Y1.2589
N8205 G3 X1.9301 Y1.2527 I0.0047 J-0.0295
N8210 G1 X1.9287 Y1.2516
N8215 G3 X1.9203 Y1.2409 I0.0186 J-0.0233
N8220 G1 X1.9196 Y1.2394
N8225 G3 X1.9167 Y1.2268 I0.027 J-0.0127
N8230 G1 Y1.1811
N8235 X1.9074
N8240 X1.9073 Y1.3476
N8245 X1.9166
N8250 Y1.3024
N8255 G3 X1.9174 Y1.2956 I0.0299
N8260 G1 X1.9178 Y1.2941
N8265 G3 X1.9235 Y1.2823 I0.0291 J0.0069
N8270 G1 X1.9247 Y1.2808
N8275 G3 X1.9354 Y1.2724 I0.0233 J0.0187
N8280 G1 X1.9368 Y1.2718
N8285 G3 X1.9495 Y1.2689 I0.0127 J0.027
N8290 G1 X2.0127 Y1.2688
N8295 G3 X2.0173 Y1.2692 J0.0299
N8300 G1 X2.0247 Y1.2703
N8305 G3 X2.0354 Y1.2742 I-0.0046 J0.0295
N8310 G1 X2.0415 Y1.2779
N8315 G3 X2.05 Y1.2854 I-0.0153 J0.0256
N8320 G1 X2.0542 Y1.291
N8325 G3 X2.0592 Y1.301 I-0.0238 J0.0181
N8330 G1 X2.061 Y1.3077
N8335 G3 X2.0621 Y1.3157 I-0.0288 J0.008
N8340 G1 X2.0622 Y1.4598
N8345 G3 X2.0598 Y1.4716 I-0.0299
N8350 G1 X2.0588 Y1.4739
N8355 G3 X2.0477 Y1.4871 I-0.0274 J-0.0118
N8360 G1 X2.046 Y1.4882
N8365 G3 X2.0297 Y1.4931 I-0.0163 J-0.025
N8370 G1 X2.006
N8375 G2 X2.0049 Y1.4934 Z-0.0795 J0.0016
N8380 X2.0046 Y1.4938 Z-0.0784 I0.001 J0.0012
N8385 G0 Z0.0794
N8390 X2.0586 Y1.5133
N8395 Z0.0036
N8400 G2 X2.0582 Y1.5134 Z0.0025 I0.0015 J0.0073 F40
N8405 X2.0572 Y1.5138 Z0.002 I0.0019 J0.0072
N8410 X2.0631 Y1.5274 Z0.0012 I0.0029 J0.0068
N8415 X2.0572 Y1.5138 Z0.0004 I-0.0029 J-0.0068
N8420 X2.0631 Y1.5274 Z-0.0004 I0.0029 J0.0068
N8425 X2.0572 Y1.5138 Z-0.0013 I-0.0029 J-0.0068
N8430 X2.0631 Y1.5274 Z-0.0021 I0.0029 J0.0068
N8435 X2.0572 Y1.5138 Z-0.0029 I-0.0029 J-0.0068
N8440 X2.0631 Y1.5274 Z-0.0037 I0.0029 J0.0068
N8445 X2.0572 Y1.5138 Z-0.0045 I-0.0029 J-0.0068
N8450 X2.0631 Y1.5274 Z-0.0053 I0.0029 J0.0068
N8455 X2.0572 Y1.5138 Z-0.0061 I-0.0029 J-0.0068
N8460 X2.0631 Y1.5274 Z-0.0069 I0.0029 J0.0068
N8465 X2.0572 Y1.5138 Z-0.0078 I-0.0029 J-0.0068
N8470 X2.0631 Y1.5274 Z-0.0086 I0.0029 J0.0068
N8475 X2.0572 Y1.5138 Z-0.0094 I-0.0029 J-0.0068
N8480 X2.0631 Y1.5274 Z-0.0102 I0.0029 J0.0068
N8485 X2.0572 Y1.5138 Z-0.011 I-0.0029 J-0.0068
N8490 X2.0631 Y1.5274 Z-0.0118 I0.0029 J0.0068
N8495 X2.0572 Y1.5138 Z-0.0126 I-0.0029 J-0.0068
N8500 X2.0631 Y1.5274 Z-0.0134 I0.0029 J0.0068
N8505 X2.0572 Y1.5138 Z-0.0143 I-0.0029 J-0.0068
N8510 X2.0631 Y1.5274 Z-0.0151 I0.0029 J0.0068
N8515 X2.0572 Y1.5138 Z-0.0159 I-0.0029 J-0.0068
N8520 X2.0631 Y1.5274 Z-0.0167 I0.0029 J0.0068
N8525 X2.0572 Y1.5138 Z-0.0175 I-0.0029 J-0.0068
N8530 X2.0631 Y1.5274 Z-0.0183 I0.0029 J0.0068
N8535 X2.0572 Y1.5138 Z-0.0191 I-0.0029 J-0.0068
N8540 X2.0631 Y1.5274 Z-0.0199 I0.0029 J0.0068
N8545 X2.0572 Y1.5138 Z-0.0208 I-0.0029 J-0.0068
N8550 X2.0631 Y1.5274 Z-0.0216 I0.0029 J0.0068
N8555 X2.0572 Y1.5138 Z-0.0224 I-0.0029 J-0.0068
N8560 X2.0631 Y1.5274 Z-0.0232 I0.0029 J0.0068
N8565 X2.0572 Y1.5138 Z-0.024 I-0.0029 J-0.0068
N8570 X2.0631 Y1.5274 Z-0.0248 I0.0029 J0.0068
N8575 X2.0572 Y1.5138 Z-0.0256 I-0.0029 J-0.0068
N8580 X2.0631 Y1.5274 Z-0.0265 I0.0029 J0.0068
N8585 X2.0572 Y1.5138 Z-0.0273 I-0.0029 J-0.0068
N8590 X2.0631 Y1.5274 Z-0.0281 I0.0029 J0.0068
N8595 X2.0572 Y1.5138 Z-0.0289 I-0.0029 J-0.0068
N8600 X2.0631 Y1.5274 Z-0.0297 I0.0029 J0.0068
N8605 X2.0572 Y1.5138 Z-0.0305 I-0.0029 J-0.0068
N8610 X2.0631 Y1.5274 Z-0.0313 I0.0029 J0.0068
N8615 X2.0572 Y1.5138 Z-0.0321 I-0.0029 J-0.0068
N8620 X2.0631 Y1.5274 Z-0.033 I0.0029 J0.0068
N8625 X2.0572 Y1.5138 Z-0.0338 I-0.0029 J-0.0068
N8630 X2.0631 Y1.5274 Z-0.0346 I0.0029 J0.0068
N8635 X2.0572 Y1.5138 Z-0.0354 I-0.0029 J-0.0068
N8640 X2.0631 Y1.5274 Z-0.0362 I0.0029 J0.0068
N8645 X2.0572 Y1.5138 Z-0.037 I-0.0029 J-0.0068
N8650 X2.0631 Y1.5274 Z-0.0378 I0.0029 J0.0068
N8655 X2.0572 Y1.5138 Z-0.0386 I-0.0029 J-0.0068
N8660 X2.0631 Y1.5274 Z-0.0395 I0.0029 J0.0068
N8665 X2.0572 Y1.5138 Z-0.0403 I-0.0029 J-0.0068
N8670 X2.0631 Y1.5274 Z-0.0411 I0.0029 J0.0068
N8675 X2.0572 Y1.5138 Z-0.0419 I-0.0029 J-0.0068
N8680 X2.0631 Y1.5274 Z-0.0427 I0.0029 J0.0068
N8685 X2.0572 Y1.5138 Z-0.0435 I-0.0029 J-0.0068
N8690 X2.0631 Y1.5274 Z-0.0443 I0.0029 J0.0068
N8695 X2.0572 Y1.5138 Z-0.0451 I-0.0029 J-0.0068
N8700 X2.0631 Y1.5274 Z-0.046 I0.0029 J0.0068
N8705 X2.0572 Y1.5138 Z-0.0468 I-0.0029 J-0.0068
N8710 X2.0631 Y1.5274 Z-0.0476 I0.0029 J0.0068
N8715 X2.0572 Y1.5138 Z-0.0484 I-0.0029 J-0.0068
N8720 X2.0631 Y1.5274 Z-0.0492 I0.0029 J0.0068
N8725 X2.0572 Y1.5138 Z-0.05 I-0.0029 J-0.0068
N8730 X2.0631 Y1.5274 Z-0.0508 I0.0029 J0.0068
N8735 X2.0572 Y1.5138 Z-0.0517 I-0.0029 J-0.0068
N8740 X2.0631 Y1.5274 Z-0.0525 I0.0029 J0.0068
N8745 X2.0572 Y1.5138 Z-0.0533 I-0.0029 J-0.0068
N8750 X2.0631 Y1.5274 Z-0.0541 I0.0029 J0.0068
N8755 X2.0572 Y1.5138 Z-0.0549 I-0.0029 J-0.0068
N8760 X2.0631 Y1.5274 Z-0.0557 I0.0029 J0.0068
N8765 X2.0572 Y1.5138 Z-0.0565 I-0.0029 J-0.0068
N8770 X2.0631 Y1.5274 Z-0.0573 I0.0029 J0.0068
N8775 X2.0572 Y1.5138 Z-0.0582 I-0.0029 J-0.0068
N8780 X2.0631 Y1.5274 Z-0.059 I0.0029 J0.0068
N8785 X2.0572 Y1.5138 Z-0.0598 I-0.0029 J-0.0068
N8790 X2.0631 Y1.5274 Z-0.0606 I0.0029 J0.0068
N8795 X2.0572 Y1.5138 Z-0.0614 I-0.0029 J-0.0068
N8800 X2.0631 Y1.5274 Z-0.0622 I0.0029 J0.0068
N8805 X2.0572 Y1.5138 Z-0.063 I-0.0029 J-0.0068
N8810 X2.0631 Y1.5274 Z-0.0638 I0.0029 J0.0068
N8815 X2.0572 Y1.5138 Z-0.0647 I-0.0029 J-0.0068
N8820 X2.0631 Y1.5274 Z-0.0655 I0.0029 J0.0068
N8825 X2.0572 Y1.5138 Z-0.0663 I-0.0029 J-0.0068
N8830 X2.0631 Y1.5274 Z-0.0671 I0.0029 J0.0068
N8835 X2.0572 Y1.5138 Z-0.0679 I-0.0029 J-0.0068
N8840 X2.0631 Y1.5274 Z-0.0687 I0.0029 J0.0068
N8845 X2.0572 Y1.5138 Z-0.0695 I-0.0029 J-0.0068
N8850 X2.0631 Y1.5274 Z-0.0704 I0.0029 J0.0068
N8855 X2.0572 Y1.5138 Z-0.0712 I-0.0029 J-0.0068
N8860 X2.0631 Y1.5274 Z-0.072 I0.0029 J0.0068
N8865 X2.0572 Y1.5138 Z-0.0728 I-0.0029 J-0.0068
N8870 X2.0631 Y1.5274 Z-0.0736 I0.0029 J0.0068
N8875 X2.0572 Y1.5138 Z-0.0744 I-0.0029 J-0.0068
N8880 X2.0631 Y1.5274 Z-0.0752 I0.0029 J0.0068
N8885 X2.0572 Y1.5138 Z-0.076 I-0.0029 J-0.0068
N8890 X2.0631 Y1.5274 Z-0.0769 I0.0029 J0.0068
N8895 X2.0572 Y1.5138 Z-0.0777 I-0.0029 J-0.0068
N8900 X2.0631 Y1.5274 Z-0.0785 I0.0029 J0.0068
N8905 X2.0572 Y1.5138 Z-0.0793 I-0.0029 J-0.0068
N8910 X2.0601 Y1.528 Z-0.08 I0.0029 J0.0068
N8915 G1 X2.0971
N8920 X2.097 Y1.0005
N8925 X1.5696
N8930 Y1.5279
N8935 X2.0601 Y1.528
N8940 G2 X2.0699 Y1.5215 J-0.0105
N8945 G3 X2.0796 Y1.515 I0.0097 J0.0041
N8950 G1 X2.0841
N8955 X2.084 Y1.0135
N8960 X1.5825 Y1.0134
N8965 Y1.5149
N8970 X2.0796 Y1.515
N8975 G2 X2.0829 Y1.4951 J-0.0102
N8980 G3 X2.0711 Y1.4787 I0.0055 J-0.0164
N8985 G1 X2.071 Y1.0265
N8990 X1.5955 Y1.0264
N8995 Y1.5019
N9000 X2.0711 Y1.502
N9005 Y1.4787
N9010 G3 X2.0727 I0.0008
N9015 X2.0724 Y1.4793 I-0.0008
N9020 G1 X2.0613 Y1.4881
N9025 G3 X2.0571 Y1.4922 I-0.0299 J-0.026
N9030 G1 X2.0613
N9035 Y1.4881
N9040 G3 X2.0606 Y1.4889 Z-0.0795 I-0.0299 J-0.026
N9045 X2.0603 Y1.4892 Z-0.0784 I-0.0292 J-0.0268
N9050 G0 Z0.0794
N9055 X2.0582 Y1.2684
N9060 Z0.0036
N9065 G2 X2.0585 Y1.2681 Z0.0025 I-0.0055 J-0.005 F40
N9070 X2.0591 Y1.2672 Z0.002 I-0.0058 J-0.0046
N9075 X2.0463 Y1.2597 Z0.0012 I-0.0064 J-0.0038
N9080 X2.0591 Y1.2672 Z0.0004 I0.0064 J0.0038
N9085 X2.0463 Y1.2597 Z-0.0004 I-0.0064 J-0.0038
N9090 X2.0591 Y1.2672 Z-0.0013 I0.0064 J0.0038
N9095 X2.0463 Y1.2597 Z-0.0021 I-0.0064 J-0.0038
N9100 X2.0591 Y1.2672 Z-0.0029 I0.0064 J0.0038
N9105 X2.0463 Y1.2597 Z-0.0037 I-0.0064 J-0.0038
N9110 X2.0591 Y1.2672 Z-0.0045 I0.0064 J0.0038
N9115 X2.0463 Y1.2597 Z-0.0053 I-0.0064 J-0.0038
N9120 X2.0591 Y1.2672 Z-0.0061 I0.0064 J0.0038
N9125 X2.0463 Y1.2597 Z-0.0069 I-0.0064 J-0.0038
N9130 X2.0591 Y1.2672 Z-0.0078 I0.0064 J0.0038
N9135 X2.0463 Y1.2597 Z-0.0086 I-0.0064 J-0.0038
N9140 X2.0591 Y1.2672 Z-0.0094 I0.0064 J0.0038
N9145 X2.0463 Y1.2597 Z-0.0102 I-0.0064 J-0.0038
N9150 X2.0591 Y1.2672 Z-0.011 I0.0064 J0.0038
N9155 X2.0463 Y1.2597 Z-0.0118 I-0.0064 J-0.0038
N9160 X2.0591 Y1.2672 Z-0.0126 I0.0064 J0.0038
N9165 X2.0463 Y1.2597 Z-0.0134 I-0.0064 J-0.0038
N9170 X2.0591 Y1.2672 Z-0.0143 I0.0064 J0.0038
N9175 X2.0463 Y1.2597 Z-0.0151 I-0.0064 J-0.0038
N9180 X2.0591 Y1.2672 Z-0.0159 I0.0064 J0.0038
N9185 X2.0463 Y1.2597 Z-0.0167 I-0.0064 J-0.0038
N9190 X2.0591 Y1.2672 Z-0.0175 I0.0064 J0.0038
N9195 X2.0463 Y1.2597 Z-0.0183 I-0.0064 J-0.0038
N9200 X2.0591 Y1.2672 Z-0.0191 I0.0064 J0.0038
N9205 X2.0463 Y1.2597 Z-0.0199 I-0.0064 J-0.0038
N9210 X2.0591 Y1.2672 Z-0.0208 I0.0064 J0.0038
N9215 X2.0463 Y1.2597 Z-0.0216 I-0.0064 J-0.0038
N9220 X2.0591 Y1.2672 Z-0.0224 I0.0064 J0.0038
N9225 X2.0463 Y1.2597 Z-0.0232 I-0.0064 J-0.0038
N9230 X2.0591 Y1.2672 Z-0.024 I0.0064 J0.0038
N9235 X2.0463 Y1.2597 Z-0.0248 I-0.0064 J-0.0038
N9240 X2.0591 Y1.2672 Z-0.0256 I0.0064 J0.0038
N9245 X2.0463 Y1.2597 Z-0.0265 I-0.0064 J-0.0038
N9250 X2.0591 Y1.2672 Z-0.0273 I0.0064 J0.0038
N9255 X2.0463 Y1.2597 Z-0.0281 I-0.0064 J-0.0038
N9260 X2.0591 Y1.2672 Z-0.0289 I0.0064 J0.0038
N9265 X2.0463 Y1.2597 Z-0.0297 I-0.0064 J-0.0038
N9270 X2.0591 Y1.2672 Z-0.0305 I0.0064 J0.0038
N9275 X2.0463 Y1.2597 Z-0.0313 I-0.0064 J-0.0038
N9280 X2.0591 Y1.2672 Z-0.0321 I0.0064 J0.0038
N9285 X2.0463 Y1.2597 Z-0.033 I-0.0064 J-0.0038
N9290 X2.0591 Y1.2672 Z-0.0338 I0.0064 J0.0038
N9295 X2.0463 Y1.2597 Z-0.0346 I-0.0064 J-0.0038
N9300 X2.0591 Y1.2672 Z-0.0354 I0.0064 J0.0038
N9305 X2.0463 Y1.2597 Z-0.0362 I-0.0064 J-0.0038
N9310 X2.0591 Y1.2672 Z-0.037 I0.0064 J0.0038
N9315 X2.0463 Y1.2597 Z-0.0378 I-0.0064 J-0.0038
N9320 X2.0591 Y1.2672 Z-0.0386 I0.0064 J0.0038
N9325 X2.0463 Y1.2597 Z-0.0395 I-0.0064 J-0.0038
N9330 X2.0591 Y1.2672 Z-0.0403 I0.0064 J0.0038
N9335 X2.0463 Y1.2597 Z-0.0411 I-0.0064 J-0.0038
N9340 X2.0591 Y1.2672 Z-0.0419 I0.0064 J0.0038
N9345 X2.0463 Y1.2597 Z-0.0427 I-0.0064 J-0.0038
N9350 X2.0591 Y1.2672 Z-0.0435 I0.0064 J0.0038
N9355 X2.0463 Y1.2597 Z-0.0443 I-0.0064 J-0.0038
N9360 X2.0591 Y1.2672 Z-0.0451 I0.0064 J0.0038
N9365 X2.0463 Y1.2597 Z-0.046 I-0.0064 J-0.0038
N9370 X2.0591 Y1.2672 Z-0.0468 I0.0064 J0.0038
N9375 X2.0463 Y1.2597 Z-0.0476 I-0.0064 J-0.0038
N9380 X2.0591 Y1.2672 Z-0.0484 I0.0064 J0.0038
N9385 X2.0463 Y1.2597 Z-0.0492 I-0.0064 J-0.0038
N9390 X2.0591 Y1.2672 Z-0.05 I0.0064 J0.0038
N9395 X2.0463 Y1.2597 Z-0.0508 I-0.0064 J-0.0038
N9400 X2.0591 Y1.2672 Z-0.0517 I0.0064 J0.0038
N9405 X2.0463 Y1.2597 Z-0.0525 I-0.0064 J-0.0038
N9410 X2.0591 Y1.2672 Z-0.0533 I0.0064 J0.0038
N9415 X2.0463 Y1.2597 Z-0.0541 I-0.0064 J-0.0038
N9420 X2.0591 Y1.2672 Z-0.0549 I0.0064 J0.0038
N9425 X2.0463 Y1.2597 Z-0.0557 I-0.0064 J-0.0038
N9430 X2.0591 Y1.2672 Z-0.0565 I0.0064 J0.0038
N9435 X2.0463 Y1.2597 Z-0.0573 I-0.0064 J-0.0038
N9440 X2.0591 Y1.2672 Z-0.0582 I0.0064 J0.0038
N9445 X2.0463 Y1.2597 Z-0.059 I-0.0064 J-0.0038
N9450 X2.0591 Y1.2672 Z-0.0598 I0.0064 J0.0038
N9455 X2.0463 Y1.2597 Z-0.0606 I-0.0064 J-0.0038
N9460 X2.0591 Y1.2672 Z-0.0614 I0.0064 J0.0038
N9465 X2.0463 Y1.2597 Z-0.0622 I-0.0064 J-0.0038
N9470 X2.0591 Y1.2672 Z-0.063 I0.0064 J0.0038
N9475 X2.0463 Y1.2597 Z-0.0638 I-0.0064 J-0.0038
N9480 X2.0591 Y1.2672 Z-0.0647 I0.0064 J0.0038
N9485 X2.0463 Y1.2597 Z-0.0655 I-0.0064 J-0.0038
N9490 X2.0591 Y1.2672 Z-0.0663 I0.0064 J0.0038
N9495 X2.0463 Y1.2597 Z-0.0671 I-0.0064 J-0.0038
N9500 X2.0591 Y1.2672 Z-0.0679 I0.0064 J0.0038
N9505 X2.0463 Y1.2597 Z-0.0687 I-0.0064 J-0.0038
N9510 X2.0591 Y1.2672 Z-0.0695 I0.0064 J0.0038
N9515 X2.0463 Y1.2597 Z-0.0704 I-0.0064 J-0.0038
N9520 X2.0591 Y1.2672 Z-0.0712 I0.0064 J0.0038
N9525 X2.0463 Y1.2597 Z-0.072 I-0.0064 J-0.0038
N9530 X2.0591 Y1.2672 Z-0.0728 I0.0064 J0.0038
N9535 X2.0463 Y1.2597 Z-0.0736 I-0.0064 J-0.0038
N9540 X2.0591 Y1.2672 Z-0.0744 I0.0064 J0.0038
N9545 X2.0463 Y1.2597 Z-0.0752 I-0.0064 J-0.0038
N9550 X2.0591 Y1.2672 Z-0.076 I0.0064 J0.0038
N9555 X2.0463 Y1.2597 Z-0.0769 I-0.0064 J-0.0038
N9560 X2.0591 Y1.2672 Z-0.0777 I0.0064 J0.0038
N9565 X2.0463 Y1.2597 Z-0.0785 I-0.0064 J-0.0038
N9570 X2.0591 Y1.2672 Z-0.0793 I0.0064 J0.0038
N9575 X2.0484 Y1.2575 Z-0.08 I-0.0064 J-0.0038
N9580 G1 X2.0449 Y1.26
N9585 G3 X2.0374 Y1.2643 I-0.0233 J-0.032
N9590 X2.0404 Y1.2659 I-0.0173 J0.0356
N9595 G1 X2.0465 Y1.2695
N9600 G3 X2.0577 Y1.2796 I-0.0203 J0.0339
N9605 G1 X2.0614 Y1.2844
N9610 Y1.2559
N9615 Y1.244
N9620 X2.0608 Y1.2449
N9625 G3 X2.0505 Y1.2559 I-0.0335 J-0.021
N9630 G1 X2.0484 Y1.2575
N9635 G2 X2.0488 Y1.2645 I0.0025 J0.0034
N9640 G3 X2.0546 Y1.2685 I-0.0207 J0.0367
N9645 X2.0553 Y1.2691 I-0.0272 J0.0335
N9650 G1 X2.0559 Y1.2688
N9655 Y1.2595
N9660 X2.0553 Y1.2592
N9665 G3 X2.0521 Y1.2615 I-0.0469 J-0.0592
N9670 G2 X2.049 Y1.2638 I0.2097 J0.2946
N9675 G1 Y1.2646
N9680 G3 X2.0522 Y1.2667 I-0.027 J0.0451
N9685 X2.0546 Y1.2685 I-0.0248 J0.0353
N9690 X2.0553 Y1.2691 Z-0.0798 I-0.0272 J0.0335
N9695 G1 X2.0559 Y1.2689 Z-0.0784
N9700 G0 Z0.0794
N9705 X1.9164 Y1.2732
N9710 Z0.0036
N9715 G2 X1.9168 Y1.2734 Z0.0025 I0.0033 J-0.0066 F40
N9720 X1.9178 Y1.2738 Z0.002 I0.0029 J-0.0068
N9725 X1.9216 Y1.2594 Z0.0012 I0.0019 J-0.0072
N9730 X1.9178 Y1.2738 Z0.0004 I-0.0019 J0.0072
N9735 X1.9216 Y1.2594 Z-0.0004 I0.0019 J-0.0072
N9740 X1.9178 Y1.2738 Z-0.0013 I-0.0019 J0.0072
N9745 X1.9216 Y1.2594 Z-0.0021 I0.0019 J-0.0072
N9750 X1.9178 Y1.2738 Z-0.0029 I-0.0019 J0.0072
N9755 X1.9216 Y1.2594 Z-0.0037 I0.0019 J-0.0072
N9760 X1.9178 Y1.2738 Z-0.0045 I-0.0019 J0.0072
N9765 X1.9216 Y1.2594 Z-0.0053 I0.0019 J-0.0072
N9770 X1.9178 Y1.2738 Z-0.0061 I-0.0019 J0.0072
N9775 X1.9216 Y1.2594 Z-0.0069 I0.0019 J-0.0072
N9780 X1.9178 Y1.2738 Z-0.0078 I-0.0019 J0.0072
N9785 X1.9216 Y1.2594 Z-0.0086 I0.0019 J-0.0072
N9790 X1.9178 Y1.2738 Z-0.0094 I-0.0019 J0.0072
N9795 X1.9216 Y1.2594 Z-0.0102 I0.0019 J-0.0072
N9800 X1.9178 Y1.2738 Z-0.011 I-0.0019 J0.0072
N9805 X1.9216 Y1.2594 Z-0.0118 I0.0019 J-0.0072
N9810 X1.9178 Y1.2738 Z-0.0126 I-0.0019 J0.0072
N9815 X1.9216 Y1.2594 Z-0.0134 I0.0019 J-0.0072
N9820 X1.9178 Y1.2738 Z-0.0143 I-0.0019 J0.0072
N9825 X1.9216 Y1.2594 Z-0.0151 I0.0019 J-0.0072
N9830 X1.9178 Y1.2738 Z-0.0159 I-0.0019 J0.0072
N9835 X1.9216 Y1.2594 Z-0.0167 I0.0019 J-0.0072
N9840 X1.9178 Y1.2738 Z-0.0175 I-0.0019 J0.0072
N9845 X1.9216 Y1.2594 Z-0.0183 I0.0019 J-0.0072
N9850 X1.9178 Y1.2738 Z-0.0191 I-0.0019 J0.0072
N9855 X1.9216 Y1.2594 Z-0.0199 I0.0019 J-0.0072
N9860 X1.9178 Y1.2738 Z-0.0208 I-0.0019 J0.0072
N9865 X1.9216 Y1.2594 Z-0.0216 I0.0019 J-0.0072
N9870 X1.9178 Y1.2738 Z-0.0224 I-0.0019 J0.0072
N9875 X1.9216 Y1.2594 Z-0.0232 I0.0019 J-0.0072
N9880 X1.9178 Y1.2738 Z-0.024 I-0.0019 J0.0072
N9885 X1.9216 Y1.2594 Z-0.0248 I0.0019 J-0.0072
N9890 X1.9178 Y1.2738 Z-0.0256 I-0.0019 J0.0072
N9895 X1.9216 Y1.2594 Z-0.0265 I0.0019 J-0.0072
N9900 X1.9178 Y1.2738 Z-0.0273 I-0.0019 J0.0072
N9905 X1.9216 Y1.2594 Z-0.0281 I0.0019 J-0.0072
N9910 X1.9178 Y1.2738 Z-0.0289 I-0.0019 J0.0072
N9915 X1.9216 Y1.2594 Z-0.0297 I0.0019 J-0.0072
N9920 X1.9178 Y1.2738 Z-0.0305 I-0.0019 J0.0072
N9925 X1.9216 Y1.2594 Z-0.0313 I0.0019 J-0.0072
N9930 X1.9178 Y1.2738 Z-0.0321 I-0.0019 J0.0072
N9935 X1.9216 Y1.2594 Z-0.033 I0.0019 J-0.0072
N9940 X1.9178 Y1.2738 Z-0.0338 I-0.0019 J0.0072
N9945 X1.9216 Y1.2594 Z-0.0346 I0.0019 J-0.0072
N9950 X1.9178 Y1.2738 Z-0.0354 I-0.0019 J0.0072
N9955 X1.9216 Y1.2594 Z-0.0362 I0.0019 J-0.0072
N9960 X1.9178 Y1.2738 Z-0.037 I-0.0019 J0.0072
N9965 X1.9216 Y1.2594 Z-0.0378 I0.0019 J-0.0072
N9970 X1.9178 Y1.2738 Z-0.0386 I-0.0019 J0.0072
N9975 X1.9216 Y1.2594 Z-0.0395 I0.0019 J-0.0072
N9980 X1.9178 Y1.2738 Z-0.0403 I-0.0019 J0.0072
N9985 X1.9216 Y1.2594 Z-0.0411 I0.0019 J-0.0072
N9990 X1.9178 Y1.2738 Z-0.0419 I-0.0019 J0.0072
N9995 X1.9216 Y1.2594 Z-0.0427 I0.0019 J-0.0072
N10000 X1.9178 Y1.2738 Z-0.0435 I-0.0019 J0.0072
N10005 X1.9216 Y1.2594 Z-0.0443 I0.0019 J-0.0072
N10010 X1.9178 Y1.2738 Z-0.0451 I-0.0019 J0.0072
N10015 X1.9216 Y1.2594 Z-0.046 I0.0019 J-0.0072
N10020 X1.9178 Y1.2738 Z-0.0468 I-0.0019 J0.0072
N10025 X1.9216 Y1.2594 Z-0.0476 I0.0019 J-0.0072
N10030 X1.9178 Y1.2738 Z-0.0484 I-0.0019 J0.0072
N10035 X1.9216 Y1.2594 Z-0.0492 I0.0019 J-0.0072
N10040 X1.9178 Y1.2738 Z-0.05 I-0.0019 J0.0072
N10045 X1.9216 Y1.2594 Z-0.0508 I0.0019 J-0.0072
N10050 X1.9178 Y1.2738 Z-0.0517 I-0.0019 J0.0072
N10055 X1.9216 Y1.2594 Z-0.0525 I0.0019 J-0.0072
N10060 X1.9178 Y1.2738 Z-0.0533 I-0.0019 J0.0072
N10065 X1.9216 Y1.2594 Z-0.0541 I0.0019 J-0.0072
N10070 X1.9178 Y1.2738 Z-0.0549 I-0.0019 J0.0072
N10075 X1.9216 Y1.2594 Z-0.0557 I0.0019 J-0.0072
N10080 X1.9178 Y1.2738 Z-0.0565 I-0.0019 J0.0072
N10085 X1.9216 Y1.2594 Z-0.0573 I0.0019 J-0.0072
N10090 X1.9178 Y1.2738 Z-0.0582 I-0.0019 J0.0072
N10095 X1.9216 Y1.2594 Z-0.059 I0.0019 J-0.0072
N10100 X1.9178 Y1.2738 Z-0.0598 I-0.0019 J0.0072
N10105 X1.9216 Y1.2594 Z-0.0606 I0.0019 J-0.0072
N10110 X1.9178 Y1.2738 Z-0.0614 I-0.0019 J0.0072
N10115 X1.9216 Y1.2594 Z-0.0622 I0.0019 J-0.0072
N10120 X1.9178 Y1.2738 Z-0.063 I-0.0019 J0.0072
N10125 X1.9216 Y1.2594 Z-0.0638 I0.0019 J-0.0072
N10130 X1.9178 Y1.2738 Z-0.0647 I-0.0019 J0.0072
N10135 X1.9216 Y1.2594 Z-0.0655 I0.0019 J-0.0072
N10140 X1.9178 Y1.2738 Z-0.0663 I-0.0019 J0.0072
N10145 X1.9216 Y1.2594 Z-0.0671 I0.0019 J-0.0072
N10150 X1.9178 Y1.2738 Z-0.0679 I-0.0019 J0.0072
N10155 X1.9216 Y1.2594 Z-0.0687 I0.0019 J-0.0072
N10160 X1.9178 Y1.2738 Z-0.0695 I-0.0019 J0.0072
N10165 X1.9216 Y1.2594 Z-0.0704 I0.0019 J-0.0072
N10170 X1.9178 Y1.2738 Z-0.0712 I-0.0019 J0.0072
N10175 X1.9216 Y1.2594 Z-0.072 I0.0019 J-0.0072
N10180 X1.9178 Y1.2738 Z-0.0728 I-0.0019 J0.0072
N10185 X1.9216 Y1.2594 Z-0.0736 I0.0019 J-0.0072
N10190 X1.9178 Y1.2738 Z-0.0744 I-0.0019 J0.0072
N10195 X1.9216 Y1.2594 Z-0.0752 I0.0019 J-0.0072
N10200 X1.9178 Y1.2738 Z-0.076 I-0.0019 J0.0072
N10205 X1.9216 Y1.2594 Z-0.0769 I0.0019 J-0.0072
N10210 X1.9178 Y1.2738 Z-0.0777 I-0.0019 J0.0072
N10215 X1.9216 Y1.2594 Z-0.0785 I0.0019 J-0.0072
N10220 X1.9178 Y1.2738 Z-0.0793 I-0.0019 J0.0072
N10225 X1.9243 Y1.2608 Z-0.08 I0.0019 J-0.0072
N10230 G3 X1.9239 Y1.2605 I0.0245 J-0.0314
N10235 G1 X1.9225 Y1.2593
N10240 G3 X1.9173 Y1.2544 I0.0248 J-0.0311
N10245 G1 Y1.2742
N10250 G3 X1.9295 Y1.2642 I0.0307 J0.0253
N10255 X1.9243 Y1.2608 I0.0192 J-0.0349
N10260 G2 X1.9232 Y1.2604 Z-0.0795 I-0.001 J0.0012
N10265 X1.9228 Y1.2605 Z-0.0784 I0.0001 J0.0016
N10270 G0 Z0.0794
N10275 X1.7347 Y1.2657
N10280 Z0.0036
N10285 G2 X1.7348 Y1.2662 Z0.0025 I0.0073 J-0.0015 F40
N10290 X1.7352 Y1.2672 Z0.002 I0.0072 J-0.0019
N10295 X1.7488 Y1.2613 Z0.0012 I0.0068 J-0.0029
N10300 X1.7352 Y1.2672 Z0.0004 I-0.0068 J0.0029
N10305 X1.7488 Y1.2613 Z-0.0004 I0.0068 J-0.0029
N10310 X1.7352 Y1.2672 Z-0.0013 I-0.0068 J0.0029
N10315 X1.7488 Y1.2613 Z-0.0021 I0.0068 J-0.0029
N10320 X1.7352 Y1.2672 Z-0.0029 I-0.0068 J0.0029
N10325 X1.7488 Y1.2613 Z-0.0037 I0.0068 J-0.0029
N10330 X1.7352 Y1.2672 Z-0.0045 I-0.0068 J0.0029
N10335 X1.7488 Y1.2613 Z-0.0053 I0.0068 J-0.0029
N10340 X1.7352 Y1.2672 Z-0.0061 I-0.0068 J0.0029
N10345 X1.7488 Y1.2613 Z-0.0069 I0.0068 J-0.0029
N10350 X1.7352 Y1.2672 Z-0.0078 I-0.0068 J0.0029
N10355 X1.7488 Y1.2613 Z-0.0086 I0.0068 J-0.0029
N10360 X1.7352 Y1.2672 Z-0.0094 I-0.0068 J0.0029
N10365 X1.7488 Y1.2613 Z-0.0102 I0.0068 J-0.0029
N10370 X1.7352 Y1.2672 Z-0.011 I-0.0068 J0.0029
N10375 X1.7488 Y1.2613 Z-0.0118 I0.0068 J-0.0029
N10380 X1.7352 Y1.2672 Z-0.0126 I-0.0068 J0.0029
N10385 X1.7488 Y1.2613 Z-0.0134 I0.0068 J-0.0029
N10390 X1.7352 Y1.2672 Z-0.0143 I-0.0068 J0.0029
N10395 X1.7488 Y1.2613 Z-0.0151 I0.0068 J-0.0029
N10400 X1.7352 Y1.2672 Z-0.0159 I-0.0068 J0.0029
N10405 X1.7488 Y1.2613 Z-0.0167 I0.0068 J-0.0029
N10410 X1.7352 Y1.2672 Z-0.0175 I-0.0068 J0.0029
N10415 X1.7488 Y1.2613 Z-0.0183 I0.0068 J-0.0029
N10420 X1.7352 Y1.2672 Z-0.0191 I-0.0068 J0.0029
N10425 X1.7488 Y1.2613 Z-0.0199 I0.0068 J-0.0029
N10430 X1.7352 Y1.2672 Z-0.0208 I-0.0068 J0.0029
N10435 X1.7488 Y1.2613 Z-0.0216 I0.0068 J-0.0029
N10440 X1.7352 Y1.2672 Z-0.0224 I-0.0068 J0.0029
N10445 X1.7488 Y1.2613 Z-0.0232 I0.0068 J-0.0029
N10450 X1.7352 Y1.2672 Z-0.024 I-0.0068 J0.0029
N10455 X1.7488 Y1.2613 Z-0.0248 I0.0068 J-0.0029
N10460 X1.7352 Y1.2672 Z-0.0256 I-0.0068 J0.0029
N10465 X1.7488 Y1.2613 Z-0.0265 I0.0068 J-0.0029
N10470 X1.7352 Y1.2672 Z-0.0273 I-0.0068 J0.0029
N10475 X1.7488 Y1.2613 Z-0.0281 I0.0068 J-0.0029
N10480 X1.7352 Y1.2672 Z-0.0289 I-0.0068 J0.0029
N10485 X1.7488 Y1.2613 Z-0.0297 I0.0068 J-0.0029
N10490 X1.7352 Y1.2672 Z-0.0305 I-0.0068 J0.0029
N10495 X1.7488 Y1.2613 Z-0.0313 I0.0068 J-0.0029
N10500 X1.7352 Y1.2672 Z-0.0321 I-0.0068 J0.0029
N10505 X1.7488 Y1.2613 Z-0.033 I0.0068 J-0.0029
N10510 X1.7352 Y1.2672 Z-0.0338 I-0.0068 J0.0029
N10515 X1.7488 Y1.2613 Z-0.0346 I0.0068 J-0.0029
N10520 X1.7352 Y1.2672 Z-0.0354 I-0.0068 J0.0029
N10525 X1.7488 Y1.2613 Z-0.0362 I0.0068 J-0.0029
N10530 X1.7352 Y1.2672 Z-0.037 I-0.0068 J0.0029
N10535 X1.7488 Y1.2613 Z-0.0378 I0.0068 J-0.0029
N10540 X1.7352 Y1.2672 Z-0.0386 I-0.0068 J0.0029
N10545 X1.7488 Y1.2613 Z-0.0395 I0.0068 J-0.0029
N10550 X1.7352 Y1.2672 Z-0.0403 I-0.0068 J0.0029
N10555 X1.7488 Y1.2613 Z-0.0411 I0.0068 J-0.0029
N10560 X1.7352 Y1.2672 Z-0.0419 I-0.0068 J0.0029
N10565 X1.7488 Y1.2613 Z-0.0427 I0.0068 J-0.0029
N10570 X1.7352 Y1.2672 Z-0.0435 I-0.0068 J0.0029
N10575 X1.7488 Y1.2613 Z-0.0443 I0.0068 J-0.0029
N10580 X1.7352 Y1.2672 Z-0.0451 I-0.0068 J0.0029
N10585 X1.7488 Y1.2613 Z-0.046 I0.0068 J-0.0029
N10590 X1.7352 Y1.2672 Z-0.0468 I-0.0068 J0.0029
N10595 X1.7488 Y1.2613 Z-0.0476 I0.0068 J-0.0029
N10600 X1.7352 Y1.2672 Z-0.0484 I-0.0068 J0.0029
N10605 X1.7488 Y1.2613 Z-0.0492 I0.0068 J-0.0029
N10610 X1.7352 Y1.2672 Z-0.05 I-0.0068 J0.0029
N10615 X1.7488 Y1.2613 Z-0.0508 I0.0068 J-0.0029
N10620 X1.7352 Y1.2672 Z-0.0517 I-0.0068 J0.0029
N10625 X1.7488 Y1.2613 Z-0.0525 I0.0068 J-0.0029
N10630 X1.7352 Y1.2672 Z-0.0533 I-0.0068 J0.0029
N10635 X1.7488 Y1.2613 Z-0.0541 I0.0068 J-0.0029
N10640 X1.7352 Y1.2672 Z-0.0549 I-0.0068 J0.0029
N10645 X1.7488 Y1.2613 Z-0.0557 I0.0068 J-0.0029
N10650 X1.7352 Y1.2672 Z-0.0565 I-0.0068 J0.0029
N10655 X1.7488 Y1.2613 Z-0.0573 I0.0068 J-0.0029
N10660 X1.7352 Y1.2672 Z-0.0582 I-0.0068 J0.0029
N10665 X1.7488 Y1.2613 Z-0.059 I0.0068 J-0.0029
N10670 X1.7352 Y1.2672 Z-0.0598 I-0.0068 J0.0029
N10675 X1.7488 Y1.2613 Z-0.0606 I0.0068 J-0.0029
N10680 X1.7352 Y1.2672 Z-0.0614 I-0.0068 J0.0029
N10685 X1.7488 Y1.2613 Z-0.0622 I0.0068 J-0.0029
N10690 X1.7352 Y1.2672 Z-0.063 I-0.0068 J0.0029
N10695 X1.7488 Y1.2613 Z-0.0638 I0.0068 J-0.0029
N10700 X1.7352 Y1.2672 Z-0.0647 I-0.0068 J0.0029
N10705 X1.7488 Y1.2613 Z-0.0655 I0.0068 J-0.0029
N10710 X1.7352 Y1.2672 Z-0.0663 I-0.0068 J0.0029
N10715 X1.7488 Y1.2613 Z-0.0671 I0.0068 J-0.0029
N10720 X1.7352 Y1.2672 Z-0.0679 I-0.0068 J0.0029
N10725 X1.7488 Y1.2613 Z-0.0687 I0.0068 J-0.0029
N10730 X1.7352 Y1.2672 Z-0.0695 I-0.0068 J0.0029
N10735 X1.7488 Y1.2613 Z-0.0704 I0.0068 J-0.0029
N10740 X1.7352 Y1.2672 Z-0.0712 I-0.0068 J0.0029
N10745 X1.7488 Y1.2613 Z-0.072 I0.0068 J-0.0029
N10750 X1.7352 Y1.2672 Z-0.0728 I-0.0068 J0.0029
N10755 X1.7488 Y1.2613 Z-0.0736 I0.0068 J-0.0029
N10760 X1.7352 Y1.2672 Z-0.0744 I-0.0068 J0.0029
N10765 X1.7488 Y1.2613 Z-0.0752 I0.0068 J-0.0029
N10770 X1.7352 Y1.2672 Z-0.076 I-0.0068 J0.0029
N10775 X1.7488 Y1.2613 Z-0.0769 I0.0068 J-0.0029
N10780 X1.7352 Y1.2672 Z-0.0777 I-0.0068 J0.0029
N10785 X1.7488 Y1.2613 Z-0.0785 I0.0068 J-0.0029
N10790 X1.7352 Y1.2672 Z-0.0793 I-0.0068 J0.0029
N10795 X1.7494 Y1.2642 Z-0.08 I0.0068 J-0.0029
N10800 G1 Y1.2542
N10805 G3 X1.7372 Y1.2641 I-0.0308 J-0.0252
N10810 X1.7423 Y1.2675 I-0.0193 J0.0348
N10815 G1 X1.7438 Y1.2687
N10820 G3 X1.7494 Y1.2739 I-0.0244 J0.0315
N10825 G1 Y1.2642
N10830 G2 X1.749 Y1.2632 Z-0.0795 I-0.0016
N10835 X1.7487 Y1.2629 Z-0.0784 I-0.0012 J0.001
N10840 G0 Z0.0794
N10845 X1.6109 Y1.2706
N10850 Z0.0036
N10855 G2 X1.6113 Y1.2707 Z0.0025 I0.0029 J-0.0068 F40
N10860 X1.6124 Y1.271 Z0.002 I0.0024 J-0.007
N10865 X1.6152 Y1.2565 Z0.0012 I0.0014 J-0.0073
N10870 X1.6124 Y1.271 Z0.0004 I-0.0014 J0.0073
N10875 X1.6152 Y1.2565 Z-0.0004 I0.0014 J-0.0073
N10880 X1.6124 Y1.271 Z-0.0013 I-0.0014 J0.0073
N10885 X1.6152 Y1.2565 Z-0.0021 I0.0014 J-0.0073
N10890 X1.6124 Y1.271 Z-0.0029 I-0.0014 J0.0073
N10895 X1.6152 Y1.2565 Z-0.0037 I0.0014 J-0.0073
N10900 X1.6124 Y1.271 Z-0.0045 I-0.0014 J0.0073
N10905 X1.6152 Y1.2565 Z-0.0053 I0.0014 J-0.0073
N10910 X1.6124 Y1.271 Z-0.0061 I-0.0014 J0.0073
N10915 X1.6152 Y1.2565 Z-0.0069 I0.0014 J-0.0073
N10920 X1.6124 Y1.271 Z-0.0078 I-0.0014 J0.0073
N10925 X1.6152 Y1.2565 Z-0.0086 I0.0014 J-0.0073
N10930 X1.6124 Y1.271 Z-0.0094 I-0.0014 J0.0073
N10935 X1.6152 Y1.2565 Z-0.0102 I0.0014 J-0.0073
N10940 X1.6124 Y1.271 Z-0.011 I-0.0014 J0.0073
N10945 X1.6152 Y1.2565 Z-0.0118 I0.0014 J-0.0073
N10950 X1.6124 Y1.271 Z-0.0126 I-0.0014 J0.0073
N10955 X1.6152 Y1.2565 Z-0.0134 I0.0014 J-0.0073
N10960 X1.6124 Y1.271 Z-0.0143 I-0.0014 J0.0073
N10965 X1.6152 Y1.2565 Z-0.0151 I0.0014 J-0.0073
N10970 X1.6124 Y1.271 Z-0.0159 I-0.0014 J0.0073
N10975 X1.6152 Y1.2565 Z-0.0167 I0.0014 J-0.0073
N10980 X1.6124 Y1.271 Z-0.0175 I-0.0014 J0.0073
N10985 X1.6152 Y1.2565 Z-0.0183 I0.0014 J-0.0073
N10990 X1.6124 Y1.271 Z-0.0191 I-0.0014 J0.0073
N10995 X1.6152 Y1.2565 Z-0.0199 I0.0014 J-0.0073
N11000 X1.6124 Y1.271 Z-0.0208 I-0.0014 J0.0073
N11005 X1.6152 Y1.2565 Z-0.0216 I0.0014 J-0.0073
N11010 X1.6124 Y1.271 Z-0.0224 I-0.0014 J0.0073
N11015 X1.6152 Y1.2565 Z-0.0232 I0.0014 J-0.0073
N11020 X1.6124 Y1.271 Z-0.024 I-0.0014 J0.0073
N11025 X1.6152 Y1.2565 Z-0.0248 I0.0014 J-0.0073
N11030 X1.6124 Y1.271 Z-0.0256 I-0.0014 J0.0073
N11035 X1.6152 Y1.2565 Z-0.0265 I0.0014 J-0.0073
N11040 X1.6124 Y1.271 Z-0.0273 I-0.0014 J0.0073
N11045 X1.6152 Y1.2565 Z-0.0281 I0.0014 J-0.0073
N11050 X1.6124 Y1.271 Z-0.0289 I-0.0014 J0.0073
N11055 X1.6152 Y1.2565 Z-0.0297 I0.0014 J-0.0073
N11060 X1.6124 Y1.271 Z-0.0305 I-0.0014 J0.0073
N11065 X1.6152 Y1.2565 Z-0.0313 I0.0014 J-0.0073
N11070 X1.6124 Y1.271 Z-0.0321 I-0.0014 J0.0073
N11075 X1.6152 Y1.2565 Z-0.033 I0.0014 J-0.0073
N11080 X1.6124 Y1.271 Z-0.0338 I-0.0014 J0.0073
N11085 X1.6152 Y1.2565 Z-0.0346 I0.0014 J-0.0073
N11090 X1.6124 Y1.271 Z-0.0354 I-0.0014 J0.0073
N11095 X1.6152 Y1.2565 Z-0.0362 I0.0014 J-0.0073
N11100 X1.6124 Y1.271 Z-0.037 I-0.0014 J0.0073
N11105 X1.6152 Y1.2565 Z-0.0378 I0.0014 J-0.0073
N11110 X1.6124 Y1.271 Z-0.0386 I-0.0014 J0.0073
N11115 X1.6152 Y1.2565 Z-0.0395 I0.0014 J-0.0073
N11120 X1.6124 Y1.271 Z-0.0403 I-0.0014 J0.0073
N11125 X1.6152 Y1.2565 Z-0.0411 I0.0014 J-0.0073
N11130 X1.6124 Y1.271 Z-0.0419 I-0.0014 J0.0073
N11135 X1.6152 Y1.2565 Z-0.0427 I0.0014 J-0.0073
N11140 X1.6124 Y1.271 Z-0.0435 I-0.0014 J0.0073
N11145 X1.6152 Y1.2565 Z-0.0443 I0.0014 J-0.0073
N11150 X1.6124 Y1.271 Z-0.0451 I-0.0014 J0.0073
N11155 X1.6152 Y1.2565 Z-0.046 I0.0014 J-0.0073
N11160 X1.6124 Y1.271 Z-0.0468 I-0.0014 J0.0073
N11165 X1.6152 Y1.2565 Z-0.0476 I0.0014 J-0.0073
N11170 X1.6124 Y1.271 Z-0.0484 I-0.0014 J0.0073
N11175 X1.6152 Y1.2565 Z-0.0492 I0.0014 J-0.0073
N11180 X1.6124 Y1.271 Z-0.05 I-0.0014 J0.0073
N11185 X1.6152 Y1.2565 Z-0.0508 I0.0014 J-0.0073
N11190 X1.6124 Y1.271 Z-0.0517 I-0.0014 J0.0073
N11195 X1.6152 Y1.2565 Z-0.0525 I0.0014 J-0.0073
N11200 X1.6124 Y1.271 Z-0.0533 I-0.0014 J0.0073
N11205 X1.6152 Y1.2565 Z-0.0541 I0.0014 J-0.0073
N11210 X1.6124 Y1.271 Z-0.0549 I-0.0014 J0.0073
N11215 X1.6152 Y1.2565 Z-0.0557 I0.0014 J-0.0073
N11220 X1.6124 Y1.271 Z-0.0565 I-0.0014 J0.0073
N11225 X1.6152 Y1.2565 Z-0.0573 I0.0014 J-0.0073
N11230 X1.6124 Y1.271 Z-0.0582 I-0.0014 J0.0073
N11235 X1.6152 Y1.2565 Z-0.059 I0.0014 J-0.0073
N11240 X1.6124 Y1.271 Z-0.0598 I-0.0014 J0.0073
N11245 X1.6152 Y1.2565 Z-0.0606 I0.0014 J-0.0073
N11250 X1.6124 Y1.271 Z-0.0614 I-0.0014 J0.0073
N11255 X1.6152 Y1.2565 Z-0.0622 I0.0014 J-0.0073
N11260 X1.6124 Y1.271 Z-0.063 I-0.0014 J0.0073
N11265 X1.6152 Y1.2565 Z-0.0638 I0.0014 J-0.0073
N11270 X1.6124 Y1.271 Z-0.0647 I-0.0014 J0.0073
N11275 X1.6152 Y1.2565 Z-0.0655 I0.0014 J-0.0073
N11280 X1.6124 Y1.271 Z-0.0663 I-0.0014 J0.0073
N11285 X1.6152 Y1.2565 Z-0.0671 I0.0014 J-0.0073
N11290 X1.6124 Y1.271 Z-0.0679 I-0.0014 J0.0073
N11295 X1.6152 Y1.2565 Z-0.0687 I0.0014 J-0.0073
N11300 X1.6124 Y1.271 Z-0.0695 I-0.0014 J0.0073
N11305 X1.6152 Y1.2565 Z-0.0704 I0.0014 J-0.0073
N11310 X1.6124 Y1.271 Z-0.0712 I-0.0014 J0.0073
N11315 X1.6152 Y1.2565 Z-0.072 I0.0014 J-0.0073
N11320 X1.6124 Y1.271 Z-0.0728 I-0.0014 J0.0073
N11325 X1.6152 Y1.2565 Z-0.0736 I0.0014 J-0.0073
N11330 X1.6124 Y1.271 Z-0.0744 I-0.0014 J0.0073
N11335 X1.6152 Y1.2565 Z-0.0752 I0.0014 J-0.0073
N11340 X1.6124 Y1.271 Z-0.076 I-0.0014 J0.0073
N11345 X1.6152 Y1.2565 Z-0.0769 I0.0014 J-0.0073
N11350 X1.6124 Y1.271 Z-0.0777 I-0.0014 J0.0073
N11355 X1.6152 Y1.2565 Z-0.0785 I0.0014 J-0.0073
N11360 X1.6124 Y1.271 Z-0.0793 I-0.0014 J0.0073
N11365 X1.618 Y1.2576 Z-0.08 I0.0014 J-0.0073
N11370 G3 X1.6088 Y1.2489 I0.0224 J-0.0327
N11375 G1 X1.6053 Y1.2442
N11380 Y1.2841
N11385 X1.6066 Y1.2822
N11390 G3 X1.6161 Y1.2724 I0.0328 J0.0223
N11395 G1 X1.6218 Y1.2682
N11400 G3 X1.6289 Y1.2642 I0.0232 J0.0321
N11405 X1.6261 Y1.2626 I0.0176 J-0.0355
N11410 G1 X1.62 Y1.2589
N11415 G3 X1.618 Y1.2576 I0.0204 J-0.034
N11420 G2 X1.6159 Y1.2595 I-0.0008 J0.0012
N11425 G3 X1.6138 Y1.2614 I-0.0012 J0.0007
N11430 X1.6113 Y1.2594 I0.0252 J-0.0348
N11435 G1 X1.6107 Y1.2597
N11440 Y1.269
N11445 X1.6112 Y1.2692
N11450 G3 X1.6144 Y1.2669 I0.0425 J0.0534
N11455 G2 X1.6176 Y1.2646 I-0.2092 J-0.296
N11460 G1 X1.6175 Y1.2638
N11465 G3 X1.6143 Y1.2617 I0.0277 J-0.0461
N11470 X1.6138 Y1.2614 I0.0247 J-0.0352
N11475 G2 X1.6128 Y1.2611 Z-0.0795 I-0.0009 J0.0013
N11480 X1.6123 Y1.2612 Z-0.0784 I0.0001 J0.0016
N11485 G0 Z0.0794
N11490 X1.5958 Y1.0292
N11495 Z0.0036
N11500 G2 X1.5956 Y1.0296 Z0.0025 I0.0063 J0.0039 F40
N11505 X1.5951 Y1.0306 Z0.002 I0.0065 J0.0036
N11510 X1.609 Y1.0358 Z0.0012 I0.0069 J0.0026
N11515 X1.5951 Y1.0306 Z0.0004 I-0.0069 J-0.0026
N11520 X1.609 Y1.0358 Z-0.0004 I0.0069 J0.0026
N11525 X1.5951 Y1.0306 Z-0.0013 I-0.0069 J-0.0026
N11530 X1.609 Y1.0358 Z-0.0021 I0.0069 J0.0026
N11535 X1.5951 Y1.0306 Z-0.0029 I-0.0069 J-0.0026
N11540 X1.609 Y1.0358 Z-0.0037 I0.0069 J0.0026
N11545 X1.5951 Y1.0306 Z-0.0045 I-0.0069 J-0.0026
N11550 X1.609 Y1.0358 Z-0.0053 I0.0069 J0.0026
N11555 X1.5951 Y1.0306 Z-0.0061 I-0.0069 J-0.0026
N11560 X1.609 Y1.0358 Z-0.0069 I0.0069 J0.0026
N11565 X1.5951 Y1.0306 Z-0.0078 I-0.0069 J-0.0026
N11570 X1.609 Y1.0358 Z-0.0086 I0.0069 J0.0026
N11575 X1.5951 Y1.0306 Z-0.0094 I-0.0069 J-0.0026
N11580 X1.609 Y1.0358 Z-0.0102 I0.0069 J0.0026
N11585 X1.5951 Y1.0306 Z-0.011 I-0.0069 J-0.0026
N11590 X1.609 Y1.0358 Z-0.0118 I0.0069 J0.0026
N11595 X1.5951 Y1.0306 Z-0.0126 I-0.0069 J-0.0026
N11600 X1.609 Y1.0358 Z-0.0134 I0.0069 J0.0026
N11605 X1.5951 Y1.0306 Z-0.0143 I-0.0069 J-0.0026
N11610 X1.609 Y1.0358 Z-0.0151 I0.0069 J0.0026
N11615 X1.5951 Y1.0306 Z-0.0159 I-0.0069 J-0.0026
N11620 X1.609 Y1.0358 Z-0.0167 I0.0069 J0.0026
N11625 X1.5951 Y1.0306 Z-0.0175 I-0.0069 J-0.0026
N11630 X1.609 Y1.0358 Z-0.0183 I0.0069 J0.0026
N11635 X1.5951 Y1.0306 Z-0.0191 I-0.0069 J-0.0026
N11640 X1.609 Y1.0358 Z-0.0199 I0.0069 J0.0026
N11645 X1.5951 Y1.0306 Z-0.0208 I-0.0069 J-0.0026
N11650 X1.609 Y1.0358 Z-0.0216 I0.0069 J0.0026
N11655 X1.5951 Y1.0306 Z-0.0224 I-0.0069 J-0.0026
N11660 X1.609 Y1.0358 Z-0.0232 I0.0069 J0.0026
N11665 X1.5951 Y1.0306 Z-0.024 I-0.0069 J-0.0026
N11670 X1.609 Y1.0358 Z-0.0248 I0.0069 J0.0026
N11675 X1.5951 Y1.0306 Z-0.0256 I-0.0069 J-0.0026
N11680 X1.609 Y1.0358 Z-0.0265 I0.0069 J0.0026
N11685 X1.5951 Y1.0306 Z-0.0273 I-0.0069 J-0.0026
N11690 X1.609 Y1.0358 Z-0.0281 I0.0069 J0.0026
N11695 X1.5951 Y1.0306 Z-0.0289 I-0.0069 J-0.0026
N11700 X1.609 Y1.0358 Z-0.0297 I0.0069 J0.0026
N11705 X1.5951 Y1.0306 Z-0.0305 I-0.0069 J-0.0026
N11710 X1.609 Y1.0358 Z-0.0313 I0.0069 J0.0026
N11715 X1.5951 Y1.0306 Z-0.0321 I-0.0069 J-0.0026
N11720 X1.609 Y1.0358 Z-0.033 I0.0069 J0.0026
N11725 X1.5951 Y1.0306 Z-0.0338 I-0.0069 J-0.0026
N11730 X1.609 Y1.0358 Z-0.0346 I0.0069 J0.0026
N11735 X1.5951 Y1.0306 Z-0.0354 I-0.0069 J-0.0026
N11740 X1.609 Y1.0358 Z-0.0362 I0.0069 J0.0026
N11745 X1.5951 Y1.0306 Z-0.037 I-0.0069 J-0.0026
N11750 X1.609 Y1.0358 Z-0.0378 I0.0069 J0.0026
N11755 X1.5951 Y1.0306 Z-0.0386 I-0.0069 J-0.0026
N11760 X1.609 Y1.0358 Z-0.0395 I0.0069 J0.0026
N11765 X1.5951 Y1.0306 Z-0.0403 I-0.0069 J-0.0026
N11770 X1.609 Y1.0358 Z-0.0411 I0.0069 J0.0026
N11775 X1.5951 Y1.0306 Z-0.0419 I-0.0069 J-0.0026
N11780 X1.609 Y1.0358 Z-0.0427 I0.0069 J0.0026
N11785 X1.5951 Y1.0306 Z-0.0435 I-0.0069 J-0.0026
N11790 X1.609 Y1.0358 Z-0.0443 I0.0069 J0.0026
N11795 X1.5951 Y1.0306 Z-0.0451 I-0.0069 J-0.0026
N11800 X1.609 Y1.0358 Z-0.046 I0.0069 J0.0026
N11805 X1.5951 Y1.0306 Z-0.0468 I-0.0069 J-0.0026
N11810 X1.609 Y1.0358 Z-0.0476 I0.0069 J0.0026
N11815 X1.5951 Y1.0306 Z-0.0484 I-0.0069 J-0.0026
N11820 X1.609 Y1.0358 Z-0.0492 I0.0069 J0.0026
N11825 X1.5951 Y1.0306 Z-0.05 I-0.0069 J-0.0026
N11830 X1.609 Y1.0358 Z-0.0508 I0.0069 J0.0026
N11835 X1.5951 Y1.0306 Z-0.0517 I-0.0069 J-0.0026
N11840 X1.609 Y1.0358 Z-0.0525 I0.0069 J0.0026
N11845 X1.5951 Y1.0306 Z-0.0533 I-0.0069 J-0.0026
N11850 X1.609 Y1.0358 Z-0.0541 I0.0069 J0.0026
N11855 X1.5951 Y1.0306 Z-0.0549 I-0.0069 J-0.0026
N11860 X1.609 Y1.0358 Z-0.0557 I0.0069 J0.0026
N11865 X1.5951 Y1.0306 Z-0.0565 I-0.0069 J-0.0026
N11870 X1.609 Y1.0358 Z-0.0573 I0.0069 J0.0026
N11875 X1.5951 Y1.0306 Z-0.0582 I-0.0069 J-0.0026
N11880 X1.609 Y1.0358 Z-0.059 I0.0069 J0.0026
N11885 X1.5951 Y1.0306 Z-0.0598 I-0.0069 J-0.0026
N11890 X1.609 Y1.0358 Z-0.0606 I0.0069 J0.0026
N11895 X1.5951 Y1.0306 Z-0.0614 I-0.0069 J-0.0026
N11900 X1.609 Y1.0358 Z-0.0622 I0.0069 J0.0026
N11905 X1.5951 Y1.0306 Z-0.063 I-0.0069 J-0.0026
N11910 X1.609 Y1.0358 Z-0.0638 I0.0069 J0.0026
N11915 X1.5951 Y1.0306 Z-0.0647 I-0.0069 J-0.0026
N11920 X1.609 Y1.0358 Z-0.0655 I0.0069 J0.0026
N11925 X1.5951 Y1.0306 Z-0.0663 I-0.0069 J-0.0026
N11930 X1.609 Y1.0358 Z-0.0671 I0.0069 J0.0026
N11935 X1.5951 Y1.0306 Z-0.0679 I-0.0069 J-0.0026
N11940 X1.609 Y1.0358 Z-0.0687 I0.0069 J0.0026
N11945 X1.5951 Y1.0306 Z-0.0695 I-0.0069 J-0.0026
N11950 X1.609 Y1.0358 Z-0.0704 I0.0069 J0.0026
N11955 X1.5951 Y1.0306 Z-0.0712 I-0.0069 J-0.0026
